src/colors/vibrant_&_colorful/color_pop.cube
TITLE "Generated by Resolve"
LUT_3D_SIZE 9
0 0 0
0.253056 0 0
0.415488 0 0
0.487236 0 0
0.46833 0.0101778 0.0101778
0.580865 0.013962 0.013962
0.697047 0.0167391 0.0167544
0.81323 0.0195315 0.0195468
0.929397 0.0223239 0.0223392
0 0.173083 0
0.138903 0.138903 0
0.355779 0.110643 0
0.489021 0.104005 0
0.532982 0.121233 0
0.591058 0.137514 0.024155
0.70724 0.140307 0.0269474
0.823423 0.143099 0.0297246
0.93959 0.145892 0.032517
0 0.31339 0
0.0518349 0.296956 0
0.26952 0.26952 0
0.442634 0.250111 0
0.540108 0.249317 0
0.601251 0.261097 0.0343481
0.717433 0.26389 0.0371252
0.833616 0.266682 0.0399176
0.949783 0.269474 0.04271
0 0.42089 0
0.0392767 0.424292 0
0.217746 0.410254 0
0.391821 0.391821 0
0.519234 0.381979 0
0.611444 0.38468 0.0445411
0.727626 0.387472 0.0473182
0.843809 0.390265 0.0501106
0.959976 0.393042 0.052903
0.0374762 0.495613 0.0374762
0.107454 0.519203 0
0.231952 0.522728 0
0.377386 0.514641 0
0.505791 0.505791 0.0476539
0.621637 0.508247 0.0547189
0.737819 0.51104 0.0575113
0.854002 0.513832 0.0603037
0.970169 0.516625 0.0630961
0.0509651 0.617884 0.0509651
0.167132 0.620661 0.0537575
0.283299 0.623453 0.0565499
0.399481 0.626245 0.0593423
0.515663 0.629038 0.0621347
0.63183 0.63183 0.0649119
0.748012 0.634623 0.0677043
0.864195 0.637415 0.0704967
0.980362 0.640208 0.0732891
0.0611582 0.741451 0.0611582
0.177325 0.744244 0.0639506
0.293492 0.747036 0.066743
0.409674 0.749828 0.0695354
0.525856 0.752621 0.0723125
0.642023 0.755413 0.0751049
0.758206 0.758206 0.0778973
0.874388 0.760998 0.0806897
0.990555 0.76379 0.0834821
0.0713512 0.865034 0.0713512
0.187518 0.867826 0.0741436
0.303685 0.870619 0.076936
0.419867 0.873411 0.0797284
0.536049 0.876204 0.0825055
0.652216 0.878996 0.0852979
0.768399 0.881788 0.0880903
0.884581 0.884565 0.0908827
1 0.887358 0.0936751
0.0815442 0.988617 0.0815442
0.197711 0.991409 0.0843366
0.313878 0.994202 0.087129
0.43006 0.996979 0.0899062
0.546242 0.999771 0.0926986
0.662409 1 0.095491
0.778592 1 0.0982834
0.894774 1 0.101076
1 1 0.103868
0 0 0.273304
0.239139 0 0.239139
0.428916 0 0.18378
0.528328 0 0.143313
0.536751 0 0.125017
0.579507 0.0125887 0.125963
0.695674 0.0153811 0.128756
0.811856 0.0181735 0.131548
0.928038 0.0209659 0.13434
0 0.159152 0.159152
0.124987 0.124987 0.124987
0.378073 0.0908064 0.0908217
0.54049 0.081117 0.081117
0.612222 0.0959029 0.0959029
0.593301 0.13518 0.13518
0.705867 0.138949 0.138949
0.822049 0.141726 0.141741
0.938231 0.144518 0.144533
0 0.311299 0.0661784
0.0108339 0.298085 0.0108339
0.263905 0.263905 0
0.480766 0.235645 0
0.614023 0.229007 0.0365148
0.657969 0.246235 0.108995
0.71606 0.262516 0.149142
0.832242 0.265309 0.151934
0.948425 0.268101 0.154726
0 0.431235 0.0462196
0 0.438392 0
0.176852 0.421958 0
0.394522 0.394522 0
0.56762 0.375128 0
0.665095 0.374319 0.0835584
0.726253 0.386099 0.159335
0.842435 0.388891 0.162127
0.958618 0.391684 0.16492
0 0.518395 0.106645
0.029572 0.545892 0.029572
0.164294 0.549294 0
0.342763 0.535256 0
0.516823 0.516808 0.000488289
0.644221 0.506981 0.0952621
0.736446 0.509682 0.169528
0.852628 0.512474 0.17232
0.968811 0.515267 0.175113
0.0495918 0.61651 0.162966
0.162478 0.6206 0.162478
0.232471 0.644205 0.0952316
0.356954 0.64773 0.0661784
0.502388 0.639643 0.0906691
0.630793 0.630793 0.172671
0.746639 0.633249 0.179721
0.862821 0.636042 0.182513
0.979004 0.638834 0.18529
0.0597848 0.740093 0.173159
0.175952 0.742885 0.175952
0.292134 0.745678 0.178744
0.408301 0.748455 0.181537
0.524483 0.751247 0.184329
0.640665 0.75404 0.187121
0.756832 0.756832 0.189914
0.873014 0.759625 0.192691
0.989197 0.762417 0.195483
0.0699779 0.863661 0.183352
0.186145 0.866453 0.186145
0.302327 0.869245 0.188937
0.418494 0.872038 0.19173
0.534676 0.87483 0.194522
0.650858 0.877623 0.197314
0.767025 0.880415 0.200107
0.883207 0.883207 0.202884
0.99939 0.886 0.205676
0.0801709 0.987243 0.193545
0.196338 0.990036 0.196338
0.31252 0.992828 0.19913
0.428687 0.995621 0.201923
0.544869 0.998413 0.204715
0.661051 1 0.207507
0.777218 1 0.210285
0.8934 1 0.213077
1 1 0.215869
0 0 0.439826
0.198123 0 0.443244
0.395956 0 0.395956
0.521248 0 0.32874
0.558145 0 0.267353
0.578134 0.0112154 0.23798
0.694316 0.0140078 0.240772
0.810498 0.0168002 0.243565
0.926665 0.0195926 0.246357
0 0.139315 0.384436
0.11107 0.11107 0.398322
0.364141 0.0768902 0.364141
0.553918 0.0636759 0.308797
0.65333 0.0758221 0.26833
0.661738 0.112779 0.250019
0.704509 0.137575 0.250965
0.820676 0.140368 0.253758
0.936858 0.14316 0.25655
0 0.293858 0.293858
0 0.284169 0.284153
0.249989 0.249989 0.249989
0.503075 0.215808 0.215824
0.665492 0.206119 0.206119
0.737224 0.220905 0.220905
0.718303 0.260182 0.260182
0.830869 0.263951 0.263951
0.947051 0.266728 0.266743
0 0.424155 0.231647
0 0.436301 0.19118
0.135836 0.423087 0.135836
0.388907 0.388907 0.101656
0.605768 0.360647 0.115541
0.739025 0.354009 0.161517
0.782971 0.371237 0.233997
0.841062 0.387518 0.274144
0.957244 0.390311 0.276936
0 0.5234 0.232624
0 0.556237 0.171237
0.104021 0.563394 0.104021
0.301854 0.54696 0.056733
0.519524 0.519524 0.0601663
0.692622 0.50013 0.115114
0.790097 0.499321 0.20856
0.851255 0.511101 0.284337
0.967437 0.513893 0.287129
0.0482338 0.615137 0.274983
0.0944228 0.643381 0.231662
0.154574 0.670893 0.154574
0.289296 0.674296 0.096788
0.467765 0.660258 0.0827649
0.641825 0.64181 0.12549
0.769223 0.631983 0.220264
0.861448 0.634684 0.29453
0.97763 0.637476 0.297322
0.0584268 0.73872 0.285176
0.174578 0.741512 0.287968
0.28748 0.745602 0.28748
0.357473 0.769207 0.220233
0.481956 0.772732 0.19118
0.62739 0.764645 0.215671
0.755795 0.755795 0.297673
0.871641 0.758251 0.304723
0.987823 0.761044 0.307515
0.0686198 0.862303 0.295369
0.184771 0.865095 0.298161
0.300954 0.867887 0.300954
0.417136 0.87068 0.303746
0.533303 0.873457 0.306538
0.649485 0.876249 0.309331
0.765667 0.879042 0.312123
0.881834 0.881834 0.314916
0.998016 0.884627 0.317693
0.0787976 0.985885 0.305562
0.194965 0.988663 0.308354
0.311147 0.991455 0.311147
0.427329 0.994247 0.313939
0.543496 0.99704 0.316732
0.659678 0.999832 0.319524
0.77586 1 0.322316
0.892027 1 0.325109
1 1 0.327886
0 0 0.499504
0.157214 0 0.542229
0.335698 0 0.528206
0.47042 0 0.47042
0.530587 0 0.393332
0.576761 0.00985733 0.349996
0.692943 0.0126497 0.352789
0.809125 0.0154269 0.355581
0.925307 0.0182193 0.358373
0 0.124849 0.509865
0.105455 0.105455 0.564813
0.323125 0.0780194 0.568246
0.520958 0.0615854 0.520958
0.64625 0.0687419 0.453742
0.683131 0.101579 0.392355
0.703136 0.136202 0.362982
0.819318 0.138994 0.365774
0.935485 0.141787 0.368566
0 0.27097 0.463478
0.0192111 0.264332 0.509438
0.236072 0.236072 0.523323
0.489143 0.201892 0.489143
0.67892 0.188678 0.433799
0.778332 0.200824 0.393332
0.78674 0.237781 0.375021
0.829511 0.262577 0.375967
0.945678 0.26537 0.378759
0 0.404074 0.404074
0 0.41886 0.41886
0.121904 0.409171 0.409155
0.37499 0.37499 0.37499
0.628077 0.34081 0.340825
0.790494 0.331121 0.331121
0.862226 0.345907 0.345907
0.843305 0.385183 0.385183
0.955871 0.388952 0.388952
0 0.512215 0.37496
0 0.549157 0.356649
0.0710613 0.561303 0.316182
0.260838 0.548089 0.260838
0.513909 0.513909 0.226658
0.73077 0.485649 0.240543
0.864027 0.479011 0.286519
0.907973 0.496239 0.358999
0.966064 0.51252 0.399145
0.0468605 0.613779 0.386999
0.0668498 0.648402 0.357626
0.103731 0.681239 0.296239
0.229023 0.688396 0.229023
0.426856 0.671962 0.181735
0.644526 0.644526 0.185168
0.817624 0.625132 0.240116
0.915099 0.624323 0.333562
0.976257 0.636103 0.409339
0.0570535 0.737346 0.397192
0.17322 0.740139 0.399985
0.219425 0.768383 0.356664
0.279576 0.795895 0.279576
0.414298 0.799298 0.22179
0.592767 0.78526 0.207767
0.766827 0.766812 0.250492
0.894224 0.756985 0.345266
0.98645 0.759686 0.419532
0.0672465 0.860929 0.407385
0.183413 0.863722 0.410178
0.29958 0.866514 0.41297
0.412482 0.870604 0.412482
0.482475 0.894209 0.345235
0.606958 0.897734 0.316182
0.752392 0.889647 0.340673
0.880796 0.880796 0.422675
0.996643 0.883253 0.429725
0.0774395 0.984512 0.417578
0.193606 0.987305 0.420371
0.309773 0.990097 0.423163
0.425956 0.992889 0.425956
0.542138 0.995682 0.428748
0.658305 0.998459 0.43154
0.774487 1 0.434333
0.890669 1 0.437125
1 1 0.439918
0 0 0.452338
0.122591 0 0.534325
0.268025 0 0.558816
0.392523 0 0.529778
0.462516 0.00437934 0.462516
0.575402 0.00848402 0.462013
0.691585 0.0112764 0.464805
0.807752 0.0140688 0.467597
0.923934 0.0168612 0.47039
0 0.117998 0.529732
0.108156 0.108171 0.624491
0.282216 0.0897231 0.667216
0.460685 0.0756847 0.653193
0.595407 0.0790875 0.595407
0.655558 0.1066 0.518318
0.701762 0.134844 0.474998
0.817945 0.137636 0.477791
0.934127 0.140429 0.480583
0 0.25066 0.541436
0.0573587 0.249851 0.634867
0.230457 0.230457 0.689815
0.448127 0.203021 0.693248
0.64596 0.186587 0.64596
0.771252 0.193744 0.578744
0.808133 0.226581 0.517357
0.828138 0.261204 0.487984
0.94432 0.263996 0.490776
0 0.378744 0.515999
0.010956 0.395972 0.588464
0.144213 0.389334 0.63444
0.361074 0.361074 0.648325
0.614145 0.326894 0.614145
0.803922 0.31368 0.558801
0.903334 0.325826 0.518334
0.911742 0.362783 0.500023
0.954513 0.387579 0.500969
0.0316625 0.489815 0.489815
0.0127565 0.529076 0.529076
0.0844892 0.543862 0.543862
0.246906 0.534173 0.534173
0.499992 0.499992 0.499992
0.753079 0.465812 0.465812
0.915496 0.456123 0.456123
0.987228 0.470909 0.470909
0.968307 0.510185 0.510185
0.0454871 0.612406 0.499016
0.0882429 0.637201 0.499962
0.0966506 0.674159 0.481651
0.196063 0.686305 0.441184
0.38584 0.673091 0.38584
0.638911 0.638911 0.351659
0.855772 0.610651 0.365545
0.989029 0.604013 0.411521
1 0.621241 0.484001
0.0556802 0.735988 0.509209
0.171847 0.738781 0.512001
0.191852 0.773404 0.482628
0.228733 0.806241 0.421241
0.354025 0.813397 0.354025
0.551858 0.796963 0.306737
0.769528 0.769528 0.31017
0.942626 0.750134 0.365118
1 0.749325 0.458564
0.0658732 0.859571 0.519402
0.18204 0.862348 0.522194
0.298222 0.865141 0.524987
0.344427 0.893385 0.481666
0.404578 0.920897 0.404578
0.5393 0.9243 0.346792
0.717769 0.910262 0.332769
0.891829 0.891814 0.375494
1 0.881987 0.470268
0.0760662 0.983139 0.529595
0.192233 0.985931 0.532387
0.308415 0.988724 0.53518
0.424582 0.991516 0.537972
0.537484 0.995605 0.537484
0.607477 1 0.470237
0.73196 1 0.441199
0.877394 1 0.465675
1 1 0.547677
0 0 0.560082
0.109316 0 0.56286
0.225498 0 0.565652
0.34168 0.00154116 0.568444
0.457847 0.0043183 0.571237
0.574029 0.0071107 0.574029
0.690211 0.0099031 0.576822
0.806394 0.0126955 0.579614
0.92256 0.0154879 0.582406
0.00335698 0.116732 0.57026
0.119188 0.119188 0.57731
0.247593 0.110338 0.659312
0.393027 0.102251 0.683803
0.51751 0.105776 0.654749
0.587503 0.129381 0.587503
0.700404 0.133471 0.587015
0.816571 0.136263 0.589807
0.932754 0.139055 0.592599
0.01355 0.240299 0.580453
0.10576 0.243 0.654719
0.233158 0.233173 0.749493
0.407218 0.214725 0.792218
0.585687 0.200687 0.778195
0.720409 0.204089 0.720409
0.78056 0.231601 0.64332
0.826764 0.259846 0.6
0.942946 0.262638 0.602792
0.023743 0.363882 0.590646
0.0848859 0.375662 0.666423
0.182361 0.374853 0.759869
0.355459 0.355459 0.814817
0.573129 0.328023 0.81825
0.770962 0.311589 0.770962
0.896254 0.318746 0.703746
0.933135 0.351583 0.642359
0.95314 0.386206 0.612985
0.0339361 0.487465 0.600839
0.0920119 0.503746 0.640986
0.135958 0.520974 0.713466
0.269215 0.514336 0.759441
0.486076 0.486076 0.773327
0.739147 0.451896 0.739147
0.928923 0.438682 0.683803
1 0.450828 0.643336
1 0.487785 0.625025
0.0441291 0.611032 0.611032
0.15668 0.614801 0.614801
0.137758 0.654078 0.654078
0.209491 0.668864 0.668864
0.371908 0.659175 0.659159
0.624994 0.624994 0.624994
0.87808 0.590814 0.590829
1 0.581125 0.581125
1 0.595911 0.595911
0.0543221 0.734615 0.621225
0.170474 0.737408 0.624018
0.213245 0.762203 0.624964
0.221653 0.799161 0.606653
0.321065 0.811307 0.566186
0.510842 0.798093 0.510842
0.763912 0.763912 0.476661
0.980774 0.735653 0.490547
1 0.729015 0.536522
0.0645151 0.858198 0.631418
0.180667 0.86099 0.634211
0.296849 0.863783 0.637003
0.316854 0.898405 0.60763
0.353735 0.931243 0.546242
0.479026 0.938399 0.479026
0.67686 0.921965 0.431739
0.89453 0.89453 0.435172
1 0.875135 0.49012
0.0747082 0.981781 0.641611
0.19086 0.984558 0.644404
0.307042 0.98735 0.647196
0.423224 0.990143 0.649989
0.469429 1 0.606668
0.52958 1 0.52958
0.664302 1 0.471794
0.842771 1 0.457771
1 1 0.500496
0 0 0.672099
0.107958 0 0.674891
0.224125 0 0.677684
0.340307 0.000167849 0.680461
0.456489 0.00296025 0.683253
0.572656 0.00575265 0.686046
0.688838 0.00854505 0.688838
0.80502 0.0113375 0.69163
0.921202 0.0141299 0.694423
0.00198367 0.115358 0.682292
0.118151 0.118151 0.685069
0.234318 0.120943 0.687861
0.3505 0.123735 0.690654
0.466682 0.126528 0.693446
0.582849 0.129305 0.696239
0.699031 0.132097 0.699031
0.815213 0.13489 0.701823
0.93138 0.137682 0.704616
0.0121767 0.238941 0.692485
0.128344 0.241733 0.695262
0.24419 0.24419 0.702312
0.372595 0.23534 0.784314
0.518029 0.227253 0.808804
0.642512 0.230777 0.779751
0.712505 0.254383 0.712505
0.825406 0.258473 0.712016
0.941573 0.261265 0.714809
0.0223697 0.362509 0.702663
0.138537 0.365301 0.705455
0.230762 0.368002 0.779721
0.35816 0.358175 0.874495
0.532219 0.339727 0.91722
0.710689 0.325689 0.903197
0.845411 0.329091 0.845411
0.905562 0.356603 0.768322
0.951766 0.384848 0.725002
0.0325628 0.486091 0.712856
0.14873 0.488884 0.715648
0.209888 0.500664 0.791424
0.307362 0.499855 0.884871
0.480461 0.480461 0.939818
0.698131 0.453025 0.943252
0.895964 0.436591 0.895964
1 0.443748 0.828748
1 0.476585 0.767361
0.0427558 0.609674 0.723049
0.158923 0.612467 0.725841
0.217014 0.628748 0.765988
0.26096 0.645975 0.838468
0.394217 0.639338 0.884443
0.611078 0.611078 0.898329
0.864149 0.576898 0.864149
1 0.563684 0.808804
1 0.57583 0.768338
0.0529488 0.733257 0.733242
0.169116 0.736034 0.736034
0.281682 0.739803 0.739803
0.26276 0.77908 0.77908
0.334493 0.793866 0.793866
0.49691 0.784176 0.784161
0.749996 0.749996 0.749996
1 0.715816 0.715831
1 0.706127 0.706127
0.0631418 0.856825 0.743435
0.179309 0.859617 0.746227
0.295476 0.862409 0.74902
0.338247 0.887205 0.749966
0.346654 0.924163 0.731655
0.446067 0.936309 0.691188
0.635843 0.923095 0.635843
0.888914 0.888914 0.601663
1 0.860655 0.615549
0.0733349 0.980407 0.753628
0.189502 0.9832 0.75642
0.305669 0.985992 0.759213
0.421851 0.988785 0.762005
0.441855 1 0.732631
0.478737 1 0.671244
0.604028 1 0.604028
0.801862 1 0.556741
1 1 0.560174
0 0 0.784115
0.106584 0 0.786908
0.222766 0 0.7897
0.338933 0 0.792493
0.455116 0.00158694 0.79527
0.571298 0.00437934 0.798062
0.68748 0.00717174 0.800855
0.803647 0.00996414 0.803647
0.919829 0.0127565 0.806439
0.000610361 0.113985 0.794308
0.116777 0.116777 0.797101
0.232959 0.11957 0.799878
0.349126 0.122362 0.80267
0.465309 0.125154 0.805463
0.581491 0.127947 0.808255
0.697658 0.130739 0.811048
0.81384 0.133532 0.81384
0.930022 0.136324 0.816632
0.0108034 0.237568 0.804501
0.12697 0.24036 0.807279
0.243153 0.243153 0.810071
0.359319 0.245945 0.812863
0.475502 0.248737 0.815656
0.591684 0.25153 0.818448
0.707851 0.254307 0.821241
0.824033 0.257099 0.824033
0.940215 0.259892 0.826825
0.0209964 0.361151 0.814694
0.137163 0.363943 0.817472
0.253346 0.366735 0.820264
0.369192 0.369192 0.827314
0.497597 0.360342 0.909316
0.64303 0.352255 0.933806
0.767514 0.355779 0.904753
0.837507 0.379385 0.837507
0.950408 0.383474 0.837018
0.0311894 0.484718 0.824887
0.147356 0.487511 0.827665
0.263539 0.490303 0.830457
0.355764 0.493004 0.904723
0.483162 0.483177 0.999496
0.657221 0.464729 1
0.835691 0.45069 1
0.970413 0.454093 0.970413
1 0.481605 0.893324
0.0413825 0.608301 0.835065
0.157549 0.611093 0.837858
0.273732 0.613886 0.84065
0.33489 0.625666 0.916426
0.432364 0.624857 1
0.605463 0.605463 1
0.823133 0.578027 1
1 0.561593 1
1 0.56875 0.95375
0.0515755 0.731884 0.845258
0.167742 0.734676 0.848051
0.283925 0.737469 0.850843
0.342016 0.75375 0.89099
0.385962 0.770977 0.96347
0.519219 0.76434 1
0.73608 0.73608 1
0.989151 0.7019 0.989151
1 0.688685 0.933806
0.0617685 0.855467 0.855451
0.177935 0.858259 0.858244
0.294118 0.861036 0.861036
0.406683 0.864805 0.864805
0.387762 0.904082 0.904082
0.459495 0.918868 0.918868
0.621912 0.909178 0.909178
0.874998 0.874998 0.874998
1 0.840818 0.840833
0.0719615 0.979034 0.865644
0.188128 0.981826 0.868437
0.304311 0.984619 0.871229
0.420478 0.987411 0.874022
0.463249 1 0.874968
0.471656 1 0.856657
0.571069 1 0.81619
0.760845 1 0.760845
1 1 0.726665
0 0 0.896132
0.105211 0 0.898924
0.221393 0 0.901717
0.337575 0 0.904509
0.453742 0.000228885 0.907301
0.569924 0.00300603 0.910094
0.686107 0.00579843 0.912871
0.802289 0.00859083 0.915663
0.918456 0.0113832 0.918456
0 0.112627 0.906325
0.115404 0.115419 0.909117
0.231586 0.118196 0.91191
0.347768 0.120989 0.914702
0.463935 0.123781 0.917479
0.580118 0.126574 0.920272
0.6963 0.129366 0.923064
0.812467 0.132158 0.925856
0.928649 0.134951 0.928649
0.00944533 0.236194 0.916518
0.125597 0.238987 0.91931
0.241779 0.241779 0.922103
0.357961 0.244572 0.92488
0.474128 0.247364 0.927672
0.590311 0.250156 0.930465
0.706493 0.252949 0.933257
0.82266 0.255741 0.936049
0.938842 0.258534 0.938842
0.0196384 0.359777 0.926711
0.13579 0.36257 0.929503
0.251972 0.365362 0.93228
0.368154 0.368154 0.935073
0.484321 0.370947 0.937865
0.600504 0.373739 0.940658
0.716686 0.376532 0.94345
0.832853 0.379309 0.946242
0.949035 0.382101 0.949035
0.0298314 0.48336 0.936904
0.145983 0.486152 0.939696
0.262165 0.488945 0.942473
0.378347 0.491737 0.945266
0.494194 0.494194 0.952316
0.622599 0.485344 1
0.768032 0.477256 1
0.892515 0.480797 1
0.962509 0.504387 0.962509
0.0400244 0.606943 0.947097
0.156176 0.60972 0.949874
0.272358 0.612512 0.952667
0.38854 0.615305 0.955459
0.480766 0.618006 1
0.608164 0.608179 1
0.782223 0.589731 1
0.960693 0.575692 1
1 0.579095 1
0.0502174 0.73051 0.95729
0.166369 0.733303 0.960067
0.282551 0.736095 0.96286
0.398733 0.738888 0.965652
0.459892 0.750668 1
0.557366 0.749859 1
0.730465 0.730465 1
0.948135 0.703029 1
1 0.686595 1
0.0604105 0.854093 0.967483
0.176562 0.856886 0.97026
0.292744 0.859678 0.973053
0.408927 0.86247 0.975845
0.467018 0.878752 1
0.510964 0.895979 1
0.644221 0.889342 1
0.861082 0.861082 1
1 0.826902 1
0.0706035 0.977676 0.977661
0.186755 0.980468 0.980453
0.302937 0.983261 0.983246
0.41912 0.986038 0.986038
0.531685 0.989807 0.989807
0.512764 1 1
0.584497 1 1
0.746914 1 1
1 1 1
