src/colors/vibrant_&_colorful/color_pop.cube
TITLE "Generated by Resolve"
LUT_3D_SIZE 33
0 0 0
0.0717327 0 0
0.13785 0 0
0.198291 0 0
0.253056 0 0
0.302159 0 0
0.345647 0 0
0.383383 0 0
0.415488 0 0
0.441917 0 0
0.462623 0 0
0.477806 0 0
0.487236 0 0
0.491005 0 0
0.489113 0 0
0.481559 0 0
0.46833 0.0101778 0.0101778
0.493736 0.0118563 0.0118563
0.522789 0.0125582 0.0125582
0.551827 0.0132601 0.0132601
0.580865 0.013962 0.013962
0.609918 0.0146487 0.0146487
0.638956 0.0153506 0.0153506
0.668009 0.0160525 0.0160525
0.697047 0.0167391 0.0167544
0.726101 0.0174411 0.0174411
0.755138 0.018143 0.018143
0.784176 0.0188449 0.0188449
0.81323 0.0195315 0.0195468
0.842268 0.0202335 0.0202335
0.871321 0.0209354 0.0209354
0.900359 0.0216373 0.0216373
0.929397 0.0223239 0.0223392
0 0.0463264 0
0.0354925 0.0354925 0
0.104997 0.0250248 0
0.169284 0.0158999 0
0.227985 0.00828565 0
0.281041 0.00216678 0
0.32845 0 0
0.37023 0 0
0.406287 0 0
0.436713 0 0
0.461433 0 0
0.480552 0 0
0.49398 0.00216678 0
0.501732 0.00828565 0
0.503822 0.0159304 0
0.500252 0.0251011 0
0.490959 0.0358282 0.00549325
0.496284 0.0427405 0.0144045
0.525338 0.0434424 0.0151064
0.554376 0.0441444 0.0158083
0.583413 0.044831 0.0165103
0.612467 0.0455329 0.0171969
0.641505 0.0462348 0.0178988
0.670558 0.0469215 0.0186007
0.699596 0.0476234 0.0193027
0.728634 0.0483253 0.0199893
0.757687 0.0490272 0.0206912
0.786725 0.0497139 0.0213931
0.815778 0.0504158 0.0220798
0.844816 0.0511177 0.0227817
0.873869 0.0518196 0.0234836
0.902907 0.0525063 0.0241855
0.931945 0.0532082 0.0248722
0 0.0906233 0
0.0009308 0.0809033 0
0.0704814 0.0704814 0
0.137255 0.0605631 0
0.199298 0.0518196 0
0.256016 0.0444495 0
0.307225 0.0385443 0
0.352865 0.0341344 0
0.392828 0.0312505 0
0.427161 0.0298772 0
0.455848 0.0300298 0
0.478813 0.0317082 0
0.496284 0.0348821 0
0.508003 0.0396124 0
0.514061 0.0458686 0
0.514458 0.0536355 0
0.509194 0.0629435 0
0.498833 0.07364 0.0169528
0.527886 0.0743267 0.0176547
0.556924 0.0750286 0.0183566
0.585962 0.0757305 0.0190585
0.615015 0.0764324 0.0197452
0.644053 0.0771191 0.0204471
0.673106 0.077821 0.021149
0.702144 0.0785229 0.0218509
0.731182 0.0792248 0.0225376
0.760235 0.0799115 0.0232395
0.789273 0.0806134 0.0239414
0.818326 0.0813153 0.0246281
0.847364 0.082002 0.02533
0.876417 0.0827039 0.0260319
0.905455 0.0834058 0.0267338
0.934493 0.0841077 0.0274205
0 0.132876 0
0 0.124392 0
0.038117 0.114809 0
0.104952 0.104952 0
0.168872 0.0956436 0
0.228412 0.0873579 0
0.282887 0.080354 0
0.332067 0.0747387 0
0.375708 0.0705882 0
0.413809 0.0679179 0
0.446311 0.066743 0
0.473167 0.0670787 0
0.494484 0.0689097 0
0.510109 0.0722667 0
0.520088 0.0771344 0
0.524407 0.0835431 0
0.523079 0.0914626 0
0.516075 0.100923 0.0119783
0.530434 0.105226 0.0202029
0.559472 0.105928 0.0209049
0.58851 0.10663 0.0216068
0.617563 0.107317 0.0222934
0.646601 0.108019 0.0229953
0.675654 0.108721 0.0236973
0.704692 0.109422 0.0243992
0.73373 0.110109 0.0250858
0.762783 0.110811 0.0257877
0.791821 0.111513 0.0264897
0.820874 0.1122 0.0271763
0.849912 0.112902 0.0278782
0.878965 0.113603 0.0285801
0.908003 0.114305 0.0292821
0.937041 0.114992 0.0299687
0 0.173083 0
0 0.16585 0
0.00988785 0.157366 0
0.0749218 0.148165 0
0.138903 0.138903 0
0.199924 0.130205 0
0.256794 0.122454 0
0.308873 0.115892 0
0.355779 0.110643 0
0.39733 0.106798 0
0.433433 0.104402 0
0.463981 0.103471 0
0.489021 0.104005 0
0.508446 0.10605 0
0.52224 0.109606 0
0.530434 0.114656 0
0.532982 0.121233 0
0.529809 0.129335 0.00613413
0.532982 0.136126 0.0227512
0.56202 0.136828 0.0234531
0.591058 0.137514 0.024155
0.620111 0.138216 0.0248417
0.649149 0.138918 0.0255436
0.678203 0.139605 0.0262455
0.70724 0.140307 0.0269474
0.736278 0.141009 0.0276341
0.765332 0.141711 0.028336
0.794369 0.142397 0.0290379
0.823423 0.143099 0.0297246
0.852461 0.143801 0.0304265
0.881514 0.144503 0.0311284
0.910552 0.14519 0.0318303
0.93959 0.145892 0.032517
0 0.211231 0
0 0.20528 0
0 0.197986 0
0.048661 0.189715 0
0.111254 0.180972 0
0.172335 0.172335 0
0.230426 0.164263 0
0.284566 0.157061 0
0.334066 0.150988 0
0.378592 0.146166 0
0.417914 0.142687 0
0.451881 0.140612 0
0.480446 0.139956 0
0.503471 0.140764 0
0.520958 0.143038 0
0.532876 0.146822 0
0.539208 0.152087 0
0.539834 0.158877 0.000167849
0.535531 0.167025 0.0252995
0.564569 0.167712 0.0260014
0.593606 0.168414 0.0267033
0.62266 0.169116 0.0273899
0.651698 0.169802 0.0280919
0.680751 0.170504 0.0287938
0.709789 0.171206 0.0294957
0.738827 0.171908 0.0301823
0.76788 0.172595 0.0308843
0.796918 0.173297 0.0315862
0.825971 0.173999 0.0322728
0.855009 0.174701 0.0329747
0.884062 0.175387 0.0336767
0.9131 0.176089 0.0343786
0.942138 0.176791 0.0350652
0 0.247349 0
0 0.242649 0
0 0.236576 0
0.0268559 0.229389 0
0.087129 0.221469 0
0.147097 0.213275 0
0.205264 0.205249 0
0.26041 0.197803 0
0.311711 0.191196 0
0.358587 0.185641 0
0.400626 0.181277 0
0.437598 0.17821 0
0.469368 0.176486 0
0.495766 0.176165 0
0.516732 0.177264 0
0.532204 0.179828 0
0.542168 0.183841 0
0.546563 0.189349 0
0.545373 0.196353 0.0218509
0.567117 0.198611 0.0285496
0.596155 0.199313 0.0292515
0.625208 0.2 0.0299382
0.654246 0.200702 0.0306401
0.683299 0.201404 0.031342
0.712337 0.202106 0.0320439
0.741375 0.202792 0.0327306
0.770428 0.203494 0.0334325
0.799466 0.204196 0.0341344
0.828519 0.204883 0.0348211
0.857557 0.205585 0.035523
0.88661 0.206287 0.0362249
0.915648 0.206989 0.0369268
0.944686 0.207675 0.0376135
0 0.281392 0
0 0.277974 0
0 0.273167 0
0.00981155 0.267124 0
0.0671855 0.260166 0
0.125185 0.252674 0
0.182422 0.245045 0
0.237644 0.237644 0
0.28986 0.230823 0
0.338323 0.224811 0
0.382467 0.219791 0
0.421942 0.21593 0
0.456504 0.213306 0
0.485924 0.211978 0
0.510094 0.212024 0
0.528908 0.213458 0
0.54229 0.216327 0
0.55021 0.22063 0
0.552605 0.226413 0.0188449
0.569665 0.229511 0.0310979
0.598703 0.230198 0.0317998
0.627756 0.2309 0.0324865
0.656794 0.231601 0.0331884
0.685847 0.232303 0.0338903
0.714885 0.23299 0.0345769
0.743923 0.233692 0.0352789
0.772976 0.234394 0.0359808
0.802014 0.23508 0.0366827
0.831067 0.235782 0.0373693
0.860105 0.236484 0.0380713
0.889158 0.237186 0.0387732
0.918196 0.237873 0.0394751
0.947234 0.238575 0.0401617
0 0.31339 0
0 0.311254 0
0 0.307683 0
0 0.302846 0
0.0518349 0.296956 0
0.107271 0.290349 0
0.162814 0.28333 0
0.217243 0.27628 0
0.26952 0.26952 0
0.318791 0.263325 0
0.36437 0.257908 0
0.405753 0.253468 0
0.442634 0.250111 0
0.474662 0.247959 0
0.501671 0.247074 0
0.523522 0.247517 0
0.540108 0.249317 0
0.551324 0.252522 0
0.557122 0.257145 0.0171817
0.572213 0.260395 0.0336461
0.601251 0.261097 0.0343481
0.630304 0.261799 0.0350347
0.659342 0.262486 0.0357366
0.688396 0.263188 0.0364385
0.717433 0.26389 0.0371252
0.746471 0.264591 0.0378271
0.775525 0.265278 0.038529
0.804562 0.26598 0.0392309
0.833616 0.266682 0.0399176
0.862654 0.267384 0.0406195
0.891707 0.26807 0.0413214
0.920745 0.268772 0.0420233
0.949783 0.269474 0.04271
0 0.343328 0
0 0.342473 0
0 0.340169 0
0 0.336538 0
0.0412757 0.331792 0
0.0937514 0.326162 0
0.147005 0.319951 0
0.199954 0.313466 0
0.251545 0.306996 0
0.300877 0.300862 0
0.347189 0.295308 0
0.389853 0.290501 0
0.428504 0.286641 0
0.462669 0.283818 0
0.492119 0.28217 0
0.51667 0.281743 0
0.536126 0.282597 0
0.550408 0.284794 0
0.55938 0.288365 0.01738
0.574762 0.291295 0.0361944
0.6038 0.291997 0.0368963
0.632853 0.292683 0.037583
0.661891 0.293385 0.0382849
0.690944 0.294087 0.0389868
0.719982 0.294789 0.0396735
0.74902 0.295476 0.0403754
0.778073 0.296178 0.0410773
0.807111 0.29688 0.0417792
0.836164 0.297581 0.0424659
0.865202 0.298268 0.0431678
0.894255 0.29897 0.0438697
0.923293 0.299672 0.0445716
0.952331 0.300359 0.0452583
0 0.371206 0
0 0.371649 0
0 0.370611 0
0 0.368215 0
0.0356146 0.364645 0
0.0848554 0.360082 0
0.135424 0.354772 0
0.186328 0.349004 0
0.236606 0.343053 0
0.285328 0.337209 0
0.331701 0.331701 0
0.375067 0.326772 0
0.414862 0.322591 0
0.45066 0.319295 0
0.482109 0.317037 0
0.508934 0.315892 0
0.530938 0.315953 0
0.547967 0.317266 0
0.559853 0.319875 0.019913
0.57731 0.322194 0.0387427
0.606348 0.322881 0.0394446
0.635401 0.323583 0.0401312
0.664439 0.324285 0.0408331
0.693492 0.324987 0.0415351
0.72253 0.325673 0.0422217
0.751568 0.326375 0.0429236
0.780621 0.327077 0.0436255
0.809659 0.327764 0.0443275
0.838712 0.328466 0.0450141
0.86775 0.329168 0.045716
0.896803 0.32987 0.0464179
0.925841 0.330556 0.0471199
0.954879 0.331258 0.0478065
0 0.397086 0
0 0.398779 0
0 0.398978 0
0 0.397848 0
0.0349584 0.395468 0
0.0807507 0.39202 0
0.128328 0.387717 0
0.176791 0.382788 0
0.225223 0.377508 0
0.272755 0.372122 0
0.318593 0.366888 0
0.36202 0.36202 0
0.402426 0.357717 0
0.439307 0.354147 0
0.472267 0.351461 0
0.500954 0.349767 0
0.525124 0.349142 0
0.544549 0.349706 0
0.55906 0.351476 0.0252995
0.579858 0.353079 0.0412909
0.608896 0.35378 0.0419928
0.637949 0.354482 0.0426795
0.666987 0.355184 0.0433814
0.69604 0.355871 0.0440833
0.725078 0.356573 0.04477
0.754116 0.357275 0.0454719
0.783169 0.357961 0.0461738
0.812207 0.358663 0.0468757
0.84126 0.359365 0.0475624
0.870298 0.360067 0.0482643
0.899351 0.360754 0.0489662
0.928389 0.361456 0.0496681
0.957427 0.362158 0.0503548
0 0.42089 0
0 0.423865 0
0 0.425361 0
0 0.425467 0
0.0392767 0.424292 0
0.0815137 0.421988 0
0.125872 0.418753 0
0.171557 0.414755 0
0.217746 0.410254 0
0.26363 0.405493 0
0.3084 0.400671 0
0.351339 0.396048 0
0.391821 0.391821 0
0.429267 0.388144 0
0.463233 0.385199 0
0.493324 0.383108 0
0.519234 0.381979 0
0.540642 0.381918 0.000976577
0.557488 0.382971 0.0339666
0.582406 0.383978 0.0438392
0.611444 0.38468 0.0445411
0.640497 0.385367 0.0452277
0.669535 0.386069 0.0459297
0.698589 0.38677 0.0466316
0.727626 0.387472 0.0473182
0.756664 0.388159 0.0480201
0.785718 0.388861 0.0487221
0.814755 0.389563 0.049424
0.843809 0.390265 0.0501106
0.872847 0.390951 0.0508125
0.9019 0.391653 0.0515145
0.930938 0.392355 0.0522164
0.959976 0.393042 0.052903
0 0.442649 0
0 0.446891 0
0 0.449653 0
0.0131838 0.451011 0
0.0486763 0.451072 0
0.0872358 0.449958 0
0.128206 0.447807 0
0.170886 0.444831 0
0.214511 0.441215 0
0.258335 0.437171 0
0.301579 0.432929 0
0.343542 0.428702 0
0.383581 0.424689 0
0.421088 0.421088 0
0.455589 0.418051 0
0.486625 0.415732 0
0.513848 0.414237 0
0.536919 0.413687 0.0132296
0.555901 0.414176 0.0456855
0.584955 0.414878 0.0463874
0.613993 0.415564 0.0470893
0.643046 0.416266 0.047776
0.672084 0.416968 0.0484779
0.701137 0.41767 0.0491798
0.730175 0.418357 0.0498665
0.759213 0.419059 0.0505684
0.788266 0.41976 0.0512703
0.817304 0.420462 0.0519722
0.846357 0.421149 0.0526589
0.875395 0.421851 0.0533608
0.904448 0.422553 0.0540627
0.933486 0.423239 0.0547646
0.962524 0.423941 0.0554513
0 0.462348 0
0 0.467872 0
0.0037232 0.471916 0
0.0315862 0.474525 0
0.0631723 0.475822 0
0.0979782 0.475898 0
0.135439 0.474891 0
0.174899 0.472969 0
0.215702 0.470298 0
0.25713 0.467079 0
0.298466 0.463523 0
0.33904 0.459831 0
0.37818 0.456199 0
0.41529 0.452811 0
0.449851 0.449851 0
0.481376 0.44744 0
0.509483 0.445747 0
0.533822 0.444862 0.0297246
0.55845 0.445075 0.0482338
0.587503 0.445762 0.0489357
0.616541 0.446464 0.0496376
0.645594 0.447166 0.0503243
0.674632 0.447868 0.0510262
0.703685 0.448554 0.0517281
0.732723 0.449256 0.0524147
0.761761 0.449958 0.0531167
0.790814 0.450645 0.0538186
0.819852 0.451347 0.0545205
0.848905 0.452049 0.0552071
0.877943 0.45275 0.0559091
0.906996 0.453437 0.056611
0.936034 0.454139 0.0573129
0.965072 0.454841 0.0579995
0 0.480003 0
0.0116579 0.486809 0
0.0313115 0.492119 0
0.0551308 0.495995 0
0.0827649 0.498527 0
0.113756 0.499825 0
0.147585 0.499977 0
0.183703 0.499138 0
0.221469 0.49749 0
0.260258 0.495171 0
0.299367 0.492393 0
0.33817 0.489357 0
0.375998 0.486213 0
0.412299 0.483192 0
0.446479 0.480415 0
0.47808 0.47808 0
0.506645 0.47631 0.0211795
0.53196 0.475273 0.0500801
0.560998 0.475959 0.050782
0.590051 0.476661 0.0514839
0.619089 0.477363 0.0521706
0.648142 0.47805 0.0528725
0.67718 0.478752 0.0535744
0.706233 0.479454 0.0542763
0.735271 0.480156 0.054963
0.764309 0.480842 0.0556649
0.793362 0.481544 0.0563668
0.8224 0.482246 0.0570687
0.851453 0.482948 0.0577554
0.880491 0.483635 0.0584573
0.909545 0.484337 0.0591592
0.938582 0.485039 0.0598611
0.96762 0.48574 0.0605478
0.0374762 0.495613 0.0374762
0.0485389 0.50367 0.018204
0.0640269 0.510262 0.00030518
0.0838026 0.515419 0
0.107454 0.519203 0
0.134585 0.521706 0
0.164736 0.523049 0
0.197375 0.523339 0
0.231952 0.522728 0
0.267857 0.521385 0
0.304479 0.519478 0
0.341192 0.517159 0
0.377386 0.514641 0
0.412467 0.512078 0
0.445899 0.509636 0
0.47715 0.5075 0.0220188
0.505791 0.505791 0.0476539
0.534508 0.506157 0.0526284
0.563546 0.506859 0.0533303
0.592599 0.507561 0.0540322
0.621637 0.508247 0.0547189
0.65069 0.508949 0.0554208
0.679728 0.509651 0.0561227
0.708782 0.510353 0.0568246
0.737819 0.51104 0.0575113
0.766857 0.511742 0.0582132
0.795911 0.512444 0.0589151
0.824948 0.513146 0.059617
0.854002 0.513832 0.0603037
0.88304 0.514534 0.0610056
0.912093 0.515236 0.0617075
0.941131 0.515923 0.0624094
0.970169 0.516625 0.0630961
0.0433204 0.5252 0.0433204
0.072343 0.525887 0.044007
0.101396 0.526589 0.0447089
0.117632 0.532784 0.028687
0.137331 0.537804 0.0141146
0.160571 0.541527 0.0018616
0.186892 0.544091 0
0.215961 0.545541 0
0.247211 0.546029 0
0.280079 0.545693 0
0.313985 0.544686 0
0.348363 0.543206 0
0.38262 0.54136 0.00167849
0.416159 0.539376 0.0156863
0.448447 0.537408 0.0332952
0.478965 0.535653 0.0537881
0.508019 0.536355 0.05449
0.537057 0.537057 0.0551766
0.566094 0.537758 0.0558785
0.595148 0.538445 0.0565805
0.624186 0.539147 0.0572671
0.653239 0.539849 0.057969
0.682277 0.540551 0.0586709
0.71133 0.541238 0.0593729
0.740368 0.541939 0.0600595
0.769406 0.542641 0.0607614
0.798459 0.543343 0.0614633
0.827497 0.54403 0.0621653
0.85655 0.544732 0.0628519
0.885588 0.545434 0.0635538
0.914641 0.54612 0.0642557
0.943679 0.546822 0.0649577
0.972717 0.547524 0.0656443
0.0458686 0.556085 0.0458686
0.0748913 0.556786 0.0465553
0.103944 0.557488 0.0472572
0.132982 0.558175 0.0479591
0.162036 0.558877 0.048661
0.191073 0.559579 0.0493477
0.214099 0.563119 0.0395972
0.239536 0.565728 0.0319677
0.267353 0.56733 0.0273899
0.297032 0.568048 0.0260319
0.328038 0.568017 0.0280919
0.359838 0.567407 0.0336614
0.391852 0.566369 0.0428321
0.423423 0.565164 0.0549325
0.452476 0.56585 0.0556344
0.481514 0.566552 0.0563363
0.510567 0.567254 0.0570382
0.539605 0.567956 0.0577249
0.568643 0.568643 0.0584268
0.597696 0.569345 0.0591287
0.626734 0.570047 0.0598154
0.655787 0.570748 0.0605173
0.684825 0.571435 0.0612192
0.713878 0.572137 0.0619211
0.742916 0.572839 0.0626078
0.771954 0.573526 0.0633097
0.801007 0.574228 0.0640116
0.830045 0.574929 0.0647135
0.859098 0.575631 0.0654002
0.888136 0.576318 0.0661021
0.917189 0.57702 0.066804
0.946227 0.577722 0.0675059
0.975265 0.578424 0.0681926
0.0484169 0.586984 0.0484169
0.0774395 0.587686 0.0491035
0.106493 0.588373 0.0498054
0.135531 0.589075 0.0505074
0.164584 0.589776 0.0512093
0.193622 0.590478 0.0518959
0.22266 0.591165 0.0525978
0.251713 0.591867 0.0532998
0.280751 0.592569 0.0540017
0.309804 0.593256 0.0546883
0.338842 0.593957 0.0553902
0.367895 0.594659 0.0560922
0.396933 0.595361 0.0567941
0.425971 0.596048 0.0574807
0.455024 0.59675 0.0581826
0.484062 0.597452 0.0588846
0.513115 0.598154 0.0595865
0.542153 0.59884 0.0602731
0.571191 0.599542 0.0609751
0.600244 0.600244 0.061677
0.629282 0.600931 0.0623636
0.658335 0.601633 0.0630655
0.687373 0.602335 0.0637675
0.716426 0.603037 0.0644694
0.745464 0.603723 0.065156
0.774502 0.604425 0.0658579
0.803555 0.605127 0.0665599
0.832593 0.605829 0.0672618
0.861646 0.606516 0.0679484
0.890684 0.607217 0.0686503
0.919738 0.607919 0.0693523
0.948775 0.608621 0.0700542
0.977813 0.609308 0.0707408
0.0509651 0.617884 0.0509651
0.0799878 0.61857 0.0516518
0.109041 0.619272 0.0523537
0.138079 0.619974 0.0530556
0.167132 0.620661 0.0537575
0.19617 0.621363 0.0544442
0.225208 0.622065 0.0551461
0.254261 0.622766 0.055848
0.283299 0.623453 0.0565499
0.312352 0.624155 0.0572366
0.34139 0.624857 0.0579385
0.370443 0.625559 0.0586404
0.399481 0.626245 0.0593423
0.428519 0.626947 0.060029
0.457572 0.627649 0.0607309
0.48661 0.628351 0.0614328
0.515663 0.629038 0.0621347
0.544701 0.62974 0.0628214
0.573739 0.630442 0.0635233
0.602792 0.631128 0.0642252
0.63183 0.63183 0.0649119
0.660883 0.632532 0.0656138
0.689921 0.633234 0.0663157
0.718975 0.633921 0.0670176
0.748012 0.634623 0.0677043
0.77705 0.635325 0.0684062
0.806104 0.636027 0.0691081
0.835142 0.636713 0.06981
0.864195 0.637415 0.0704967
0.893233 0.638117 0.0711986
0.922271 0.638804 0.0719005
0.951324 0.639506 0.0726024
0.980362 0.640208 0.0732891
0.0535134 0.648768 0.0535134
0.082536 0.64947 0.0542
0.111589 0.650172 0.054902
0.140627 0.650858 0.0556039
0.16968 0.65156 0.0563058
0.198718 0.652262 0.0569924
0.227756 0.652964 0.0576944
0.256809 0.653651 0.0583963
0.285847 0.654353 0.0590982
0.3149 0.655055 0.0597848
0.343938 0.655756 0.0604868
0.372992 0.656443 0.0611887
0.402029 0.657145 0.0618906
0.431067 0.657847 0.0625772
0.460121 0.658534 0.0632792
0.489158 0.659236 0.0639811
0.518212 0.659937 0.0646677
0.54725 0.660639 0.0653697
0.576288 0.661326 0.0660716
0.605341 0.662028 0.0667735
0.634379 0.66273 0.0674601
0.663432 0.663432 0.0681621
0.69247 0.664118 0.068864
0.721523 0.66482 0.0695659
0.750561 0.665522 0.0702525
0.779599 0.666224 0.0709544
0.808652 0.666911 0.0716564
0.83769 0.667613 0.0723583
0.866743 0.668315 0.0730449
0.895781 0.669001 0.0737469
0.924819 0.669703 0.0744488
0.953872 0.670405 0.0751507
0.98291 0.671107 0.0758373
0.0560616 0.679667 0.0560616
0.0850843 0.680369 0.0567483
0.114137 0.681056 0.0574502
0.143175 0.681758 0.0581521
0.172229 0.68246 0.058854
0.201266 0.683162 0.0595407
0.230304 0.683848 0.0602426
0.259358 0.68455 0.0609445
0.288396 0.685252 0.0616464
0.317449 0.685954 0.0623331
0.346487 0.686641 0.063035
0.37554 0.687343 0.0637369
0.404578 0.688045 0.0644388
0.433616 0.688731 0.0651255
0.462669 0.689433 0.0658274
0.491707 0.690135 0.0665293
0.52076 0.690837 0.067216
0.549798 0.691524 0.0679179
0.578836 0.692226 0.0686198
0.607889 0.692927 0.0693217
0.636927 0.693629 0.0700084
0.66598 0.694316 0.0707103
0.695018 0.695018 0.0714122
0.724071 0.69572 0.0721141
0.753109 0.696406 0.0728008
0.782147 0.697108 0.0735027
0.8112 0.69781 0.0742046
0.840238 0.698512 0.0749065
0.869291 0.699199 0.0755932
0.898329 0.699901 0.0762951
0.927367 0.700603 0.076997
0.95642 0.701305 0.0776989
0.985458 0.701991 0.0783856
0.0586099 0.710567 0.0586099
0.0876326 0.711254 0.0592966
0.116686 0.711955 0.0599985
0.145724 0.712657 0.0607004
0.174777 0.713359 0.0614023
0.203815 0.714046 0.062089
0.232853 0.714748 0.0627909
0.261906 0.71545 0.0634928
0.290944 0.716136 0.0641947
0.319997 0.716838 0.0648814
0.349035 0.71754 0.0655833
0.378088 0.718242 0.0662852
0.407126 0.718929 0.0669871
0.436164 0.719631 0.0676738
0.465217 0.720333 0.0683757
0.494255 0.721035 0.0690776
0.523308 0.721721 0.0697642
0.552346 0.722423 0.0704662
0.581384 0.723125 0.0711681
0.610437 0.723812 0.07187
0.639475 0.724514 0.0725567
0.668528 0.725216 0.0732586
0.697566 0.725917 0.0739605
0.726619 0.726604 0.0746624
0.755657 0.727306 0.075349
0.784695 0.728008 0.076051
0.813748 0.72871 0.0767529
0.842786 0.729397 0.0774548
0.871839 0.730098 0.0781415
0.900877 0.7308 0.0788434
0.929915 0.731487 0.0795453
0.958968 0.732189 0.0802472
0.988006 0.732891 0.0809339
0.0611582 0.741451 0.0611582
0.0901808 0.742153 0.0618448
0.119234 0.742855 0.0625467
0.148272 0.743542 0.0632486
0.177325 0.744244 0.0639506
0.206363 0.744945 0.0646372
0.235401 0.745647 0.0653391
0.264454 0.746334 0.066041
0.293492 0.747036 0.066743
0.322545 0.747738 0.0674296
0.351583 0.74844 0.0681315
0.380636 0.749126 0.0688334
0.409674 0.749828 0.0695354
0.438712 0.75053 0.070222
0.467765 0.751232 0.0709239
0.496803 0.751919 0.0716259
0.525856 0.752621 0.0723125
0.554894 0.753323 0.0730144
0.583932 0.754009 0.0737163
0.612985 0.754711 0.0744182
0.642023 0.755413 0.0751049
0.671077 0.756115 0.0758068
0.700114 0.756802 0.0765087
0.729168 0.757504 0.0772106
0.758206 0.758206 0.0778973
0.787243 0.758907 0.0785992
0.816297 0.759594 0.0793011
0.845335 0.760296 0.0800031
0.874388 0.760998 0.0806897
0.903426 0.761685 0.0813916
0.932464 0.762387 0.0820935
0.961517 0.763088 0.0827955
0.990555 0.76379 0.0834821
0.0637064 0.772351 0.0637064
0.0927291 0.773053 0.0643931
0.121782 0.773739 0.065095
0.15082 0.774441 0.0657969
0.179873 0.775143 0.0664988
0.208911 0.775845 0.0671855
0.237949 0.776532 0.0678874
0.267002 0.777234 0.0685893
0.29604 0.777935 0.0692912
0.325093 0.778637 0.0699779
0.354131 0.779324 0.0706798
0.383185 0.780026 0.0713817
0.412222 0.780728 0.0720836
0.44126 0.781415 0.0727703
0.470314 0.782116 0.0734722
0.499352 0.782818 0.0741741
0.528405 0.78352 0.0748608
0.557443 0.784207 0.0755627
0.58648 0.784909 0.0762646
0.615534 0.785611 0.0769665
0.644572 0.786313 0.0776532
0.673625 0.786999 0.0783551
0.702663 0.787701 0.079057
0.731716 0.788403 0.0797589
0.760754 0.78909 0.0804456
0.789792 0.789792 0.0811475
0.818845 0.790494 0.0818494
0.847883 0.791196 0.0825513
0.876936 0.791882 0.083238
0.905974 0.792584 0.0839399
0.935012 0.793286 0.0846418
0.964065 0.793988 0.0853437
0.993103 0.794675 0.0860304
0.0662547 0.80325 0.0662547
0.0952773 0.803937 0.0669413
0.124331 0.804639 0.0676432
0.153368 0.805341 0.0683452
0.182422 0.806043 0.0690471
0.21146 0.806729 0.0697337
0.240497 0.807431 0.0704356
0.269551 0.808133 0.0711376
0.298589 0.808835 0.0718395
0.327642 0.809522 0.0725261
0.35668 0.810224 0.073228
0.385733 0.810925 0.07393
0.414771 0.811612 0.0746319
0.443809 0.812314 0.0753185
0.472862 0.813016 0.0760204
0.5019 0.813718 0.0767224
0.530953 0.814404 0.077409
0.559991 0.815106 0.0781109
0.589029 0.815808 0.0788128
0.618082 0.81651 0.0795148
0.64712 0.817197 0.0802014
0.676173 0.817899 0.0809033
0.705211 0.818601 0.0816052
0.734264 0.819287 0.0823072
0.763302 0.819989 0.0829938
0.79234 0.820691 0.0836957
0.821393 0.821393 0.0843977
0.850431 0.82208 0.0850996
0.879484 0.822782 0.0857862
0.908522 0.823484 0.0864881
0.93756 0.824186 0.0871901
0.966613 0.824872 0.0878767
0.995651 0.825574 0.0885786
0.0688029 0.834134 0.0688029
0.0978256 0.834836 0.0694896
0.126879 0.835538 0.0701915
0.155917 0.83624 0.0708934
0.18497 0.836927 0.0715953
0.214008 0.837629 0.072282
0.243046 0.838331 0.0729839
0.272099 0.839017 0.0736858
0.301137 0.839719 0.0743877
