src/colors/vibrant_&_colorful/color_pop.cube
TITLE "Generated by Resolve"
LUT_3D_SIZE 5
0 0 0
0.415488 0 0
0.46833 0.0101778 0.0101778
0.697047 0.0167391 0.0167544
0.929397 0.0223239 0.0223392
0 0.31339 0
0.26952 0.26952 0
0.540108 0.249317 0
0.717433 0.26389 0.0371252
0.949783 0.269474 0.04271
0.0374762 0.495613 0.0374762
0.231952 0.522728 0
0.505791 0.505791 0.0476539
0.737819 0.51104 0.0575113
0.970169 0.516625 0.0630961
0.0611582 0.741451 0.0611582
0.293492 0.747036 0.066743
0.525856 0.752621 0.0723125
0.758206 0.758206 0.0778973
0.990555 0.76379 0.0834821
0.0815442 0.988617 0.0815442
0.313878 0.994202 0.087129
0.546242 0.999771 0.0926986
0.778592 1 0.0982834
1 1 0.103868
0 0 0.439826
0.395956 0 0.395956
0.558145 0 0.267353
0.694316 0.0140078 0.240772
0.926665 0.0195926 0.246357
0 0.293858 0.293858
0.249989 0.249989 0.249989
0.665492 0.206119 0.206119
0.718303 0.260182 0.260182
0.947051 0.266728 0.266743
0 0.5234 0.232624
0.104021 0.563394 0.104021
0.519524 0.519524 0.0601663
0.790097 0.499321 0.20856
0.967437 0.513893 0.287129
0.0584268 0.73872 0.285176
0.28748 0.745602 0.28748
0.481956 0.772732 0.19118
0.755795 0.755795 0.297673
0.987823 0.761044 0.307515
0.0787976 0.985885 0.305562
0.311147 0.991455 0.311147
0.543496 0.99704 0.316732
0.77586 1 0.322316
1 1 0.327886
0 0 0.452338
0.268025 0 0.558816
0.462516 0.00437934 0.462516
0.691585 0.0112764 0.464805
0.923934 0.0168612 0.47039
0 0.25066 0.541436
0.230457 0.230457 0.689815
0.64596 0.186587 0.64596
0.808133 0.226581 0.517357
0.94432 0.263996 0.490776
0.0316625 0.489815 0.489815
0.0844892 0.543862 0.543862
0.499992 0.499992 0.499992
0.915496 0.456123 0.456123
0.968307 0.510185 0.510185
0.0556802 0.735988 0.509209
0.191852 0.773404 0.482628
0.354025 0.813397 0.354025
0.769528 0.769528 0.31017
1 0.749325 0.458564
0.0760662 0.983139 0.529595
0.308415 0.988724 0.53518
0.537484 0.995605 0.537484
0.73196 1 0.441199
1 1 0.547677
0 0 0.672099
0.224125 0 0.677684
0.456489 0.00296025 0.683253
0.688838 0.00854505 0.688838
0.921202 0.0141299 0.694423
0.0121767 0.238941 0.692485
0.24419 0.24419 0.702312
0.518029 0.227253 0.808804
0.712505 0.254383 0.712505
0.941573 0.261265 0.714809
0.0325628 0.486091 0.712856
0.209888 0.500664 0.791424
0.480461 0.480461 0.939818
0.895964 0.436591 0.895964
1 0.476585 0.767361
0.0529488 0.733257 0.733242
0.281682 0.739803 0.739803
0.334493 0.793866 0.793866
0.749996 0.749996 0.749996
1 0.706127 0.706127
0.0733349 0.980407 0.753628
0.305669 0.985992 0.759213
0.441855 1 0.732631
0.604028 1 0.604028
1 1 0.560174
0 0 0.896132
0.221393 0 0.901717
0.453742 0.000228885 0.907301
0.686107 0.00579843 0.912871
0.918456 0.0113832 0.918456
0.00944533 0.236194 0.916518
0.241779 0.241779 0.922103
0.474128 0.247364 0.927672
0.706493 0.252949 0.933257
0.938842 0.258534 0.938842
0.0298314 0.48336 0.936904
0.262165 0.488945 0.942473
0.494194 0.494194 0.952316
0.768032 0.477256 1
0.962509 0.504387 0.962509
0.0502174 0.73051 0.95729
0.282551 0.736095 0.96286
0.459892 0.750668 1
0.730465 0.730465 1
1 0.686595 1
0.0706035 0.977676 0.977661
0.302937 0.983261 0.983246
0.531685 0.989807 0.989807
0.584497 1 1
1 1 1
