src/colors/vibrant_&_colorful/photo_contrast.cube
TITLE "Generated by Resolve"
LUT_3D_SIZE 9
0 0 0
0.100298 0 0
0.226413 0 0
0.389181 0 0
0.582391 0 3.0518e-05
0.751614 0 3.0518e-05
0.87744 0 3.0518e-05
0.968048 0 3.0518e-05
1 0 6.10361e-05
0 0.0898604 0
0.0905623 0.08542 0
0.220493 0.0735027 0
0.384497 0.0485542 0
0.578958 0 3.0518e-05
0.74963 0 3.0518e-05
0.876295 0 3.0518e-05
0.967376 0 3.0518e-05
1 0 6.10361e-05
0 0.205661 0
0.0616617 0.202991 0
0.204913 0.196155 0
0.372442 0.183764 0
0.570001 0.164324 0
0.744366 0.135439 3.0518e-05
0.873335 0.0912032 3.0518e-05
0.965576 0.000915541 3.0518e-05
1 0 6.10361e-05
0 0.355291 0
0 0.353201 0
0.175204 0.347875 0
0.35024 0.33843 0
0.553307 0.324041 0
0.734646 0.304006 3.0518e-05
0.867887 0.277302 3.0518e-05
0.962341 0.242573 3.0518e-05
1 0.197467 4.57771e-05
0 0.538491 0
0 0.536828 0
0.123568 0.532616 0
0.315389 0.525032 0
0.526513 0.513481 0
0.719234 0.497368 0
0.859281 0.47631 3.0518e-05
0.957259 0.449454 3.0518e-05
1 0.416052 3.0518e-05
0 0.71223 0
0 0.711238 0
0.00390631 0.70869 0
0.264347 0.704128 0
0.48716 0.6972 0
0.696544 0.687465 0
0.84683 0.674479 0
0.949996 0.657618 3.0518e-05
1 0.636103 3.0518e-05
0 0.845975 0
0 0.845396 0
0 0.843931 0
0.190417 0.841337 0
0.433249 0.837354 0
0.664286 0.8318 0
0.829374 0.824399 0
0.940093 0.814893 0
1 0.802838 0
0 0.943038 0
0 0.942687 0
0 0.941833 0
0.0595712 0.940276 0
0.361105 0.937896 0
0.618952 0.934646 0
0.805386 0.930388 0
0.926879 0.924865 0
1 0.91809 0
0 1 0
0 1 0
0 1 0
0 1 0
0.263996 1 0
0.55494 1 0
0.772488 1 0
0.909453 1 0
1 1 0
0 0 0.10428
0.100298 0 0.100282
0.226413 0 0.0896315
0.389181 0 0.0684672
0.582406 0 0.0242008
0.751614 0 3.0518e-05
0.87744 0 3.0518e-05
0.968048 0 3.0518e-05
1 0 6.10361e-05
0 0.0898604 0.0948501
0.0907607 0.0852064 0.0907759
0.222751 0.068864 0.0749065
0.387366 0.0358892 0.0444648
0.581277 0 3.0518e-05
0.750866 0 3.0518e-05
0.876921 0 3.0518e-05
0.967636 0 3.0518e-05
1 0 6.10361e-05
0 0.205661 0.0670634
0.0487984 0.206027 0.0487831
0.207645 0.19826 0.0280766
0.375113 0.181231 0
0.572351 0.158999 1.5259e-05
0.745678 0.127825 3.0518e-05
0.873991 0.0800946 3.0518e-05
0.965866 0 3.0518e-05
1 0 6.10361e-05
0 0.355291 0
0 0.356222 0
0.171191 0.35079 0
0.352865 0.340627 0
0.555444 0.322591 0
0.735897 0.300511 3.0518e-05
0.868513 0.272572 3.0518e-05
0.9626 0.236728 3.0518e-05
1 0.19057 6.10361e-05
0 0.538491 0
0 0.539254 0
0.115007 0.534997 0
0.313466 0.527291 0
0.528557 0.515297 0
0.720424 0.496437 0
0.859876 0.473777 3.0518e-05
0.957519 0.445899 3.0518e-05
1 0.411658 3.0518e-05
0 0.71223 0
0 0.712489 0
0 0.709941 0
0.2598 0.705379 0
0.48603 0.698375 0
0.697627 0.688502 0
0.847395 0.673915 0
0.950225 0.656031 3.0518e-05
1 0.633738 3.0518e-05
0 0.845975 0
0 0.845991 0
0 0.844526 0
0.183566 0.841886 0
0.43006 0.837903 0
0.663615 0.832303 0
0.829862 0.824857 0
0.940276 0.814496 0
1 0.801892 0
0 0.943038 0
0 0.942916 0
0 0.942046 0
0.0422827 0.94049 0
0.356512 0.938125 0
0.616907 0.934829 0
0.804959 0.930541 0
0.927031 0.925048 0
1 0.917769 0
0 1 0
0 1 0
0 1 0
0 1 0
0.257923 1 0
0.551583 1 0
0.771237 1 0
0.909087 1 0
1 1 0
0 0 0.235279
0.100298 0 0.232792
0.226413 0 0.226413
0.389181 0 0.214923
0.582406 0 0.197177
0.751614 0 0.17145
0.87744 0 0.134661
0.968048 0 0.0774395
1 0 6.10361e-05
0 0.0898604 0.229496
0.0832532 0.0774853 0.231022
0.224125 0.0636606 0.224109
0.38761 0.0341955 0.206928
0.581308 0 0.186465
0.750866 0 0.158434
0.876921 0 0.118563
0.967636 0 0.0518044
1 0 6.10361e-05
0 0.205661 0.214237
0.0483101 0.205585 0.214801
0.205692 0.19527 0.205814
0.376043 0.179324 0.188846
0.574777 0.152392 0.162753
0.747616 0.115434 0.127382
0.875044 0.057496 0.0750134
0.966384 0 3.0518e-05
1 0 6.10361e-05
0 0.355291 0.18529
0 0.356252 0.178805
0.158221 0.354116 0.158221
0.355734 0.342672 0.141848
0.557702 0.320623 0.126711
0.737835 0.29482 0.0833448
0.869596 0.263539 0.000686656
0.963104 0.224948 3.0518e-05
1 0.175586 6.10361e-05
0 0.538491 0.135744
0 0.539269 0.124392
0.090898 0.539071 0.090898
0.307469 0.531121 0.0681621
0.532021 0.518288 0.0198215
0.722286 0.494652 0
0.860945 0.468971 3.0518e-05
0.958022 0.438621 3.0518e-05
1 0.402411 3.0518e-05
0 0.71223 0.0320897
0 0.712489 0.00292973
0 0.712505 0
0.248066 0.707881 0
0.482689 0.700755 0
0.699779 0.690455 0
0.848478 0.672572 0
0.950698 0.652811 3.0518e-05
1 0.628687 3.0518e-05
0 0.845975 0
0 0.846006 0
0 0.845792 0
0.166155 0.843153 0
0.422232 0.839094 0
0.66183 0.833463 0
0.830915 0.825833 0
0.940734 0.813565 0
1 0.799863 0
0 0.943038 0
0 0.942916 0
0 0.94255 0
0 0.940978 0
0.34519 0.938598 0
0.611856 0.935302 0
0.8038 0.930953 0
0.927382 0.925399 0
1 0.917037 0
0 1 0
0 1 0
0 1 0
0 1 0
0.243107 1 0
0.543389 1 0
0.768246 1 0
0.908248 1 0
1 1 0
0 0 0.40502
0.100298 0 0.403082
0.226413 0 0.398093
0.389181 0 0.389181
0.582406 0 0.375708
0.751614 0 0.356893
0.87744 0 0.332082
0.968048 0 0.30016
1 0 0.259678
0 0.0898604 0.400488
0.0808118 0.0750896 0.402426
0.21854 0.0615244 0.397269
0.388006 0.030808 0.387991
0.58143 0 0.37026
0.750912 0 0.349386
0.876921 0 0.323171
0.967636 0 0.29015
1 0 0.248539
0 0.205661 0.388663
0.0462959 0.200137 0.390433
0.193225 0.183185 0.390127
0.37995 0.168902 0.379965
0.575723 0.148592 0.355657
0.747814 0.113497 0.331182
0.875105 0.0560159 0.301793
0.966384 0 0.265797
1 0 0.220935
0 0.355291 0.366888
0 0.355886 0.367895
0.157687 0.35317 0.366079
0.351232 0.337301 0.3514
0.557214 0.31989 0.332418
0.738659 0.291661 0.304677
0.870497 0.256123 0.269764
0.963653 0.212879 0.227573
1 0.158068 0.174945
0 0.538491 0.332753
0 0.539269 0.329015
0.0906844 0.539086 0.317968
0.294331 0.533318 0.294331
0.533791 0.519265 0.27628
0.72285 0.493858 0.266423
0.861784 0.465049 0.229023
0.958526 0.431067 0.182803
1 0.391485 0.121233
0 0.71223 0.28304
0 0.712505 0.276478
0 0.71252 0.259266
0.227283 0.710536 0.227268
0.475639 0.703227 0.208423
0.701961 0.692348 0.181231
0.849348 0.671443 0.161364
0.951186 0.649485 0.10869
1 0.622721 0.00189212
0 0.845975 0.211933
0 0.846006 0.20293
0 0.845792 0.179522
0.13518 0.84477 0.13518
0.408713 0.840665 0.109697
0.658396 0.834913 0.0672618
0.832212 0.827024 0
0.941314 0.812299 0
1 0.797436 0
0 0.943038 0.0978103
0 0.942916 0.0816205
0 0.94255 0.0264744
0 0.941695 0
0.326528 0.939284 0
0.603433 0.935958 0
0.801877 0.931563 0
0.927886 0.925872 0
1 0.915969 0
0 1 0
0 1 0
0 1 0
0 1 0
0.218463 1 0
0.529931 1 0
0.763378 1 0
0.906889 1 0
1 1 0
0 0 0.603464
0.100298 0 0.602075
0.226413 0 0.59855
0.389181 0 0.592172
0.582391 0 0.582406
0.751614 0 0.568704
0.87744 0 0.550317
0.968048 0 0.526253
1 0 0.495583
0 0.0898604 0.600229
0.079942 0.0742962 0.601602
0.216358 0.0608225 0.597986
0.383978 0.0303655 0.591501
0.581521 0 0.581521
0.750942 0 0.564965
0.876921 0 0.544793
0.967636 0 0.519387
1 0 0.487861
0 0.205661 0.591775
0.0456855 0.198016 0.59321
0.187594 0.177859 0.594537
0.368582 0.163928 0.587732
0.577127 0.141772 0.577127
0.748119 0.110414 0.55462
0.875166 0.0538033 0.530861
0.9664 0 0.502556
1 0 0.468894
0 0.355291 0.575998
0 0.35198 0.577218
0.152926 0.342 0.578195
0.334752 0.321187 0.574777
0.563058 0.304768 0.563073
0.740001 0.285084 0.534859
0.870802 0.252506 0.507362
0.963729 0.210727 0.47541
1 0.156558 0.438178
0 0.538491 0.55082
0 0.539055 0.551583
0.0905928 0.538415 0.551537
0.293568 0.532143 0.546258
0.527489 0.512444 0.527657
0.72195 0.493675 0.507439
0.861799 0.464576 0.478798
0.958755 0.42797 0.442679
1 0.384863 0.400198
0 0.71223 0.513191
0 0.712505 0.510643
0 0.71252 0.503395
0.227085 0.710552 0.488716
0.464073 0.703822 0.464073
0.702296 0.692256 0.444175
0.849042 0.671931 0.436439
0.951385 0.648264 0.398535
1 0.619058 0.353765
0 0.845975 0.460807
0 0.846006 0.456062
0 0.845792 0.443976
0.134905 0.84477 0.42237
0.39086 0.841932 0.39086
0.653162 0.836042 0.370703
0.833158 0.827863 0.343999
0.941543 0.811872 0.32874
1 0.795987 0.289082
0 0.943038 0.391012
0 0.942916 0.384695
0 0.94255 0.368841
0 0.941695 0.341283
0.302708 0.940017 0.302708
0.592477 0.936629 0.280674
0.799268 0.932143 0.251362
0.928405 0.926314 0.212818
1 0.914961 0.174411
0 1 0.297917
0 1 0.290013
0 1 0.270207
0 1 0.235706
0.186465 1 0.18645
0.512734 1 0.158556
0.757259 1 0.118044
0.905226 1 0.0479744
1 1 0
0 0 0.771511
0.100298 0 0.770703
0.226413 0 0.768643
0.389181 0 0.764965
0.582391 0 0.759426
0.751614 0 0.751614
0.87744 0 0.741222
0.968048 0 0.72781
1 0 0.710735
0 0.0898604 0.769619
0.0795148 0.0738842 0.770275
0.215335 0.0604868 0.768215
0.382086 0.0301061 0.764508
0.578927 0 0.758846
0.750957 0 0.750957
0.876921 0 0.739071
0.967636 0 0.724651
1 0 0.706783
0 0.205661 0.764767
0.0453956 0.197009 0.765484
0.184817 0.175204 0.766384
0.362814 0.161486 0.762554
0.568963 0.139605 0.756725
0.748531 0.105821 0.748531
0.875257 0.0504921 0.733257
0.9664 0 0.716579
1 0 0.696864
0 0.355291 0.755779
0 0.350088 0.756374
0.150515 0.336446 0.757321
0.325139 0.311971 0.756863
0.54786 0.295964 0.750652
0.741878 0.273457 0.741878
0.871244 0.247028 0.722072
0.963821 0.207553 0.70248
1 0.154482 0.679942
0 0.538491 0.741527
0 0.536248 0.742031
0.0890974 0.529854 0.742626
0.284977 0.516503 0.741726
0.50927 0.494285 0.736767
0.727077 0.475959 0.727077
0.863005 0.455711 0.704433
0.959045 0.422461 0.682811
1 0.381323 0.657008
0 0.71223 0.720592
0 0.712444 0.720851
0 0.712245 0.720913
0.226825 0.710002 0.719066
0.463294 0.703014 0.712657
0.697093 0.686915 0.697185
0.848371 0.672099 0.681834
0.951202 0.649516 0.659937
1 0.61976 0.631083
0 0.845975 0.690883
0 0.846006 0.689372
0 0.845792 0.685344
0.13489 0.84477 0.677531
0.390692 0.841932 0.664881
0.64686 0.835889 0.64686
0.832898 0.827451 0.629969
0.941085 0.813123 0.623194
1 0.796414 0.591028
0 0.943038 0.649332
0 0.942931 0.646311
0 0.94255 0.638804
0 0.941695 0.625452
0.30251 0.940017 0.606043
0.581918 0.937057 0.581903
0.796613 0.932464 0.562737
0.928649 0.926558 0.537469
1 0.915114 0.522133
0 1 0.590921
0 1 0.586542
0 1 0.575433
0 1 0.556268
0.186206 1 0.52903
0.496941 1 0.496941
0.751583 1 0.474708
0.9037 1 0.446464
1 1 0.411337
0 0 0.894163
0.100298 0 0.893721
0.226413 0 0.892576
0.389181 0 0.890532
0.582391 0 0.887449
0.751614 0 0.883146
0.87744 0 0.87744
0.968048 0 0.870176
1 0 0.861006
0 0.0898604 0.893095
0.0792859 0.0736858 0.893339
0.21474 0.0603189 0.892195
0.381033 0.030045 0.89015
0.577508 0 0.887007
0.749615 0 0.882673
0.876921 0 0.876921
0.967651 0 0.868894
1 0 0.859174
0 0.205661 0.890394
0.0452277 0.196475 0.890669
0.183261 0.173724 0.89102
0.359625 0.160128 0.888914
0.564294 0.13843 0.88571
0.744106 0.104875 0.88127
0.875364 0.0459297 0.875364
0.966445 0 0.865538
1 0 0.854566
0 0.355291 0.88542
0 0.349111 0.885664
0.149187 0.333349 0.88603
0.319524 0.30663 0.885908
0.538689 0.290898 0.882582
0.733074 0.268772 0.877974
0.871794 0.239094 0.871794
0.963973 0.203311 0.859281
1 0.151644 0.846464
0 0.538491 0.877592
0 0.534722 0.877775
0.0882734 0.524987 0.87805
0.279973 0.50724 0.877867
0.496345 0.481712 0.876188
0.714031 0.463722 0.871275
0.864652 0.440055 0.864652
0.959457 0.414405 0.849409
1 0.376425 0.834806
0 0.71223 0.866255
0 0.710933 0.866392
0 0.707439 0.866438
0.222934 0.700664 0.86595
0.451331 0.689494 0.86392
0.684077 0.673609 0.858991
0.851774 0.658595 0.851774
0.95198 0.641688 0.835676
1 0.614176 0.820279
0 0.845975 0.850477
0 0.845945 0.850507
0 0.845701 0.850294
0.134829 0.844556 0.849302
0.390402 0.841596 0.846571
0.646357 0.835492 0.840726
0.829618 0.82417 0.829664
0.940734 0.813581 0.818891
1 0.798184 0.803861
0 0.943038 0.828885
0 0.942916 0.827955
0 0.94255 0.825559
0 0.941695 0.82118
0.30251 0.940017 0.814496
0.581857 0.937057 0.80557
0.795132 0.93225 0.795132
0.928405 0.926253 0.78323
1 0.916716 0.776699
0 1 0.799405
0 1 0.797635
0 1 0.793256
0 1 0.785672
0.186206 1 0.774975
0.496849 1 0.76202
0.749462 1 0.749462
0.903105 1 0.735729
1 1 0.718242
0 0 0.982284
0.100298 0 0.98201
0.226413 0 0.981323
0.389181 0 0.980087
0.582391 0 0.978241
0.751614 0 0.975677
0.87744 0 0.97232
0.968048 0 0.968048
1 0 0.962768
0 0.0898604 0.981659
0.0791638 0.0735485 0.981704
0.214435 0.0601968 0.980987
0.380407 0.0299077 0.979751
0.576654 0 0.977874
0.748806 0 0.975311
0.876234 0 0.971908
0.967651 0 0.967651
1 0 0.961944
0 0.205661 0.979995
0.0451514 0.196124 0.980072
0.182315 0.172839 0.980072
0.357687 0.159304 0.978821
0.561456 0.137713 0.976913
0.741344 0.10428 0.974289
0.873091 0.0456092 0.97084
0.966461 0 0.966461
1 0 0.959808
0 0.355291 0.977035
0 0.348486 0.977081
0.148394 0.331456 0.977096
0.316045 0.303243 0.976837
0.532891 0.287724 0.974884
0.727413 0.265843 0.972198
0.867033 0.236484 0.968643
0.964141 0.197574 0.964141
1 0.148028 0.955886
0 0.538491 0.972412
0 0.533822 0.972427
0.0877699 0.522042 0.972396
0.27686 0.501442 0.972122
0.4878 0.473426 0.971191
0.70515 0.455741 0.968368
0.857145 0.432441 0.964691
0.95996 0.402777 0.95996
1 0.369909 0.949966
0 0.71223 0.965805
0 0.710079 0.965789
0 0.704524 0.965682
0.220462 0.694697 0.965301
0.443412 0.680308 0.964233
0.672999 0.662486 0.96202
0.842374 0.647379 0.958099
0.953063 0.62771 0.953063
1 0.605997 0.941802
0 0.845975 0.956817
0 0.845182 0.956741
0 0.843153 0.956527
0.133364 0.839368 0.955932
0.383551 0.8336 0.95465
0.635157 0.825742 0.952117
0.821942 0.816358 0.947845
0.942473 0.805707 0.942473
1 0.793072 0.931563
0 0.943038 0.944869
0 0.942931 0.944717
0 0.942519 0.94435
0 0.941634 0.943511
0.302419 0.93991 0.941848
0.581628 0.936904 0.938903
0.794965 0.932113 0.934188
0.926909 0.924834 0.926925
1 0.917388 0.919463
0 1 0.929152
0 1 0.928512
0 1 0.926925
0 1 0.924178
0.186191 1 0.920165
0.496849 1 0.915129
0.749462 1 0.909575
0.904631 1 0.904631
1 1 0.896757
3.0518e-05 0 1
0.100298 0 1
0.226413 0 1
0.389181 0 1
0.582406 0 1
0.751614 0 1
0.87744 0 1
0.968048 0 1
1 0 1
0 0.0898604 1
0.0791028 0.0734722 1
0.214237 0.0601205 1
0.379995 0.0299077 1
0.576104 0 1
0.748287 0 1
0.875807 0 1
0.967285 0 1
1 0 1
0 0.205661 1
0.0450904 0.195911 1
0.181704 0.172244 1
0.356435 0.15877 1
0.55964 0.137209 1
0.73962 0.10396 1
0.87158 0.0453803 1
0.96524 0 1
1 0 1
0 0.355291 1
0 0.348119 1
0.147875 0.330251 1
0.313726 0.301076 1
0.529091 0.285588 1
0.723644 0.263951 1
0.863859 0.234806 1
0.96144 0.196185 1
1 0.14342 1
0 0.538491 1
0 0.533257 1
0.0874342 0.520119 1
0.2748 0.497642 1
0.482017 0.467796 1
0.698924 0.450324 1
0.851881 0.427253 1
0.95555 0.397925 1
1 0.361273 1
0 0.712215 1
0 0.709484 1
0 0.702602 1
0.21886 0.69073 1
0.437995 0.673915 1
0.664744 0.654231 1
0.835233 0.639094 1
0.947204 0.619364 1
1 0.594079 1
0 0.845975 1
0 0.844709 1
0 0.841489 1
0.132372 0.83592 1
0.378943 0.828016 1
0.626795 0.818372 1
0.814282 0.808652 1
0.936233 0.797864 1
1 0.784192 1
0 0.943038 1
0 0.942504 1
0 0.9411 1
0 0.93872 1
0.298817 0.935271 1
0.573327 0.930785 1
0.787076 0.92578 1
0.92314 0.921019 1
1 0.913771 1
0 1 1
0 1 1
0 1 1
0 1 1
0.186191 1 1
0.496849 1 1
0.749462 1 1
0.904646 1 1
1 1 1
