src/colors/vibrant_&_colorful/photo_contrast.cube
TITLE "Generated by Resolve"
LUT_3D_SIZE 33
0 0 0
0.0245212 0 0
0.0482948 0 0
0.0735027 0 0
0.100298 0 0
0.128862 0 0
0.159335 0 0
0.19176 0 0
0.226413 0 0
0.263493 0 0
0.302998 0 0
0.344915 0 0
0.389181 0 0
0.435554 0 0
0.483894 0 3.0518e-05
0.533776 0 3.0518e-05
0.582391 0 3.0518e-05
0.628641 0 3.0518e-05
0.672343 0 3.0518e-05
0.713329 0 3.0518e-05
0.751614 0 3.0518e-05
0.787106 0 3.0518e-05
0.819883 0 3.0518e-05
0.849958 0 3.0518e-05
0.87744 0 3.0518e-05
0.90277 0 3.0518e-05
0.926207 0 3.0518e-05
0.94789 0 3.0518e-05
0.968048 0 3.0518e-05
0.986786 0 6.10361e-05
1 0 6.10361e-05
1 0 6.10361e-05
1 0 6.10361e-05
0 0.0205997 0
0.0208743 0.0190738 0
0.0457618 0.0173495 0
0.0714885 0.0148928 0
0.0986801 0.0116884 0
0.127489 0.00759899 0
0.158114 0.00260929 0
0.190692 0 0
0.225422 0 0
0.262547 0 0
0.302129 0 0
0.344121 0 0
0.388373 0 0
0.434821 0 0
0.483162 0 3.0518e-05
0.53312 0 3.0518e-05
0.581842 0 3.0518e-05
0.628153 0 3.0518e-05
0.671885 0 3.0518e-05
0.712932 0 3.0518e-05
0.751278 0 3.0518e-05
0.786831 0 3.0518e-05
0.819654 0 3.0518e-05
0.849683 0 3.0518e-05
0.877256 0 3.0518e-05
0.902632 0 3.0518e-05
0.92607 0 3.0518e-05
0.947768 0 3.0518e-05
0.967956 0 3.0518e-05
0.986694 0 6.10361e-05
1 0 6.10361e-05
1 0 6.10361e-05
1 0 6.10361e-05
0 0.042298 0
0.0168917 0.0410773 0
0.0427253 0.039704 0
0.069276 0.037644 0
0.0968643 0.0348516 0
0.125963 0.0311437 0
0.156786 0.0261997 0
0.189441 0.019913 0
0.224308 0.0127718 0
0.261524 0.004654 0
0.301106 0 0
0.34316 0 0
0.387503 0 0
0.433967 0 0
0.482429 0 3.0518e-05
0.532341 0 3.0518e-05
0.58117 0 3.0518e-05
0.627573 0 3.0518e-05
0.671397 0 3.0518e-05
0.712489 0 3.0518e-05
0.750912 0 3.0518e-05
0.786496 0 3.0518e-05
0.819333 0 3.0518e-05
0.849439 0 3.0518e-05
0.877012 0 3.0518e-05
0.902434 0 3.0518e-05
0.925902 0 3.0518e-05
0.947616 0 3.0518e-05
0.967834 0 3.0518e-05
0.986603 0 6.10361e-05
1 0 6.10361e-05
1 0 6.10361e-05
1 0 6.10361e-05
0 0.0652323 0
0.0113527 0.0643473 0
0.0382239 0.0632944 0
0.0659648 0.061799 0
0.0942092 0.0597391 0
0.123751 0.0570535 0
0.154833 0.0536202 0
0.187716 0.0493782 0
0.222675 0.0441138 0
0.259983 0.0375067 0
0.299702 0.0291447 0
0.341802 0.0184787 0
0.386236 0.0069276 0
0.432776 0 0
0.48127 0 3.0518e-05
0.531319 0 3.0518e-05
0.580255 0 3.0518e-05
0.626764 0 3.0518e-05
0.670665 0 3.0518e-05
0.711879 0 3.0518e-05
0.750378 0 3.0518e-05
0.786023 0 3.0518e-05
0.818921 0 3.0518e-05
0.849088 0 3.0518e-05
0.876722 0 3.0518e-05
0.902159 0 3.0518e-05
0.925612 0 3.0518e-05
0.947433 0 3.0518e-05
0.96762 0 3.0518e-05
0.986419 0 6.10361e-05
1 0 6.10361e-05
1 0 6.10361e-05
1 0 6.10361e-05
0 0.0898604 0
0.00384527 0.0891585 0
0.0315404 0.088304 0
0.0613413 0.0870832 0
0.0905623 0.08542 0
0.120638 0.0833295 0
0.152132 0.0806744 0
0.185336 0.0774548 0
0.220493 0.0735027 0
0.257954 0.0688182 0
0.297795 0.0632639 0
0.340017 0.0565957 0
0.384497 0.0485542 0
0.431159 0.0385901 0
0.479728 0.0256046 3.0518e-05
0.52987 0.00999466 3.0518e-05
0.578958 0 3.0518e-05
0.62562 0 3.0518e-05
0.669688 0 3.0518e-05
0.711025 0 3.0518e-05
0.74963 0 3.0518e-05
0.785367 0 3.0518e-05
0.818372 0 3.0518e-05
0.8486 0 3.0518e-05
0.876295 0 3.0518e-05
0.901793 0 3.0518e-05
0.925338 0 3.0518e-05
0.947127 0 3.0518e-05
0.967376 0 3.0518e-05
0.986175 0 6.10361e-05
1 0 6.10361e-05
1 0 6.10361e-05
1 0 6.10361e-05
0 0.116106 0
0 0.11548 0
0.0219577 0.114778 0
0.0550698 0.113756 0
0.0857404 0.112352 0
0.116701 0.110597 0
0.148699 0.1084 0
0.182239 0.105699 0
0.21767 0.102556 0
0.255329 0.0988022 0
0.295338 0.0944381 0
0.337682 0.0893568 0
0.3823 0.0834821 0
0.429053 0.0766766 0
0.477745 0.0686809 0
0.528023 0.0592355 3.0518e-05
0.577371 0.0477607 3.0518e-05
0.62417 0.0330968 3.0518e-05
0.668467 0.0137942 3.0518e-05
0.709941 0 3.0518e-05
0.748653 0 3.0518e-05
0.784543 0 3.0518e-05
0.817655 0 3.0518e-05
0.84799 0 3.0518e-05
0.875746 0 3.0518e-05
0.901305 0 3.0518e-05
0.924895 0 3.0518e-05
0.946761 0 3.0518e-05
0.967041 0 3.0518e-05
0.98587 0 6.10361e-05
1 0 6.10361e-05
1 0 6.10361e-05
1 0 6.10361e-05
0 0.14406 0
0 0.143511 0
0.00994888 0.142901 0
0.0466773 0.142 0
0.0795605 0.140841 0
0.111666 0.139254 0
0.144396 0.137346 0
0.178408 0.135058 0
0.214191 0.132311 0
0.25211 0.129137 0
0.292287 0.125475 0
0.334829 0.121279 0
0.379614 0.116487 0
0.426459 0.111025 0
0.475303 0.10486 0
0.525734 0.0978256 3.0518e-05
0.575326 0.0897688 3.0518e-05
0.622415 0.0805982 3.0518e-05
0.666896 0.0698253 3.0518e-05
0.708568 0.0570077 3.0518e-05
0.747494 0.0408484 3.0518e-05
0.783505 0.0186618 3.0518e-05
0.816754 0 3.0518e-05
0.847211 0 3.0518e-05
0.875074 0 3.0518e-05
0.90074 0 3.0518e-05
0.924407 0 3.0518e-05
0.946319 0 3.0518e-05
0.966644 0 3.0518e-05
0.985519 0 6.10361e-05
1 0 6.10361e-05
1 0 6.10361e-05
1 0 6.10361e-05
0 0.173861 0
0 0.173358 0
0 0.172824 0
0.035111 0.172015 0
0.0716869 0.170947 0
0.10544 0.169543 0
0.139101 0.167865 0
0.173724 0.165835 0
0.209964 0.163409 0
0.248173 0.160632 0
0.288594 0.157427 0
0.331334 0.153735 0
0.376318 0.149615 0
0.423377 0.144976 0
0.472358 0.139773 0
0.522972 0.133913 0
0.572915 0.127398 3.0518e-05
0.62031 0.120165 3.0518e-05
0.665003 0.112047 3.0518e-05
0.70692 0.102892 3.0518e-05
0.746044 0.0924849 3.0518e-05
0.782284 0.0804761 3.0518e-05
0.815671 0.0663005 3.0518e-05
0.846281 0.0487678 3.0518e-05
0.874281 0.0247349 3.0518e-05
0.900023 0 3.0518e-05
0.923766 0 3.0518e-05
0.945769 0 3.0518e-05
0.966155 0 3.0518e-05
0.985107 0 6.10361e-05
1 0 6.10361e-05
1 0 6.10361e-05
1 0 6.10361e-05
0 0.205661 0
0 0.205234 0
0 0.204746 0
0.0186618 0.203967 0
0.0616617 0.202991 0
0.0977646 0.201724 0
0.132677 0.200183 0
0.168154 0.198337 0
0.204913 0.196155 0
0.243534 0.193622 0
0.284245 0.190753 0
0.327245 0.187442 0
0.372442 0.183764 0
0.419684 0.179629 0
0.468864 0.175036 0
0.519692 0.16997 0
0.570001 0.164324 0
0.617731 0.158129 3.0518e-05
0.662791 0.151278 3.0518e-05
0.705013 0.143755 3.0518e-05
0.744366 0.135439 3.0518e-05
0.780819 0.126207 3.0518e-05
0.814404 0.115953 3.0518e-05
0.845182 0.104387 3.0518e-05
0.873335 0.0912032 3.0518e-05
0.899199 0.0758373 3.0518e-05
0.923033 0.057023 3.0518e-05
0.945129 0.0315862 3.0518e-05
0.965576 0.000915541 3.0518e-05
0.984604 0 6.10361e-05
1 0 6.10361e-05
1 0 6.10361e-05
1 0 6.10361e-05
0 0.239597 0
0 0.2392 0
0 0.238682 0
0.000457771 0.238025 0
0.0485389 0.23711 0
0.0883803 0.23595 0
0.125063 0.234531 0
0.161547 0.232807 0
0.198993 0.230793 0
0.238071 0.228473 0
0.279164 0.225818 0
0.322484 0.222782 0
0.367926 0.219425 0
0.415412 0.215641 0
0.464836 0.211475 0
0.515831 0.206897 0
0.566629 0.201846 0
0.614786 0.196323 3.0518e-05
0.660197 0.19028 3.0518e-05
0.702739 0.183703 3.0518e-05
0.742397 0.176501 3.0518e-05
0.77911 0.168673 3.0518e-05
0.81294 0.160128 3.0518e-05
0.843931 0.150744 3.0518e-05
0.872221 0.140459 3.0518e-05
0.898222 0.129122 3.0518e-05
0.922179 0.116426 3.0518e-05
0.944381 0.102113 3.0518e-05
0.964904 0.0855116 3.0518e-05
0.984009 0.0655375 6.10361e-05
1 0.0390784 6.10361e-05
1 0.00383001 6.10361e-05
1 0 6.10361e-05
0 0.275853 0
0 0.27541 0
0 0.274998 0
0 0.274342 0
0.0302434 0.273487 0
0.0768292 0.272389 0
0.115984 0.271046 0
0.153826 0.269429 0
0.192142 0.267567 0
0.231815 0.265354 0
0.273335 0.262913 0
0.317021 0.26006 0
0.362722 0.256916 0
0.410513 0.253422 0
0.460197 0.249546 0
0.511467 0.245304 0
0.562768 0.24065 0
0.611399 0.235584 0
0.657221 0.230106 3.0518e-05
0.700145 0.224125 3.0518e-05
0.740124 0.217655 3.0518e-05
0.777111 0.210666 3.0518e-05
0.811246 0.203098 3.0518e-05
0.842451 0.194934 3.0518e-05
0.870954 0.186114 3.0518e-05
0.897108 0.176516 3.0518e-05
0.921218 0.16614 3.0518e-05
0.943481 0.154788 3.0518e-05
0.964172 0.142336 3.0518e-05
0.983337 0.128573 3.0518e-05
1 0.113115 6.10361e-05
1 0.0953994 6.10361e-05
1 0.0742962 6.10361e-05
0 0.314412 0
0 0.314031 0
0 0.313649 0
0 0.313008 0
0.00534066 0.312215 0
0.0622568 0.311177 0
0.10518 0.309895 0
0.144823 0.30837 0
0.184237 0.306615 0
0.224659 0.30454 0
0.266682 0.302205 0
0.31075 0.29955 0
0.356863 0.296605 0
0.404944 0.293309 0
0.454902 0.289677 0
0.506493 0.285695 0
0.558328 0.2813 0
0.607492 0.276631 0
0.653834 0.271489 0
0.697169 0.265965 3.0518e-05
0.737545 0.259983 3.0518e-05
0.774899 0.253544 3.0518e-05
0.809293 0.246616 3.0518e-05
0.840772 0.239216 3.0518e-05
0.869505 0.231235 3.0518e-05
0.895872 0.222721 3.0518e-05
0.920104 0.21355 3.0518e-05
0.942535 0.203723 3.0518e-05
0.963302 0.193118 3.0518e-05
0.982559 0.181689 3.0518e-05
1 0.169299 6.10361e-05
1 0.15581 6.10361e-05
1 0.140963 6.10361e-05
0 0.355291 0
0 0.35494 0
0 0.354543 0
0 0.353979 0
0 0.353201 0
0.0427863 0.352239 0
0.0921798 0.351003 0
0.13434 0.349599 0
0.175204 0.347875 0
0.216495 0.345937 0
0.259144 0.34374 0
0.303716 0.341238 0
0.35024 0.33843 0
0.398703 0.335317 0
0.448981 0.331914 0
0.500893 0.328161 0
0.553307 0.324041 0
0.603098 0.3196 0
0.649989 0.314794 0
0.693828 0.309606 0
0.734646 0.304006 3.0518e-05
0.772366 0.298009 3.0518e-05
0.807126 0.291569 3.0518e-05
0.83888 0.284657 3.0518e-05
0.867887 0.277302 3.0518e-05
0.894438 0.269429 3.0518e-05
0.918853 0.261036 3.0518e-05
0.941436 0.25211 3.0518e-05
0.962341 0.242573 3.0518e-05
0.981704 0.23241 3.0518e-05
0.999603 0.221546 3.0518e-05
1 0.209964 3.0518e-05
1 0.197467 4.57771e-05
0 0.398306 0
0 0.397955 0
0 0.397589 0
0 0.39704 0
0 0.396307 0
0.0136568 0.395377 0
0.076173 0.394278 0
0.122133 0.392889 0
0.164843 0.391287 0
0.207294 0.389441 0
0.25069 0.38732 0
0.295827 0.384955 0
0.342824 0.382315 0
0.391699 0.379385 0
0.442405 0.37612 0
0.494636 0.37258 0
0.547662 0.368688 0
0.598169 0.364477 0
0.64567 0.359945 0
0.690089 0.355062 0
0.731365 0.349767 0
0.769528 0.344121 3.0518e-05
0.804654 0.338064 3.0518e-05
0.836774 0.331594 3.0518e-05
0.866041 0.324712 3.0518e-05
0.892851 0.317388 3.0518e-05
0.917464 0.30956 3.0518e-05
0.940215 0.301259 3.0518e-05
0.961227 0.29247 3.0518e-05
0.980743 0.283146 3.0518e-05
0.998795 0.273182 3.0518e-05
1 0.262684 3.0518e-05
1 0.251499 3.0518e-05
0 0.443366 0
0 0.443076 0
0 0.442725 0
0 0.442237 0
0 0.441505 0
0 0.440604 0
0.0555276 0.439536 0
0.107698 0.438224 0
0.152972 0.436713 0
0.196887 0.434958 0
0.241215 0.432944 0
0.287007 0.430686 0
0.334585 0.428183 0
0.383917 0.425391 0
0.43505 0.422339 0
0.487724 0.418967 0
0.541344 0.415259 0
0.592645 0.411276 0
0.640848 0.406989 0
0.685908 0.402365 0
0.727718 0.397406 0
0.766369 0.392035 0
0.801923 0.386328 3.0518e-05
0.834424 0.380255 3.0518e-05
0.864027 0.373754 3.0518e-05
0.891081 0.366842 3.0518e-05
0.915923 0.359518 3.0518e-05
0.938857 0.351766 3.0518e-05
0.960037 0.343526 3.0518e-05
0.97966 0.334829 3.0518e-05
0.997894 0.325612 3.0518e-05
1 0.315847 3.0518e-05
1 0.305577 3.0518e-05
0 0.490318 0
0 0.489998 0
0 0.489647 0
0 0.489174 0
0 0.488502 0
0 0.487663 0
0.0251316 0.486625 0
0.0903334 0.48539 0
0.139361 0.483925 0
0.185199 0.482261 0
0.23064 0.480369 0
0.277256 0.478248 0
0.32546 0.475822 0
0.375341 0.473198 0
0.426947 0.470298 0
0.480079 0.467079 0
0.534325 0.463569 0
0.586511 0.459846 0
0.635523 0.455741 0
0.681224 0.451347 0
0.723674 0.446662 0
0.762875 0.441596 0
0.798917 0.436194 0
0.831846 0.430457 3.0518e-05
0.861753 0.424323 3.0518e-05
0.889113 0.417823 3.0518e-05
0.914214 0.410895 3.0518e-05
0.937331 0.403601 3.0518e-05
0.958694 0.39585 3.0518e-05
0.9785 0.387686 3.0518e-05
0.996872 0.379019 3.0518e-05
1 0.369955 3.0518e-05
1 0.360342 3.0518e-05
0 0.538491 0
0 0.538201 0
0 0.537896 0
0 0.537484 0
0 0.536828 0
0 0.536049 0
0 0.535134 0
0.0685435 0.533928 0
0.123568 0.532616 0
0.171954 0.53106 0
0.218921 0.529274 0
0.266484 0.52726 0
0.315389 0.525032 0
0.365896 0.522515 0
0.418067 0.519783 0
0.471687 0.516747 0
0.526513 0.513481 0
0.579721 0.509941 0
0.629602 0.50602 0
0.676097 0.501854 0
0.719234 0.497368 0
0.75903 0.492607 0
0.795575 0.487556 0
0.828962 0.482063 0
0.859281 0.47631 3.0518e-05
0.886992 0.470207 3.0518e-05
0.912352 0.463691 3.0518e-05
0.935699 0.456794 3.0518e-05
0.957259 0.449454 3.0518e-05
0.977218 0.441825 3.0518e-05
0.995712 0.433738 3.0518e-05
1 0.425193 3.0518e-05
1 0.416052 3.0518e-05
0 0.585412 0
0 0.585168 0
0 0.584848 0
0 0.584482 0
0 0.583917 0
0 0.583215 0
0 0.582376 0
0.037995 0.581399 0
0.104845 0.580194 0
0.156954 0.578805 0
0.205814 0.577249 0
0.254536 0.575494 0
0.304326 0.57348 0
0.355535 0.571298 0
0.408301 0.568841 0
0.462486 0.566171 0
0.517937 0.563256 0
0.572213 0.560067 0
0.623072 0.556603 0
0.67042 0.55288 0
0.714321 0.548837 0
0.754772 0.544518 0
0.791913 0.539803 0
0.825803 0.534844 0
0.856596 0.529412 0
0.884611 0.523735 3.0518e-05
0.910292 0.517479 3.0518e-05
0.933898 0.51107 3.0518e-05
0.955657 0.504265 3.0518e-05
0.975814 0.496971 3.0518e-05
0.994461 0.489311 3.0518e-05
1 0.4813 3.0518e-05
1 0.472877 3.0518e-05
0 0.63006 0
0 0.629847 0
0 0.629572 0
0 0.629252 0
0 0.628748 0
0 0.628168 0
0 0.627436 0
0 0.626535 0
0.0818341 0.625483 0
0.139742 0.624247 0
0.191211 0.622889 0
0.241398 0.621332 0
0.29218 0.619577 0
0.344213 0.617609 0
0.397696 0.615488 0
0.452461 0.613138 0
0.508476 0.610544 0
0.563958 0.607752 0
0.615885 0.60473 0
0.664179 0.601419 0
0.708919 0.597879 0
0.750103 0.594049 0
0.787884 0.58999 0
0.822339 0.58555 0
0.85362 0.580865 0
0.882063 0.57583 0
0.908034 0.57052 3.0518e-05
0.931914 0.564736 3.0518e-05
0.953933 0.558694 3.0518e-05
0.974258 0.552178 3.0518e-05
0.993103 0.545327 3.0518e-05
1 0.537942 3.0518e-05
1 0.530159 3.0518e-05
0 0.672419 0
0 0.672221 0
0 0.671977 0
0 0.671672 0
0 0.671275 0
0 0.670726 0
0 0.670069 0
0 0.669276 0
0.0510567 0.668376 0
0.119707 0.667308 0
0.174792 0.666072 0
0.226902 0.664714 0
0.278904 0.663157 0
0.331823 0.661463 0
0.386114 0.659602 0
0.441596 0.657496 0
0.498253 0.655253 0
0.554864 0.652811 0
0.607996 0.650095 0
0.657343 0.647242 0
0.703014 0.644144 0
0.744991 0.640787 0
0.78349 0.637186 0
0.818555 0.633387 0
0.850355 0.629252 0
0.87924 0.624872 0
0.905608 0.620188 0
0.929778 0.615213 3.0518e-05
0.952026 0.609903 3.0518e-05
0.972595 0.604273 3.0518e-05
0.991638 0.59826 3.0518e-05
1 0.591897 3.0518e-05
1 0.585138 3.0518e-05
0 0.71223 0
0 0.712077 0
0 0.711879 0
0 0.711589 0
0 0.711238 0
0 0.71075 0
0 0.710201 0
0 0.709499 0
0.00390631 0.70869 0
0.0955673 0.707759 0
0.156222 0.706661 0
0.210895 0.705486 0
0.264347 0.704128 0
0.318379 0.702632 0
0.373495 0.700984 0
0.42977 0.699168 0
0.48716 0.6972 0
0.544884 0.695033 0
0.599359 0.692714 0
0.649866 0.690166 0
0.696544 0.687465 0
0.739422 0.684565 0
0.778683 0.681407 0
0.814435 0.67805 0
0.84683 0.674479 0
0.876188 0.670649 0
0.902937 0.66659 0
0.927459 0.662226 0
0.949996 0.657618 3.0518e-05
0.970794 0.652705 3.0518e-05
0.990036 0.647471 3.0518e-05
1 0.641932 3.0518e-05
1 0.636103 3.0518e-05
0 0.749538 0
0 0.749401 0
0 0.749233 0
0 0.748989 0
0 0.748669 0
0 0.748241 0
0 0.747738 0
0 0.747143 0
0 0.746426 0
0.0643473 0.745617 0
0.134844 0.744671 0
0.193072 0.743618 0
0.248447 0.742443 0
0.303746 0.741131 0
0.359884 0.739712 0
0.417044 0.738109 0
0.475166 0.736385 0
0.533944 0.734493 0
0.589929 0.732464 0
0.641688 0.730251 0
0.689509 0.727901 0
0.733333 0.725353 0
0.773449 0.722591 0
0.809949 0.719692 0
0.842969 0.716564 0
0.872908 0.713207 0
0.900069 0.709682 0
0.924941 0.705898 0
0.947784 0.7019 0
0.968856 0.697658 3.0518e-05
0.988296 0.69308 3.0518e-05
1 0.688319 3.0518e-05
1 0.683253 3.0518e-05
0 0.784283 0
0 0.784131 0
0 0.784009 0
0 0.78378 0
0 0.78352 0
0 0.783169 0
0 0.782696 0
0 0.782208 0
0 0.781567 0
0.014374 0.78085 0
0.109529 0.780026 0
0.173114 0.779126 0
0.230991 0.778103 0
0.2878 0.776944 0
0.345098 0.775692 0
0.403189 0.774319 0
0.462211 0.772808 0
0.521935 0.77116 0
0.579553 0.76939 0
0.632761 0.767468 0
0.681773 0.765423 0
0.726711 0.763195 0
0.767773 0.76083 0
0.805081 0.758267 0
0.838804 0.755566 0
0.869322 0.752651 0
0.896971 0.749599 0
0.922225 0.746288 0
0.945403 0.74284 0
0.966751 0.739147 0
0.986465 0.735241 3.0518e-05
1 0.731075 3.0518e-05
1 0.726696 3.0518e-05
0 0.816434 0
0 0.816327 0
0 0.816159 0
0 0.815976 0
0 0.815747 0
0 0.815427 0
0 0.815045 0
0 0.814618 0
0 0.814054 0
0 0.813428 0
0.0776379 0.812726 0
0.150408 0.811917 0
0.211765 0.811032 0
0.270481 0.81004 0
0.329107 0.808957 0
0.388312 0.807736 0
0.448264 0.806424 0
0.508888 0.80502 0
0.568246 0.803449 0
0.623041 0.801816 0
0.673426 0.800031 0
0.719524 0.798093 0
0.761563 0.796017 0
0.799786 0.793835 0
0.834287 0.79147 0
0.865431 0.788968 0
0.893629 0.786282 0
0.91931 0.783475 0
0.94284 0.780453 0
0.964477 0.777264 0
0.984482 0.773861 0
1 0.770306 3.0518e-05
1 0.766476 3.0518e-05
0 0.845975 0
0 0.845884 0
0 0.845792 0
0 0.84564 0
0 0.845396 0
0 0.845136 0
0 0.844816 0
0 0.844419 0
0 0.843931 0
0 0.843397 0
0.0290532 0.842802 0
0.123873 0.842115 0
0.190417 0.841337 0
0.251575 0.840467 0
0.311818 0.839521 0
0.372229 0.838483 0
0.433249 0.837354 0
0.494865 0.836118 0
0.555886 0.834791 0
0.612421 0.833341 0
0.664286 0.8318 0
0.711681 0.830106 0
0.754864 0.828351 0
0.794034 0.826429 0
0.829374 0.824399 0
0.86125 0.822217 0
0.890013 0.819913 0
0.916182 0.817487 0
0.940093 0.814893 0
0.962081 0.812131 0
0.982345 0.809201 0
1 0.806134 0
1 0.802838 0
0 0.873213 0
0 0.873121 0
0 0.872999 0
0 0.872892 0
0 0.872694 0
0 0.87245 0
0 0.872145 0
0 0.871824 0
0 0.871427 0
0 0.870954 0
0 0.87042 0
0.0911879 0.86981 0
0.166323 0.869139 0
0.230869 0.868376 0
0.293065 0.867567 0
0.35491 0.866636 0
0.417121 0.86566 0
0.479774 0.864591 0
0.542367 0.863447 0
0.600839 0.862181 0
0.654353 0.860868 0
0.703166 0.859419 0
0.7476 0.857847 0
0.787793 0.856214 0
0.824079 0.854459 0
0.856703 0.852598 0
0.886091 0.850584 0
0.912779 0.848478 0
0.937118 0.846265 0
0.959472 0.843885 0
0.980041 0.841367 0
0.998917 0.838727 0
1 0.83592 0
0 0.898238 0
0 0.898177 0
0 0.898085 0
0 0.897993 0
0 0.897841 0
0 0.897627 0
0 0.897368 0
0 0.897063 0
0 0.896712 0
0 0.8963 0
0 0.895842 0
0.0445716 0.895293 0
0.138506 0.894728 0
0.208057 0.894041 0
0.272694 0.893339 0
0.336217 0.892546 0
0.399802 0.891691 0
0.463584 0.89073 0
0.527611 0.889738 0
0.588174 0.888655 0
0.643534 0.887449 0
0.693904 0.886213 0
0.739681 0.884886 0
0.781048 0.883421 0
0.818326 0.88191 0
0.85182 0.880262 0
0.88188 0.878569 0
0.909117 0.876707 0
0.933944 0.874784 0
0.956695 0.87274 0
0.977584 0.870573 0
0.99678 0.868284 0
1 0.865873 0
0 0.921492 0
0 0.921431 0
0 0.92134 0
0 0.921248 0
0 0.921065 0
0 0.920913 0
0 0.920668 0
0 0.920424 0
0 0.920104 0
