src/colors/vibrant_&_colorful/photo_contrast.cube
TITLE "Generated by Resolve"
LUT_3D_SIZE 5
0 0 0
0.226413 0 0
0.582391 0 3.0518e-05
0.87744 0 3.0518e-05
1 0 6.10361e-05
0 0.205661 0
0.204913 0.196155 0
0.570001 0.164324 0
0.873335 0.0912032 3.0518e-05
1 0 6.10361e-05
0 0.538491 0
0.123568 0.532616 0
0.526513 0.513481 0
0.859281 0.47631 3.0518e-05
1 0.416052 3.0518e-05
0 0.845975 0
0 0.843931 0
0.433249 0.837354 0
0.829374 0.824399 0
1 0.802838 0
0 1 0
0 1 0
0.263996 1 0
0.772488 1 0
1 1 0
0 0 0.235279
0.226413 0 0.226413
0.582406 0 0.197177
0.87744 0 0.134661
1 0 6.10361e-05
0 0.205661 0.214237
0.205692 0.19527 0.205814
0.574777 0.152392 0.162753
0.875044 0.057496 0.0750134
1 0 6.10361e-05
0 0.538491 0.135744
0.090898 0.539071 0.090898
0.532021 0.518288 0.0198215
0.860945 0.468971 3.0518e-05
1 0.402411 3.0518e-05
0 0.845975 0
0 0.845792 0
0.422232 0.839094 0
0.830915 0.825833 0
1 0.799863 0
0 1 0
0 1 0
0.243107 1 0
0.768246 1 0
1 1 0
0 0 0.603464
0.226413 0 0.59855
0.582391 0 0.582406
0.87744 0 0.550317
1 0 0.495583
0 0.205661 0.591775
0.187594 0.177859 0.594537
0.577127 0.141772 0.577127
0.875166 0.0538033 0.530861
1 0 0.468894
0 0.538491 0.55082
0.0905928 0.538415 0.551537
0.527489 0.512444 0.527657
0.861799 0.464576 0.478798
1 0.384863 0.400198
0 0.845975 0.460807
0 0.845792 0.443976
0.39086 0.841932 0.39086
0.833158 0.827863 0.343999
1 0.795987 0.289082
0 1 0.297917
0 1 0.270207
0.186465 1 0.18645
0.757259 1 0.118044
1 1 0
0 0 0.894163
0.226413 0 0.892576
0.582391 0 0.887449
0.87744 0 0.87744
1 0 0.861006
0 0.205661 0.890394
0.183261 0.173724 0.89102
0.564294 0.13843 0.88571
0.875364 0.0459297 0.875364
1 0 0.854566
0 0.538491 0.877592
0.0882734 0.524987 0.87805
0.496345 0.481712 0.876188
0.864652 0.440055 0.864652
1 0.376425 0.834806
0 0.845975 0.850477
0 0.845701 0.850294
0.390402 0.841596 0.846571
0.829618 0.82417 0.829664
1 0.798184 0.803861
0 1 0.799405
0 1 0.793256
0.186206 1 0.774975
0.749462 1 0.749462
1 1 0.718242
3.0518e-05 0 1
0.226413 0 1
0.582406 0 1
0.87744 0 1
1 0 1
0 0.205661 1
0.181704 0.172244 1
0.55964 0.137209 1
0.87158 0.0453803 1
1 0 1
0 0.538491 1
0.0874342 0.520119 1
0.482017 0.467796 1
0.851881 0.427253 1
1 0.361273 1
0 0.845975 1
0 0.841489 1
0.378943 0.828016 1
0.814282 0.808652 1
1 0.784192 1
0 1 1
0 1 1
0.186191 1 1
0.749462 1 1
1 1 1
