src/colors/vibrant_&_colorful/valentine_pop.cube
LUT_3D_SIZE 16
0.022997 0.000000 0.030168
0.022997 -0.000191 0.030168
0.110382 -0.000444 0.030172
0.241246 -0.000726 0.030171
0.352675 -0.001027 0.030169
0.448384 -0.001344 0.030168
0.533207 -0.001672 0.030163
0.612054 -0.002006 0.030161
0.686368 -0.002332 0.030154
0.754240 -0.002640 0.030149
0.812698 -0.002928 0.030143
0.860967 -0.003191 0.030137
0.899889 -0.003426 0.030133
0.930414 -0.003627 0.030124
0.950656 -0.003779 0.030117
0.959801 -0.003858 0.030115
0.022997 0.000000 0.030173
0.022997 0.000000 0.030173
0.110381 0.031551 0.030172
0.241245 0.053205 0.030171
0.352675 0.062412 0.030168
0.448384 0.065931 0.030167
0.533207 0.066910 0.030162
0.612054 0.067005 0.030160
0.686368 0.066674 0.030156
0.754240 0.065726 0.030149
0.812698 0.064034 0.030142
0.860967 0.061641 0.030136
0.899889 0.058842 0.030132
0.930414 0.055804 0.030124
0.950656 0.052595 0.030117
0.959801 0.049000 0.030115
0.022995 0.081966 0.030171
0.065240 0.081966 0.030171
0.116166 0.081965 0.030170
0.241245 0.128861 0.030169
0.352674 0.151148 0.030169
0.448384 0.159552 0.030165
0.533207 0.161858 0.030164
0.612054 0.162088 0.030157
0.686368 0.161303 0.030153
0.754240 0.159089 0.030145
0.812698 0.155077 0.030139
0.860967 0.149308 0.030135
0.899889 0.142541 0.030129
0.930414 0.135198 0.030126
0.950656 0.127433 0.030114
0.959801 0.118738 0.030112
0.022996 0.214942 0.030169
0.087197 0.214942 0.030169
0.166578 0.214942 0.030168
0.244885 0.214941 0.030167
0.352674 0.242244 0.030164
0.448384 0.253697 0.030164
0.533207 0.256804 0.030158
0.612054 0.257119 0.030156
0.686368 0.256063 0.030149
0.754240 0.253048 0.030143
0.812698 0.247588 0.030137
0.860966 0.239760 0.030129
0.899889 0.230438 0.030125
0.930413 0.220152 0.030117
0.950656 0.209057 0.030113
0.959801 0.196259 0.030112
0.022991 0.327388 0.030165
0.095954 0.327388 0.030165
0.185516 0.327388 0.030165
0.271580 0.327388 0.030163
0.353496 0.327388 0.030161
0.448383 0.340903 0.030156
0.533206 0.344855 0.030154
0.612053 0.345215 0.030148
0.686368 0.343916 0.030143
0.754240 0.340105 0.030138
0.812697 0.333253 0.030130
0.860966 0.323461 0.030126
0.899889 0.311797 0.030117
0.930413 0.298896 0.030115
0.950656 0.285046 0.030108
0.959801 0.269043 0.030108
0.022982 0.421851 0.030154
0.099023 0.421851 0.030156
0.192011 0.421851 0.030156
0.280785 0.421851 0.030154
0.365225 0.421850 0.030152
0.446591 0.421850 0.030148
0.533205 0.428325 0.030148
0.612053 0.428774 0.030138
0.686368 0.427226 0.030136
0.754240 0.422728 0.030130
0.812697 0.414492 0.030119
0.860966 0.402822 0.030115
0.899889 0.388887 0.030110
0.930413 0.373503 0.030109
0.950656 0.356932 0.030103
0.959800 0.337888 0.030101
0.022972 0.504926 0.030143
0.099766 0.504926 0.030143
0.193550 0.504925 0.030142
0.282956 0.504925 0.030141
0.367955 0.504925 0.030138
0.449926 0.504925 0.030139
0.529566 0.504925 0.030135
0.612052 0.509096 0.030132
0.686367 0.507266 0.030124
0.754239 0.502029 0.030114
0.812696 0.492532 0.030111
0.860966 0.479005 0.030109
0.899889 0.462876 0.030099
0.930413 0.445080 0.030096
0.950655 0.425921 0.030093
0.959800 0.403906 0.030094
0.022954 0.582744 0.030128
0.099859 0.582744 0.030128
0.193740 0.582744 0.030127
0.283255 0.582744 0.030128
0.368383 0.582744 0.030126
0.450421 0.582744 0.030119
0.530102 0.582744 0.030119
0.607847 0.582744 0.030115
0.686367 0.584747 0.030108
0.754239 0.578867 0.030104
0.812696 0.568108 0.030098
0.860965 0.552711 0.030091
0.899888 0.534546 0.030087
0.930413 0.514361 0.030083
0.950655 0.492649 0.030083
0.959800 0.467696 0.030083
0.022937 0.656008 0.030107
0.099552 0.656008 0.030109
0.193137 0.656008 0.030109
0.282411 0.656008 0.030107
0.367287 0.656008 0.030109
0.449059 0.656008 0.030105
0.528527 0.656008 0.030099
0.606184 0.656008 0.030098
0.682182 0.656008 0.030092
0.754238 0.653594 0.030088
0.812695 0.641641 0.030080
0.860965 0.624541 0.030074
0.899888 0.604176 0.030071
0.930412 0.581727 0.030069
0.950655 0.557603 0.030067
0.959800 0.529773 0.030070
0.022913 0.720924 0.030087
0.098420 0.720924 0.030087
0.190772 0.720924 0.030086
0.279099 0.720924 0.030087
0.363062 0.720924 0.030085
0.443943 0.720924 0.030084
0.522554 0.720924 0.030078
0.599345 0.720923 0.030074
0.674506 0.720923 0.030071
0.748338 0.720923 0.030068
0.812694 0.713478 0.030058
0.860964 0.694655 0.030055
0.899887 0.672223 0.030051
0.930412 0.647551 0.030053
0.950654 0.620986 0.030049
0.959799 0.590373 0.030056
0.022889 0.775412 0.030065
0.096378 0.775412 0.030065
0.186500 0.775412 0.030064
0.273046 0.775412 0.030060
0.355317 0.775412 0.030060
0.434612 0.775412 0.030056
0.511633 0.775412 0.030056
0.586838 0.775411 0.030052
0.660545 0.775411 0.030048
0.732879 0.775411 0.030041
0.804207 0.775411 0.030035
0.860964 0.763248 0.030035
0.899886 0.738763 0.030030
0.930411 0.711942 0.030030
0.950654 0.683031 0.030033
0.959799 0.649600 0.030039
0.022861 0.819681 0.030041
0.093651 0.819681 0.030040
0.180711 0.819681 0.030040
0.264867 0.819681 0.030038
0.344885 0.819681 0.030035
0.421936 0.819681 0.030034
0.496893 0.819681 0.030034
0.569982 0.819680 0.030028
0.641641 0.819680 0.030027
0.712070 0.819680 0.030017
0.781235 0.819680 0.030014
0.849604 0.819680 0.030008
0.899886 0.804206 0.030003
0.930410 0.775291 0.030005
0.950653 0.743981 0.030012
0.959798 0.707895 0.030017
0.022837 0.855836 0.030016
0.090593 0.855836 0.030016
0.174190 0.855836 0.030015
0.255681 0.855836 0.030014
0.333151 0.855836 0.030014
0.407765 0.855836 0.030015
0.480240 0.855836 0.030010
0.550966 0.855836 0.030003
0.620335 0.855836 0.030001
0.688460 0.855836 0.029995
0.755542 0.855836 0.029989
0.821747 0.855835 0.029981
0.886845 0.855835 0.029976
0.930410 0.837230 0.029976
0.950652 0.803707 0.029980
0.959798 0.765038 0.029993
0.022813 0.884897 0.029992
0.087412 0.884897 0.029995
0.167197 0.884897 0.029994
0.245848 0.884897 0.029993
0.320555 0.884897 0.029990
0.392517 0.884897 0.029987
0.462457 0.884897 0.029987
0.530679 0.884897 0.029980
0.597622 0.884897 0.029978
0.663245 0.884897 0.029974
0.727948 0.884896 0.029968
0.791663 0.884896 0.029961
0.854613 0.884952 0.029955
0.916869 0.884952 0.029948
0.950652 0.862730 0.029954
0.959797 0.821477 0.029972
0.022796 0.906680 0.029975
0.084066 0.906680 0.029975
0.159789 0.906680 0.029974
0.235381 0.906680 0.029973
0.307205 0.906680 0.029970
0.376427 0.906680 0.029972
0.443590 0.906680 0.029967
0.509186 0.906679 0.029962
0.573436 0.906679 0.029960
0.636581 0.906679 0.029954
0.698699 0.906679 0.029952
0.760104 0.906679 0.029947
0.820402 0.906679 0.029937
0.880289 0.906679 0.029930
0.937973 0.906678 0.029920
0.959797 0.876879 0.029940
0.022785 0.917438 0.029961
0.080294 0.917438 0.029961
0.151294 0.917438 0.029961
0.223412 0.917438 0.029962
0.291902 0.917438 0.029962
0.357882 0.917438 0.029962
0.421939 0.917438 0.029958
0.484495 0.917438 0.029953
0.545777 0.917438 0.029954
0.605984 0.917437 0.029948
0.665210 0.917437 0.029944
0.723650 0.917437 0.029937
0.781230 0.917437 0.029933
0.838259 0.917437 0.029926
0.894528 0.917437 0.029920
0.947656 0.917437 0.029912
0.022997 -0.000144 0.030168
0.022997 -0.000227 0.030168
0.110382 -0.000461 0.076008
0.241246 -0.000736 0.105132
0.352675 -0.001035 0.117202
0.448384 -0.001350 0.121797
0.533207 -0.001676 0.123079
0.612054 -0.002010 0.123189
0.686368 -0.002336 0.122753
0.754240 -0.002643 0.121543
0.812698 -0.002930 0.119336
0.860967 -0.003194 0.116206
0.899889 -0.003428 0.112547
0.930414 -0.003628 0.108571
0.950656 -0.003781 0.104354
0.959801 -0.003859 0.099597
0.022997 0.000000 0.030168
0.022997 0.000000 0.030168
0.119928 0.000000 0.052432
0.252035 0.000000 0.060097
0.359765 0.000000 0.061194
0.452951 0.000000 0.060539
0.536345 0.000000 0.059381
0.614327 0.000000 0.058287
0.688289 0.000000 0.057502
0.755620 0.000000 0.056872
0.813806 0.000000 0.056228
0.861731 0.000000 0.055536
0.900619 0.000000 0.054874
0.930947 0.000000 0.054311
0.951078 0.000000 0.053887
0.960264 0.000000 0.053669
0.022995 0.081966 0.079156
0.022997 0.084187 0.055550
0.115760 0.082845 0.030168
0.246497 0.122120 0.030168
0.357877 0.138615 0.030168
0.452481 0.144100 0.030168
0.536320 0.145074 0.030168
0.614547 0.144647 0.030168
0.688537 0.143575 0.030168
0.755956 0.141267 0.030168
0.813955 0.137399 0.030168
0.861946 0.132081 0.030168
0.900863 0.125918 0.030168
0.931153 0.119271 0.030168
0.951133 0.112224 0.030168
0.960316 0.104315 0.030168
0.022996 0.214942 0.106599
0.022997 0.216298 0.064117
0.155188 0.216418 0.030168
0.244674 0.215493 0.030168
0.354584 0.239391 0.030168
0.450550 0.248511 0.030168
0.535179 0.250332 0.030168
0.613813 0.249869 0.030168
0.688109 0.248371 0.030168
0.755651 0.245063 0.030168
0.813871 0.239446 0.030168
0.861816 0.231592 0.030168
0.900701 0.222348 0.030168
0.931064 0.212185 0.030168
0.951105 0.201191 0.030168
0.960316 0.188564 0.030168
0.022991 0.327388 0.117469
0.022997 0.328092 0.065801
0.169858 0.328326 0.030168
0.266820 0.328040 0.030168
0.353300 0.327698 0.030168
0.449179 0.339340 0.030168
0.534300 0.342087 0.030168
0.613114 0.341675 0.030168
0.687588 0.339869 0.030168
0.755316 0.335789 0.030168
0.813609 0.328722 0.030168
0.861686 0.318769 0.030168
0.900631 0.307073 0.030168
0.931015 0.294260 0.030168
0.951129 0.280407 0.030168
0.960270 0.264507 0.030168
0.022982 0.421851 0.121305
0.022997 0.422209 0.065197
0.174786 0.422338 0.030168
0.273944 0.422318 0.030168
0.362684 0.422170 0.030168
0.446464 0.422022 0.030168
0.533593 0.427422 0.030168
0.612584 0.427107 0.030168
0.687197 0.425061 0.030168
0.754947 0.420199 0.030168
0.813383 0.411747 0.030168
0.861503 0.399870 0.030168
0.900487 0.385837 0.030168
0.930907 0.370508 0.030168
0.951047 0.353896 0.030168
0.960226 0.334911 0.030168
0.022972 0.504926 0.122216
0.022997 0.505190 0.063949
0.175783 0.505328 0.030168
0.275158 0.505306 0.030168
0.364220 0.505195 0.030168
0.448423 0.505143 0.030168
0.529465 0.505047 0.030168
0.612263 0.508474 0.030168
0.686858 0.506144 0.030168
0.754666 0.500569 0.030168
0.813154 0.490840 0.030168
0.861307 0.477105 0.030168
0.900325 0.460900 0.030168
0.930833 0.443037 0.030168
0.950939 0.423847 0.030168
0.960144 0.401836 0.030168
0.022954 0.582744 0.122330
0.022997 0.582886 0.062786
0.175801 0.582964 0.030168
0.274944 0.582929 0.030168
0.363965 0.582919 0.030168
0.448038 0.582886 0.030168
0.529095 0.582848 0.030168
0.607807 0.582802 0.030168
0.686596 0.584320 0.030168
0.754390 0.578004 0.030168
0.812914 0.567056 0.030168
0.861130 0.551519 0.030168
0.900246 0.533117 0.030168
0.930687 0.512915 0.030168
0.950829 0.491184 0.030168
0.960061 0.466193 0.030168
0.022937 0.656008 0.121957
0.022997 0.656152 0.061960
0.175126 0.656180 0.030168
0.273872 0.656167 0.030168
0.362486 0.656146 0.030168
0.446203 0.656135 0.030168
0.526960 0.656146 0.030168
0.605460 0.656108 0.030168
0.682090 0.656031 0.030168
0.754363 0.653281 0.030168
0.812879 0.641071 0.030168
0.860980 0.623683 0.030168
0.900105 0.603264 0.030168
0.930624 0.580802 0.030168
0.950723 0.556532 0.030168
0.960026 0.528681 0.030168
0.022913 0.720924 0.120550
0.022997 0.720944 0.061214
0.172864 0.721063 0.030168
0.270408 0.721040 0.030168
0.358006 0.721006 0.030168
0.440831 0.720953 0.030168
0.520621 0.720974 0.030168
0.598187 0.721006 0.030168
0.674002 0.720923 0.030168
0.748314 0.721002 0.030168
0.812717 0.713240 0.030168
0.860982 0.694264 0.030168
0.900039 0.671647 0.030168
0.930494 0.646875 0.030168
0.950697 0.620176 0.030168
0.959996 0.589587 0.030168
0.022889 0.775412 0.118014
0.022997 0.775460 0.060380
0.168840 0.775456 0.030168
0.264407 0.775446 0.030168
0.350152 0.775425 0.030168
0.431254 0.775503 0.030168
0.509490 0.775475 0.030168
0.585470 0.775443 0.030168
0.659716 0.775459 0.030168
0.732549 0.775421 0.030168
0.804157 0.775381 0.030168
0.860938 0.762993 0.030168
0.899965 0.738537 0.030168
0.930493 0.711596 0.030168
0.950670 0.682468 0.030168
0.959951 0.649082 0.030168
0.022861 0.819681 0.114644
0.022997 0.819682 0.059491
0.163376 0.819771 0.030168
0.256332 0.819766 0.030168
0.339733 0.819757 0.030168
0.418570 0.819747 0.030168
0.494574 0.819733 0.030168
0.568428 0.819716 0.030168
0.640638 0.819698 0.030168
0.711433 0.819677 0.030168
0.780940 0.819684 0.030168
0.849605 0.819663 0.030168
0.899914 0.804179 0.030168
0.930527 0.774970 0.030168
0.950684 0.743429 0.030168
0.959815 0.707593 0.030168
0.022837 0.855836 0.110863
0.022997 0.855832 0.058681
0.157257 0.855921 0.030168
0.247301 0.855917 0.030168
0.328020 0.855911 0.030168
0.404302 0.855902 0.030168
0.477882 0.855892 0.030168
0.549292 0.855879 0.030168
0.619164 0.855864 0.030168
0.687716 0.855848 0.030168
0.754908 0.855831 0.030168
0.821328 0.855813 0.030168
0.886760 0.855871 0.030168
0.930461 0.837178 0.030168
0.950666 0.803505 0.030168
0.959810 0.764747 0.030168
0.022813 0.884897 0.106893
0.022997 0.884908 0.058020
0.150678 0.885000 0.030168
0.237622 0.884997 0.030168
0.315531 0.884992 0.030168
0.389165 0.884985 0.030168
0.460016 0.884976 0.030168
0.528999 0.884966 0.030168
0.596281 0.884954 0.030168
0.662408 0.884941 0.030168
0.727279 0.884926 0.030168
0.791377 0.884911 0.030168
0.854421 0.884896 0.030168
0.916847 0.884881 0.030168
0.950689 0.862724 0.030168
0.959796 0.821400 0.030168
0.022796 0.906680 0.102722
0.022997 0.906585 0.057540
0.143634 0.906681 0.030168
0.227328 0.906679 0.030168
0.302246 0.906675 0.030168
0.373031 0.906669 0.030168
0.441213 0.906662 0.030168
0.507403 0.906653 0.030168
0.572095 0.906642 0.030168
0.635572 0.906631 0.030168
0.697960 0.906618 0.030168
0.759458 0.906606 0.030168
0.820061 0.906592 0.030168
0.880052 0.906579 0.030168
0.937935 0.906567 0.030168
0.959826 0.876929 0.030168
0.022785 0.917438 0.098054
0.022997 0.917438 0.057298
0.135581 0.917438 0.030168
0.215535 0.917438 0.030168
0.287056 0.917438 0.030168
0.354557 0.917438 0.030168
0.419492 0.917438 0.030168
0.482723 0.917438 0.030168
0.544427 0.917438 0.030168
0.604956 0.917437 0.030168
0.664409 0.917437 0.030168
0.723045 0.917437 0.030168
0.780765 0.917437 0.030168
0.837963 0.917437 0.030168
0.894454 0.917437 0.030168
0.947636 0.917437 0.030168
0.022997 -0.000335 0.156637
0.070226 -0.000382 0.156637
0.127706 -0.000527 0.156637
0.241245 -0.000781 0.198691
0.352675 -0.001067 0.222730
0.448384 -0.001375 0.231569
0.533207 -0.001697 0.234001
0.612054 -0.002027 0.234228
0.686368 -0.002350 0.233426
0.754240 -0.002655 0.231090
0.812698 -0.002941 0.226848
0.860967 -0.003203 0.220807
0.899889 -0.003436 0.213625
0.930414 -0.003635 0.205692
0.950656 -0.003787 0.197144
0.959801 -0.003864 0.187320
0.022996 0.038438 0.156637
0.022997 0.012088 0.170533
0.134608 0.000000 0.168636
0.250690 0.000000 0.198684
0.359222 0.000000 0.214893
0.452710 0.000000 0.219865
0.536157 0.000000 0.220486
0.614284 0.000000 0.219765
0.688256 0.000000 0.218463
0.755651 0.000000 0.215915
0.813769 0.000000 0.211781
0.861711 0.000000 0.205977
0.900603 0.000000 0.199211
0.930935 0.000000 0.191754
0.951169 0.000000 0.183799
0.960257 0.000000 0.174747
0.022995 0.093073 0.156636
0.022997 0.094557 0.160478
0.108485 0.082980 0.160849
0.251027 0.076059 0.159614
0.367531 0.063939 0.150997
0.464692 0.046516 0.136541
0.548037 0.031135 0.123803
0.625135 0.019848 0.115165
0.697957 0.012410 0.110100
0.763792 0.007718 0.106893
0.820566 0.004743 0.104372
0.867305 0.002917 0.102088
0.905439 0.001834 0.100086
0.934874 0.001189 0.098461
0.954318 0.000840 0.097267
0.963139 0.000596 0.096684
0.022996 0.214942 0.201687
0.022997 0.216105 0.195076
0.080190 0.218952 0.149893
0.240917 0.216371 0.131652
0.361345 0.222412 0.117495
0.460348 0.220459 0.101507
0.545655 0.215509 0.086306
0.624247 0.210844 0.073436
0.698030 0.206743 0.063630
0.764449 0.201695 0.056426
0.821500 0.195155 0.051177
0.868288 0.187070 0.047388
0.906294 0.178016 0.044682
0.935812 0.168212 0.042811
0.955045 0.157721 0.041622
0.963890 0.145552 0.041105
0.022991 0.327388 0.223259
0.022997 0.328052 0.212208
0.050862 0.331071 0.137678
0.237264 0.330814 0.095590
0.351524 0.328889 0.090016
0.453528 0.331960 0.080046
0.540405 0.328881 0.070703
0.620109 0.324980 0.062555
0.694829 0.320886 0.056121
0.762154 0.315135 0.051256
0.819817 0.306946 0.047566
0.867035 0.296344 0.044854
0.905526 0.284383 0.042848
0.935194 0.271536 0.041457
0.954596 0.257837 0.040600
0.963500 0.242106 0.040281
0.022981 0.421851 0.230642
0.022997 0.422202 0.217608
0.034233 0.424425 0.130406
0.232410 0.424900 0.069917
0.348629 0.423956 0.067319
0.445422 0.422939 0.064089
0.536109 0.423537 0.058427
0.616568 0.419791 0.053431
0.691916 0.415548 0.049445
0.759870 0.409114 0.046390
0.818174 0.399418 0.044028
0.865769 0.386764 0.042252
0.904539 0.372278 0.040920
0.934418 0.356621 0.040020
0.954123 0.340046 0.039437
0.963182 0.321055 0.039319
0.022972 0.504926 0.232369
0.022997 0.505195 0.218368
0.025619 0.506810 0.125234
0.228765 0.507311 0.054239
0.344195 0.506873 0.053038
0.440531 0.506359 0.051485
0.528781 0.505687 0.049694
0.613795 0.506194 0.046636
0.689589 0.501683 0.044235
0.757983 0.494490 0.042435
0.816498 0.483631 0.041016
0.864672 0.468998 0.039965
0.903531 0.452241 0.039198
0.933627 0.434080 0.038667
0.953566 0.414709 0.038362
0.962577 0.392658 0.038364
0.022954 0.582744 0.232631
0.022997 0.582880 0.218039
0.022997 0.584085 0.121414
0.226601 0.584571 0.045111
0.340900 0.584418 0.044522
0.436357 0.584067 0.043812
0.524080 0.583721 0.042916
0.607360 0.583264 0.041979
0.687734 0.582931 0.040585
0.756211 0.575032 0.039539
0.815114 0.562865 0.038809
0.863469 0.546490 0.038233
0.902664 0.527527 0.037835
0.932974 0.506947 0.037598
0.952968 0.484962 0.037481
0.962123 0.459884 0.037558
0.022937 0.656008 0.231947
0.022997 0.656150 0.217127
0.022997 0.657096 0.118839
0.224589 0.657584 0.040164
0.337675 0.657459 0.039886
0.432334 0.657216 0.039530
0.519314 0.657035 0.039157
0.601986 0.656721 0.038711
0.681781 0.656421 0.038233
0.754937 0.652320 0.037723
0.814022 0.638897 0.037389
0.862614 0.620771 0.037157
0.901825 0.599700 0.036992
0.932312 0.576735 0.036903
0.952453 0.552276 0.036887
0.961712 0.524290 0.036974
0.022912 0.720924 0.229247
0.022997 0.720940 0.214382
0.022997 0.721838 0.116623
0.220918 0.722273 0.037697
0.332287 0.722132 0.037605
0.425520 0.721903 0.037474
0.511324 0.721898 0.037321
0.592870 0.721823 0.037150
0.671618 0.721606 0.036972
0.748161 0.721269 0.036813
0.813243 0.712559 0.036705
0.861873 0.692697 0.036657
0.901206 0.669451 0.036632
0.931894 0.644283 0.036637
0.951988 0.617331 0.036638
0.961263 0.586506 0.036659
0.022888 0.775412 0.224415
0.022997 0.775458 0.209752
0.022997 0.776030 0.114256
0.215175 0.776435 0.036748
0.324049 0.776394 0.036722
0.415247 0.776309 0.036689
0.499093 0.776109 0.036659
0.578833 0.776021 0.036637
0.655824 0.775964 0.036627
0.730727 0.775818 0.036648
0.803846 0.775697 0.036715
0.861246 0.762593 0.036759
0.900666 0.737330 0.036812
0.931372 0.709911 0.036820
0.951607 0.680511 0.036781
0.960940 0.647007 0.036680
0.022864 0.819681 0.217818
0.022997 0.819681 0.203508
0.022997 0.820240 0.111810
0.207752 0.820490 0.036688
0.313626 0.820435 0.036704
0.402172 0.820406 0.036731
0.483612 0.820271 0.036781
0.560997 0.820267 0.036843
0.635783 0.820178 0.036934
0.708515 0.820101 0.037055
0.779518 0.819976 0.037213
0.849372 0.819884 0.037414
0.900257 0.803819 0.037450
0.930980 0.774142 0.037424
0.951287 0.742443 0.037302
0.960684 0.706185 0.037053
0.022841 0.855836 0.210376
0.022997 0.855831 0.196561
0.022997 0.856245 0.109615
0.199510 0.856481 0.037174
0.302101 0.856520 0.037213
0.387756 0.856432 0.037268
0.466603 0.856378 0.037345
0.541460 0.856416 0.037443
0.613723 0.856313 0.037574
0.684078 0.856230 0.037730
0.752804 0.856116 0.037927
0.820313 0.856043 0.038193
0.886568 0.855953 0.038514
0.930688 0.837046 0.038402
0.951000 0.802847 0.038143
0.960296 0.763968 0.037703
0.022813 0.884897 0.202410
0.022997 0.884907 0.189186
0.023197 0.885349 0.107809
0.190550 0.885521 0.037852
0.289881 0.885467 0.037897
0.372625 0.885495 0.037968
0.448588 0.885395 0.038067
0.520768 0.885417 0.038196
0.590476 0.885352 0.038361
0.658209 0.885340 0.038556
0.724439 0.885267 0.038797
0.789511 0.885231 0.039073
0.853464 0.885132 0.039363
0.916659 0.885157 0.039737
0.950750 0.862523 0.039348
0.960155 0.820985 0.038690
0.022795 0.906680 0.193950
0.022997 0.906584 0.181326
0.023918 0.906962 0.106517
0.180865 0.907171 0.038583
0.276869 0.907125 0.038634
0.356578 0.907189 0.038711
0.429600 0.907106 0.038810
0.499044 0.907142 0.038936
0.565981 0.907106 0.039101
0.631078 0.907005 0.039289
0.694687 0.906974 0.039497
0.757340 0.906944 0.039776
0.818699 0.906919 0.040114
0.879343 0.906867 0.040471
0.937731 0.906798 0.040870
0.959925 0.876851 0.039962
0.022785 0.917438 0.184235
0.022997 0.917438 0.172408
0.110270 0.917438 0.144339
0.211027 0.917438 0.156540
0.284373 0.917438 0.156550
0.352747 0.917438 0.156549
0.418286 0.917438 0.156567
0.481734 0.917438 0.156564
0.543739 0.917438 0.156561
0.604385 0.917438 0.156557
0.663983 0.917437 0.156551
0.722777 0.917437 0.156558
0.780643 0.917437 0.156551
0.837877 0.917437 0.156544
0.894371 0.917437 0.156537
0.947609 0.917437 0.156528
0.022996 -0.000548 0.297347
0.089214 -0.000578 0.297347
0.170978 -0.000690 0.297347
0.251127 -0.000861 0.297347
0.352675 -0.001129 0.319579
0.448384 -0.001424 0.331851
0.533207 -0.001737 0.335220
0.612054 -0.002061 0.335556
0.686368 -0.002379 0.334409
0.754240 -0.002680 0.331163
0.812698 -0.002962 0.325317
0.860967 -0.003221 0.316923
0.899889 -0.003452 0.306954
0.930414 -0.003649 0.295942
0.950656 -0.003799 0.284085
0.959801 -0.003875 0.270438
0.022996 0.056209 0.297347
0.022997 0.014745 0.313737
0.168232 0.000000 0.311100
0.257450 0.000000 0.306235
0.358276 0.000000 0.321359
0.452297 0.000000 0.329379
0.535943 0.000000 0.330533
0.614199 0.000000 0.329732
0.688169 0.000000 0.327926
0.755523 0.000000 0.324329
0.813752 0.000000 0.318266
0.861672 0.000000 0.309841
0.900628 0.000000 0.300020
0.931001 0.000000 0.289174
0.951151 0.000000 0.277578
0.960242 0.000000 0.264291
0.022996 0.136134 0.297346
0.022997 0.131015 0.304214
0.104919 0.082429 0.311551
0.251675 0.072967 0.309713
0.366748 0.060176 0.316255
0.463721 0.043755 0.313937
0.547259 0.029470 0.307884
0.624607 0.018895 0.302426
0.697652 0.011884 0.297846
0.763555 0.007418 0.292587
0.820435 0.004595 0.285764
0.867200 0.002827 0.277406
0.905335 0.001778 0.268164
0.934769 0.001154 0.258400
0.954185 0.000809 0.248228
0.963141 0.000589 0.236905
0.022995 0.221506 0.297346
0.022997 0.222167 0.299060
0.076924 0.220261 0.304127
0.238517 0.214900 0.302330
0.361289 0.209831 0.297573
0.462246 0.201242 0.288428
0.551001 0.187061 0.275029
0.633044 0.167564 0.258325
0.708836 0.147510 0.242243
0.775301 0.129999 0.228240
0.831294 0.115736 0.216230
0.877041 0.104502 0.206152
0.914179 0.095868 0.197948
0.942243 0.089386 0.191620
0.960501 0.084966 0.187138
0.968836 0.082861 0.184989
0.022990 0.327388 0.320311
0.022997 0.327970 0.317552
0.049536 0.330512 0.305143
0.214457 0.331118 0.285442
0.350239 0.328693 0.283244
0.456296 0.325744 0.274726
0.546765 0.317958 0.261998
0.629686 0.308465 0.246588
0.706620 0.298437 0.231039
0.774473 0.287363 0.216688
0.831518 0.275177 0.204004
0.877821 0.262188 0.193159
0.915511 0.249134 0.184235
0.943687 0.236201 0.177227
0.961838 0.223361 0.172298
0.970192 0.210047 0.170210
0.022980 0.421851 0.330543
0.022997 0.422192 0.325644
0.033736 0.424208 0.303203
0.176830 0.426655 0.258392
0.333340 0.425772 0.253889
0.444226 0.423676 0.247099
0.539931 0.418966 0.235208
0.623363 0.410901 0.222363
0.700829 0.403036 0.210210
0.769636 0.393349 0.199291
0.827560 0.381328 0.189656
0.874853 0.367030 0.181398
0.913151 0.351833 0.174552
0.941886 0.336118 0.169194
0.960618 0.319979 0.165538
0.969188 0.302325 0.164439
0.022971 0.504925 0.332973
0.022997 0.505174 0.326973
0.025440 0.506707 0.299549
0.143219 0.509281 0.234420
0.312818 0.509616 0.220052
0.428693 0.508297 0.215181
0.527793 0.506727 0.209279
0.616903 0.503069 0.199208
0.695037 0.495309 0.190045
0.764732 0.485613 0.182066
0.823762 0.472629 0.175080
0.871691 0.456628 0.169117
0.910471 0.439133 0.164180
0.939966 0.420666 0.160413
0.959206 0.401548 0.158037
0.967990 0.380219 0.157860
0.022952 0.582744 0.333313
0.022997 0.582869 0.326679
0.022997 0.584082 0.296535
0.118484 0.586508 0.217309
0.296532 0.587341 0.190684
0.415925 0.586515 0.187497
