src/colors/vibrant_&_colorful/valentine_pop.cube
LUT_3D_SIZE 6
0.022997 0.000000 0.030168
0.241246 -0.000726 0.030171
0.533207 -0.001672 0.030163
0.754240 -0.002640 0.030149
0.899889 -0.003426 0.030133
0.959801 -0.003858 0.030115
0.022996 0.214942 0.030169
0.244885 0.214941 0.030167
0.533207 0.256804 0.030158
0.754240 0.253048 0.030143
0.899889 0.230438 0.030125
0.959801 0.196259 0.030112
0.022972 0.504926 0.030143
0.282956 0.504925 0.030141
0.529566 0.504925 0.030135
0.754239 0.502029 0.030114
0.899889 0.462876 0.030099
0.959800 0.403906 0.030094
0.022913 0.720924 0.030087
0.279099 0.720924 0.030087
0.522554 0.720924 0.030078
0.748338 0.720923 0.030068
0.899887 0.672223 0.030051
0.959799 0.590373 0.030056
0.022837 0.855836 0.030016
0.255681 0.855836 0.030014
0.480240 0.855836 0.030010
0.688460 0.855836 0.029995
0.886845 0.855835 0.029976
0.959798 0.765038 0.029993
0.022785 0.917438 0.029961
0.223412 0.917438 0.029962
0.421939 0.917438 0.029958
0.605984 0.917437 0.029948
0.781230 0.917437 0.029933
0.947656 0.917437 0.029912
0.022996 -0.000548 0.297347
0.251127 -0.000861 0.297347
0.533207 -0.001737 0.335220
0.754240 -0.002680 0.331163
0.899889 -0.003452 0.306954
0.959801 -0.003875 0.270438
0.022995 0.221506 0.297346
0.238517 0.214900 0.302330
0.551001 0.187061 0.275029
0.775301 0.129999 0.228240
0.914179 0.095868 0.197948
0.968836 0.082861 0.184989
0.022971 0.504925 0.332973
0.143219 0.509281 0.234420
0.527793 0.506727 0.209279
0.764732 0.485613 0.182066
0.910471 0.439133 0.164180
0.967990 0.380219 0.157860
0.022914 0.720924 0.328646
0.091970 0.723486 0.198647
0.493464 0.723699 0.148448
0.747661 0.721981 0.141537
0.903900 0.666139 0.136524
0.964401 0.582231 0.137749
0.022838 0.855836 0.302452
0.078437 0.857224 0.182398
0.444059 0.857600 0.125002
0.677156 0.857142 0.122855
0.886161 0.856431 0.120086
0.961591 0.762887 0.122986
0.022784 0.917438 0.266196
0.241177 0.917438 0.275472
0.437933 0.917438 0.297326
0.613195 0.917437 0.297322
0.784340 0.917437 0.297317
0.948258 0.917437 0.297298
0.022996 -0.001262 0.595121
0.278390 -0.001439 0.595121
0.521269 -0.001984 0.595121
0.754240 -0.002841 0.600951
0.899889 -0.003560 0.558270
0.959801 -0.003947 0.494148
0.022991 0.249978 0.595121
0.223571 0.197153 0.618178
0.534795 0.171220 0.615058
0.772903 0.121365 0.598255
0.913184 0.092194 0.543909
0.968412 0.081004 0.480054
0.022968 0.496695 0.595120
0.136546 0.497798 0.601563
0.529563 0.504328 0.602080
0.771589 0.494752 0.591031
0.922006 0.479951 0.571782
0.972172 0.481386 0.567431
0.022908 0.720924 0.596488
0.090732 0.723143 0.579418
0.477981 0.727690 0.561507
0.748989 0.723403 0.559981
0.913402 0.677840 0.551192
0.970912 0.628247 0.561646
0.022834 0.855836 0.550392
0.078164 0.857168 0.528080
0.424368 0.862060 0.511731
0.675832 0.861362 0.515591
0.887037 0.858243 0.505130
0.967343 0.774985 0.514652
0.022779 0.917438 0.486702
0.241176 0.917438 0.489366
0.533179 0.917438 0.578012
0.674715 0.917437 0.595106
0.811422 0.917437 0.595105
0.951425 0.917437 0.595104
0.022986 -0.001993 0.822435
0.272722 -0.002105 0.822435
0.511074 -0.002512 0.822435
0.732040 -0.003134 0.822435
0.899889 -0.003767 0.786583
0.959801 -0.004088 0.697224
0.022981 0.244105 0.822435
0.185551 0.159754 0.849750
0.505676 0.139817 0.845901
0.743389 0.107633 0.837917
0.911284 0.085861 0.790531
0.967692 0.077600 0.697225
0.022955 0.486486 0.822435
0.121534 0.472504 0.834549
0.523463 0.495759 0.845012
0.754040 0.489314 0.842193
0.920912 0.474666 0.801953
0.972000 0.478297 0.735029
0.022902 0.705045 0.822433
0.088543 0.705529 0.825527
0.471155 0.712193 0.833674
0.749144 0.718361 0.830659
0.910477 0.715285 0.821327
0.969760 0.712192 0.812423
0.022827 0.855836 0.775571
0.077676 0.856934 0.770365
0.420727 0.861164 0.769282
0.720691 0.860301 0.802131
0.894248 0.857341 0.810059
0.966032 0.817499 0.811649
0.022773 0.917438 0.686899
0.241173 0.917438 0.687717
0.533178 0.917438 0.726782
0.754233 0.917437 0.807208
0.863643 0.917437 0.822429
0.957035 0.917436 0.822429
0.022977 -0.002586 0.955022
0.246670 -0.002661 0.955022
0.463966 -0.002951 0.955021
0.665402 -0.003441 0.955021
0.857295 -0.004067 0.955020
0.959800 -0.004300 0.888046
0.022972 0.216803 0.955021
0.239384 0.205810 0.955508
0.464765 0.212710 0.955508
0.666592 0.211376 0.955508
0.858991 0.208924 0.955508
0.966564 0.073015 0.894485
0.022947 0.439304 0.955021
0.236629 0.436251 0.955508
0.532778 0.498721 0.955508
0.700008 0.504419 0.955508
0.869982 0.503964 0.955508
0.971801 0.472998 0.909407
0.022896 0.639491 0.955019
0.228374 0.638421 0.955508
0.531444 0.664210 0.955508
0.753858 0.714148 0.955508
0.887492 0.720681 0.955508
0.969425 0.710145 0.933491
0.022815 0.827228 0.955017
0.194110 0.827411 0.955508
0.526253 0.834097 0.955508
0.751837 0.843926 0.955508
0.899524 0.854124 0.955508
0.959373 0.855629 0.955508
0.022768 0.917437 0.874884
0.241168 0.917437 0.874840
0.533177 0.917437 0.886554
0.754233 0.917437 0.916320
0.899883 0.917437 0.954579
0.959795 0.917436 0.954596
0.022972 -0.002912 1.057906
0.223411 -0.002961 1.057906
0.421908 -0.003161 1.057906
0.605993 -0.003520 1.057905
0.781240 -0.004005 1.057905
0.947660 -0.004579 1.057905
0.022967 0.192267 1.057906
0.241228 0.207544 1.057906
0.430658 0.214920 1.057905
0.609874 0.214942 1.057905
0.782942 0.214931 1.057905
0.948054 0.214916 1.057905
0.022947 0.397004 1.057905
0.241217 0.401741 1.057905
0.533200 0.499040 1.057905
0.665400 0.504922 1.057905
0.807048 0.504921 1.057905
0.950707 0.504919 1.057905
0.022909 0.580861 1.057905
0.241196 0.582836 1.057905
0.533195 0.629352 1.057905
0.754237 0.714217 1.057904
0.853542 0.720920 1.057904
0.955125 0.720919 1.057904
0.022845 0.753040 1.057904
0.241167 0.753719 1.057904
0.533187 0.771996 1.057904
0.754235 0.809380 1.057904
0.899884 0.854051 1.057904
0.959044 0.855834 1.057904
0.022753 0.917437 1.057904
0.241164 0.917437 1.057904
0.533176 0.917437 1.057903
0.754233 0.917437 1.057903
0.899883 0.917436 1.057903
0.959795 0.917436 1.057903
