src/colors/vibrant_&_colorful/warm_to_cool.cube
TITLE "Generated by Resolve"
LUT_3D_SIZE 33
0 9.15541e-05 0.00111391
0.00648508 0 0.0037995
0.0208438 0.000228885 0.00790417
0.0412909 0.000793469 0.0122683
0.073579 0.00172427 0.0184176
0.111406 0.00289921 0.0252842
0.148531 0.00430304 0.032166
0.18497 0.00595102 0.0392004
0.220081 0.0077821 0.0461891
0.253635 0.00976577 0.0530556
0.285801 0.011902 0.0599222
0.315694 0.014374 0.066804
0.343221 0.0168917 0.0734569
0.369497 0.0196689 0.0802625
0.394095 0.0222019 0.0868086
0.41767 0.0247501 0.0927749
0.440833 0.0276188 0.0986496
0.463035 0.0302434 0.104326
0.485191 0.0332341 0.110292
0.506691 0.0361486 0.116182
0.528252 0.0393988 0.122194
0.549538 0.0426642 0.128222
0.570642 0.0459602 0.134264
0.591867 0.0497749 0.141207
0.61355 0.0536049 0.14844
0.637644 0.0582895 0.156146
0.662959 0.0631113 0.163897
0.688701 0.0682689 0.171817
0.714412 0.07364 0.17969
0.740536 0.0801404 0.188083
0.766445 0.0870375 0.196353
0.792309 0.0938735 0.204623
0.818143 0.100618 0.213077
0.000259403 0.0104372 0.00544747
0.00917067 0.0113222 0.00276188
0.0258946 0.0116426 0.00489815
0.0424506 0.0120241 0.00784314
0.0705577 0.0124056 0.0123598
0.107897 0.0133974 0.0187076
0.144411 0.0152895 0.0258946
0.18056 0.0174105 0.0331426
0.215732 0.0197452 0.0403449
0.249744 0.0222171 0.0475319
0.282856 0.0251621 0.0550088
0.313924 0.027863 0.06215
0.342931 0.0306401 0.0690471
0.369955 0.0332952 0.0756237
0.396094 0.0363317 0.0826734
0.420798 0.0391394 0.0890516
0.4448 0.0421607 0.0953536
0.467842 0.0451972 0.101198
0.490333 0.0482795 0.107118
0.513237 0.052842 0.11368
0.535637 0.0577401 0.11986
0.558068 0.0632029 0.126177
0.580209 0.0687572 0.13257
0.602518 0.0749065 0.13991
0.624414 0.0809339 0.147601
0.646784 0.0872053 0.155322
0.67068 0.0930648 0.163119
0.695857 0.0987411 0.170962
0.72192 0.104616 0.179049
0.747768 0.110414 0.187213
0.773449 0.116258 0.195392
0.799023 0.121904 0.20354
0.824506 0.127626 0.211765
0.00352483 0.0437781 0.00985733
0.0136568 0.0416571 0.00704967
0.0289158 0.0404822 0.0110628
0.044419 0.0423133 0.0122835
0.0674144 0.0439155 0.0125582
0.102144 0.0441138 0.0173495
0.141863 0.0442206 0.0240787
0.180728 0.0445106 0.0307469
0.218555 0.0449073 0.0371862
0.254536 0.0458076 0.0438697
0.288258 0.0483406 0.0516823
0.319722 0.051133 0.0595254
0.349569 0.0543374 0.0669566
0.377523 0.0575418 0.0740063
0.404669 0.0613107 0.0809644
0.430945 0.0654459 0.0882734
0.456123 0.0698558 0.094667
0.480415 0.0742962 0.101122
0.504219 0.0792401 0.107942
0.527642 0.0846265 0.114763
0.550393 0.0895857 0.121401
0.572961 0.0946975 0.128176
0.595132 0.0997482 0.135317
0.617533 0.105165 0.143465
0.639338 0.110246 0.151598
0.660899 0.11516 0.159686
0.683284 0.120195 0.167788
0.707134 0.125277 0.17583
0.732341 0.130526 0.183993
0.757778 0.135531 0.19202
0.783154 0.140597 0.200092
0.808469 0.145556 0.208133
0.833692 0.150896 0.216281
0.00907912 0.0871901 0.014313
0.0200504 0.0842145 0.0122072
0.0348058 0.0801862 0.0175021
0.0500954 0.080354 0.0233921
0.0707408 0.082887 0.0259556
0.0999466 0.08542 0.0254063
0.136568 0.0865797 0.0258335
0.175723 0.0869612 0.030045
0.214633 0.0870222 0.0365606
0.25214 0.0878767 0.0438087
0.287526 0.0888991 0.0512551
0.32134 0.090425 0.0585946
0.353246 0.0922866 0.0657664
0.382986 0.0943618 0.072694
0.411856 0.0971695 0.079881
0.439368 0.100008 0.0870069
0.465827 0.103075 0.0934462
0.491402 0.106508 0.100252
0.516243 0.110124 0.106996
0.540734 0.114153 0.113924
0.563897 0.118425 0.121233
0.586694 0.122988 0.129274
0.609094 0.127611 0.137377
0.631571 0.132601 0.146181
0.65359 0.137591 0.154681
0.675227 0.142214 0.163043
0.69688 0.146868 0.171405
0.719219 0.151659 0.179675
0.743084 0.156603 0.187839
0.768063 0.161288 0.195941
0.792996 0.165881 0.203845
0.817838 0.170459 0.211658
0.84271 0.175174 0.219593
0.0154421 0.129381 0.0196078
0.026566 0.126421 0.0173342
0.0409857 0.12079 0.0220188
0.0562142 0.119066 0.0298466
0.0778973 0.120607 0.0364233
0.108095 0.123278 0.0397498
0.138964 0.126101 0.040589
0.173053 0.127962 0.0406806
0.20972 0.128969 0.0419776
0.247501 0.129534 0.0450599
0.283665 0.13019 0.0514992
0.318608 0.131182 0.059205
0.351644 0.132387 0.066743
0.382376 0.134157 0.0740978
0.41239 0.136294 0.0818952
0.441108 0.138445 0.0891127
0.468666 0.141009 0.0961013
0.495247 0.143893 0.103166
0.521401 0.147005 0.110491
0.546441 0.150347 0.117678
0.570962 0.15349 0.125429
0.595041 0.156741 0.133715
0.618585 0.160311 0.141604
0.642115 0.163973 0.149844
0.665019 0.167575 0.157809
0.687617 0.171145 0.165713
0.709941 0.174594 0.173526
0.731807 0.17879 0.181918
0.754482 0.183307 0.190387
0.777829 0.187549 0.198428
0.802319 0.191623 0.206241
0.82678 0.195651 0.214008
0.851148 0.199603 0.221668
0.0227054 0.170413 0.026688
0.0339513 0.167788 0.0240482
0.0473487 0.161456 0.0264286
0.0636912 0.158618 0.0346685
0.0869764 0.158755 0.0438392
0.118212 0.160891 0.0501411
0.148119 0.163485 0.0538338
0.178408 0.16643 0.0556039
0.210819 0.168902 0.0564126
0.245167 0.170321 0.0574655
0.280613 0.171115 0.0595102
0.31574 0.17174 0.0635538
0.348806 0.172778 0.0702678
0.380362 0.17406 0.0772564
0.410864 0.175738 0.0847486
0.440345 0.177447 0.0920119
0.468971 0.1794 0.0994583
0.496788 0.181613 0.107179
0.523873 0.184161 0.115221
0.549813 0.186709 0.123156
0.575158 0.189471 0.131304
0.599878 0.192111 0.139574
0.624231 0.195315 0.147646
0.647822 0.198245 0.155612
0.671046 0.201221 0.163531
0.693812 0.204318 0.171344
0.716533 0.207462 0.179248
0.739101 0.210864 0.187243
0.761364 0.213855 0.194766
0.784649 0.2168 0.202014
0.808774 0.21976 0.209079
0.833661 0.22266 0.216007
0.858473 0.225513 0.222904
0.0308843 0.210864 0.0346685
0.0423743 0.208591 0.0320592
0.0543069 0.201938 0.0317845
0.0704204 0.198444 0.0389563
0.0945907 0.19733 0.0495766
0.12755 0.19855 0.0581369
0.15819 0.2009 0.0641031
0.187976 0.203616 0.0680552
0.217914 0.206622 0.0705272
0.248631 0.209003 0.0717632
0.280812 0.210605 0.0729229
0.314076 0.211749 0.0747845
0.347463 0.212482 0.0776226
0.378744 0.213764 0.0849012
0.409003 0.214878 0.0917678
0.438804 0.216144 0.0989242
0.467979 0.217548 0.106188
0.496345 0.219226 0.113695
0.524178 0.221302 0.121584
0.550805 0.223224 0.129351
0.576745 0.225299 0.13727
0.602014 0.227436 0.14522
0.626856 0.230045 0.153307
0.650965 0.232532 0.161227
0.674525 0.235004 0.169009
0.697566 0.237476 0.176669
0.720348 0.24007 0.18439
0.743084 0.242969 0.192248
0.76524 0.245624 0.199832
0.788022 0.24799 0.206973
0.811002 0.250507 0.213901
0.835416 0.252903 0.220554
0.860105 0.25536 0.227253
0.0397955 0.250126 0.0433814
0.0514382 0.248295 0.0408637
0.0636759 0.24152 0.0401465
0.0763409 0.237827 0.042771
0.100771 0.236042 0.0542916
0.135576 0.236255 0.0644388
0.167483 0.237903 0.0722515
0.197864 0.240284 0.0780041
0.227298 0.242985 0.0819867
0.256168 0.245624 0.084535
0.285695 0.247929 0.0864271
0.31606 0.249531 0.0880293
0.346944 0.250751 0.0901961
0.377859 0.252033 0.0934615
0.40795 0.252842 0.0986954
0.437186 0.253834 0.105837
0.466117 0.254826 0.112993
0.494881 0.256168 0.120516
0.522744 0.257557 0.128069
0.549874 0.2589 0.135637
0.576211 0.26041 0.14345
0.601892 0.262089 0.151003
0.627039 0.26389 0.158724
0.651545 0.265843 0.166445
0.675502 0.267781 0.17409
0.698787 0.269871 0.181613
0.722057 0.271946 0.189273
0.74464 0.274159 0.196719
0.767025 0.276173 0.20412
0.789487 0.278233 0.211261
0.812207 0.280415 0.218067
0.836072 0.282536 0.224826
0.860166 0.284459 0.231113
0.0492561 0.287953 0.0526436
0.0610971 0.286793 0.0504311
0.0733959 0.279988 0.0493324
0.085069 0.275944 0.0503853
0.105745 0.273777 0.0584115
0.142275 0.273548 0.0695964
0.175692 0.27454 0.078996
0.2065 0.276295 0.086183
0.235935 0.27834 0.0913405
0.264546 0.280674 0.0953078
0.292592 0.282918 0.0981918
0.320943 0.284932 0.10042
0.34992 0.28687 0.102937
0.378485 0.287999 0.105333
0.407309 0.288991 0.108431
0.436393 0.289693 0.112154
0.464759 0.290562 0.119432
0.492805 0.291386 0.126757
0.520333 0.292287 0.134112
0.547448 0.293156 0.141665
0.573938 0.29424 0.148974
0.600183 0.295521 0.156603
0.625345 0.296818 0.164004
0.649973 0.29807 0.171344
0.674189 0.299489 0.17879
0.697932 0.301076 0.186175
0.721462 0.302831 0.193652
0.744244 0.304387 0.200824
0.76669 0.306111 0.207996
0.78909 0.307713 0.215061
0.812024 0.309651 0.221927
0.835065 0.311391 0.228504
0.858885 0.312871 0.234562
0.058854 0.324239 0.0633249
0.070161 0.323934 0.0607004
0.0826734 0.31696 0.059205
0.093492 0.312627 0.0597696
0.109575 0.310628 0.0633249
0.147066 0.309972 0.0746319
0.181399 0.31017 0.0847181
0.213413 0.311238 0.093019
0.243366 0.312749 0.0993668
0.271977 0.314473 0.104265
0.299718 0.316503 0.108217
0.327062 0.318547 0.111406
0.354284 0.320363 0.114244
0.381094 0.321752 0.116777
0.408057 0.322698 0.119493
0.435538 0.323507 0.122759
0.4636 0.324453 0.126894
0.491142 0.324895 0.132326
0.518059 0.325383 0.139742
0.544579 0.325963 0.146822
0.571191 0.326833 0.154299
0.597009 0.327596 0.161593
0.622339 0.328435 0.168841
0.647196 0.32929 0.176074
0.671672 0.330404 0.183368
0.695689 0.331487 0.190585
0.719112 0.332692 0.19765
0.742184 0.333867 0.204669
0.765026 0.335149 0.211719
0.787655 0.336721 0.218814
0.810315 0.337987 0.225345
0.833066 0.33933 0.231785
0.856687 0.340658 0.237842
0.0684215 0.358602 0.0746929
0.0785992 0.359045 0.0711376
0.0910658 0.352483 0.0695354
0.100801 0.348104 0.0699321
0.11667 0.346166 0.0735027
0.150195 0.345129 0.0792706
0.185504 0.344564 0.0897383
0.218387 0.344869 0.0988327
0.249027 0.3458 0.106233
0.278065 0.347097 0.112184
0.305928 0.348791 0.117067
0.33286 0.350393 0.120912
0.358938 0.351934 0.124193
0.384588 0.353292 0.127138
0.410254 0.354406 0.130098
0.436393 0.355337 0.133562
0.462654 0.356039 0.136965
0.48925 0.356512 0.140612
0.515999 0.356863 0.14493
0.542367 0.357412 0.151644
0.568124 0.357778 0.158831
0.593576 0.358175 0.166003
0.618753 0.358679 0.173129
0.643717 0.359319 0.180346
0.668238 0.360067 0.187472
0.69218 0.360784 0.194461
0.715923 0.361486 0.201419
0.739178 0.362432 0.208331
0.762341 0.363561 0.215335
0.784955 0.364599 0.222065
0.807721 0.365591 0.228519
0.830488 0.366613 0.234836
0.853971 0.36788 0.24097
0.0777142 0.390585 0.0867933
0.0862898 0.391485 0.0816815
0.098024 0.385458 0.0798047
0.10692 0.381506 0.0806439
0.122683 0.379278 0.0840925
0.153826 0.378058 0.0875715
0.188098 0.377264 0.0945907
0.221698 0.376776 0.104082
0.253254 0.377279 0.112444
0.282628 0.377981 0.119112
0.310491 0.379049 0.124544
0.337255 0.380194 0.129046
0.363134 0.381384 0.133089
0.388174 0.382635 0.136461
0.412863 0.38381 0.139483
0.437644 0.38471 0.142565
0.462821 0.385367 0.145815
0.488289 0.385962 0.149416
0.514 0.386435 0.153429
0.539773 0.386648 0.157733
0.565469 0.386831 0.162631
0.59057 0.387106 0.169818
0.615473 0.387457 0.176928
0.64004 0.387793 0.183948
0.664302 0.38822 0.19089
0.688365 0.388571 0.197803
0.712322 0.389288 0.204822
0.735729 0.389838 0.211566
0.75877 0.390494 0.218265
0.781704 0.39118 0.224933
0.8047 0.392111 0.231464
0.827588 0.393011 0.237705
0.850629 0.393805 0.24358
0.0865492 0.420096 0.0982528
0.092256 0.421546 0.0915694
0.10338 0.416388 0.090547
0.111528 0.412787 0.0916152
0.127428 0.410071 0.0941024
0.157412 0.408789 0.0973678
0.189899 0.407919 0.100649
0.223728 0.407095 0.109422
0.255589 0.406683 0.117861
0.285328 0.406821 0.125124
0.313451 0.40737 0.131167
0.340536 0.40827 0.136584
0.366522 0.409308 0.140703
0.39118 0.410269 0.144213
0.415091 0.411017 0.147356
0.439048 0.411872 0.150622
0.463523 0.412772 0.154147
0.487968 0.413382 0.157595
0.512612 0.413779 0.161212
0.537438 0.413977 0.165072
0.562661 0.414359 0.169512
0.58764 0.414496 0.174044
0.612329 0.414572 0.179995
0.636561 0.414725 0.186954
0.660914 0.415137 0.194003
0.684779 0.415412 0.200839
0.708415 0.415747 0.207568
0.731899 0.416144 0.214313
0.755291 0.416831 0.221103
0.778241 0.417273 0.227649
0.801129 0.417929 0.234012
0.824109 0.418433 0.240146
0.847257 0.41915 0.246128
0.0945907 0.448524 0.110246
0.0994125 0.449607 0.103593
0.106981 0.445914 0.100694
0.114549 0.442542 0.10193
0.131212 0.440131 0.104173
0.160037 0.438209 0.106996
0.192172 0.436927 0.110048
0.224353 0.436057 0.114565
0.256779 0.435294 0.123415
0.287312 0.435187 0.131395
0.315724 0.435264 0.138094
0.342794 0.435615 0.143221
0.368673 0.436194 0.147753
0.393439 0.436866 0.151644
0.417441 0.437842 0.155337
0.440879 0.438499 0.158602
0.464317 0.439155 0.161944
0.48809 0.439597 0.165316
0.51223 0.440345 0.169131
0.536233 0.44065 0.172763
0.560494 0.44097 0.176715
0.584772 0.44097 0.180743
0.609384 0.441321 0.185382
0.633829 0.441291 0.189944
0.657572 0.44152 0.196765
0.681224 0.441688 0.203571
0.705028 0.4421 0.210437
0.728359 0.442298 0.217044
0.751476 0.442679 0.223621
0.774533 0.443 0.230152
0.797696 0.443595 0.236606
0.8206 0.444038 0.242725
0.84358 0.44448 0.248585
0.101884 0.475578 0.123934
0.106462 0.476661 0.11809
0.110124 0.474174 0.112856
0.116091 0.471305 0.112245
0.133318 0.468635 0.114031
0.161715 0.466773 0.11667
0.19379 0.465415 0.119615
0.225238 0.464347 0.122499
0.257298 0.463294 0.129564
0.287953 0.462547 0.137728
0.316808 0.462165 0.144305
0.344244 0.462226 0.149767
0.370459 0.462715 0.154803
0.395331 0.463081 0.158923
0.418997 0.463523 0.162554
0.44242 0.464042 0.166018
0.465736 0.464988 0.16965
0.488869 0.465522 0.173098
0.512032 0.46595 0.176577
0.535393 0.466316 0.180102
0.559258 0.466819 0.184024
0.582986 0.467094 0.187869
0.606806 0.467262 0.191897
0.630655 0.467292 0.196063
0.654765 0.46746 0.200626
0.678401 0.467643 0.206256
0.701717 0.467781 0.212955
0.724849 0.467918 0.219516
0.748119 0.46836 0.2262
0.771038 0.468589 0.232624
0.793866 0.468894 0.238865
0.8168 0.469215 0.245014
0.839994 0.46981 0.251102
0.108736 0.501869 0.138979
0.113161 0.502892 0.133715
0.116747 0.500938 0.129015
0.120378 0.49836 0.125444
0.134524 0.496452 0.124086
0.162676 0.49427 0.126329
0.194476 0.492638 0.129
0.225757 0.491341 0.131762
0.256779 0.490272 0.136141
0.288014 0.489418 0.143999
0.317433 0.488731 0.150439
0.345083 0.488472 0.156268
0.37145 0.488426 0.161364
0.396368 0.488655 0.165805
0.420417 0.489097 0.169863
0.443854 0.489464 0.17351
0.466835 0.489967 0.176928
0.489616 0.490517 0.180331
0.512673 0.491218 0.18407
0.5355 0.491661 0.187549
0.558541 0.491997 0.191089
0.581735 0.492271 0.19469
0.605035 0.492546 0.198505
0.628504 0.492882 0.202533
0.651896 0.492973 0.206561
0.675425 0.492988 0.210773
0.699016 0.493156 0.215396
0.722026 0.493385 0.222034
0.744884 0.493492 0.228504
0.767605 0.49369 0.234867
0.790616 0.494057 0.24123
0.813458 0.494316 0.247379
0.836255 0.494575 0.253254
0.115267 0.527291 0.154116
0.11931 0.527932 0.149203
0.12282 0.526467 0.145129
0.126833 0.524346 0.141375
0.134371 0.523079 0.133959
0.163302 0.521187 0.136156
0.194858 0.519341 0.138567
0.225879 0.5178 0.141192
0.256519 0.516716 0.143709
0.287709 0.515511 0.150362
0.317327 0.514656 0.156695
0.345418 0.513985 0.162585
0.372244 0.513939 0.168109
0.397543 0.513954 0.172763
0.421424 0.514092 0.176776
0.444907 0.514305 0.180529
0.468055 0.514824 0.184253
0.490806 0.515221 0.187671
0.513375 0.51577 0.191058
0.535866 0.516182 0.194476
0.558633 0.516808 0.198169
0.581369 0.517128 0.201648
0.604074 0.517418 0.205188
0.626932 0.517647 0.20882
0.649958 0.517815 0.212589
0.673152 0.518181 0.216693
0.696193 0.518166 0.220645
0.719356 0.518166 0.224826
0.742184 0.518425 0.230808
0.764874 0.518639 0.237232
0.787533 0.518791 0.243427
0.810086 0.519036 0.249516
0.832959 0.519387 0.255558
0.121462 0.552132 0.169512
0.125307 0.552636 0.165026
0.128771 0.551476 0.161196
0.132967 0.54963 0.157412
0.140108 0.548379 0.150149
0.16321 0.547036 0.145846
0.194629 0.545174 0.148165
0.225895 0.543526 0.150469
0.256474 0.542199 0.152697
0.287037 0.54107 0.156603
0.317128 0.540169 0.16321
0.345647 0.539422 0.169207
0.372625 0.538857 0.174563
0.398093 0.538643 0.179278
0.422248 0.538705 0.18349
0.445899 0.538933 0.187457
0.469032 0.539208 0.19115
0.491798 0.539452 0.194583
0.514412 0.540002 0.198047
0.536797 0.54052 0.20145
0.559014 0.540902 0.204776
0.581292 0.541283 0.208179
0.603784 0.541848 0.211826
0.626276 0.542077 0.215274
0.648753 0.542321 0.218784
0.671397 0.542489 0.222385
0.694148 0.542733 0.226215
0.716991 0.542977 0.230213
0.739849 0.542992 0.234195
0.762417 0.543008 0.239338
0.784955 0.543328 0.245609
0.80737 0.543526 0.251698
0.829831 0.543709 0.257557
0.127291 0.57615 0.184573
0.131151 0.576806 0.180484
0.134539 0.575921 0.176974
0.139071 0.573999 0.17261
0.146365 0.573098 0.165743
0.162951 0.572534 0.155718
0.194736 0.57055 0.157626
0.226047 0.568856 0.15967
0.256825 0.567468 0.161624
0.286717 0.566308 0.163531
0.316838 0.565072 0.169589
0.345556 0.564095 0.175479
0.372885 0.563516 0.180957
0.398733 0.563317 0.185916
0.422965 0.563088 0.190066
0.446677 0.563027 0.193988
0.469856 0.563256 0.197772
0.492943 0.563607 0.201465
0.515496 0.563836 0.204837
0.537713 0.564202 0.208103
0.559823 0.564767 0.211414
0.581811 0.56524 0.214755
0.60383 0.565621 0.218082
0.625956 0.565942 0.221439
0.648249 0.566415 0.224964
0.670466 0.566659 0.228382
0.692699 0.566873 0.231846
0.715084 0.567025 0.235447
0.737697 0.567285 0.239292
0.760372 0.567376 0.24303
0.782849 0.567407 0.247669
0.804807 0.56759 0.253697
0.827436 0.567926 0.259556
0.133181 0.600031 0.199542
0.136889 0.600549 0.195727
0.140291 0.59971 0.192081
0.145296 0.598154 0.187762
0.152712 0.597131 0.180575
0.164324 0.597055 0.166567
0.194995 0.595224 0.166796
0.226429 0.593378 0.168521
0.257252 0.591897 0.170291
0.287007 0.590692 0.172122
0.316716 0.589746 0.176135
0.345678 0.588724 0.181949
0.373129 0.587945 0.187335
0.399008 0.58735 0.192096
0.423484 0.587091 0.196368
0.447501 0.587121 0.200504
0.470848 0.587182 0.204349
0.493797 0.587259 0.207935
0.516518 0.587503 0.211398
0.538827 0.587869 0.214786
0.560922 0.588159 0.217929
0.58265 0.588602 0.221027
0.604547 0.589227 0.224399
0.626307 0.589578 0.227649
0.648127 0.589914 0.230915
0.669932 0.590188 0.23415
0.692134 0.590677 0.237659
0.714031 0.590829 0.240986
0.736217 0.591012 0.244373
0.75845 0.59118 0.247776
0.780941 0.591379 0.251423
0.803204 0.59144 0.255833
0.825422 0.591623 0.261341
0.13901 0.62356 0.214298
0.142428 0.623835 0.210666
0.146197 0.623453 0.206973
0.151446 0.621973 0.20209
0.159121 0.621012 0.194446
0.170367 0.620874 0.181125
0.195712 0.619669 0.17586
0.227237 0.617853 0.177325
0.257984 0.61619 0.178973
0.287617 0.614923 0.180728
0.31635 0.613886 0.182437
0.34548 0.612741 0.188113
0.373465 0.61207 0.193683
0.399558 0.61149 0.198474
0.424247 0.610971 0.202686
0.448188 0.610712 0.206699
0.471672 0.610666 0.210575
0.494835 0.610819 0.214328
0.517555 0.610864 0.217762
0.539834 0.611063 0.221042
0.562051 0.611475 0.224353
0.583825 0.611887 0.227497
0.605386 0.612314 0.230472
0.62681 0.61265 0.233509
0.648524 0.61326 0.236851
0.67013 0.613489 0.239963
0.691722 0.613825 0.243137
0.713375 0.614069 0.246296
0.735424 0.614527 0.249653
0.75729 0.61471 0.252811
0.779232 0.614832 0.256077
0.801556 0.614939 0.258991
0.824018 0.615213 0.263188
0.145312 0.646937 0.228305
0.148104 0.647028 0.224613
0.152163 0.64683 0.22063
0.157855 0.645228 0.214893
0.165484 0.644266 0.207156
0.176394 0.644099 0.19443
0.196735 0.643503 0.184482
0.228183 0.641611 0.185855
0.258824 0.639979 0.187442
0.288533 0.638865 0.189242
0.317189 0.63769 0.190845
0.345602 0.636683 0.1944
0.373449 0.635706 0.199649
0.399939 0.634958 0.204456
0.424903 0.634623 0.208911
0.449027 0.634256 0.212894
0.472572 0.634028 0.216709
0.495735 0.633936 0.220371
0.518608 0.634058 0.223972
0.541115 0.634302 0.22739
0.563134 0.63447 0.230503
0.584924 0.634699 0.233509
0.606699 0.635248 0.236698
0.627909 0.63566 0.239521
0.64921 0.635996 0.242466
0.670619 0.636408 0.245609
0.692119 0.636866 0.248768
0.713451 0.637232 0.251743
0.734859 0.637476 0.254688
0.756573 0.637675 0.25774
0.778347 0.638086 0.260853
0.800534 0.638193 0.26302
0.822797 0.638209 0.264942
0.152239 0.670115 0.241657
0.15404 0.670115 0.237491
0.158129 0.670085 0.23357
0.164508 0.668467 0.226978
0.171878 0.667536 0.219486
0.182589 0.667247 0.206775
0.198047 0.667216 0.193133
0.229282 0.665324 0.19443
0.259876 0.663691 0.195911
0.289357 0.662287 0.197482
0.31783 0.661097 0.199054
0.345541 0.660166 0.20061
0.373816 0.659297 0.205814
0.400229 0.658488 0.210498
0.425452 0.657832 0.214771
0.449729 0.657374 0.218769
0.473625 0.657206 0.222766
0.49688 0.657084 0.226444
0.519677 0.657008 0.229908
0.542062 0.657023 0.233204
0.564431 0.657359 0.236606
0.586236 0.657511 0.239628
0.607828 0.65774 0.242496
0.629129 0.658152 0.24538
0.650355 0.658747 0.24831
0.671458 0.659144 0.251179
0.692561 0.659403 0.254017
0.713878 0.659937 0.257053
0.735134 0.660258 0.259937
0.756329 0.660548 0.26276
0.77789 0.660777 0.265019
0.799863 0.661173 0.267048
0.821912 0.661311 0.268818
0.159365 0.693782 0.254047
0.160586 0.693614 0.249668
0.163775 0.693202 0.245502
0.170977 0.691325 0.238361
0.178408 0.690532 0.230884
0.188876 0.690028 0.218555
0.200793 0.690211 0.202762
0.230549 0.688502 0.202731
0.261357 0.687068 0.204257
0.290761 0.685618 0.205753
0.319234 0.684352 0.207263
0.346761 0.68336 0.208774
0.373922 0.682445 0.211597
0.400732 0.681514 0.216251
0.426093 0.681071 0.220691
0.450446 0.680476 0.224628
0.474403 0.680049 0.228443
0.497719 0.679759 0.232059
0.520775 0.679835 0.235767
0.543404 0.679789 0.239124
0.565423 0.679789 0.242191
0.587411 0.679927 0.245304
0.609232 0.680323 0.248402
0.630533 0.680613 0.251194
0.651637 0.680934 0.253864
0.672648 0.681575 0.256672
0.693584 0.681895 0.259327
0.714458 0.682216 0.262119
0.73547 0.682567 0.264927
0.75668 0.683116 0.267445
0.778027 0.683436 0.269169
0.799496 0.68368 0.270756
0.821271 0.684077 0.272587
0.166857 0.718151 0.264775
0.16791 0.717769 0.260548
0.16994 0.717357 0.256245
0.177432 0.714534 0.249119
0.184802 0.713146 0.24181
0.195087 0.712718 0.230076
0.206729 0.712825 0.215076
0.232273 0.711635 0.211017
0.262531 0.709941 0.212329
0.292119 0.708476 0.213764
0.320394 0.707179 0.215228
0.347967 0.706264 0.216754
0.37467 0.705501 0.218235
0.401236 0.70457 0.222034
0.426581 0.703777 0.22623
0.451179 0.703212 0.230198
0.475319 0.702861 0.23415
0.498772 0.70251 0.237766
0.521767 0.70219 0.241169
0.544427 0.702144 0.244572
0.566857 0.702266 0.247898
0.588754 0.702373 0.25095
0.610315 0.702525 0.253834
0.631876 0.702922 0.256779
0.65301 0.703212 0.259464
0.673899 0.703517 0.262013
0.694728 0.704051 0.264637
0.715526 0.70457 0.267308
0.736202 0.70489 0.269657
0.757183 0.705272 0.271351
0.778531 0.705821 0.273091
0.799786 0.706127 0.274632
0.821042 0.706355 0.276158
0.174273 0.742321 0.274952
0.175341 0.742153 0.270985
0.176501 0.741817 0.266575
0.183459 0.738415 0.259556
0.190951 0.736309 0.252522
0.201266 0.735424 0.241184
0.212772 0.735271 0.226703
0.234424 0.734478 0.219181
0.264485 0.73283 0.220447
0.293736 0.731304 0.22179
0.321889 0.730037 0.223209
0.349401 0.728878 0.224613
0.375998 0.727947 0.226001
0.401663 0.727337 0.227588
0.427375 0.726528 0.2318
0.452033 0.725811 0.235676
0.475959 0.725246 0.239399
0.499779 0.725017 0.243198
0.522927 0.724681 0.246662
0.545571 0.724498 0.250019
0.567849 0.724422 0.253147
0.590127 0.72462 0.256413
0.611887 0.724681 0.259297
0.633204 0.724834 0.261982
0.654429 0.72517 0.26479
0.67538 0.725536 0.267445
0.696056 0.725948 0.26981
0.716579 0.72639 0.271901
0.737362 0.726986 0.27364
0.758129 0.727398 0.275135
0.778988 0.727825 0.276631
0.800107 0.728237 0.278202
0.821332 0.728679 0.27985
0.18175 0.766491 0.284718
0.182788 0.766293 0.280873
0.183719 0.765881 0.27686
0.189349 0.762387 0.269581
0.196918 0.759945 0.262379
0.207019 0.758221 0.251621
0.218463 0.757656 0.237797
0.236072 0.757076 0.227039
0.26627 0.755276 0.22829
0.295338 0.753765 0.229603
0.323537 0.75256 0.231022
0.351064 0.751431 0.232425
0.377462 0.750439 0.233768
0.403189 0.749615 0.235035
0.427848 0.748882 0.237018
0.452796 0.748318 0.241032
0.476921 0.747662 0.244739
0.500633 0.747143 0.248325
0.523842 0.746777 0.251759
0.546746 0.746746 0.255253
0.569085 0.746548 0.258412
0.591211 0.746502 0.261448
0.613123 0.7467 0.264515
0.634546 0.746868 0.267292
0.655756 0.74699 0.269978
0.676677 0.74728 0.272328
0.697627 0.747829 0.274464
