src/colors/vibrant_&_colorful/warm_to_cool.cube
TITLE "Generated by Resolve"
LUT_3D_SIZE 9
0 9.15541e-05 0.00111391
0.073579 0.00172427 0.0184176
0.220081 0.0077821 0.0461891
0.343221 0.0168917 0.0734569
0.440833 0.0276188 0.0986496
0.528252 0.0393988 0.122194
0.61355 0.0536049 0.14844
0.714412 0.07364 0.17969
0.818143 0.100618 0.213077
0.0154421 0.129381 0.0196078
0.0778973 0.120607 0.0364233
0.20972 0.128969 0.0419776
0.351644 0.132387 0.066743
0.468666 0.141009 0.0961013
0.570962 0.15349 0.125429
0.665019 0.167575 0.157809
0.754482 0.183307 0.190387
0.851148 0.199603 0.221668
0.0492561 0.287953 0.0526436
0.105745 0.273777 0.0584115
0.235935 0.27834 0.0913405
0.34992 0.28687 0.102937
0.464759 0.290562 0.119432
0.573938 0.29424 0.148974
0.674189 0.299489 0.17879
0.76669 0.306111 0.207996
0.858885 0.312871 0.234562
0.0865492 0.420096 0.0982528
0.127428 0.410071 0.0941024
0.255589 0.406683 0.117861
0.366522 0.409308 0.140703
0.463523 0.412772 0.154147
0.562661 0.414359 0.169512
0.660914 0.415137 0.194003
0.755291 0.416831 0.221103
0.847257 0.41915 0.246128
0.115267 0.527291 0.154116
0.134371 0.523079 0.133959
0.256519 0.516716 0.143709
0.372244 0.513939 0.168109
0.468055 0.514824 0.184253
0.558633 0.516808 0.198169
0.649958 0.517815 0.212589
0.742184 0.518425 0.230808
0.832959 0.519387 0.255558
0.13901 0.62356 0.214298
0.159121 0.621012 0.194446
0.257984 0.61619 0.178973
0.373465 0.61207 0.193683
0.471672 0.610666 0.210575
0.562051 0.611475 0.224353
0.648524 0.61326 0.236851
0.735424 0.614527 0.249653
0.824018 0.615213 0.263188
0.166857 0.718151 0.264775
0.184802 0.713146 0.24181
0.262531 0.709941 0.212329
0.37467 0.705501 0.218235
0.475319 0.702861 0.23415
0.566857 0.702266 0.247898
0.65301 0.703212 0.259464
0.736202 0.70489 0.269657
0.821042 0.706355 0.276158
0.196445 0.814191 0.304097
0.208667 0.807111 0.281559
0.26923 0.800992 0.243198
0.380835 0.79472 0.248798
0.47863 0.791897 0.254673
0.57145 0.790265 0.267994
0.658183 0.7906 0.277745
0.741405 0.792233 0.284352
0.823301 0.794064 0.289754
0.224323 0.904112 0.338537
0.23125 0.896239 0.315892
0.273182 0.889036 0.269398
0.384482 0.880476 0.274357
0.482139 0.876051 0.279042
0.572915 0.874128 0.282918
0.660151 0.87396 0.287709
0.744152 0.874601 0.295354
0.825986 0.875975 0.301183
0 0.00300603 0.188754
0.0829938 0.00517281 0.178241
0.230152 0.0161288 0.182528
0.356603 0.0285954 0.204211
0.461906 0.0403296 0.22533
0.551614 0.05243 0.243915
0.63505 0.0662394 0.264683
0.718456 0.0833295 0.288899
0.819715 0.105638 0.320012
0.0218814 0.137469 0.195193
0.0788128 0.126329 0.184787
0.224582 0.127947 0.186419
0.372686 0.127398 0.212039
0.49929 0.131746 0.233646
0.605646 0.146761 0.258198
0.697368 0.16463 0.284153
0.780667 0.183017 0.310674
0.860914 0.200916 0.33727
0.054612 0.30486 0.200061
0.0988022 0.295521 0.188403
0.236133 0.28307 0.213504
0.362249 0.287327 0.221592
0.49572 0.284749 0.23537
0.61854 0.283558 0.25452
0.725628 0.285527 0.277806
0.817121 0.290623 0.303197
0.900969 0.297185 0.328099
0.0930648 0.440574 0.217746
0.109712 0.43592 0.196948
0.229313 0.418982 0.216098
0.365728 0.412131 0.250462
0.467628 0.414359 0.258061
0.581674 0.411978 0.263462
0.697002 0.407904 0.277272
0.800671 0.40618 0.298421
0.893706 0.406806 0.322545
0.120851 0.548104 0.250202
0.134936 0.546777 0.230854
0.204349 0.53576 0.220035
0.359762 0.520714 0.256138
0.466087 0.517937 0.275853
0.562371 0.518624 0.283864
0.663661 0.517555 0.291402
0.766995 0.514946 0.305028
0.866621 0.512612 0.323949
0.144778 0.643122 0.289265
0.156924 0.643626 0.27274
0.18912 0.640024 0.238392
0.342687 0.625086 0.259602
0.461021 0.617502 0.284703
0.55964 0.615641 0.299794
0.651881 0.615778 0.309682
0.745327 0.615503 0.320424
0.840055 0.614054 0.334112
0.171893 0.734569 0.331792
0.178134 0.733486 0.315755
0.211475 0.731823 0.280507
0.330632 0.722957 0.272312
0.454246 0.713542 0.294911
0.558099 0.708965 0.313512
0.651194 0.707729 0.326848
0.738979 0.707897 0.337545
0.827207 0.707713 0.348638
0.19971 0.827253 0.368963
0.203326 0.820905 0.352728
0.236469 0.819104 0.318105
0.326558 0.814115 0.290745
0.450034 0.804837 0.309209
0.556695 0.798856 0.327443
0.652033 0.796124 0.342336
0.740307 0.795758 0.354223
0.82472 0.796277 0.36434
0.227176 0.917647 0.400046
0.230274 0.910552 0.383871
0.260288 0.900786 0.350332
0.325109 0.898543 0.307744
0.447303 0.889616 0.323278
0.555016 0.883101 0.340139
0.652049 0.879393 0.355367
0.741268 0.878248 0.368093
0.825559 0.878386 0.378531
0.00262455 0.00727855 0.348867
0.084947 0.0116884 0.346349
0.231769 0.0228733 0.342855
0.359747 0.0350347 0.339117
0.462943 0.0487373 0.340215
0.553918 0.062562 0.35169
0.638987 0.0767987 0.369162
0.72166 0.0928359 0.389761
0.818036 0.112474 0.418952
0.0296025 0.137362 0.365576
0.0797284 0.126848 0.373342
0.23093 0.125444 0.365423
0.376638 0.12874 0.359808
0.500237 0.134386 0.369985
0.608667 0.149142 0.390051
0.705501 0.16614 0.410239
0.791379 0.184512 0.429526
0.871748 0.202594 0.449104
0.064332 0.301701 0.376135
0.0999924 0.29572 0.37966
0.218509 0.28809 0.372671
0.369436 0.286732 0.362463
0.500038 0.283345 0.383734
0.625315 0.280552 0.40264
0.739803 0.280217 0.4206
0.838636 0.283757 0.437934
0.921065 0.292744 0.455283
0.0942855 0.43946 0.377447
0.110216 0.439399 0.372412
0.182681 0.431189 0.363882
0.352758 0.417746 0.362478
0.474601 0.413169 0.373648
0.602823 0.405692 0.385946
0.721111 0.400366 0.401465
0.829633 0.39733 0.418219
0.925643 0.397421 0.436484
0.122377 0.549996 0.383505
0.136873 0.553628 0.372335
0.154391 0.550408 0.354452
0.318105 0.534661 0.353079
0.46247 0.519982 0.381918
0.563455 0.518929 0.390829
0.678019 0.514275 0.393637
0.795529 0.507729 0.403708
0.903609 0.503044 0.419501
0.147921 0.648692 0.399451
0.15964 0.653239 0.385443
0.172595 0.653773 0.366506
0.285298 0.643015 0.34818
0.441367 0.625132 0.373709
0.556588 0.617441 0.398077
0.652567 0.616541 0.405783
0.754147 0.614176 0.409384
0.861479 0.609812 0.416922
0.175448 0.742031 0.424536
0.181109 0.744152 0.40914
0.195392 0.747692 0.388846
0.260914 0.744152 0.350179
0.416526 0.727092 0.368093
0.545571 0.714626 0.39556
0.647654 0.710246 0.41239
0.739956 0.709453 0.419821
0.834607 0.707835 0.426017
0.202899 0.83386 0.451377
0.206073 0.832029 0.438926
0.222248 0.834546 0.414145
0.264164 0.834913 0.368032
0.398642 0.822828 0.37026
0.530953 0.809491 0.393256
0.641382 0.801785 0.414374
0.736568 0.799161 0.427649
0.825711 0.798505 0.436362
0.230442 0.924804 0.474708
0.232532 0.919554 0.464057
0.248631 0.915297 0.438041
0.286488 0.916014 0.395453
0.391516 0.908965 0.380209
0.519829 0.897154 0.397086
0.633722 0.888243 0.417502
0.733043 0.883848 0.434256
0.822904 0.882216 0.446113
0.00662242 0.0120394 0.449287
0.0813001 0.0168154 0.461051
0.222034 0.0281529 0.463462
0.347829 0.0403754 0.458854
0.455375 0.0522011 0.453193
0.550637 0.0673075 0.450904
0.637919 0.0835279 0.458289
0.721553 0.0995193 0.474128
0.817929 0.118624 0.50367
0.034699 0.138323 0.484703
0.0868696 0.130999 0.506706
0.227497 0.128359 0.515541
0.374456 0.131228 0.509941
0.501717 0.135866 0.50695
0.608774 0.152255 0.502922
0.703395 0.170047 0.511681
0.78909 0.187854 0.527687
0.870344 0.205295 0.545663
0.0737774 0.296651 0.506127
0.113893 0.293263 0.526375
0.214191 0.287266 0.535805
0.37052 0.283497 0.526436
0.501488 0.282734 0.518349
0.621027 0.282383 0.522042
0.733394 0.281758 0.540749
0.836164 0.283604 0.558297
0.923171 0.29192 0.571008
0.100832 0.43209 0.510918
0.125154 0.433265 0.524193
0.17702 0.428016 0.529503
0.337667 0.417685 0.521996
0.475166 0.410819 0.507805
0.597177 0.404868 0.518807
0.718196 0.398306 0.536309
0.831632 0.39379 0.550851
0.934707 0.392111 0.564492
0.122606 0.543893 0.510155
0.136309 0.548409 0.514107
0.151537 0.548012 0.512978
0.289082 0.537881 0.504601
0.439399 0.525567 0.495781
0.568673 0.516686 0.499779
0.692454 0.508095 0.513191
0.808637 0.501396 0.526589
0.917983 0.496544 0.540307
0.14934 0.64567 0.514824
0.15996 0.650431 0.51075
0.172961 0.654948 0.502541
0.240925 0.651087 0.485069
0.394446 0.63772 0.477699
0.54641 0.62063 0.492317
0.652262 0.616037 0.507149
0.764889 0.610574 0.508949
0.882155 0.602975 0.517891
0.17731 0.741466 0.527687
0.182177 0.74435 0.518441
0.194812 0.751751 0.505333
0.227497 0.752926 0.477867
0.361852 0.741802 0.465812
0.516899 0.723751 0.47866
0.643168 0.711406 0.505638
0.739193 0.709224 0.51519
0.83946 0.706249 0.517983
0.205417 0.83621 0.544808
0.208331 0.834516 0.535332
0.217365 0.840604 0.518181
0.248478 0.844358 0.486839
0.337667 0.839338 0.459815
0.48925 0.822583 0.469596
0.626108 0.806973 0.495521
0.732662 0.800458 0.515297
0.824979 0.798932 0.523079
0.233005 0.927962 0.561685
0.234791 0.923293 0.552712
0.243397 0.922606 0.532906
0.272618 0.926497 0.501198
0.328145 0.926863 0.462455
0.468635 0.913542 0.466026
0.606653 0.898253 0.487388
0.722377 0.888243 0.510613
0.818936 0.884413 0.525032
0.0103914 0.016434 0.530343
0.0776684 0.021088 0.545571
0.209583 0.0324559 0.555337
0.331807 0.0445716 0.556146
0.440238 0.0573739 0.554788
0.540993 0.070634 0.552865
0.633402 0.0872663 0.553704
0.726909 0.105425 0.567514
0.823453 0.124529 0.591211
0.0393225 0.140917 0.57406
0.0927596 0.137148 0.60325
0.22295 0.137423 0.626307
0.36289 0.142031 0.628687
0.486198 0.148852 0.626764
0.600412 0.157565 0.62327
0.698558 0.173861 0.61799
0.785412 0.191913 0.62089
0.866621 0.209079 0.631464
0.079118 0.29337 0.607904
0.121553 0.29218 0.638407
0.213809 0.287556 0.674601
0.365454 0.283421 0.6748
0.498177 0.281209 0.667552
0.620661 0.280781 0.659953
0.731594 0.282506 0.656016
0.829877 0.286183 0.661204
0.916823 0.293492 0.671061
0.106386 0.42533 0.621378
0.136339 0.426657 0.64509
0.186526 0.424018 0.671702
0.331975 0.414939 0.67631
0.470497 0.407248 0.666377
0.597421 0.401984 0.654643
0.713314 0.398642 0.651392
0.822171 0.395361 0.665141
0.926589 0.392798 0.681651
0.124865 0.536934 0.623621
0.144945 0.540246 0.638392
0.169116 0.541131 0.655802
0.283375 0.533852 0.662257
0.427619 0.523064 0.654704
0.56347 0.513954 0.641627
0.683131 0.508019 0.640055
0.800046 0.500526 0.657588
0.913542 0.49427 0.670878
0.150561 0.639963 0.625544
0.159686 0.643519 0.630869
0.172122 0.648951 0.639612
0.231968 0.647395 0.641108
0.377752 0.636347 0.632944
0.520272 0.624537 0.623102
0.655619 0.613458 0.618265
0.773877 0.605097 0.631937
0.89015 0.597299 0.64358
0.179171 0.738705 0.633509
0.182818 0.739651 0.630716
0.194751 0.747311 0.630762
0.222324 0.750774 0.622232
0.33138 0.744717 0.610376
0.473808 0.732876 0.600717
0.620111 0.717906 0.59855
0.738521 0.708385 0.616571
0.849699 0.702235 0.618479
0.207919 0.836606 0.645716
0.210071 0.833127 0.639048
0.217365 0.838911 0.631251
0.242832 0.844846 0.615122
0.297963 0.845777 0.591928
0.439551 0.834073 0.581994
0.58706 0.818509 0.582788
0.724086 0.80293 0.605203
0.82385 0.798444 0.619333
0.235477 0.929061 0.657618
0.237125 0.924666 0.650172
0.242542 0.92343 0.636866
0.266575 0.929488 0.616281
0.300053 0.934188 0.586694
0.414252 0.92723 0.570169
0.560037 0.912032 0.571572
0.701427 0.895186 0.591592
0.814496 0.88574 0.614527
0.0159915 0.0228275 0.632685
0.0793927 0.026276 0.630045
0.202029 0.0367895 0.63592
0.320134 0.049073 0.641428
0.427115 0.0618601 0.64416
0.53135 0.0765545 0.648875
0.634882 0.0931868 0.658961
0.734478 0.111208 0.671366
0.830915 0.129915 0.687968
0.044892 0.146136 0.66009
0.0979477 0.144625 0.681865
0.220706 0.147616 0.709834
0.351919 0.153689 0.719738
0.470588 0.161501 0.723247
0.582528 0.170672 0.723186
0.686336 0.18085 0.721782
0.77882 0.195773 0.718959
0.862455 0.212757 0.720439
0.0839551 0.293111 0.69575
0.12604 0.29308 0.724971
0.221363 0.29073 0.770275
0.360159 0.28661 0.79086
0.489235 0.284031 0.791638
0.610666 0.282979 0.786084
0.722194 0.284352 0.77763
0.82211 0.288457 0.769055
0.910506 0.295445 0.765713
0.109926 0.421866 0.716701
0.141405 0.422644 0.741482
0.203265 0.421073 0.779583
0.329671 0.413504 0.806973
0.463981 0.405829 0.80557
0.591959 0.399847 0.796582
0.711086 0.396078 0.78648
0.820768 0.394461 0.779278
0.920409 0.394675 0.781186
0.126772 0.532555 0.724773
0.150469 0.533913 0.741543
0.185519 0.534936 0.770764
0.284749 0.52958 0.800076
0.422492 0.520012 0.79913
0.557107 0.510826 0.789471
0.68249 0.504265 0.776608
0.796933 0.500069 0.768856
0.903716 0.496086 0.777569
0.150774 0.637766 0.731304
0.163302 0.637308 0.737102
0.183185 0.641367 0.757061
0.242084 0.641062 0.780072
0.373877 0.631968 0.780926
0.51194 0.621225 0.773571
0.645624 0.611292 0.761913
0.764996 0.604929 0.752789
0.877928 0.597772 0.768002
0.182406 0.738613 0.738598
0.184207 0.735134 0.736034
0.195911 0.740444 0.746258
0.226169 0.744503 0.757046
0.32697 0.740032 0.758099
0.464851 0.729351 0.750713
0.601587 0.717906 0.741512
0.735744 0.706462 0.733745
0.852049 0.698085 0.742626
0.210819 0.836332 0.74728
0.212375 0.832166 0.742397
0.219959 0.833524 0.740887
0.244205 0.839551 0.740414
0.289815 0.842344 0.735134
0.421118 0.83357 0.726406
0.556954 0.822522 0.716899
0.693767 0.810117 0.708873
0.823255 0.797711 0.717098
0.238193 0.929122 0.755901
0.239597 0.924834 0.750011
0.244404 0.920134 0.740612
0.266514 0.926452 0.732601
0.295659 0.932357 0.719478
0.38703 0.929854 0.705425
0.521309 0.919371 0.695338
0.658564 0.90663 0.689342
0.798291 0.890898 0.700343
0.0231174 0.0307927 0.74403
0.0875715 0.0346075 0.741451
0.206317 0.0448157 0.743145
0.321706 0.0567636 0.746365
0.429557 0.0700999 0.7514
0.535744 0.0859388 0.758831
0.639048 0.102007 0.768139
0.739605 0.118059 0.779171
0.837507 0.13518 0.791241
0.0524605 0.153628 0.771298
0.103426 0.152483 0.77467
0.221363 0.157382 0.787213
0.344884 0.164828 0.799756
0.458686 0.173129 0.807416
0.567773 0.1823 0.811261
0.670573 0.192508 0.813107
0.767071 0.203006 0.813886
0.859266 0.2159 0.816526
0.0901503 0.297673 0.80415
0.129976 0.29601 0.808026
0.229465 0.295628 0.84828
0.356176 0.291997 0.878676
0.478264 0.29012 0.88603
0.595682 0.289219 0.886183
0.705638 0.29015 0.881254
0.807065 0.29337 0.87361
0.90045 0.298299 0.865217
0.113497 0.423621 0.824063
0.144793 0.421546 0.828672
0.218769 0.419989 0.86627
0.333028 0.413672 0.890959
0.4589 0.407126 0.892348
0.583261 0.401007 0.893553
0.701473 0.396994 0.894575
0.811368 0.395193 0.89456
0.912535 0.395956 0.889097
0.128817 0.533455 0.833341
0.153841 0.530739 0.835325
0.204715 0.530434 0.866087
0.295277 0.526146 0.889647
0.422202 0.518135 0.889357
0.551598 0.509544 0.888792
0.676616 0.502449 0.888411
0.793484 0.49749 0.888106
0.902403 0.494514 0.888502
0.15169 0.638727 0.838956
0.165896 0.634287 0.837751
0.199496 0.634913 0.85803
0.266255 0.634348 0.879698
0.377569 0.628077 0.88394
0.508766 0.618387 0.882338
0.639643 0.608743 0.881025
0.762356 0.601556 0.879866
0.876066 0.596353 0.878218
0.179904 0.739315 0.843763
0.185916 0.7346 0.841306
0.207385 0.733867 0.849882
0.252934 0.736187 0.870878
0.334142 0.734096 0.876646
0.46273 0.725078 0.874525
0.595728 0.714321 0.872511
0.724895 0.704433 0.870527
0.844556 0.6972 0.861311
0.213153 0.836332 0.849134
0.214862 0.832059 0.845792
0.224521 0.827756 0.843885
0.25214 0.832456 0.856168
0.299641 0.835218 0.866316
0.419867 0.82858 0.865095
0.551369 0.818311 0.859312
0.682307 0.80763 0.852323
0.811276 0.79704 0.845808
0.241337 0.929015 0.855268
0.242481 0.924865 0.850935
0.246616 0.917418 0.842847
0.270024 0.920745 0.844114
0.297353 0.926513 0.846494
0.384894 0.925246 0.844755
0.510552 0.916854 0.838117
0.640665 0.906462 0.829953
0.770916 0.895552 0.821546
0.0284581 0.0366979 0.818097
0.0923476 0.0407263 0.815442
0.208804 0.0506905 0.817182
0.323415 0.0625162 0.819821
0.431174 0.0762341 0.824842
0.536797 0.0915236 0.831464
0.639826 0.107149 0.840192
0.740078 0.122927 0.850538
0.83888 0.13901 0.86186
0.0573434 0.157931 0.844694
0.106905 0.156588 0.846937
0.222721 0.161654 0.856519
0.343404 0.170031 0.862379
0.455314 0.17847 0.870436
0.562951 0.187579 0.874907
0.664851 0.197559 0.877134
0.76141 0.208255 0.879088
0.858106 0.218128 0.885496
0.0934615 0.300038 0.876036
0.133089 0.298436 0.878737
0.231601 0.29778 0.908202
0.354086 0.294392 0.939605
0.473426 0.293568 0.944381
0.588251 0.293492 0.94757
0.697002 0.294728 0.944564
0.798764 0.297307 0.938827
0.894331 0.300801 0.931991
0.11516 0.424613 0.894286
0.146838 0.42211 0.895872
0.222782 0.420356 0.926589
0.332219 0.413672 0.95053
0.45626 0.407462 0.95198
0.579263 0.401511 0.952926
0.69688 0.397375 0.953796
0.806638 0.395514 0.954376
0.908125 0.395926 0.954513
0.130327 0.534127 0.902052
0.155734 0.530694 0.902373
0.209842 0.529366 0.925887
0.299718 0.525032 0.945281
0.421149 0.517403 0.94873
0.548821 0.508995 0.948074
0.673442 0.501839 0.947601
0.790524 0.496788 0.947158
0.900023 0.493767 0.946609
0.152148 0.638987 0.905592
0.167544 0.634394 0.904494
0.204898 0.633494 0.921004
0.274052 0.632181 0.934737
0.377523 0.626429 0.942687
0.50663 0.617151 0.941176
0.636683 0.607675 0.939788
0.759731 0.600198 0.938552
0.874418 0.594888 0.937407
0.179004 0.739681 0.908476
0.187045 0.734752 0.906126
0.211856 0.732341 0.912795
0.261372 0.733959 0.92636
0.335317 0.732311 0.935317
0.461143 0.723751 0.933349
0.59321 0.713268 0.931289
0.722179 0.703426 0.929427
0.842863 0.695888 0.927779
0.210437 0.836622 0.911391
0.214252 0.832258 0.908354
0.228229 0.826352 0.90576
0.261814 0.830045 0.919661
0.303578 0.832761 0.926299
0.418509 0.826932 0.924453
0.54876 0.816892 0.922011
0.679393 0.80621 0.919814
0.807095 0.796429 0.91342
0.243427 0.928969 0.914611
0.244419 0.924895 0.910887
0.247395 0.917098 0.903792
0.270817 0.919463 0.907118
0.29723 0.924727 0.913603
0.383383 0.923674 0.914336
0.50779 0.915587 0.908324
0.637583 0.905318 0.899962
0.767346 0.894881 0.891264
0.0325628 0.0415808 0.875502
0.0946822 0.0451209 0.872618
0.209979 0.0553292 0.874388
0.324269 0.0673075 0.877241
0.431357 0.0805982 0.881956
0.536599 0.0956588 0.888487
0.639597 0.111223 0.897444
0.73962 0.126696 0.907515
0.837781 0.142351 0.918166
0.0610208 0.160769 0.901762
0.109972 0.159564 0.903838
0.22295 0.164324 0.912581
0.342809 0.172686 0.918212
0.454017 0.18114 0.926116
0.561227 0.190555 0.9308
0.662776 0.200732 0.932998
0.758801 0.21149 0.934691
0.855024 0.221683 0.94081
0.0958724 0.301564 0.932754
0.134859 0.29984 0.934997
0.231952 0.299229 0.962875
0.35285 0.295872 0.993729
0.470909 0.295476 0.998749
0.584955 0.295781 1
0.692897 0.29749 0.998917
0.793866 0.300725 0.993133
0.888624 0.304875 0.986221
0.116579 0.425437 0.950545
0.148302 0.422797 0.951888
0.223255 0.420829 0.981476
0.330098 0.41323 1
0.453498 0.406622 1
0.576532 0.400702 1
0.694377 0.396475 1
0.804166 0.394644 1
0.905913 0.395056 1
0.131594 0.534386 0.957473
0.157168 0.530953 0.957855
0.211093 0.52932 0.980606
0.301457 0.524559 0.999115
0.418448 0.51667 1
0.546059 0.50808 1
0.670893 0.500786 1
0.788083 0.495766 1
0.897887 0.492607 1
0.152834 0.639277 0.960571
0.168414 0.634333 0.95935
0.20618 0.633158 0.975341
0.277684 0.631434 0.989181
0.374792 0.625711 1
0.503899 0.616373 1
0.634195 0.606912 0.99884
0.757443 0.599405 0.997497
0.872358 0.594003 0.996185
0.178454 0.739879 0.9626
0.187716 0.734737 0.960311
0.21387 0.731899 0.966918
0.266087 0.732784 0.980728
0.332647 0.731319 0.993729
0.458305 0.722789 0.99202
0.590692 0.712215 0.989899
0.719844 0.702358 0.988006
0.840558 0.694865 0.986236
0.208545 0.836851 0.964477
0.213886 0.832197 0.961654
0.229908 0.825833 0.959335
0.267124 0.828901 0.973846
0.313375 0.831037 0.98172
0.416144 0.826108 0.983047
0.546334 0.816175 0.980621
0.676966 0.805508 0.978408
0.804852 0.79559 0.972183
0.241703 0.929381 0.966476
0.243793 0.925261 0.963272
0.248402 0.917037 0.956893
0.275425 0.918517 0.961212
0.306386 0.923323 0.969589
0.381094 0.92311 0.972717
0.505119 0.915129 0.966812
0.635187 0.90483 0.958465
0.764904 0.894148 0.949493
