src/colors/vibrant_&_colorful/warm_pop.cube
TITLE "Generated by Resolve"
LUT_3D_SIZE 5
0 0 0
0.413779 0 0
0.894331 0 0
1 0 0
1 0 0
0 0.250675 0
0.158221 0.190433 0
0.662394 0.122896 0
1 0.0584573 0
1 0 0
0 0.616678 0
0 0.549157 0
0.429541 0.489845 0
0.916808 0.425605 0
1 0.359213 0
0 1 0
0 0.927382 0
0.20148 0.868589 0
0.698772 0.800305 0
1 0.732555 0
0 1 0
0 1 0
0 1 0
0.48014 1 0
0.95964 1 0
0 0 0.535424
0.38294 0 0.470268
0.86598 0 0.392782
1 0 0.321416
1 0 0.248966
0 0.222141 0.273411
0.132494 0.16257 0.213581
0.637644 0.096025 0.144594
1 0.032578 0.0760357
1 0 0
0 0.590661 0.0149996
0 0.523537 0
0.406317 0.465415 0
0.895537 0.401572 0
1 0.335393 0
0 0.975814 0
0 0.902495 0
0.177996 0.843549 0
0.676661 0.775235 0
1 0.707637 0
0 1 0
0 1 0
0 1 0
0.457862 1 0
0.939239 1 0
0 0 1
0.357412 0 0.971008
0.844495 0 0.90692
1 0 0.847272
1 0 0.786374
0 0.198978 0.810056
0.111131 0.138994 0.762707
0.615793 0.0724651 0.706752
1 0.00895705 0.650004
1 0 0.587243
0 0.56492 0.603494
0 0.496696 0.546807
0.380758 0.438849 0.497429
0.87158 0.374731 0.43801
1 0.308476 0.374594
0 0.948837 0.396094
0 0.8748 0.324819
0.151568 0.815518 0.267308
0.651545 0.747143 0.199191
1 0.679896 0.130358
0 1 0.164065
0 1 0.0860151
0 1 0.0160067
0.433433 1 0
0.916243 1 0
0 0 1
0.334325 0 1
0.825925 0 1
1 0 1
1 0 1
0 0.178958 1
0.0935683 0.119219 1
0.59794 0.053193 1
1 0 1
1 0 1
0 0.545449 1
0 0.476707 1
0.361608 0.419013 0.994125
0.854093 0.354116 0.942123
1 0.287251 0.888594
0 0.927825 0.905547
0 0.85243 0.845228
0.129992 0.792126 0.799771
0.630213 0.722988 0.745144
1 0.655039 0.689494
0 1 0.716838
0 1 0.652384
0 1 0.597162
0.407782 1 0.548348
0.89134 1 0.490059
0 0 1
0.313146 0 1
0.808347 0 1
1 0 1
1 0 1
0 0.159838 1
0.0767224 0.0999619 1
0.580682 0.0348058 1
1 0 1
1 0 1
0 0.526619 1
0 0.457572 1
0.343816 0.400381 1
0.838087 0.33492 1
1 0.267918 1
0 0.908492 1
0 0.832517 1
0.111192 0.771466 1
0.611948 0.702129 1
1 0.634073 1
0 1 1
0 1 1
0 1 1
0.387869 1 1
0.872557 1 0.983291
