src/colors/vibrant_&_colorful/warm_pop.cube
TITLE "Generated by Resolve"
LUT_3D_SIZE 9
0 0 0
0.160693 0 0
0.413779 0 0
0.661219 0 0
0.894331 0 0
1 0 0
1 0 0
1 0 0
1 0 0
0 0.0830091 0
0.0389715 0.0509651 0
0.279454 0.0171817 0
0.531975 0 0
0.771176 0 0
1 0 0
1 0 0
1 0 0
1 0 0
0 0.250675 0
0 0.217334 0
0.158221 0.190433 0
0.413352 0.15639 0
0.662394 0.122896 0
0.902068 0.0909285 0
1 0.0584573 0
1 0.0249332 0
1 0 0
0 0.429633 0
0 0.39556 0
0.0436713 0.3691 0
0.290959 0.338598 0
0.547097 0.305135 0
0.78883 0.273289 0
1 0.241474 0
1 0.208377 0
1 0.174197 0
0 0.616678 0
0 0.580957 0
0 0.549157 0
0.172793 0.52314 0
0.429541 0.489845 0
0.676249 0.457389 0
0.916808 0.425605 0
1 0.393164 0
1 0.359213 0
0 0.808209 0
0 0.771771 0
0 0.738323 0
0.064332 0.711864 0
0.313405 0.679896 0
0.566415 0.645762 0
0.805982 0.613275 0
1 0.579751 0
1 0.544915 0
0 1 0
0 0.962585 0
0 0.927382 0
0 0.896574 0
0.20148 0.868589 0
0.456611 0.83386 0
0.698772 0.800305 0
0.937606 0.766964 0
1 0.732555 0
0 1 0
0 1 0
0 1 0
0 1 0
0.0905013 1 0
0.342031 1 0
0.591012 0.986007 0
0.829541 0.952728 0
1 0.918532 0
0 1 0
0 1 0
0 1 0
0 1 0
0 1 0
0.225605 1 0
0.48014 1 0
0.720775 1 0
0.95964 1 0
0 0 0.243015
0.1458 0 0.213031
0.398093 0 0.173754
0.644739 0 0.131075
0.879454 0 0.0913558
1 0 0.0530861
1 0 0.0142977
1 0 0
1 0 0
0 0.0663767 0.10515
0.0251774 0.0354314 0.0699474
0.263676 0.00311284 0.0305943
0.517876 0 0
0.758328 0 0
0.997665 0 0
1 0 0
1 0 0
1 0 0
0 0.236789 0
0 0.203738 0
0.146029 0.177188 0
0.401083 0.143648 0
0.650782 0.110384 0
0.890684 0.0785687 0
1 0.0463417 0
1 0.013138 0
1 0 0
0 0.417105 0
0 0.383017 0
0.0336004 0.356359 0
0.279042 0.326299 0
0.536278 0.293004 0
0.778225 0.261173 0
1 0.229557 0
1 0.196307 0
1 0.162524 0
0 0.604349 0
0 0.568322 0
0 0.536736 0
0.16173 0.511009 0
0.418082 0.478004 0
0.665904 0.445426 0
0.906554 0.413809 0
1 0.381491 0
1 0.347509 0
0 0.796155 0
0 0.759777 0
0 0.725872 0
0.0537881 0.699519 0
0.302022 0.667643 0
0.555779 0.633616 0
0.795209 0.600778 0
1 0.567498 0
1 0.532525 0
0 0.988312 0
0 0.950607 0
0 0.915312 0
0 0.884077 0
0.189837 0.856489 0
0.445136 0.821729 0
0.688014 0.788083 0
0.926711 0.754742 0
1 0.720363 0
0 1 0
0 1 0
0 1 0
0 1 0
0.0798962 1 0
0.330159 1 0
0.580285 0.97377 0
0.818509 0.940276 0
1 0.906386 0
0 1 0
0 1 0
0 1 0
0 1 0
0 1 0
0.214221 1 0
0.469261 1 0
0.710414 1 0
0.949401 1 0
0 0 0.535424
0.132403 0 0.507973
0.38294 0 0.470268
0.62974 0 0.429206
0.86598 0 0.392782
1 0 0.357336
1 0 0.321416
1 0 0.285237
1 0 0.248966
0 0.0514229 0.405035
0.0127413 0.0204776 0.372671
0.248707 0 0.337118
0.50277 0 0.299001
0.744564 0 0.263813
0.984466 0 0.229541
1 0 0.194568
1 0 0.158846
1 0 0.122576
0 0.222141 0.273411
0 0.189029 0.240116
0.132494 0.16257 0.213581
0.386938 0.129549 0.17937
0.637644 0.096025 0.144594
0.877684 0.064683 0.111299
1 0.032578 0.0760357
1 0 0.0392462
1 0 0
0 0.403098 0.143832
0 0.368887 0.109163
0.0222782 0.341939 0.080766
0.266133 0.312734 0.0499886
0.524041 0.279896 0.0128176
0.766934 0.248219 0
1 0.216785 0
1 0.18381 0
1 0.150088 0
0 0.590661 0.0149996
0 0.555001 0
0 0.523537 0
0.149859 0.497948 0
0.406317 0.465415 0
0.654612 0.432685 0
0.895537 0.401572 0
1 0.368994 0
1 0.335393 0
0 0.783566 0
0 0.747005 0
0 0.713161 0
0.0430762 0.686534 0
0.28983 0.655131 0
0.54464 0.620951 0
0.784405 0.587976 0
1 0.554803 0
1 0.520043 0
0 0.975814 0
0 0.938262 0
0 0.902495 0
0 0.871183 0
0.177996 0.843549 0
0.433097 0.809277 0
0.676661 0.775235 0
0.915389 0.742214 0
1 0.707637 0
0 1 0
0 1 0
0 1 0
0 1 0
0.0688487 1 0
0.318273 0.996139 0
0.569268 0.961273 0
0.807492 0.927794 0
1 0.89398 0
0 1 0
0 1 0
0 1 0
0 1 0
0 1 0
0.202396 1 0
0.457862 1 0
0.699519 1 0
0.939239 1 0
0 0 0.789456
0.121096 0 0.765393
0.370108 0 0.731929
0.617502 0 0.695323
0.854383 0 0.663935
1 0 0.63299
1 0 0.601465
1 0 0.569619
1 0 0.53698
0 0.0385748 0.674632
0.00234989 0.00721752 0.645563
0.23592 0 0.61622
0.490303 0 0.583169
0.733028 0 0.551583
0.972351 0 0.52079
1 0 0.489097
1 0 0.456031
1 0 0.422477
0 0.209613 0.560967
0 0.176165 0.531426
0.120867 0.149767 0.508049
0.374426 0.116899 0.477195
0.625803 0.0832532 0.444694
0.865644 0.0518959 0.412909
1 0.019791 0.380026
1 0 0.344518
1 0 0.308736
0 0.390036 0.443656
0 0.355932 0.411032
0.0123903 0.327962 0.384878
0.253559 0.299474 0.357717
0.511269 0.265995 0.325277
0.754589 0.234318 0.294301
0.995865 0.202686 0.262577
1 0.169879 0.229877
1 0.136095 0.195346
0 0.576959 0.325109
0 0.540917 0.290623
0 0.509239 0.25951
0.136873 0.483726 0.234806
0.392706 0.451377 0.202777
0.642206 0.418647 0.169696
0.883223 0.387594 0.138048
1 0.355169 0.104402
1 0.321614 0.0699321
0 0.769436 0.209674
0 0.732662 0.172488
0 0.698756 0.13843
0.030869 0.67158 0.11043
0.276524 0.640909 0.0790112
0.531456 0.606699 0.0428473
0.772213 0.574136 0.00657664
1 0.54107 0
1 0.506905 0
0 0.961898 0.093019
0 0.9243 0.0543221
0 0.88867 0.0160983
0 0.857221 0
0.165255 0.830198 0
0.420539 0.796002 0
0.665019 0.761898 0
0.903487 0.729061 0
1 0.69456 0
0 1 0
0 1 0
0 1 0
0 1 0
0.0570382 1 0
0.30573 0.983154 0
0.557534 0.948089 0
0.796124 0.914839 0
1 0.881193 0
0 1 0
0 1 0
0 1 0
0 1 0
0 1 0
0.1906 1 0
0.44622 1 0
0.688441 1 0
0.928008 1 0
0 0 1
0.110597 0 1
0.357412 0 0.971008
0.607263 0 0.937255
0.844495 0 0.90692
1 0 0.877287
1 0 0.847272
1 0 0.816922
1 0 0.786374
0 0.0275731 0.916686
0 0 0.887526
0.22472 0 0.860883
0.47985 0 0.82977
0.723369 0 0.800748
0.962798 0 0.772686
1 0 0.743923
1 0 0.714427
1 0 0.684367
0 0.198978 0.810056
0 0.165179 0.782712
0.111131 0.138994 0.762707
0.363806 0.105913 0.735515
0.615793 0.0724651 0.706752
0.855299 0.0407721 0.679133
1 0.00895705 0.650004
1 0 0.618387
1 0 0.587243
0 0.379294 0.705394
0 0.344808 0.677516
0.00450141 0.316045 0.655085
0.242893 0.28809 0.633173
0.500618 0.254444 0.605463
0.744381 0.222538 0.57821
0.985702 0.190631 0.550713
1 0.1579 0.521157
1 0.123842 0.48983
0 0.56492 0.603494
0 0.529076 0.573449
0 0.496696 0.546807
0.125856 0.471412 0.525994
0.380758 0.438849 0.497429
0.631174 0.40621 0.467781
0.87158 0.374731 0.43801
1 0.34229 0.407279
1 0.308476 0.374594
0 0.757183 0.502388
0 0.719997 0.46891
0 0.685771 0.437324
0.0202029 0.657847 0.411917
0.263706 0.62742 0.383673
0.51902 0.592782 0.350683
0.759808 0.559731 0.319142
0.999802 0.526665 0.286519
1 0.492409 0.252995
0 0.948837 0.396094
0 0.910704 0.359243
0 0.8748 0.324819
0 0.842481 0.293324
0.151568 0.815518 0.267308
0.406027 0.781125 0.233402
0.651545 0.747143 0.199191
0.890135 0.714046 0.165667
1 0.679896 0.130358
0 1 0.282612
0 1 0.244663
0 1 0.207691
0 1 0.173709
0.0440375 1 0.145678
0.291798 0.968475 0.113268
0.544472 0.933425 0.0773632
0.783154 0.900496 0.0421759
1 0.866941 0.00512703
0 1 0.164065
0 1 0.124529
0 1 0.0860151
0 1 0.0491798
0 1 0.0160067
0.177661 1 0
0.433433 1 0
0.676829 1 0
0.916243 1 0
0 0 1
0.100023 0 1
0.345357 0 1
0.597177 0 1
0.835142 0 1
1 0 1
1 0 1
1 0 1
1 0 1
0 0.0168154 1
0 0 1
0.214405 0 1
0.470115 0 1
0.714199 0 1
0.953918 0 1
1 0 0.985367
1 0 0.956313
1 0 0.926848
0 0.189044 1
0 0.155138 1
0.102327 0.129107 1
0.354223 0.0963607 0.977386
0.607111 0.0628061 0.949065
0.846372 0.0311131 0.922148
1 0 0.893156
1 0 0.863005
1 0 0.832761
0 0.369635 0.948074
0 0.334859 0.921065
0 0.305837 0.898924
0.233738 0.277989 0.87834
0.491463 0.244678 0.85185
0.735805 0.212345 0.825772
0.97734 0.18056 0.799817
1 0.147677 0.772656
1 0.113573 0.744045
0 0.555047 0.84947
0 0.519036 0.820783
0 0.486412 0.795529
0.11667 0.461021 0.777234
0.370871 0.428397 0.75198
0.622019 0.395666 0.725261
0.862303 0.363851 0.699565
1 0.331304 0.672724
1 0.297108 0.644205
0 0.746517 0.755184
0 0.709361 0.725002
0 0.674388 0.696986
0.01178 0.64593 0.675517
0.252522 0.615747 0.65243
0.508263 0.580819 0.624598
0.749294 0.547631 0.59704
0.989059 0.514382 0.569268
1 0.480018 0.539864
0 0.937774 0.66212
0 0.899168 0.630335
0 0.862928 0.600153
0 0.829892 0.573419
0.140108 0.802869 0.552605
0.393851 0.768383 0.522911
0.640009 0.734096 0.492515
0.878019 0.700771 0.461707
1 0.666468 0.429862
0 1 0.565164
0 1 0.531533
0 1 0.498909
0 1 0.46772
0.0328069 0.987289 0.443534
0.278782 0.955001 0.414343
0.532052 0.919722 0.380819
0.770779 0.886305 0.348638
1 0.852766 0.315358
0 1 0.460517
0 1 0.424063
0 1 0.38793
0 1 0.353857
0 1 0.323354
0.164324 1 0.297536
0.419425 1 0.264256
0.663691 1 0.230961
0.9028 1 0.198032
0 0 1
0.0893873 0 1
0.334325 0 1
0.587289 0 1
0.825925 0 1
1 0 1
1 0 1
1 0 1
1 0 1
0 0.00653086 1
0 0 1
0.204379 0 1
0.460304 0 1
0.705501 0 1
0.945373 0 1
1 0 1
1 0 1
1 0 1
0 0.178958 1
0 0.145266 1
0.0935683 0.119219 1
0.345006 0.0868086 1
0.59794 0.053193 1
0.837629 0.0217594 1
1 0 1
1 0 1
1 0 1
0 0.360128 1
0 0.325261 1
0 0.295918 1
0.224765 0.268528 1
0.483024 0.235142 1
0.727611 0.202655 1
0.969131 0.170993 1
1 0.137942 1
1 0.104036 0.986007
0 0.545449 1
0 0.509377 1
0 0.476707 1
0.108141 0.450996 1
0.361608 0.419013 0.994125
0.613703 0.385916 0.967788
0.854093 0.354116 0.942123
1 0.321477 0.916136
1 0.287251 0.888594
0 0.73698 0.996933
0 0.699626 0.966964
0 0.664454 0.939269
0.00503548 0.635203 0.917464
0.243046 0.605356 0.896483
0.498878 0.570489 0.869368
0.7402 0.536904 0.84268
0.979843 0.503944 0.816175
1 0.469291 0.788083
0 0.927825 0.905547
0 0.889204 0.874723
0 0.85243 0.845228
0 0.819257 0.819471
0.129992 0.792126 0.799771
0.383261 0.75758 0.772946
0.630213 0.722988 0.745144
0.868269 0.689387 0.717754
1 0.655039 0.689494
0 1 0.812497
0 1 0.780423
0 1 0.75024
0 1 0.721935
0.0235904 0.975464 0.701213
0.267491 0.94316 0.676295
0.521233 0.907927 0.648127
0.759838 0.874174 0.619944
0.999069 0.840558 0.591775
0 1 0.716838
0 1 0.683757
0 1 0.652384
0 1 0.623041
0 1 0.597162
0.152865 1 0.576623
0.407782 1 0.548348
0.652644 1 0.519524
0.89134 1 0.490059
0 0 1
0.0786908 0 1
0.323537 0 1
0.577417 0 1
0.817166 0 1
1 0 1
1 0 1
1 0 1
1 0 1
0 0 1
0 0 1
0.194812 0 1
0.450706 0 1
0.696849 0 1
0.936828 0 1
1 0 1
1 0 1
1 0 1
0 0.169284 1
0 0.135607 1
0.0849775 0.109453 1
0.335592 0.0775616 1
0.589487 0.0438392 1
0.828687 0.012665 1
1 0 1
1 0 1
1 0 1
0 0.350576 1
0 0.315801 1
0 0.286107 1
0.216098 0.259129 1
0.474235 0.225849 1
0.719707 0.193164 1
0.960967 0.161517 1
1 0.128466 1
1 0.094667 1
0 0.536034 1
0 0.499733 1
0 0.467048 1
0.0996109 0.441367 1
0.352865 0.409583 1
0.605264 0.376226 1
0.846036 0.344442 1
1 0.311589 1
1 0.277485 1
0 0.727428 1
0 0.689937 1
0 0.654597 1
0 0.62472 1
0.233509 0.595376 1
0.489799 0.560388 1
0.731685 0.526787 1
0.971603 0.493751 1
1 0.459281 1
0 0.918059 1
0 0.879408 1
0 0.84239 1
0 0.809003 1
0.120623 0.781598 1
0.373159 0.747433 1
0.620905 0.712383 0.98645
0.859022 0.679042 0.959442
1 0.644343 0.931411
0 1 1
0 1 1
0 1 0.991348
0 0.993667 0.9635
0.0151369 0.964752 0.942504
0.257557 0.932799 0.9187
0.51162 0.897505 0.891661
0.750683 0.8636 0.86424
0.989502 0.830076 0.836835
0 1 0.95877
0 1 0.92607
0 1 0.895521
0 1 0.866743
0 1 0.84181
0.142763 1 0.822141
0.397543 1 0.795682
0.643 1 0.768505
0.88191 1 0.741894
0 0 1
0.0679332 0 1
0.313146 0 1
0.567834 0 1
0.808347 0 1
1 0 1
1 0 1
1 0 1
1 0 1
0 0 1
0 0 1
0.185275 0 1
0.441108 0 1
0.688563 0 1
0.928206 0 1
1 0 1
1 0 1
1 0 1
0 0.159838 1
0 0.125902 1
0.0767224 0.0999619 1
0.326375 0.0683757 1
0.580682 0.0348058 1
0.819669 0.00378424 1
1 0 1
1 0 1
1 0 1
0 0.341283 1
0 0.306538 1
0 0.276326 1
0.207599 0.249851 1
0.46566 0.216281 1
0.711666 0.183871 1
0.952743 0.151965 1
1 0.119234 1
1 0.0851148 1
0 0.526619 1
0 0.490379 1
0 0.457572 1
0.0914778 0.431891 1
0.343816 0.400381 1
0.597345 0.366735 1
0.838087 0.33492 1
1 0.301991 1
1 0.267918 1
0 0.718044 1
0 0.680156 1
0 0.644816 1
0 0.614176 1
0.224491 0.585321 1
0.480354 0.550317 1
0.723308 0.516777 1
0.963256 0.483558 1
1 0.449302 1
0 0.908492 1
0 0.869718 1
0 0.832517 1
0 0.798795 1
0.111192 0.771466 1
0.363439 0.737285 1
0.611948 0.702129 1
0.850095 0.668696 1
1 0.634073 1
0 1 1
0 1 1
0 1 1
0 0.983413 1
0.00737011 0.953674 1
0.247501 0.922637 1
0.501884 0.887007 1
0.741634 0.853315 1
0.980133 0.819532 1
0 1 1
0 1 1
0 1 1
0 1 1
0 1 1
0.133471 1 1
0.387869 1 1
0.634089 1 1
0.872557 1 0.983291
