src/colors/vibrant_&_colorful/warm_to_cool.cube
TITLE "Generated by Resolve"
LUT_3D_SIZE 5
0 9.15541e-05 0.00111391
0.220081 0.0077821 0.0461891
0.440833 0.0276188 0.0986496
0.61355 0.0536049 0.14844
0.818143 0.100618 0.213077
0.0492561 0.287953 0.0526436
0.235935 0.27834 0.0913405
0.464759 0.290562 0.119432
0.674189 0.299489 0.17879
0.858885 0.312871 0.234562
0.115267 0.527291 0.154116
0.256519 0.516716 0.143709
0.468055 0.514824 0.184253
0.649958 0.517815 0.212589
0.832959 0.519387 0.255558
0.166857 0.718151 0.264775
0.262531 0.709941 0.212329
0.475319 0.702861 0.23415
0.65301 0.703212 0.259464
0.821042 0.706355 0.276158
0.224323 0.904112 0.338537
0.273182 0.889036 0.269398
0.482139 0.876051 0.279042
0.660151 0.87396 0.287709
0.825986 0.875975 0.301183
0.00262455 0.00727855 0.348867
0.231769 0.0228733 0.342855
0.462943 0.0487373 0.340215
0.638987 0.0767987 0.369162
0.818036 0.112474 0.418952
0.064332 0.301701 0.376135
0.218509 0.28809 0.372671
0.500038 0.283345 0.383734
0.739803 0.280217 0.4206
0.921065 0.292744 0.455283
0.122377 0.549996 0.383505
0.154391 0.550408 0.354452
0.46247 0.519982 0.381918
0.678019 0.514275 0.393637
0.903609 0.503044 0.419501
0.175448 0.742031 0.424536
0.195392 0.747692 0.388846
0.416526 0.727092 0.368093
0.647654 0.710246 0.41239
0.834607 0.707835 0.426017
0.230442 0.924804 0.474708
0.248631 0.915297 0.438041
0.391516 0.908965 0.380209
0.633722 0.888243 0.417502
0.822904 0.882216 0.446113
0.0103914 0.016434 0.530343
0.209583 0.0324559 0.555337
0.440238 0.0573739 0.554788
0.633402 0.0872663 0.553704
0.823453 0.124529 0.591211
0.079118 0.29337 0.607904
0.213809 0.287556 0.674601
0.498177 0.281209 0.667552
0.731594 0.282506 0.656016
0.916823 0.293492 0.671061
0.124865 0.536934 0.623621
0.169116 0.541131 0.655802
0.427619 0.523064 0.654704
0.683131 0.508019 0.640055
0.913542 0.49427 0.670878
0.179171 0.738705 0.633509
0.194751 0.747311 0.630762
0.33138 0.744717 0.610376
0.620111 0.717906 0.59855
0.849699 0.702235 0.618479
0.235477 0.929061 0.657618
0.242542 0.92343 0.636866
0.300053 0.934188 0.586694
0.560037 0.912032 0.571572
0.814496 0.88574 0.614527
0.0231174 0.0307927 0.74403
0.206317 0.0448157 0.743145
0.429557 0.0700999 0.7514
0.639048 0.102007 0.768139
0.837507 0.13518 0.791241
0.0901503 0.297673 0.80415
0.229465 0.295628 0.84828
0.478264 0.29012 0.88603
0.705638 0.29015 0.881254
0.90045 0.298299 0.865217
0.128817 0.533455 0.833341
0.204715 0.530434 0.866087
0.422202 0.518135 0.889357
0.676616 0.502449 0.888411
0.902403 0.494514 0.888502
0.179904 0.739315 0.843763
0.207385 0.733867 0.849882
0.334142 0.734096 0.876646
0.595728 0.714321 0.872511
0.844556 0.6972 0.861311
0.241337 0.929015 0.855268
0.246616 0.917418 0.842847
0.297353 0.926513 0.846494
0.510552 0.916854 0.838117
0.770916 0.895552 0.821546
0.0325628 0.0415808 0.875502
0.209979 0.0553292 0.874388
0.431357 0.0805982 0.881956
0.639597 0.111223 0.897444
0.837781 0.142351 0.918166
0.0958724 0.301564 0.932754
0.231952 0.299229 0.962875
0.470909 0.295476 0.998749
0.692897 0.29749 0.998917
0.888624 0.304875 0.986221
0.131594 0.534386 0.957473
0.211093 0.52932 0.980606
0.418448 0.51667 1
0.670893 0.500786 1
0.897887 0.492607 1
0.178454 0.739879 0.9626
0.21387 0.731899 0.966918
0.332647 0.731319 0.993729
0.590692 0.712215 0.989899
0.840558 0.694865 0.986236
0.241703 0.929381 0.966476
0.248402 0.917037 0.956893
0.306386 0.923323 0.969589
0.505119 0.915129 0.966812
0.764904 0.894148 0.949493
