src/colors/vibrant_&_colorful/warm_pop.cube
TITLE "Generated by Resolve"
LUT_3D_SIZE 33
0 0 0
0 0 0
0.0416876 0 0
0.0999313 0 0
0.160693 0 0
0.222766 0 0
0.286046 0 0
0.34992 0 0
0.413779 0 0
0.477943 0 0
0.540856 0 0
0.601862 0 0
0.661219 0 0
0.719753 0 0
0.777432 0 0
0.835599 0 0
0.894331 0 0
0.953506 0 0
1 0 0
1 0 0
1 0 0
1 0 0
1 0 0
1 0 0
1 0 0
1 0 0
1 0 0
1 0 0
1 0 0
1 0 0
1 0 0
1 0 0
1 0 0
0 0 0
0 0 0
0.0148165 0 0
0.0704967 0 0
0.129747 0 0
0.190692 0 0
0.253025 0 0
0.316075 0 0
0.378759 0 0
0.442039 0 0
0.504234 0 0
0.565606 0 0
0.625391 0 0
0.684581 0 0
0.743572 0 0
0.80235 0 0
0.861448 0 0
0.920867 0 0
0.980697 0 0
1 0 0
1 0 0
1 0 0
1 0 0
1 0 0
1 0 0
1 0 0
1 0 0
1 0 0
1 0 0
1 0 0
1 0 0
1 0 0
1 0 0
0 0.00538643 0
0 0 0
0 0 0
0.0418555 0 0
0.098558 0 0
0.157946 0 0
0.218555 0 0
0.279744 0 0
0.34229 0 0
0.405463 0 0
0.469169 0 0
0.531685 0 0
0.592859 0 0
0.652461 0 0
0.711833 0 0
0.770855 0 0
0.830106 0 0
0.889555 0 0
0.949599 0 0
1 0 0
1 0 0
1 0 0
1 0 0
1 0 0
1 0 0
1 0 0
1 0 0
1 0 0
1 0 0
1 0 0
1 0 0
1 0 0
1 0 0
0 0.0453193 0
0 0.0362402 0
0 0.0279698 0
0.0146639 0.020798 0
0.0678874 0.0124819 0
0.125322 0.00387579 0
0.185122 0 0
0.246815 0 0
0.309331 0 0
0.372335 0 0
0.436332 0 0
0.499626 0 0
0.561563 0 0
0.62182 0 0
0.681453 0 0
0.74078 0 0
0.799985 0 0
0.859617 0 0
0.919402 0 0
0.9794 0 0
1 0 0
1 0 0
1 0 0
1 0 0
1 0 0
1 0 0
1 0 0
1 0 0
1 0 0
1 0 0
1 0 0
1 0 0
1 0 0
0 0.0830091 0
0 0.0734874 0
0 0.0647898 0
0 0.0572061 0
0.0389715 0.0509651 0
0.0959335 0.0431678 0
0.15552 0.0347906 0
0.216953 0.0260471 0
0.279454 0.0171817 0
0.342428 0.00851453 0
0.405814 0 0
0.469474 0 0
0.531975 0 0
0.592981 0 0
0.652705 0 0
0.711818 0 0
0.771176 0 0
0.830655 0 0
0.890288 0 0
0.950179 0 0
1 0 0
1 0 0
1 0 0
1 0 0
1 0 0
1 0 0
1 0 0
1 0 0
1 0 0
1 0 0
1 0 0
1 0 0
1 0 0
0 0.12253 0
0 0.113603 0
0 0.105058 0
0 0.0972 0
0.0123445 0.0909743 0
0.0666209 0.0842451 0
0.125536 0.0763561 0
0.186816 0.0678874 0
0.249592 0.0593881 0
0.313008 0.0505226 0
0.376638 0.0416419 0
0.440726 0.0327153 0
0.503899 0.0239261 0
0.565499 0.0153964 0
0.625238 0.00714122 0
0.684642 0 0
0.744045 0 0
0.803265 0 0
0.862715 0 0
0.922499 0 0
0.982589 0 0
1 0 0
1 0 0
1 0 0
1 0 0
1 0 0
1 0 0
1 0 0
1 0 0
1 0 0
1 0 0
1 0 0
1 0 0
0 0.16434 0
0 0.155398 0
0 0.146868 0
0 0.138872 0
0 0.131762 0
0.0385443 0.12604 0
0.0961013 0.11873 0
0.156435 0.11075 0
0.218845 0.102464 0
0.282246 0.0938277 0
0.346059 0.0850538 0
0.410361 0.0761883 0
0.474662 0.0673075 0
0.537316 0.0586557 0
0.598398 0.0502174 0
0.658473 0.0420996 0
0.718227 0.0341039 0
0.777462 0.0261387 0
0.836927 0.018143 0
0.896529 0.0101472 0
0.955886 0.00228885 0
1 0 0
1 0 0
1 0 0
1 0 0
1 0 0
1 0 0
1 0 0
1 0 0
1 0 0
1 0 0
1 0 0
1 0 0
0 0.207141 0
0 0.198184 0
0 0.189624 0
0 0.181521 0
0 0.174044 0
0.0127108 0.168048 0
0.0670939 0.161761 0
0.126711 0.154345 0
0.188312 0.146288 0
0.251545 0.137743 0
0.315496 0.129061 0
0.379644 0.120363 0
0.444266 0.111574 0
0.507805 0.102892 0
0.569924 0.0944228 0
0.630533 0.0863813 0
0.690715 0.078172 0
0.750317 0.070161 0
0.809979 0.0621653 0
0.86978 0.0541695 0
0.929747 0.0461585 0
0.989654 0.0380407 0
1 0.0299535 0
1 0.0219272 0
1 0.0136568 0
1 0.00540169 0
1 0 0
1 0 0
1 0 0
1 0 0
1 0 0
1 0 0
1 0 0
0 0.250675 0
0 0.241794 0
0 0.233234 0
0 0.225025 0
0 0.217334 0
0 0.210529 0
0.0392615 0.205051 0
0.0975052 0.198199 0
0.158221 0.190433 0
0.220859 0.182177 0
0.284581 0.173678 0
0.348669 0.165087 0
0.413352 0.15639 0
0.47776 0.147677 0
0.54081 0.139162 0
0.602106 0.13106 0
0.662394 0.122896 0
0.722377 0.114855 0
0.78204 0.10692 0
0.841947 0.0989395 0
0.902068 0.0909285 0
0.96257 0.0827955 0
1 0.0749065 0
1 0.066743 0
1 0.0584573 0
1 0.0501564 0
1 0.0417945 0
1 0.033402 0
1 0.0249332 0
1 0.0164645 0
1 0.00825513 0
1 0 0
1 0 0
0 0.294881 0
0 0.286015 0
0 0.277409 0
0 0.269123 0
0 0.261219 0
0 0.253971 0
0.0138857 0.24831 0
0.0687572 0.242344 0
0.128374 0.234974 0
0.190402 0.226978 0
0.253819 0.218631 0
0.317983 0.210101 0
0.382559 0.201511 0
0.447379 0.192935 0
0.511162 0.184573 0
0.573281 0.176242 0
0.633753 0.168063 0
0.69395 0.160006 0
0.753948 0.15201 0
0.813916 0.14406 0
0.874037 0.136095 0
0.934401 0.128069 0
0.994934 0.120211 0
1 0.112108 0
1 0.103853 0
1 0.0955062 0
1 0.0870985 0
1 0.078706 0
1 0.0702678 0
1 0.0618601 0
1 0.0535286 0
1 0.0449836 0
1 0.036347 0
0 0.339544 0
0 0.330587 0
0 0.321965 0
0 0.313634 0
0 0.305669 0
0 0.298299 0
0 0.291844 0
0.0410925 0.286564 0
0.099443 0.279606 0
0.160525 0.271946 0
0.223407 0.263828 0
0.287343 0.255451 0
0.351644 0.246998 0
0.41651 0.238437 0
0.481025 0.230152 0
0.543938 0.221698 0
0.605112 0.213474 0
0.665522 0.205402 0
0.72549 0.197482 0
0.785489 0.189563 0
0.845594 0.181628 0
0.906096 0.173785 0
0.966812 0.165866 0
1 0.157717 0
1 0.149477 0
1 0.141192 0
1 0.13286 0
1 0.124483 0
1 0.116106 0
1 0.107805 0
1 0.0992142 0
1 0.0906539 0
1 0.0820478 0
0 0.384451 0
0 0.37557 0
0 0.366918 0
0 0.358541 0
0 0.350469 0
0 0.342855 0
0 0.33608 0
0.0157168 0.330434 0
0.0710613 0.324376 0
0.130968 0.317128 0
0.19321 0.309255 0
0.256764 0.301045 0
0.321111 0.292638 0
0.386038 0.284337 0
0.450889 0.275868 0
0.514305 0.26746 0
0.576242 0.25922 0
0.63679 0.251118 0
0.697078 0.243137 0
0.756985 0.235294 0
0.817334 0.227481 0
0.877821 0.219623 0
0.938231 0.211658 0
0.998444 0.203632 0
1 0.195422 0
1 0.187167 0
1 0.178851 0
1 0.170413 0
1 0.16199 0
1 0.153765 0
1 0.145251 0
1 0.13669 0
1 0.128084 0
0 0.429633 0
0 0.420783 0
0 0.412131 0
0 0.403662 0
0 0.39556 0
0 0.387976 0
0 0.380682 0
0 0.374258 0
0.0436713 0.3691 0
0.102098 0.36231 0
0.163653 0.35465 0
0.226719 0.346654 0
0.290959 0.338598 0
0.355413 0.330297 0
0.420371 0.321828 0
0.484459 0.313405 0
0.547097 0.305135 0
0.608087 0.296986 0
0.668666 0.28893 0
0.728725 0.281056 0
0.78883 0.273289 0
0.84921 0.265568 0
0.909606 0.257618 0
0.970413 0.249561 0
1 0.241474 0
1 0.233204 0
1 0.224918 0
1 0.216571 0
1 0.208377 0
1 0.199969 0
1 0.191455 0
1 0.182895 0
1 0.174197 0
0 0.475471 0
0 0.466468 0
0 0.457664 0
0 0.449088 0
0 0.441047 0
0 0.433112 0
0 0.42562 0
0 0.418799 0
0.0183108 0.413428 0
0.0742962 0.40737 0
0.134447 0.400168 0
0.196857 0.392386 0
0.260685 0.384405 0
0.324987 0.376272 0
0.389776 0.367864 0
0.454658 0.35935 0
0.517784 0.351064 0
0.579538 0.342901 0
0.640085 0.33489 0
0.70042 0.327047 0
0.760525 0.319432 0
0.820691 0.311574 0
0.881193 0.303578 0
0.941726 0.295613 0
1 0.287587 0
1 0.279393 0
1 0.271138 0
1 0.26302 0
1 0.254688 0
1 0.246159 0
1 0.237675 0
1 0.229114 0
1 0.220523 0
0 0.521843 0
0 0.512795 0
0 0.503944 0
0 0.495308 0
0 0.487083 0
0 0.478981 0
0 0.471244 0
0 0.464012 0
0 0.457664 0
0.0472114 0.452476 0
0.105974 0.445594 0
0.167651 0.438148 0
0.231144 0.430243 0
0.29514 0.422095 0
0.35967 0.413809 0
0.424582 0.405447 0
0.488441 0.397116 0
0.550896 0.388937 0
0.611597 0.380896 0
0.672328 0.373159 0
0.732341 0.365332 0
0.792447 0.357473 0
0.852674 0.349615 0
0.912993 0.341711 0
0.973465 0.333639 0
1 0.325582 0
1 0.317296 0
1 0.309133 0
1 0.300877 0
1 0.292454 0
1 0.28397 0
1 0.275441 0
1 0.26685 0
0 0.568887 0
0 0.559701 0
0 0.550652 0
0 0.542092 0
0 0.533623 0
0 0.525368 0
0 0.517433 0
0 0.509926 0
0 0.503166 0
0.0218509 0.497765 0
0.0785077 0.491478 0
0.139162 0.484443 0
0.201709 0.47657 0
0.265446 0.468391 0
0.329656 0.460105 0
0.394476 0.451652 0
0.458946 0.443168 0
0.522026 0.434821 0
0.583398 0.426719 0
0.644099 0.418982 0
0.704204 0.411215 0
0.764172 0.403418 0
0.824277 0.395605 0
0.884703 0.387671 0
0.945373 0.379675 0
1 0.371633 0
1 0.363577 0
1 0.355413 0
1 0.347082 0
1 0.338674 0
1 0.330205 0
1 0.32166 0
1 0.313039 0
0 0.616678 0
0 0.607431 0
0 0.598352 0
0 0.5897 0
0 0.580957 0
0 0.572457 0
0 0.564218 0
0 0.55642 0
0 0.549157 0
0 0.542885 0
0.0517739 0.537636 0
0.111009 0.530861 0
0.172793 0.52314 0
0.236042 0.515053 0
0.300114 0.506737 0
0.364752 0.498299 0
0.429541 0.489845 0
0.493095 0.481437 0
0.555428 0.473426 0
0.615976 0.46537 0
0.676249 0.457389 0
0.736278 0.449454 0
0.796307 0.441535 0
0.856489 0.43357 0
0.916808 0.425605 0
0.977279 0.417502 0
1 0.409689 0
1 0.40145 0
1 0.393164 0
1 0.384741 0
1 0.376303 0
1 0.367803 0
1 0.359213 0
0 0.664546 0
0 0.655283 0
0 0.646326 0
0 0.637476 0
0 0.628672 0
0 0.620127 0
0 0.611826 0
0 0.603861 0
0 0.596307 0
0 0.589548 0
0.0265507 0.584375 0
0.0837873 0.577722 0
0.144656 0.570092 0
0.207309 0.562036 0
0.271077 0.553719 0
0.335225 0.545312 0
0.399985 0.536782 0
0.464103 0.528298 0
0.527092 0.52018 0
0.588205 0.511925 0
0.648524 0.503868 0
0.708385 0.495964 0
0.768353 0.488029 0
0.828382 0.480079 0
0.88864 0.472053 0
0.949264 0.464057 0
1 0.456016 0
1 0.4477 0
1 0.439307 0
1 0.430854 0
1 0.422339 0
1 0.413779 0
1 0.405188 0
0 0.712413 0
0 0.703197 0
0 0.694194 0
0 0.685206 0
0 0.676402 0
0 0.667796 0
0 0.659403 0
0 0.651316 0
0 0.64358 0
0 0.636439 0
0.00421149 0.630488 0
0.0576333 0.624872 0
0.117037 0.617655 0
0.178943 0.609766 0
0.242237 0.601495 0
0.306188 0.593011 0
0.370855 0.584314 0
0.435538 0.575799 0
0.498695 0.567391 0
0.560494 0.558999 0
0.620844 0.550774 0
0.680919 0.542672 0
0.740627 0.534722 0
0.800732 0.526635 0
0.860914 0.518654 0
0.92134 0.51075 0
0.981338 0.502586 0
1 0.494255 0
1 0.485863 0
1 0.477378 0
1 0.468788 0
1 0.460151 0
1 0.451484 0
0 0.760235 0
0 0.751003 0
0 0.742031 0
0 0.732998 0
0 0.724117 0
0 0.71545 0
0 0.706905 0
0 0.698695 0
0 0.690806 0
0 0.683604 0
0 0.676997 0
0.0323949 0.671733 0
0.090135 0.664958 0
0.151308 0.657221 0
0.214069 0.649088 0
0.27776 0.640696 0
0.342061 0.632319 0
0.406851 0.623789 0
0.470512 0.615167 0
0.53283 0.606714 0
0.593606 0.598306 0
0.653742 0.590051 0
0.71342 0.581949 0
0.77322 0.5738 0
0.833158 0.565667 0
0.893385 0.557733 0
0.953994 0.549371 0
1 0.541039 0
1 0.532494 0
1 0.523949 0
1 0.515328 0
1 0.506645 0
1 0.498085 0
0 0.808209 0
0 0.799084 0
0 0.789853 0
0 0.780697 0
0 0.771771 0
0 0.762997 0
0 0.754452 0
0 0.746136 0
0 0.738323 0
0 0.730739 0
0 0.72372 0
0.00933852 0.717906 0
0.064332 0.711864 0
0.124086 0.704524 0
0.186145 0.696559 0
0.249485 0.688243 0
0.313405 0.679896 0
0.378195 0.671397 0
0.442466 0.662715 0
0.50515 0.654185 0
0.566415 0.645762 0
0.626627 0.637491 0
0.686427 0.629313 0
0.746044 0.62121 0
0.805982 0.613275 0
0.866041 0.605051 0
0.926268 0.596719 0
0.986099 0.588327 0
1 0.579751 0
1 0.571099 0
1 0.562371 0
1 0.553719 0
1 0.544915 0
0 0.856291 0
0 0.846891 0
0 0.837613 0
0 0.828473 0
0 0.819471 0
0 0.810636 0
0 0.801984 0
0 0.793545 0
0 0.785489 0
0 0.777783 0
0 0.770413 0
0 0.763897 0
0.0390021 0.758602 0
0.0973373 0.751629 0
0.158648 0.743832 0
0.221698 0.735653 0
0.28542 0.727443 0
0.349691 0.718853 0
0.414191 0.710185 0
0.477501 0.701518 0
0.539406 0.693034 0
0.599634 0.684672 0
0.659602 0.676417 0
0.719448 0.668452 0
0.77911 0.660304 0
0.838849 0.652079 0
0.898695 0.643839 0
0.958694 0.635386 0
1 0.626947 0
1 0.61828 0
1 0.609522 0
1 0.600855 0
1 0.592172 0
0 0.904219 0
0 0.89482 0
0 0.885481 0
0 0.876265 0
0 0.867185 0
0 0.858228 0
0 0.849454 0
0 0.841062 0
0 0.832883 0
0 0.824887 0
0 0.817304 0
0 0.810391 0
0.0150759 0.804837 0
0.0713664 0.798398 0
0.131579 0.790875 0
0.194049 0.783078 0
0.257374 0.774685 0
0.321263 0.766125 0
0.385702 0.757443 0
0.449546 0.748745 0
0.512078 0.740078 0
0.572885 0.731594 0
0.632883 0.723278 0
0.692531 0.715282 0
0.752194 0.707179 0
0.811795 0.69894 0
0.871626 0.690639 0
0.931807 0.682216 0
0.991516 0.673793 0
1 0.665187 0
1 0.65658 0
1 0.64799 0
1 0.63917 0
0 0.952285 0
0 0.942779 0
0 0.933349 0
0 0.923995 0
0 0.914839 0
0 0.905821 0
0 0.896986 0
0 0.888609 0
0 0.880171 0
0 0.871962 0
0 0.864134 0
0 0.856825 0
0 0.850446 0
0.0458228 0.844923 0
0.104677 0.837751 0
0.166384 0.83006 0
0.229343 0.821759 0
0.29308 0.813169 0
0.357305 0.804456 0
0.421561 0.795712 0
0.484428 0.787045 0
0.545983 0.77847 0
0.60618 0.770214 0
0.665949 0.762036 0
0.72549 0.753796 0
0.785077 0.745541 0
0.844724 0.73724 0
0.904479 0.728923 0
0.964416 0.720409 0
1 0.711925 0
1 0.703532 0
1 0.694728 0
1 0.685893 0
0 1 0
0 0.990677 0
0 0.981201 0
0 0.971832 0
0 0.962585 0
0 0.953475 0
0 0.944595 0
0 0.935958 0
0 0.927382 0
0 0.919051 0
0 0.911025 0
0 0.903426 0
0 0.896574 0
0.0210269 0.891142 0
0.0784314 0.88452 0
0.139071 0.876814 0
0.20148 0.868589 0
0.264912 0.860075 0
0.32874 0.851423 0
0.393133 0.842634 0
0.456611 0.83386 0
0.518761 0.825223 0
0.579553 0.816922 0
0.639399 0.808545 0
0.698772 0.800305 0
0.758251 0.79205 0
0.817777 0.78378 0
0.877409 0.775464 0
0.937606 0.766964 0
0.99736 0.75848 0
1 0.750057 0
1 0.741344 0
1 0.732555 0
0 1 0
0 1 0
0 1 0
0 1 0
0 1 0
0 1 0
0 0.992248 0
0 0.983352 0
0 0.97464 0
0 0.966155 0
0 0.957931 0
0 0.950011 0
0 0.942794 0
0 0.936492 0
0.0523232 0.930938 0
0.111757 0.923461 0
0.173465 0.915358 0
0.23653 0.906905 0
0.300114 0.898283 0
0.364523 0.889418 0
0.42858 0.880583 0
0.491188 0.871977 0
0.552499 0.863523 0
0.612512 0.85507 0
0.672145 0.846723 0
0.731426 0.838468 0
0.791058 0.830121 0
0.85069 0.82179 0
0.910475 0.813428 0
0.970184 0.805188 0
1 0.796582 0
1 0.787884 0
1 0.779126 0
0 1 0
0 1 0
0 1 0
0 1 0
0 1 0
0 1 0
0 1 0
0 1 0
0 1 0
0 1 0
0 1 0
0 0.996139 0
0 0.989044 0
0 0.982391 0
0.0268101 0.977005 0
0.084596 0.969955 0
0.145602 0.96199 0
0.20827 0.953567 0
0.271611 0.944991 0
0.335668 0.936202 0
0.400092 0.927428 0
0.463325 0.918807 0
0.525322 0.910094 0
0.585565 0.901518 0
0.645426 0.893065 0
0.704753 0.884794 0
0.764172 0.876478 0
0.823697 0.868162 0
0.883284 0.859815 0
0.943771 0.851545 0
1 0.843046 0
1 0.834272 0
1 0.825528 0
0 1 0
0 1 0
0 1 0
0 1 0
0 1 0
0 1 0
0 1 0
0 1 0
0 1 0
