src/colors/cinematic_&_blockbuster/bold_red_cinema.cube
TITLE "Generated by Resolve"
LUT_3D_SIZE 5
0.0148928 0.0157015 0.0207065
0.255695 0.070573 0.066865
0.659831 0.171496 0.156313
0.850828 0.220218 0.198962
0.853666 0.226383 0.20415
0.0241093 0.154208 0.0250095
0.479347 0.207004 0.121035
0.794293 0.300755 0.197391
0.912917 0.37641 0.19408
0.93193 0.405921 0.167636
0.064683 0.451987 0.0421302
0.682536 0.608118 0.08542
0.900053 0.614496 0.114488
0.947982 0.603677 0.11754
0.948409 0.63563 0.129686
0.0809796 0.825727 0.0513619
0.727962 0.820462 0.0400549
0.899855 0.845884 0.0821698
0.952514 0.824353 0.107118
0.952621 0.829847 0.108019
0.184375 0.858534 0.0734264
0.790143 0.868711 0.059266
0.925216 0.893584 0.0777295
0.953079 0.849973 0.100511
0.953079 0.849912 0.100359
0.0196384 0.0393225 0.093843
0.287495 0.0811017 0.102937
0.680339 0.178149 0.185748
0.855573 0.222278 0.23476
0.848844 0.228473 0.249699
0.0289464 0.211231 0.0732738
0.525231 0.242832 0.140597
0.832441 0.361379 0.163836
0.943938 0.453254 0.16408
0.945907 0.495216 0.172549
0.0661173 0.447639 0.0911727
0.676768 0.654627 0.111589
0.90898 0.661311 0.163531
0.948852 0.65742 0.166476
0.949355 0.681834 0.176257
0.0831464 0.833448 0.0993515
0.735241 0.874693 0.0838788
0.913237 0.878798 0.116396
0.952743 0.845106 0.142779
0.952804 0.847898 0.142794
0.138582 0.856214 0.11986
0.7794 0.905577 0.0984512
0.924453 0.906065 0.110369
0.953338 0.872206 0.131289
0.953338 0.871992 0.130877
0.0419471 0.14934 0.351644
0.315358 0.114443 0.259205
0.741039 0.209918 0.286213
0.896757 0.271565 0.264103
0.906706 0.352544 0.37435
0.0570077 0.286061 0.427756
0.470619 0.392142 0.463249
0.829129 0.539162 0.530144
0.914061 0.602869 0.578286
0.91635 0.623987 0.598642
0.149569 0.759136 0.675883
0.573709 0.710582 0.527047
0.865034 0.730068 0.438865
0.947921 0.716152 0.478172
0.948043 0.732387 0.510674
0.158022 0.983124 0.511193
0.664836 0.919982 0.394049
0.884688 0.896803 0.355886
0.951904 0.870741 0.379675
0.951934 0.871748 0.379141
0.192615 0.978439 0.554269
0.718135 0.952895 0.402472
0.902586 0.926848 0.333761
0.952728 0.910567 0.284215
0.952743 0.910323 0.280949
0.0590982 0.24123 0.533074
0.221683 0.222675 0.447944
0.820188 0.33344 0.426413
0.894316 0.448875 0.577203
0.890913 0.456321 0.626688
0.0740826 0.386847 0.608713
0.446006 0.494697 0.684291
0.844678 0.543389 0.644739
0.907469 0.619684 0.689937
0.909712 0.636622 0.703059
0.144045 0.718013 0.772717
0.433417 0.760571 0.742092
0.835904 0.756466 0.679225
0.941665 0.766247 0.697002
0.943252 0.778225 0.70724
0.192477 0.962127 0.833631
0.454871 0.956786 0.591821
0.878141 0.911086 0.615305
0.951553 0.891569 0.618326
0.951537 0.891203 0.617319
0.220493 0.972168 0.834974
0.598489 0.979858 0.536629
0.893782 0.94313 0.59498
0.952361 0.932738 0.567193
0.952361 0.932601 0.565728
0.0784009 0.354437 0.690333
0.167559 0.341344 0.633951
0.824735 0.368917 0.600855
0.897505 0.445808 0.672618
0.904234 0.45658 0.686732
0.0942245 0.487938 0.74461
0.450248 0.58294 0.815763
0.880537 0.561288 0.79913
0.928557 0.617792 0.778698
0.928389 0.632731 0.781399
0.147845 0.727428 0.858564
0.418265 0.761517 0.834043
0.835248 0.76849 0.794171
0.929305 0.792233 0.80621
0.93109 0.803723 0.816861
0.180301 0.885039 0.909255
0.320455 0.956359 0.866468
0.862379 0.925765 0.75198
0.951156 0.9093 0.753628
0.951156 0.908537 0.753185
0.207324 0.903593 0.908629
0.412161 0.984451 0.839796
0.879225 0.959243 0.73019
0.950668 0.949355 0.721736
0.950668 0.949279 0.720867
