src/colors/cinematic_&_blockbuster/bold_red_cinema.cube
TITLE "Generated by Resolve"
LUT_3D_SIZE 33
0.0148928 0.0157015 0.0207065
0.0156863 0.0159609 0.0207675
0.0166476 0.0162814 0.0208438
0.0204318 0.0169833 0.0211948
0.0310369 0.0187076 0.0229801
0.0581674 0.0230869 0.0270848
0.11368 0.0366827 0.035935
0.179202 0.0525978 0.0497597
0.255695 0.070573 0.066865
0.335882 0.0905013 0.0846876
0.409171 0.108797 0.100923
0.469276 0.123857 0.114321
0.519142 0.136431 0.125399
0.561913 0.147189 0.134936
0.597711 0.156146 0.142779
0.62977 0.164111 0.149798
0.659831 0.171496 0.156313
0.688457 0.178592 0.162448
0.716594 0.185504 0.168475
0.745235 0.192584 0.174746
0.773739 0.199741 0.181003
0.803037 0.207355 0.187671
0.830945 0.21474 0.194156
0.850828 0.220218 0.198962
0.850828 0.220218 0.198962
0.850828 0.220218 0.198962
0.850828 0.220218 0.198962
0.850828 0.220218 0.198962
0.850828 0.220218 0.198962
0.851209 0.221088 0.199527
0.851926 0.222614 0.200855
0.85272 0.224247 0.202289
0.853666 0.226383 0.20415
0.0153811 0.0171664 0.0212253
0.0163424 0.0174868 0.0213626
0.017319 0.017792 0.0215
0.0213931 0.0181125 0.0216678
0.0319829 0.0188602 0.0231479
0.060441 0.0235752 0.0274205
0.117571 0.0376593 0.0367742
0.185489 0.0540169 0.0511025
0.263737 0.0725872 0.0686961
0.346731 0.0932021 0.087068
0.422385 0.112108 0.103883
0.485634 0.128023 0.117983
0.534417 0.140261 0.128801
0.576745 0.150912 0.138186
0.613397 0.160052 0.146212
0.646586 0.168246 0.153445
0.676524 0.175647 0.159899
0.704677 0.182589 0.165896
0.732967 0.189532 0.172045
0.76144 0.196597 0.178256
0.79089 0.204196 0.184894
0.81883 0.211521 0.191333
0.846006 0.218891 0.197803
0.851041 0.220752 0.199054
0.85153 0.221912 0.199237
0.85211 0.223285 0.199878
0.852872 0.224857 0.201236
0.853742 0.227131 0.20267
0.854749 0.229511 0.204471
0.855894 0.232044 0.206821
0.856916 0.234455 0.209049
0.857862 0.236942 0.211353
0.858549 0.239353 0.213611
0.0159152 0.0187381 0.0217746
0.0168612 0.0189364 0.0219425
0.0180209 0.0193027 0.0221714
0.0226596 0.0198062 0.0223392
0.0343328 0.0209964 0.0238804
0.0678111 0.0259251 0.0286107
0.129656 0.0407111 0.039353
0.20119 0.0574502 0.0545663
0.287938 0.078584 0.0740826
0.373404 0.0998245 0.0929427
0.448508 0.118608 0.109682
0.510475 0.134264 0.123491
0.559228 0.146517 0.13434
0.598825 0.156435 0.143023
0.633219 0.164965 0.150561
0.664424 0.173068 0.157305
0.693782 0.181186 0.163622
0.721904 0.188891 0.169696
0.750408 0.196735 0.175967
0.779095 0.204746 0.182361
0.808011 0.213352 0.189517
0.835828 0.222019 0.19678
0.854124 0.228565 0.202182
0.854902 0.230457 0.203372
0.855848 0.2327 0.205158
0.856809 0.234974 0.207279
0.857893 0.237491 0.209628
0.858732 0.240009 0.211948
0.859236 0.242374 0.214115
0.859586 0.244556 0.216144
0.85951 0.246769 0.218082
0.859144 0.248936 0.219959
0.858549 0.25098 0.221714
0.0163272 0.0226596 0.0222324
0.0172732 0.0231327 0.0224613
0.0190127 0.0238499 0.022858
0.0244602 0.0247807 0.0232395
0.0381781 0.0266117 0.0249485
0.0809949 0.0347753 0.0310979
0.150134 0.0507057 0.0439918
0.229831 0.06804 0.0612497
0.32256 0.0906386 0.0819562
0.409094 0.112169 0.101061
0.480659 0.130266 0.117006
0.537194 0.145129 0.129564
0.58201 0.157458 0.139528
0.618692 0.167788 0.147555
0.651255 0.17702 0.154665
0.681178 0.185687 0.161685
0.709453 0.194018 0.168551
0.738369 0.202472 0.175616
0.767269 0.210971 0.182742
0.796078 0.21973 0.190005
0.824933 0.228717 0.197879
0.851835 0.237522 0.205768
0.858824 0.241169 0.20914
0.859678 0.243442 0.2112
0.860121 0.245701 0.213397
0.860533 0.248051 0.215366
0.860655 0.250416 0.217411
0.860319 0.25272 0.219272
0.859876 0.254948 0.221164
0.85922 0.256947 0.222766
0.858351 0.259083 0.224475
0.857588 0.261219 0.226078
0.856748 0.263172 0.227573
0.0171206 0.0318303 0.0231937
0.0172885 0.0338445 0.0234073
0.0202945 0.0359808 0.0240024
0.027039 0.0378119 0.0245365
0.0440986 0.0406806 0.0258488
0.100587 0.053315 0.0338293
0.173693 0.0699168 0.0485389
0.254307 0.0862898 0.067155
0.345052 0.107836 0.0872053
0.42884 0.12871 0.105714
0.496101 0.145907 0.120623
0.548638 0.159808 0.132326
0.590631 0.171374 0.141619
0.626749 0.181689 0.149798
0.65922 0.191089 0.157641
0.688991 0.199786 0.164965
0.717754 0.20824 0.172045
0.747173 0.217044 0.1794
0.776959 0.226032 0.187198
0.806821 0.235401 0.195407
0.835859 0.244816 0.203754
0.860838 0.253285 0.211505
0.863203 0.256016 0.213855
0.863478 0.258412 0.215808
0.863752 0.261006 0.217746
0.863645 0.263462 0.219547
0.86331 0.265919 0.221363
0.863111 0.268437 0.223087
0.862623 0.270649 0.224643
0.862181 0.272892 0.226108
0.862364 0.275898 0.227268
0.862913 0.279408 0.228077
0.863691 0.282994 0.228504
0.0187839 0.0522621 0.0250553
0.0191043 0.0573587 0.0252689
0.0225071 0.062974 0.0257877
0.0309758 0.0666056 0.0263828
0.0529946 0.0689708 0.0262303
0.124544 0.0758068 0.0329442
0.205371 0.0927901 0.0556039
0.283345 0.107942 0.0747539
0.365301 0.12668 0.0923781
0.439445 0.144686 0.108431
0.502144 0.160647 0.12221
0.552804 0.174151 0.133516
0.594293 0.185794 0.142702
0.631189 0.196567 0.150912
0.663996 0.206363 0.159045
0.695079 0.215885 0.166888
0.724575 0.224918 0.174365
0.754803 0.234241 0.182116
0.785306 0.243824 0.190372
0.81474 0.253376 0.19855
0.842969 0.262715 0.206806
0.865827 0.271199 0.21445
0.868559 0.27422 0.216938
0.868818 0.276799 0.218799
0.869291 0.279576 0.220462
0.869444 0.282261 0.222065
0.870039 0.285618 0.223362
0.872099 0.290623 0.22356
0.874403 0.295811 0.223148
0.877195 0.301427 0.222171
0.882124 0.309148 0.218982
0.887785 0.317143 0.214664
0.892805 0.32398 0.210483
0.0204318 0.0833448 0.0252842
0.0206149 0.0883955 0.0251011
0.0244144 0.0946975 0.0249332
0.0337835 0.0990921 0.0245365
0.0573587 0.101091 0.0231937
0.135027 0.10544 0.0305486
0.23537 0.116518 0.0598459
0.3187 0.131655 0.0839399
0.399878 0.15024 0.101442
0.468254 0.166949 0.116106
0.525093 0.181628 0.128466
0.571756 0.194324 0.138674
0.611353 0.205646 0.147417
0.646738 0.216358 0.155459
0.679683 0.226596 0.163867
0.71075 0.236423 0.171954
0.740246 0.245716 0.179614
0.76994 0.255131 0.187442
0.799222 0.264469 0.195514
0.827192 0.273594 0.203296
0.852903 0.282689 0.211063
0.872526 0.292149 0.217777
0.875975 0.296544 0.219547
0.878248 0.301732 0.220081
0.882063 0.308995 0.219409
0.886671 0.316915 0.217288
0.89218 0.325521 0.214237
0.897536 0.33344 0.210101
0.902693 0.340688 0.205661
0.907393 0.346944 0.201099
0.911971 0.352941 0.196628
0.91574 0.358129 0.192798
0.918364 0.362234 0.190021
0.0216983 0.11603 0.0244144
0.0220035 0.121599 0.0244144
0.0263981 0.127932 0.0245365
0.0366064 0.132006 0.0247196
0.0641947 0.135454 0.0231022
0.150896 0.142046 0.028809
0.261036 0.145815 0.0574197
0.354131 0.157427 0.0915847
0.438483 0.175814 0.111284
0.506859 0.193149 0.126268
0.560845 0.207446 0.138033
0.605646 0.220233 0.147875
0.642878 0.231373 0.156115
0.676768 0.241993 0.164446
0.708492 0.252094 0.172808
0.738048 0.261784 0.180636
0.766018 0.271015 0.188098
0.794186 0.280339 0.195758
0.821424 0.289342 0.203143
0.847059 0.298863 0.210529
0.86807 0.310536 0.216449
0.884627 0.324056 0.217243
0.890852 0.332403 0.215076
0.895506 0.340108 0.21236
0.900328 0.347845 0.208942
0.904753 0.354589 0.205493
0.908782 0.360632 0.201816
0.912505 0.366155 0.198398
0.915862 0.370932 0.194751
0.918929 0.375326 0.191211
0.92137 0.379126 0.188144
0.923339 0.382467 0.185565
0.925078 0.385443 0.183291
0.0241093 0.154208 0.0250095
0.0245823 0.160922 0.0251621
0.0286259 0.168383 0.0254063
0.0394751 0.175082 0.0258183
0.0652171 0.182452 0.0244755
0.170321 0.195331 0.028275
0.290379 0.199359 0.0485847
0.399908 0.197406 0.0887465
0.479347 0.207004 0.121035
0.548135 0.223758 0.137316
0.601755 0.238483 0.149294
0.643305 0.250629 0.158511
0.678203 0.26154 0.166323
0.710414 0.272084 0.174487
0.740734 0.282414 0.182773
0.768093 0.291752 0.190249
0.794293 0.300755 0.197391
0.821424 0.310475 0.204608
0.847547 0.321523 0.211398
0.866407 0.334478 0.216083
0.880507 0.345098 0.214923
0.895247 0.35581 0.208362
0.904479 0.364416 0.202228
0.90869 0.370443 0.198337
0.912917 0.37641 0.19408
0.916686 0.381445 0.189288
0.91986 0.385885 0.185122
0.922606 0.389883 0.181399
0.925078 0.393576 0.178012
0.92694 0.396582 0.175296
0.928878 0.399802 0.172488
0.930587 0.402853 0.169924
0.93193 0.405921 0.167636
0.0275883 0.198337 0.0261387
0.0283055 0.206195 0.0263523
0.032578 0.216037 0.0266728
0.0443732 0.226703 0.0271916
0.0724956 0.239185 0.0263066
0.198016 0.258198 0.0266117
0.333562 0.272084 0.0494392
0.444739 0.263447 0.0688487
0.536339 0.258991 0.112444
0.595483 0.264958 0.143206
0.64268 0.274846 0.159182
0.68011 0.28452 0.169162
0.711513 0.293858 0.176761
0.741222 0.303471 0.184283
0.769253 0.313695 0.191196
0.796307 0.324498 0.197101
0.824018 0.336919 0.201678
0.850843 0.352224 0.205234
0.869368 0.365545 0.206928
0.879728 0.37084 0.207828
0.892546 0.377111 0.201846
0.910216 0.387793 0.186313
0.923445 0.396307 0.173053
0.925872 0.400168 0.169299
0.928054 0.403769 0.165881
0.930083 0.407218 0.162661
0.93196 0.410605 0.159625
0.933577 0.41384 0.156939
0.934768 0.416846 0.154833
0.935805 0.42002 0.153017
0.936706 0.422919 0.151415
0.937636 0.426001 0.149798
0.938552 0.429145 0.148211
0.032105 0.244663 0.027512
0.0329137 0.252338 0.0277562
0.0384985 0.263371 0.0281529
0.0515145 0.277607 0.0287022
0.0966049 0.296422 0.0269474
0.24242 0.320348 0.0266575
0.387198 0.34136 0.0543374
0.487968 0.346639 0.0681163
0.576593 0.330282 0.0823377
0.650568 0.324407 0.109682
0.694896 0.328527 0.133227
0.72752 0.334936 0.148547
0.7561 0.342687 0.158419
0.783062 0.351385 0.1664
0.810285 0.361578 0.173983
0.835325 0.371176 0.179416
0.858427 0.381781 0.183459
0.876051 0.392538 0.18584
0.886503 0.397589 0.186831
0.895827 0.400031 0.183825
0.908919 0.405921 0.1729
0.922362 0.41352 0.15967
0.931975 0.42002 0.15021
0.935592 0.423957 0.146044
0.936828 0.427115 0.143877
0.93785 0.430396 0.142077
0.938689 0.433753 0.140581
0.939422 0.436851 0.139269
0.940124 0.439918 0.138018
0.94081 0.443046 0.136797
0.941405 0.44593 0.135683
0.942061 0.449241 0.134646
0.942596 0.452354 0.133776
0.0366827 0.285252 0.0288243
0.0377661 0.292012 0.0290684
0.0461891 0.306203 0.0296025
0.0603952 0.324712 0.0300908
0.139849 0.351064 0.0267338
0.294499 0.378866 0.0291447
0.43473 0.403494 0.0556954
0.529793 0.41619 0.0740673
0.597482 0.415808 0.0795758
0.668925 0.396124 0.0855726
0.722148 0.387518 0.0956741
0.757092 0.387442 0.106416
0.784665 0.390723 0.115618
0.810224 0.395468 0.123537
0.835081 0.400946 0.13138
0.859434 0.40766 0.139422
0.880415 0.415076 0.148302
0.89221 0.419593 0.156588
0.899626 0.420676 0.160937
0.908019 0.42266 0.15845
0.918441 0.428031 0.150057
0.928435 0.43447 0.14107
0.936156 0.440681 0.134249
0.940642 0.446143 0.130419
0.941329 0.449714 0.129244
0.941955 0.453025 0.128252
0.942535 0.456352 0.127291
0.943053 0.459602 0.126497
0.943511 0.462898 0.125856
0.943938 0.466117 0.125292
0.944335 0.469306 0.124804
0.944701 0.472389 0.1243
0.945083 0.475685 0.123903
0.0408942 0.319326 0.0301061
0.0458228 0.330571 0.0305028
0.0544289 0.346639 0.0310979
0.0762341 0.370596 0.0319677
0.194842 0.402518 0.0278019
0.344182 0.431312 0.0310521
0.476738 0.455863 0.0582132
0.565362 0.469261 0.0768902
0.620218 0.477119 0.0835584
0.673152 0.468467 0.0877852
0.726299 0.45623 0.0912795
0.763882 0.450126 0.0944686
0.791913 0.447196 0.097673
0.817212 0.445701 0.10135
0.842008 0.445487 0.105684
0.866392 0.446372 0.111467
0.888289 0.448035 0.119585
0.902144 0.448966 0.128405
0.910216 0.448341 0.133486
0.917601 0.449302 0.133364
0.925521 0.452964 0.129946
0.933196 0.458 0.125628
0.93959 0.463981 0.121874
0.943847 0.469856 0.119463
0.94432 0.473671 0.11899
0.944732 0.477455 0.118608
0.945083 0.480888 0.118364
0.945403 0.48423 0.118212
0.945724 0.487694 0.11812
0.945998 0.491218 0.118151
0.946212 0.494697 0.118395
0.94638 0.497765 0.118593
0.946578 0.501534 0.119005
0.0468299 0.351965 0.0314183
0.0538796 0.367895 0.0333257
0.0630045 0.38732 0.0361028
0.103532 0.415442 0.0352941
0.252323 0.449165 0.0315557
0.391806 0.477028 0.0359045
0.508949 0.498817 0.0600595
0.592538 0.511879 0.0795148
0.642161 0.521675 0.085893
0.683925 0.521126 0.0901656
0.726207 0.512993 0.0941024
0.764111 0.506691 0.0966354
0.793317 0.5019 0.0981308
0.818524 0.498329 0.0995041
0.84271 0.495201 0.101305
0.867887 0.492454 0.103899
0.891539 0.489738 0.108125
0.907546 0.48687 0.11342
0.916609 0.484581 0.116365
0.923705 0.484443 0.116701
0.930571 0.486534 0.115724
0.937179 0.49012 0.114321
0.942657 0.494148 0.1131
0.945815 0.498573 0.112657
0.946288 0.5028 0.113069
0.946471 0.506783 0.113588
0.946639 0.510964 0.114214
0.946792 0.514778 0.114839
0.946914 0.518547 0.115496
0.947036 0.522347 0.116228
0.947127 0.526131 0.117113
0.947204 0.529427 0.117845
0.947265 0.533272 0.118914
0.0541695 0.385153 0.0349737
0.0608225 0.40206 0.0382544
0.0705882 0.422614 0.0405737
0.146181 0.455085 0.0368963
0.302403 0.487602 0.0348058
0.428397 0.513954 0.037995
0.534188 0.532982 0.0618601
0.613306 0.545678 0.0809796
0.659342 0.555688 0.0869001
0.695125 0.560342 0.0906539
0.727031 0.554894 0.0945907
0.760815 0.550393 0.0981918
0.79115 0.54667 0.100893
0.817349 0.543664 0.102678
0.8421 0.540795 0.104067
0.868559 0.537911 0.105592
0.894301 0.533913 0.10808
0.910704 0.529732 0.11043
0.919753 0.526711 0.111391
0.926665 0.52517 0.111437
0.933165 0.525078 0.111238
0.9393 0.526818 0.111086
0.94435 0.529656 0.111025
0.946868 0.532967 0.11133
0.947219 0.536736 0.112291
0.947295 0.540978 0.113466
0.947372 0.545068 0.114656
0.947417 0.548684 0.115709
0.947478 0.552285 0.116793
0.94754 0.55613 0.117968
0.947601 0.560265 0.119203
0.947631 0.564263 0.120562
0.947662 0.568185 0.121904
0.0601663 0.41503 0.0390631
0.0665141 0.432303 0.0419318
0.084062 0.455009 0.043061
0.185458 0.489006 0.0381781
0.335927 0.518425 0.0369573
0.4542 0.542367 0.0397345
0.551476 0.559792 0.0615702
0.625406 0.571862 0.0802167
0.67216 0.58323 0.0865034
0.703105 0.589685 0.0894331
0.73109 0.589761 0.0931716
0.758175 0.586786 0.0971847
0.787198 0.584497 0.101122
0.815564 0.582513 0.104433
0.843137 0.580362 0.107012
0.871794 0.578317 0.109148
0.897475 0.575204 0.111299
0.912825 0.572213 0.11284
0.92137 0.569009 0.113191
0.928145 0.565591 0.113054
0.934554 0.563775 0.112932
0.94052 0.563653 0.112963
0.945296 0.564706 0.113085
0.947356 0.566949 0.113313
0.947631 0.570809 0.11458
0.947692 0.574914 0.115938
0.947738 0.578744 0.117296
0.947784 0.58265 0.118624
0.947829 0.586267 0.119905
0.94789 0.590219 0.121202
0.947906 0.594385 0.12282
0.947936 0.598398 0.124315
0.947967 0.602335 0.125887
0.064683 0.451987 0.0421302
0.0708934 0.472221 0.0447089
0.0908522 0.496391 0.0449683
0.20798 0.528527 0.0395361
0.359167 0.553124 0.0381476
0.471519 0.572747 0.0402838
0.564523 0.586419 0.0588083
0.634623 0.596506 0.0778668
0.682536 0.608118 0.08542
0.711055 0.614893 0.0879225
0.736171 0.618921 0.0909285
0.758801 0.618189 0.0946822
0.782971 0.616861 0.0990158
0.811582 0.615808 0.103609
0.843565 0.615442 0.10808
0.874632 0.615228 0.111666
0.900053 0.614496 0.114488
0.914534 0.613153 0.116075
0.922713 0.609857 0.116381
0.929458 0.604807 0.116152
0.935744 0.600702 0.115938
0.941665 0.598306 0.115877
0.946151 0.598199 0.115938
0.947814 0.60029 0.116304
0.947982 0.603677 0.11754
0.948043 0.607569 0.11899
0.948104 0.611536 0.120439
0.948165 0.615534 0.12192
0.948211 0.619043 0.123201
0.948272 0.623194 0.124819
0.948318 0.627375 0.126436
0.948363 0.631479 0.128084
0.948409 0.63563 0.129686
0.0681621 0.50721 0.0443427
0.0738537 0.527611 0.0466316
0.0893721 0.550851 0.0470436
0.21416 0.57789 0.0407874
0.373358 0.594995 0.0386358
0.484321 0.60853 0.0393683
0.573495 0.617624 0.0521859
0.641321 0.622568 0.0730297
0.689891 0.631693 0.082887
0.718486 0.638041 0.0859693
0.741131 0.643183 0.0882734
0.76202 0.645945 0.0915694
0.782513 0.645685 0.0958572
0.807904 0.64538 0.100862
0.840681 0.646662 0.106706
0.874678 0.64863 0.112139
0.901274 0.650568 0.116091
0.915969 0.65069 0.11812
0.924285 0.647395 0.118608
0.930907 0.641123 0.118578
0.937148 0.635187 0.118456
0.942916 0.631205 0.11841
0.947036 0.630045 0.118471
0.948333 0.632105 0.119066
0.948409 0.635859 0.120516
0.948486 0.640085 0.122087
0.948562 0.643946 0.123537
0.948623 0.647486 0.124834
0.948699 0.651499 0.12639
0.948775 0.655543 0.127947
0.948837 0.659312 0.129458
0.948913 0.663279 0.130968
0.948989 0.666926 0.132387
0.0706493 0.569009 0.0456703
0.076051 0.588174 0.0478065
0.0871443 0.608179 0.0486
0.209567 0.628611 0.0413672
0.380041 0.638422 0.0383917
0.49163 0.646189 0.0381628
0.580743 0.651438 0.0446326
0.64622 0.650294 0.0654002
0.694423 0.654612 0.0784161
0.724254 0.659937 0.0829328
0.745327 0.664836 0.0856336
0.765286 0.669841 0.0884413
0.784543 0.671733 0.0923476
0.806912 0.672892 0.0971695
0.835935 0.675029 0.103212
0.870314 0.678508 0.110033
0.900191 0.682872 0.11545
0.91722 0.68513 0.118273
0.925872 0.682673 0.119142
0.932464 0.675853 0.119539
0.938598 0.66862 0.119799
0.944305 0.663157 0.120012
0.948013 0.661234 0.120165
0.948898 0.663447 0.120912
0.948989 0.667231 0.122316
0.949065 0.671077 0.12372
0.949157 0.674632 0.125063
0.949248 0.678187 0.126329
0.94934 0.681987 0.127718
0.949432 0.685603 0.129137
0.949508 0.689219 0.13048
0.949599 0.692882 0.131838
0.949691 0.69601 0.133059
0.0723278 0.630335 0.0462959
0.0777295 0.646464 0.0482338
0.0871901 0.662913 0.0489967
0.197513 0.67628 0.041474
0.378668 0.67953 0.0376135
0.49366 0.682048 0.0370031
0.583368 0.684016 0.0386664
0.649378 0.67924 0.0551919
0.696742 0.677821 0.0717937
0.728084 0.681819 0.0793011
0.748959 0.685634 0.0827649
0.767651 0.690501 0.0853895
0.787182 0.695369 0.0887007
0.808484 0.698955 0.0931716
0.833753 0.702571 0.0987869
0.864332 0.70663 0.105714
0.895399 0.712535 0.112276
0.916884 0.716884 0.116335
0.927306 0.715465 0.117723
0.934035 0.708431 0.1187
0.940154 0.700496 0.119615
0.945815 0.694057 0.120272
0.949096 0.6916 0.120562
0.949615 0.694179 0.121218
0.949706 0.697688 0.122515
0.949813 0.701305 0.123827
0.94992 0.704601 0.125063
0.950011 0.707774 0.126177
0.950103 0.710933 0.127352
0.950195 0.714229 0.128588
0.950286 0.717327 0.129747
0.950362 0.720256 0.130861
0.950439 0.723003 0.131853
0.073579 0.687984 0.0466926
0.0790265 0.701518 0.0484932
0.0886702 0.713603 0.0491493
0.185412 0.719921 0.0416419
0.3794 0.717952 0.0368658
0.495491 0.716258 0.0362402
0.585412 0.714656 0.035874
0.652995 0.708751 0.0452277
0.698817 0.703487 0.0640574
0.731502 0.705043 0.0743267
0.753094 0.70724 0.0791638
0.771008 0.71104 0.0821088
0.790387 0.717266 0.0851301
0.812161 0.72369 0.0892653
0.835676 0.729061 0.0943923
0.862242 0.734081 0.100664
0.890776 0.740291 0.10721
0.914687 0.746258 0.112078
0.927993 0.745739 0.114534
0.935546 0.738735 0.116274
0.941817 0.729992 0.117876
0.947356 0.722866 0.119051
0.950164 0.720729 0.119493
0.950347 0.723278 0.120104
0.950439 0.726223 0.121248
0.950515 0.729305 0.122347
0.950591 0.732006 0.123384
0.950668 0.7346 0.124315
0.950729 0.737255 0.125322
0.950774 0.739956 0.126375
0.95082 0.742321 0.127306
0.950881 0.744839 0.128328
0.950912 0.746944 0.129137
0.0749065 0.740353 0.0471199
0.080354 0.75111 0.0488746
0.0901808 0.759472 0.0495155
0.176806 0.758785 0.0423438
0.380133 0.753277 0.0363928
0.49781 0.747997 0.0354925
0.587274 0.743313 0.0348211
0.656794 0.738338 0.0384985
0.702403 0.730892 0.0549935
0.735515 0.729564 0.0678721
0.758755 0.730922 0.0745556
0.776883 0.73434 0.0781262
0.795636 0.7402 0.081239
0.816983 0.747494 0.0851148
0.839658 0.754192 0.0899062
0.864012 0.760678 0.0955367
0.88957 0.767559 0.101305
0.913375 0.774044 0.106355
0.92871 0.774121 0.109926
0.93698 0.766735 0.112612
0.943175 0.756848 0.115007
0.948562 0.749096 0.116793
0.95079 0.74725 0.117342
0.95082 0.749615 0.117845
0.950881 0.752117 0.118837
0.950927 0.754726 0.11986
0.950988 0.756893 0.120714
0.951019 0.758999 0.121508
0.951049 0.761227 0.122332
0.951064 0.763348 0.123156
0.95108 0.765194 0.123903
0.95108 0.767086 0.12459
0.951095 0.768872 0.125277
0.0765545 0.786862 0.0479286
0.0819562 0.795377 0.0496681
0.0920424 0.79939 0.0501869
0.176425 0.793896 0.0432898
0.385977 0.786175 0.0367437
0.504509 0.778683 0.0356909
0.593133 0.771862 0.0352026
0.662638 0.766873 0.0358587
0.708583 0.759487 0.0468147
0.741329 0.755673 0.0602579
0.7664 0.756786 0.0687877
0.785214 0.759976 0.073228
0.80293 0.764569 0.0766766
0.822293 0.770718 0.0804608
0.844297 0.778012 0.0851301
0.867506 0.785504 0.0902419
0.891203 0.793561 0.095079
0.914336 0.801129 0.0998245
0.930343 0.802228 0.103746
0.938643 0.793835 0.107469
0.944671 0.781918 0.111192
0.949599 0.773449 0.113725
0.951156 0.771984 0.114397
0.951217 0.774365 0.11516
0.951278 0.776608 0.115984
0.951339 0.778729 0.116793
0.951385 0.780392 0.117418
0.951431 0.781994 0.117937
0.951476 0.783734 0.118608
0.951492 0.785351 0.119112
0.951507 0.786755 0.1196
0.951522 0.788052 0.120104
0.951522 0.789212 0.120455
0.078645 0.822263 0.0494392
0.0843671 0.82797 0.0513008
0.0949111 0.831815 0.0518044
0.187091 0.827482 0.0442817
0.401923 0.817929 0.0381018
0.51603 0.809339 0.0370947
0.602869 0.800748 0.0367742
0.670512 0.794965 0.0358129
0.71696 0.788785 0.0409857
0.74963 0.783948 0.0523995
0.775708 0.784863 0.0614328
0.795056 0.787533 0.0669566
0.811963 0.790677 0.0711528
0.829664 0.795041 0.0753185
0.849775 0.801587 0.0797589
0.871519 0.809735 0.084062
0.894362 0.818662 0.0883955
0.916732 0.827298 0.0927138
0.932692 0.830152 0.0962234
0.94078 0.820645 0.100984
0.946532 0.806195 0.106416
0.95082 0.796658 0.10985
0.951751 0.796353 0.110948
0.951812 0.798367 0.111421
0.951873 0.800275 0.112016
0.951934 0.802274 0.112566
0.951965 0.803601 0.112993
0.95201 0.804959 0.113283
0.952041 0.806271 0.11371
0.952071 0.807446 0.114
0.952087 0.80827 0.114275
0.952087 0.808942 0.114519
0.952102 0.809598 0.114733
0.0809796 0.825727 0.0513619
0.0872969 0.831693 0.0535744
0.104906 0.834012 0.0534981
0.245518 0.834592 0.0443275
0.429358 0.833631 0.0408026
0.534325 0.833555 0.0400549
0.616815 0.832792 0.0394446
0.681575 0.826703 0.0386053
0.727962 0.820462 0.0400549
0.760922 0.815442 0.0463874
0.786679 0.815076 0.0541695
0.80621 0.817044 0.0603799
0.822751 0.819196 0.0653849
0.83946 0.822156 0.0703136
0.857954 0.828367 0.0746166
0.878309 0.837217 0.0781872
0.899855 0.845884 0.0821698
0.920272 0.853574 0.0860456
0.934768 0.855207 0.0894484
0.942916 0.845808 0.094728
0.948501 0.830594 0.101503
0.952224 0.820172 0.106249
0.952453 0.821271 0.1066
0.952483 0.822919 0.106798
0.952514 0.824353 0.107118
0.95256 0.826185 0.107362
0.952575 0.827207 0.107393
0.95259 0.827878 0.107591
0.952605 0.828397 0.107774
0.952621 0.829175 0.107912
0.952621 0.829511 0.107988
0.952621 0.829694 0.108019
0.952621 0.829847 0.108019
0.0848096 0.831205 0.0547341
0.0918746 0.835935 0.0570077
0.122866 0.837308 0.0556954
0.310216 0.838102 0.0451209
0.463203 0.836561 0.0442512
0.560037 0.837186 0.0436103
0.636423 0.838621 0.0429389
0.695888 0.841794 0.0419776
0.740429 0.844022 0.0419623
0.773251 0.845808 0.0442969
0.799084 0.847852 0.0495766
0.819242 0.849851 0.0548867
0.835889 0.851408 0.0595102
0.851606 0.853422 0.0642863
0.868696 0.858793 0.068452
0.88751 0.867536 0.0712902
0.907103 0.876005 0.0740673
0.924605 0.881376 0.0774395
0.937011 0.880049 0.0817426
0.944854 0.869368 0.088304
0.950088 0.85478 0.0956436
0.952987 0.845319 0.10042
0.953017 0.846616 0.10042
0.953033 0.847745 0.100557
0.953048 0.848661 0.10071
0.953063 0.849531 0.100755
0.953079 0.850141 0.100877
0.953079 0.850217 0.101045
0.953079 0.850263 0.101137
0.953079 0.850309 0.101228
0.953079 0.850324 0.101259
0.953079 0.850324 0.101259
0.953079 0.850309 0.101228
0.0894942 0.836927 0.0588083
0.100175 0.840681 0.0606699
0.160189 0.841749 0.0567483
0.372656 0.841642 0.0490425
0.495964 0.840772 0.048249
0.584283 0.841505 0.0478981
0.656855 0.844083 0.047013
0.711452 0.8477 0.0459754
0.752438 0.849729 0.0462043
0.783322 0.85185 0.0482338
0.807614 0.853666 0.0536507
0.826642 0.855207 0.0586099
0.842893 0.856626 0.0631571
0.858579 0.85919 0.0675669
0.875639 0.865263 0.0712444
0.894331 0.874708 0.0734569
0.91313 0.88368 0.0752575
0.928481 0.887312 0.0781872
0.938933 0.882979 0.0831159
0.946014 0.870802 0.0901503
0.950805 0.85713 0.0969863
