src/colors/cinematic_&_blockbuster/bold_red_cinema.cube
TITLE "Generated by Resolve"
LUT_3D_SIZE 9
0.0148928 0.0157015 0.0207065
0.0310369 0.0187076 0.0229801
0.255695 0.070573 0.066865
0.519142 0.136431 0.125399
0.659831 0.171496 0.156313
0.773739 0.199741 0.181003
0.850828 0.220218 0.198962
0.850828 0.220218 0.198962
0.853666 0.226383 0.20415
0.0171206 0.0318303 0.0231937
0.0440986 0.0406806 0.0258488
0.345052 0.107836 0.0872053
0.590631 0.171374 0.141619
0.717754 0.20824 0.172045
0.835859 0.244816 0.203754
0.863752 0.261006 0.217746
0.862623 0.270649 0.224643
0.863691 0.282994 0.228504
0.0241093 0.154208 0.0250095
0.0652171 0.182452 0.0244755
0.479347 0.207004 0.121035
0.678203 0.26154 0.166323
0.794293 0.300755 0.197391
0.880507 0.345098 0.214923
0.912917 0.37641 0.19408
0.925078 0.393576 0.178012
0.93193 0.405921 0.167636
0.0408942 0.319326 0.0301061
0.194842 0.402518 0.0278019
0.620218 0.477119 0.0835584
0.791913 0.447196 0.097673
0.888289 0.448035 0.119585
0.925521 0.452964 0.129946
0.94432 0.473671 0.11899
0.945724 0.487694 0.11812
0.946578 0.501534 0.119005
0.064683 0.451987 0.0421302
0.359167 0.553124 0.0381476
0.682536 0.608118 0.08542
0.782971 0.616861 0.0990158
0.900053 0.614496 0.114488
0.935744 0.600702 0.115938
0.947982 0.603677 0.11754
0.948211 0.619043 0.123201
0.948409 0.63563 0.129686
0.073579 0.687984 0.0466926
0.3794 0.717952 0.0368658
0.698817 0.703487 0.0640574
0.790387 0.717266 0.0851301
0.890776 0.740291 0.10721
0.941817 0.729992 0.117876
0.950439 0.726223 0.121248
0.950729 0.737255 0.125322
0.950912 0.746944 0.129137
0.0809796 0.825727 0.0513619
0.429358 0.833631 0.0408026
0.727962 0.820462 0.0400549
0.822751 0.819196 0.0653849
0.899855 0.845884 0.0821698
0.948501 0.830594 0.101503
0.952514 0.824353 0.107118
0.952605 0.828397 0.107774
0.952621 0.829847 0.108019
0.103792 0.847013 0.0668498
0.551186 0.851118 0.0564126
0.772885 0.861112 0.0539254
0.854566 0.865064 0.0695048
0.921553 0.892775 0.0774853
0.951598 0.855116 0.0998093
0.953079 0.850477 0.101534
0.953079 0.85034 0.101305
0.953079 0.850065 0.100694
0.184375 0.858534 0.0734264
0.609857 0.865995 0.0647898
0.790143 0.868711 0.059266
0.861311 0.867994 0.0721904
0.925216 0.893584 0.0777295
0.952209 0.852506 0.0996719
0.953079 0.849973 0.100511
0.953079 0.849943 0.100435
0.953079 0.849912 0.100359
0.0151217 0.016968 0.0267491
0.0322271 0.0196841 0.0287938
0.259861 0.0716259 0.0678264
0.524346 0.137728 0.126543
0.66566 0.172946 0.157565
0.780179 0.201404 0.182452
0.850965 0.22031 0.201129
0.852094 0.221942 0.207401
0.855924 0.230106 0.216358
0.0176699 0.0346227 0.0281071
0.0510109 0.0489052 0.0386053
0.361669 0.114687 0.0971695
0.600183 0.17673 0.152041
0.727275 0.21416 0.184955
0.841306 0.249485 0.216083
0.857252 0.261753 0.226596
0.855222 0.272572 0.232456
0.869444 0.297917 0.226322
0.0247196 0.16228 0.0270695
0.0729686 0.20058 0.0319829
0.50811 0.220554 0.134249
0.691569 0.270008 0.180545
0.807202 0.314885 0.206943
0.903517 0.371511 0.199176
0.928206 0.394217 0.177539
0.935317 0.409598 0.166369
0.939406 0.424247 0.159533
0.0432288 0.332235 0.0370794
0.218891 0.426871 0.0404822
0.637949 0.502266 0.0962081
0.804547 0.47071 0.108659
0.897246 0.466178 0.127077
0.929778 0.470665 0.129458
0.946334 0.496834 0.12372
0.946899 0.513115 0.126497
0.947204 0.528832 0.130648
0.0675669 0.473152 0.0544442
0.371435 0.571054 0.0501259
0.687953 0.619516 0.0952163
0.792355 0.631815 0.110536
0.90457 0.630655 0.127123
0.936812 0.61529 0.126726
0.948211 0.623285 0.130755
0.948501 0.639765 0.137118
0.948821 0.655512 0.143481
0.0758373 0.706722 0.0581521
0.387076 0.731594 0.0478981
0.703914 0.71429 0.0702678
0.798566 0.730083 0.0918441
0.896223 0.750042 0.115404
0.942931 0.737362 0.126406
0.950774 0.739345 0.131777
0.951034 0.7505 0.136019
0.951064 0.759091 0.139284
0.0838636 0.83827 0.063508
0.44155 0.845151 0.0529183
0.736599 0.836744 0.0512856
0.83505 0.837659 0.0739452
0.911528 0.867475 0.0887007
0.949111 0.836423 0.111131
0.952499 0.833036 0.115755
0.95256 0.836759 0.116289
0.95256 0.837568 0.116487
0.107393 0.856809 0.0801556
0.557702 0.868742 0.0694896
0.780667 0.878325 0.0657359
0.864363 0.87953 0.0788739
0.926375 0.902342 0.0859998
0.95172 0.860471 0.108614
0.952865 0.856733 0.109957
0.952865 0.85655 0.109758
0.952865 0.856214 0.109361
0.181857 0.86334 0.0866255
0.612039 0.882002 0.0767529
0.794766 0.883391 0.0697795
0.869444 0.880919 0.0809796
0.928954 0.902708 0.0856184
0.952285 0.857816 0.108614
0.952865 0.856092 0.109224
0.952865 0.856031 0.109163
0.952865 0.855955 0.109071
0.0196384 0.0393225 0.093843
0.0370184 0.0361486 0.0857099
0.287495 0.0811017 0.102937
0.543023 0.144167 0.153368
0.680339 0.178149 0.185748
0.792523 0.206027 0.215198
0.855573 0.222278 0.23476
0.853834 0.22327 0.242008
0.848844 0.228473 0.249699
0.0210574 0.0540627 0.0899062
0.0570687 0.0685588 0.103151
0.393164 0.125719 0.13814
0.619348 0.184543 0.190494
0.737697 0.219593 0.222431
0.829404 0.246891 0.248203
0.843915 0.262272 0.257755
0.86862 0.297642 0.255497
0.897231 0.34136 0.273381
0.0289464 0.211231 0.0732738
0.0677806 0.233799 0.0819409
0.525231 0.242832 0.140597
0.71606 0.3019 0.176715
0.832441 0.361379 0.163836
0.922347 0.415412 0.161151
0.943938 0.453254 0.16408
0.945235 0.476631 0.167941
0.945907 0.495216 0.172549
0.043534 0.346487 0.0746777
0.167514 0.452186 0.0794232
0.628275 0.541253 0.122591
0.79736 0.516411 0.146593
0.894789 0.50869 0.152224
0.931975 0.522728 0.154635
0.947478 0.556191 0.159426
0.947616 0.570047 0.164126
0.947753 0.58291 0.168826
0.0661173 0.447639 0.0911727
0.300847 0.586633 0.0860456
0.676768 0.654627 0.111589
0.799695 0.671733 0.139483
0.90898 0.661311 0.163531
0.936324 0.649744 0.162951
0.948852 0.65742 0.166476
0.949096 0.669856 0.171389
0.949355 0.681834 0.176257
0.0742046 0.687099 0.0939498
0.302159 0.751385 0.0839399
0.698482 0.754742 0.0833143
0.813184 0.771756 0.115373
0.906844 0.780728 0.145327
0.942245 0.758541 0.156497
0.950683 0.757946 0.161761
0.950591 0.76585 0.165118
0.950545 0.772137 0.167895
0.0831464 0.833448 0.0993515
0.38117 0.869657 0.0880446
0.735241 0.874693 0.0838788
0.842908 0.86981 0.0934615
0.913237 0.878798 0.116396
0.948775 0.851194 0.137163
0.952743 0.845106 0.142779
0.952804 0.847532 0.142916
0.952804 0.847898 0.142794
0.103227 0.846845 0.114015
0.511894 0.889662 0.101457
0.767178 0.904051 0.0967269
0.856886 0.899977 0.0984665
0.920836 0.905165 0.111467
0.951644 0.878325 0.130144
0.953323 0.872938 0.132708
0.953323 0.872709 0.13228
0.953338 0.872404 0.13167
0.138582 0.856214 0.11986
0.567452 0.898787 0.106035
0.7794 0.905577 0.0984512
0.862013 0.899214 0.0990311
0.924453 0.906065 0.110369
0.952209 0.875578 0.12958
0.953338 0.872206 0.131289
0.953338 0.872084 0.131044
0.953338 0.871992 0.130877
0.0302129 0.0902266 0.224857
0.0429541 0.082414 0.203326
0.330785 0.0869306 0.160922
0.5823 0.158572 0.206226
0.706538 0.1888 0.238376
0.796857 0.209384 0.263783
0.837263 0.217868 0.276997
0.842206 0.227131 0.281712
0.863127 0.255329 0.27483
0.0311131 0.103929 0.221439
0.0613107 0.124254 0.238712
0.462684 0.14226 0.209033
0.654124 0.199786 0.247639
0.757412 0.23711 0.272496
0.874968 0.296239 0.276844
0.905303 0.355215 0.322881
0.903792 0.418051 0.392737
0.903441 0.465324 0.449027
0.0484627 0.24239 0.280217
0.0889448 0.284627 0.313878
0.477806 0.340322 0.306874
0.716579 0.41677 0.349187
0.834134 0.47396 0.386999
0.910948 0.523156 0.418173
0.925872 0.551202 0.44184
0.927764 0.567437 0.457755
0.929061 0.580346 0.471473
0.0988785 0.569909 0.409812
0.13666 0.539635 0.348974
0.578027 0.590631 0.288045
0.769131 0.590311 0.229175
0.861921 0.602441 0.226795
0.929839 0.607538 0.222004
0.947631 0.614542 0.233204
0.947677 0.624842 0.252125
0.947662 0.633814 0.277714
0.110842 0.662821 0.340063
0.150973 0.606485 0.335348
0.628794 0.69041 0.287938
0.783993 0.719371 0.167468
0.889372 0.699062 0.199924
0.934752 0.677531 0.206653
0.949081 0.690425 0.22089
0.949081 0.699519 0.239139
0.948974 0.708125 0.269795
0.0767376 0.775448 0.155138
0.128664 0.735912 0.179416
0.657481 0.783886 0.192874
0.799954 0.80116 0.136675
0.890852 0.801297 0.173159
0.940566 0.772808 0.196612
0.950668 0.774121 0.207614
0.950576 0.781872 0.216983
0.950683 0.787915 0.236027
0.08159 0.889174 0.143526
0.163317 0.868025 0.142519
0.692821 0.890349 0.13933
0.819516 0.890776 0.130007
0.895689 0.887709 0.141176
0.947616 0.862425 0.173709
0.952331 0.855955 0.179599
0.952346 0.857755 0.179751
0.952346 0.857649 0.179583
0.109758 0.90692 0.188708
0.319005 0.909606 0.162234
0.727169 0.925719 0.169879
0.832837 0.92517 0.146136
0.907668 0.915938 0.139239
0.950545 0.897398 0.160006
0.952956 0.891127 0.163455
0.952956 0.890684 0.16289
0.952956 0.890455 0.1626
0.139574 0.906493 0.265843
0.446921 0.934859 0.183627
0.74081 0.926436 0.174319
0.839033 0.924453 0.142107
0.911665 0.915129 0.138705
0.951034 0.895033 0.159304
0.952941 0.890166 0.162234
0.952941 0.889967 0.161975
0.952941 0.889784 0.161761
0.0419471 0.14934 0.351644
0.0542916 0.14519 0.331777
0.315358 0.114443 0.259205
0.630106 0.176165 0.264607
0.741039 0.209918 0.286213
0.840482 0.250019 0.267445
0.896757 0.271565 0.264103
0.907332 0.294621 0.287327
0.906706 0.352544 0.37435
0.0435187 0.167315 0.360342
0.074876 0.188159 0.374441
0.486473 0.190845 0.28954
0.727047 0.252735 0.283757
0.823438 0.326375 0.358282
0.890013 0.410498 0.440757
0.895918 0.467872 0.511849
0.895613 0.503761 0.558724
0.896223 0.525811 0.586786
0.0570077 0.286061 0.427756
0.0986191 0.329976 0.465873
0.470619 0.392142 0.463249
0.72015 0.493751 0.495125
0.829129 0.539162 0.530144
0.900114 0.583825 0.562905
0.914061 0.602869 0.578286
0.915236 0.614481 0.589731
0.91635 0.623987 0.598642
0.103243 0.558282 0.582238
0.159503 0.617395 0.605219
0.511223 0.621393 0.536583
0.727352 0.634775 0.52401
0.833555 0.653941 0.520394
0.921874 0.659785 0.510903
0.942138 0.665507 0.530358
0.942184 0.673426 0.542199
0.942275 0.680629 0.55172
0.149569 0.759136 0.675883
0.19028 0.758373 0.637263
0.573709 0.710582 0.527047
0.763668 0.738491 0.467124
0.865034 0.730068 0.438865
0.932128 0.713649 0.437461
0.947921 0.716152 0.478172
0.947982 0.724437 0.495888
0.948043 0.732387 0.510674
0.162524 0.883375 0.639109
0.187427 0.829343 0.52723
0.607248 0.814496 0.465721
0.779553 0.818265 0.45333
0.873091 0.81799 0.345266
0.938979 0.784283 0.36556
0.949233 0.787945 0.460487
0.949355 0.795026 0.474464
0.949447 0.800381 0.484306
0.158022 0.983124 0.511193
0.189181 0.921279 0.444404
0.664836 0.919982 0.394049
0.797696 0.903014 0.422141
0.884688 0.896803 0.355886
0.945724 0.876005 0.314229
0.951904 0.870741 0.379675
0.951934 0.872068 0.380224
0.951934 0.871748 0.379141
0.181903 0.981781 0.547143
0.209384 0.924041 0.46453
0.705364 0.954711 0.397589
0.81239 0.939223 0.419074
0.898939 0.927871 0.355184
0.94966 0.915404 0.274632
0.952712 0.911269 0.293568
0.952728 0.910903 0.288563
0.952728 0.910765 0.286824
0.192615 0.978439 0.554269
0.224781 0.93254 0.4336
0.718135 0.952895 0.402472
0.818402 0.938643 0.414679
0.902586 0.926848 0.333761
0.950164 0.913924 0.266453
0.952728 0.910567 0.284215
0.952728 0.91046 0.282689
0.952743 0.910323 0.280949
0.0505226 0.1944 0.444633
0.0627451 0.190402 0.426795
0.267094 0.16318 0.366033
0.682994 0.211322 0.275135
0.805951 0.262135 0.295445
0.882445 0.324392 0.367178
0.904662 0.376837 0.430793
0.899001 0.411337 0.492683
0.893004 0.447211 0.555764
0.0526284 0.215991 0.463813
0.0861677 0.237369 0.474754
0.485481 0.23949 0.375952
0.746578 0.320516 0.392996
0.829419 0.382544 0.474556
0.886076 0.468193 0.56083
0.892073 0.494102 0.597314
0.894972 0.508644 0.619608
0.897871 0.520745 0.635554
0.0653544 0.334157 0.526177
0.109773 0.381491 0.563302
0.452659 0.438666 0.588876
0.730159 0.506828 0.55697
0.830259 0.551766 0.5944
0.896071 0.608957 0.638346
0.90866 0.627878 0.652766
0.90988 0.6374 0.661158
0.910903 0.645792 0.66836
0.108614 0.573907 0.66862
0.161227 0.613687 0.68127
0.469718 0.643305 0.650736
0.723552 0.653712 0.615732
0.824628 0.669474 0.620096
0.909377 0.6804 0.619745
0.930419 0.692226 0.635584
0.931197 0.698985 0.642466
0.931945 0.705531 0.649088
0.145159 0.729198 0.726055
0.194385 0.765286 0.730358
0.48481 0.740795 0.652354
0.759548 0.745312 0.600107
0.847547 0.745296 0.59379
0.928725 0.738872 0.584161
0.946883 0.744747 0.609232
0.947021 0.751751 0.617899
0.947265 0.758511 0.626001
0.169772 0.872816 0.765438
0.211215 0.877958 0.724285
0.509896 0.825284 0.582361
0.771984 0.824842 0.588907
0.867918 0.826947 0.533242
0.937957 0.796597 0.538369
0.948852 0.80354 0.58114
0.948974 0.809628 0.588495
0.949065 0.814237 0.593484
0.189212 0.985367 0.743297
0.218418 0.974517 0.622782
0.579065 0.938231 0.468254
0.788205 0.913252 0.541833
0.880903 0.904479 0.518257
0.944884 0.884916 0.494896
0.951782 0.881453 0.526726
0.951812 0.882261 0.526589
0.951797 0.881727 0.525933
0.207523 0.98677 0.743923
0.233845 0.96817 0.623301
0.662501 0.969619 0.474845
0.802502 0.950378 0.525963
0.894499 0.936843 0.509194
0.949248 0.925628 0.460456
0.952819 0.923552 0.466682
0.952819 0.923308 0.463859
0.952819 0.923217 0.462867
0.215717 0.987106 0.736263
0.238178 0.963531 0.60972
0.683909 0.968139 0.48368
0.807889 0.948974 0.524773
0.898528 0.935531 0.498558
0.949752 0.924743 0.455055
0.952819 0.923049 0.461051
0.952819 0.922957 0.459892
0.952819 0.922881 0.459052
0.0590982 0.24123 0.533074
0.0710918 0.236439 0.514641
0.221683 0.222675 0.447944
0.704479 0.277928 0.363928
0.820188 0.33344 0.426413
0.87393 0.407736 0.5196
0.894316 0.448875 0.577203
0.890944 0.45713 0.607294
0.890913 0.456321 0.626688
0.0622568 0.270954 0.557931
0.0980392 0.292561 0.568246
0.485252 0.27715 0.515511
0.743954 0.346288 0.480217
0.842405 0.385626 0.538308
0.892088 0.472206 0.622339
0.90135 0.49044 0.6533
0.908186 0.510704 0.681361
0.912764 0.527245 0.70132
0.0740826 0.386847 0.608713
0.121798 0.435477 0.647379
0.446006 0.494697 0.684291
0.749081 0.511498 0.634516
0.844678 0.543389 0.644739
0.897749 0.601648 0.677836
0.907469 0.619684 0.689937
0.908721 0.628519 0.697032
0.909712 0.636622 0.703059
0.114092 0.592996 0.726574
0.165957 0.629145 0.741634
0.458427 0.658198 0.716716
0.726452 0.669383 0.686198
0.82153 0.687556 0.68777
0.901366 0.70042 0.68986
0.923751 0.713924 0.702068
0.924468 0.7196 0.707439
0.925216 0.725551 0.712978
0.144045 0.718013 0.772717
0.191257 0.743252 0.7738
0.433417 0.760571 0.742092
0.745846 0.75462 0.688396
0.835904 0.756466 0.679225
0.921462 0.753658 0.673854
0.941665 0.766247 0.697002
0.942412 0.772503 0.70248
0.943252 0.778225 0.70724
0.16379 0.835584 0.808194
0.212589 0.864485 0.801541
0.376516 0.848997 0.720439
0.763119 0.831724 0.673182
0.8663 0.831571 0.643488
0.937499 0.813016 0.643717
0.94902 0.82089 0.665705
0.949081 0.826001 0.670283
0.949126 0.829557 0.673274
0.192477 0.962127 0.833631
0.237171 0.984192 0.775784
0.454871 0.956786 0.591821
0.776272 0.926574 0.613825
0.878141 0.911086 0.615305
0.943999 0.893004 0.601373
0.951553 0.891569 0.618326
0.951553 0.891752 0.617914
0.951537 0.891203 0.617319
0.211795 0.968368 0.836561
0.251637 0.984955 0.765377
0.565316 0.981338 0.537423
0.791745 0.963027 0.594476
0.88954 0.944411 0.601663
0.948684 0.933288 0.570108
0.952346 0.933089 0.571008
0.952361 0.932921 0.569284
0.952361 0.932845 0.568429
0.220493 0.972168 0.834974
0.256062 0.984894 0.752316
0.598489 0.979858 0.536629
0.797421 0.961425 0.593194
0.893782 0.94313 0.59498
0.94931 0.932754 0.566033
0.952361 0.932738 0.567193
0.952361 0.932662 0.566339
0.952361 0.932601 0.565728
0.0690166 0.299046 0.617273
0.0812238 0.294133 0.603571
0.17789 0.283513 0.541405
0.691142 0.335088 0.491814
0.817548 0.370275 0.526696
0.873045 0.435462 0.612558
0.892012 0.45124 0.645685
0.897292 0.448478 0.66598
0.903395 0.454719 0.684596
0.074342 0.336767 0.648005
0.110979 0.356252 0.659876
0.453773 0.33994 0.647272
0.760845 0.363729 0.586694
0.865171 0.400626 0.630137
0.912612 0.487892 0.705379
0.919768 0.506966 0.733883
0.922423 0.523049 0.744152
0.92401 0.535729 0.75082
0.0847181 0.441871 0.686351
0.133562 0.487495 0.721904
0.446174 0.545113 0.762112
0.767163 0.533593 0.754879
0.867842 0.550668 0.726146
0.911025 0.602716 0.732662
0.918685 0.614649 0.738521
0.919814 0.623072 0.744884
0.920638 0.630442 0.749874
0.1196 0.615808 0.776547
0.170779 0.649165 0.792813
0.437964 0.677256 0.772503
0.725017 0.671366 0.759777
0.826108 0.678584 0.728771
0.896864 0.697017 0.733166
0.918822 0.720027 0.750469
0.9196 0.725292 0.755352
0.920302 0.731106 0.760494
0.145815 0.722576 0.824186
0.192218 0.743297 0.825269
0.42562 0.754818 0.794186
0.730068 0.762829 0.764065
0.8365 0.762249 0.744091
0.913634 0.766812 0.740597
0.933959 0.781765 0.760037
0.934966 0.787594 0.765042
0.935836 0.792859 0.76965
0.15967 0.811383 0.847639
0.20708 0.832197 0.84004
0.330343 0.853346 0.812116
0.718441 0.853864 0.752514
0.861128 0.837446 0.719509
0.934417 0.827802 0.716564
0.948959 0.83711 0.737758
0.94905 0.841627 0.740673
0.949111 0.844388 0.742382
0.18439 0.912505 0.88098
0.239765 0.963211 0.864073
0.325551 0.968872 0.76733
0.726436 0.94638 0.664378
0.873823 0.916793 0.695262
0.943557 0.89987 0.68893
0.951354 0.900618 0.697414
0.95137 0.900694 0.697154
0.951354 0.900084 0.696834
0.204318 0.922301 0.886122
0.255589 0.967514 0.861006
0.428229 0.987991 0.696696
0.754269 0.976364 0.641733
0.883131 0.952377 0.678294
0.948348 0.940719 0.658732
0.951507 0.942428 0.656321
0.951522 0.942367 0.655802
0.951522 0.94229 0.655085
0.212818 0.928923 0.887831
0.261158 0.971313 0.856046
0.466712 0.987945 0.676555
0.765255 0.974548 0.642466
0.88806 0.95111 0.673594
0.949218 0.940307 0.655497
0.951537 0.942184 0.654063
0.951553 0.942092 0.65333
0.951553 0.942046 0.652827
0.0784009 0.354437 0.690333
0.0917067 0.351431 0.681514
0.167559 0.341344 0.633951
0.702129 0.35079 0.589517
0.824735 0.368917 0.600855
0.881743 0.432807 0.657084
0.897505 0.445808 0.672618
0.900572 0.44976 0.678294
0.904234 0.45658 0.686732
0.0849012 0.392844 0.716533
0.122301 0.408667 0.727291
0.448066 0.402579 0.732021
0.784131 0.394125 0.70927
0.881117 0.417197 0.69514
0.917327 0.494896 0.72517
0.920546 0.511131 0.736736
0.922927 0.526436 0.746151
0.924285 0.538231 0.752071
0.0942245 0.487938 0.74461
0.144198 0.529488 0.775952
0.450248 0.58294 0.815763
0.764553 0.556298 0.822995
0.880537 0.561288 0.79913
0.922774 0.608072 0.779461
0.928557 0.617792 0.778698
0.928466 0.625681 0.780087
0.928389 0.632731 0.781399
0.125689 0.639063 0.818097
0.175982 0.668986 0.832959
0.426795 0.69369 0.815213
0.715236 0.681697 0.816144
0.839918 0.677943 0.78674
0.904631 0.68513 0.766003
0.921553 0.706966 0.776577
0.922347 0.71252 0.781781
0.923354 0.718578 0.78761
0.147845 0.727428 0.858564
0.194369 0.748043 0.861814
0.418265 0.761517 0.834043
0.720073 0.770703 0.816373
0.835248 0.76849 0.794171
0.909407 0.77467 0.788983
0.929305 0.792233 0.80621
0.930236 0.798169 0.811627
0.93109 0.803723 0.816861
0.159792 0.806317 0.885176
0.206836 0.823331 0.878416
0.34583 0.839963 0.854002
0.711482 0.853239 0.829374
0.8486 0.844938 0.78526
0.933181 0.834882 0.769818
0.947662 0.846052 0.790036
0.947951 0.850019 0.792096
0.94815 0.852445 0.793347
0.180301 0.885039 0.909255
0.235172 0.930327 0.906798
0.320455 0.956359 0.866468
0.667918 0.963973 0.763455
0.862379 0.925765 0.75198
0.94464 0.905257 0.746227
0.951156 0.9093 0.753628
0.951156 0.909133 0.753368
0.951156 0.908537 0.753185
0.200137 0.897902 0.908141
0.250828 0.936126 0.903502
0.385412 0.98349 0.850523
0.692454 0.986755 0.719326
0.872511 0.961074 0.732113
0.949599 0.945602 0.723857
0.950637 0.949538 0.723323
0.950652 0.949477 0.722881
0.950652 0.949447 0.722499
0.207324 0.903593 0.908629
0.255802 0.939315 0.901686
0.412161 0.984451 0.839796
0.704616 0.986099 0.71136
0.879225 0.959243 0.73019
0.950622 0.945357 0.722301
0.950668 0.949355 0.721736
0.950668 0.949325 0.721355
0.950668 0.949279 0.720867
