src/colors/cinematic_&_blockbuster/city_neon_cinema.cube
# LUT by SparkleStock. Enhanced with VOXCOLOR algorithms.
LUT_3D_SIZE 8
DOMAIN_MIN 0.000000 0.000000 0.000000
DOMAIN_MAX 0.903226 0.903226 0.903226
0.132845 0.109402 0.089866
0.195801 0.110347 0.084572
0.307637 0.110489 0.076064
0.450392 0.113687 0.066312
0.606200 0.123140 0.057072
0.747615 0.143180 0.050644
0.851849 0.168577 0.048312
0.918847 0.190232 0.048950
0.145701 0.144377 0.102722
0.207633 0.175914 0.103429
0.319792 0.184356 0.096257
0.464401 0.186127 0.086163
0.622678 0.192927 0.077015
0.761313 0.207112 0.071318
0.859595 0.224093 0.069109
0.921512 0.237057 0.068478
0.165253 0.226894 0.147048
0.234143 0.255222 0.136857
0.338232 0.284138 0.134537
0.474482 0.301588 0.130927
0.632469 0.303364 0.121520
0.769464 0.310139 0.115934
0.863279 0.317840 0.113224
0.921334 0.321276 0.111040
0.188192 0.343558 0.219536
0.264827 0.354822 0.191305
0.364868 0.391358 0.186203
0.490182 0.424402 0.187603
0.635985 0.436376 0.184449
0.771991 0.437053 0.179021
0.862898 0.437120 0.175962
0.918327 0.432662 0.172732
0.211351 0.478144 0.313096
0.291189 0.473473 0.267905
0.397192 0.493230 0.247631
0.515692 0.529610 0.246648
0.637980 0.569613 0.256445
0.769906 0.570656 0.253194
0.858791 0.567277 0.250864
0.912749 0.558601 0.247736
0.229879 0.595360 0.405168
0.305618 0.582053 0.352365
0.414366 0.589339 0.319193
0.538976 0.613131 0.306061
0.663845 0.647225 0.310479
0.768254 0.674760 0.320548
0.852064 0.677626 0.322511
0.905437 0.671066 0.321395
0.241002 0.666257 0.466202
0.307886 0.651510 0.415912
0.414707 0.653262 0.377978
0.542776 0.669569 0.356408
0.673975 0.697021 0.352595
0.780018 0.726411 0.362567
0.853144 0.740360 0.370144
0.899710 0.743214 0.374055
0.245831 0.701674 0.498499
0.302750 0.689147 0.455760
0.404530 0.689757 0.418770
0.532877 0.702666 0.393263
0.669353 0.725738 0.382831
0.783416 0.752451 0.388594
0.855398 0.771778 0.398113
0.898268 0.781156 0.405189
0.129442 0.132278 0.122951
0.205132 0.132491 0.120438
0.317676 0.133249 0.113779
0.456674 0.136642 0.105490
0.609572 0.144851 0.097622
0.749231 0.163135 0.091926
0.852075 0.187019 0.089716
0.918231 0.207607 0.089482
0.133223 0.181012 0.176643
0.200410 0.177821 0.155655
0.311015 0.178248 0.141266
0.453595 0.181556 0.128689
0.613397 0.187777 0.115232
0.755601 0.200773 0.104489
0.856874 0.217185 0.097849
0.920792 0.229918 0.093391
0.151165 0.271999 0.231947
0.216708 0.261143 0.198701
0.319552 0.272534 0.178767
0.457121 0.285477 0.164553
0.619039 0.288193 0.150977
0.761638 0.293863 0.139541
0.860004 0.300455 0.131488
0.920912 0.302940 0.124631
0.177214 0.388920 0.295983
0.240209 0.373002 0.258474
0.339415 0.388175 0.230800
0.469486 0.409697 0.213291
0.620675 0.420598 0.204212
0.763343 0.420387 0.194228
0.859338 0.418484 0.186380
0.917748 0.411896 0.178505
0.205625 0.514651 0.370771
0.260405 0.500319 0.337351
0.364360 0.503493 0.298407
0.489963 0.524962 0.273254
0.619090 0.557399 0.270063
0.759194 0.557965 0.263148
0.853916 0.552213 0.256449
0.911135 0.540564 0.248718
0.228251 0.618401 0.441766
0.271680 0.609485 0.417618
0.375222 0.606131 0.373028
0.507256 0.616722 0.336747
0.641570 0.643462 0.325995
0.755176 0.669047 0.330020
0.845654 0.669484 0.327407
0.902713 0.659687 0.321792
0.241398 0.678637 0.487822
0.274670 0.674118 0.471362
0.372921 0.669514 0.428054
0.506193 0.675407 0.387628
0.647543 0.696945 0.369698
0.764465 0.724800 0.372663
0.845750 0.737994 0.376401
0.896833 0.738535 0.376408
0.247679 0.707760 0.511514
0.272652 0.705602 0.499545
0.363238 0.702237 0.461179
0.493890 0.707386 0.421999
0.639907 0.726169 0.399878
0.765618 0.752078 0.398630
0.847006 0.771791 0.404683
0.895723 0.780437 0.408781
0.125235 0.173366 0.180275
0.204536 0.168079 0.173908
0.332090 0.169971 0.176928
0.478321 0.175564 0.179702
0.621442 0.183293 0.176770
0.754472 0.198680 0.174190
0.853298 0.219307 0.172586
0.917278 0.237410 0.171191
0.131761 0.236170 0.257386
0.194999 0.221336 0.229900
0.317818 0.213464 0.217205
0.467265 0.211790 0.208358
0.617921 0.215629 0.196385
0.756494 0.225412 0.184504
0.856338 0.238762 0.174441
0.919585 0.249254 0.165273
0.146840 0.314642 0.323875
0.203105 0.296435 0.290503
0.310823 0.290769 0.265118
0.452499 0.290771 0.244417
0.610129 0.291760 0.225673
0.754262 0.294727 0.206942
0.855618 0.298843 0.191085
0.919061 0.299642 0.176764
0.171481 0.419041 0.385842
0.221869 0.401165 0.354046
0.317704 0.397474 0.320545
0.448735 0.401760 0.290386
0.602100 0.407848 0.266391
0.750263 0.405612 0.245931
0.852366 0.401381 0.228097
0.915550 0.392893 0.211481
0.203769 0.546492 0.446654
0.244358 0.531168 0.418845
0.337926 0.523161 0.382829
0.461831 0.529399 0.347001
0.599048 0.548432 0.317994
0.745951 0.546952 0.301787
0.847152 0.538203 0.286055
0.909101 0.523315 0.269946
0.230389 0.644448 0.500823
0.259680 0.635829 0.482234
0.344926 0.630055 0.450276
0.470152 0.632442 0.410894
0.615934 0.645628 0.372787
0.739608 0.665929 0.362411
0.837838 0.662884 0.350705
0.899914 0.649423 0.337277
0.245372 0.698327 0.534164
0.265555 0.694201 0.521936
0.340647 0.691872 0.495551
0.462624 0.694359 0.457349
0.615323 0.704402 0.415072
0.745170 0.727361 0.402953
0.836353 0.738220 0.397646
0.893397 0.735791 0.390270
0.252615 0.723044 0.549657
0.265749 0.720565 0.539750
0.330719 0.720611 0.517961
0.446814 0.724542 0.483346
0.602383 0.734261 0.441454
0.742404 0.756588 0.426348
0.835609 0.775218 0.423908
0.891849 0.782356 0.421657
0.123849 0.231801 0.258293
0.202515 0.219537 0.246193
0.341583 0.217606 0.252993
0.499633 0.222076 0.266416
0.645775 0.230236 0.277252
0.766267 0.243171 0.281332
0.857413 0.260024 0.282535
0.917142 0.274890 0.281221
0.136949 0.303070 0.344821
0.192858 0.287387 0.318750
0.322795 0.272583 0.307779
0.482685 0.262753 0.304197
0.637859 0.260597 0.301550
0.765224 0.266965 0.293977
0.859004 0.276578 0.284181
0.918965 0.284120 0.272527
0.152278 0.370637 0.419680
0.197696 0.356030 0.393133
0.305417 0.340474 0.368914
0.453413 0.327116 0.348614
0.617995 0.318465 0.331909
0.755396 0.317382 0.311335
0.854721 0.318036 0.290950
0.917726 0.316422 0.270691
0.174423 0.456169 0.483393
0.214138 0.443465 0.460097
0.302254 0.430567 0.430367
0.433501 0.420301 0.398656
0.595159 0.413875 0.368098
0.742313 0.407754 0.339080
0.847148 0.400212 0.311813
0.913383 0.389362 0.286006
0.204861 0.567579 0.536579
0.238110 0.555691 0.514243
0.317258 0.543953 0.487810
0.434228 0.539397 0.452900
0.578706 0.543488 0.410224
0.730297 0.538350 0.379722
0.838280 0.526023 0.351188
0.906195 0.507999 0.323798
0.235555 0.669121 0.578232
0.259573 0.660492 0.558753
0.325799 0.654905 0.539658
0.437952 0.652986 0.508219
0.587851 0.655614 0.461224
0.722200 0.666402 0.427865
0.828886 0.658724 0.402711
0.897167 0.641362 0.378501
0.252975 0.722500 0.601997
0.269348 0.716341 0.585102
0.323038 0.715906 0.571854
0.426948 0.718171 0.545277
0.578586 0.722296 0.499377
0.722750 0.736079 0.463535
0.825397 0.742625 0.443557
0.890009 0.736459 0.425107
0.261444 0.746091 0.610965
0.271576 0.740522 0.594601
0.314237 0.742223 0.583809
0.408901 0.747237 0.560975
0.558495 0.753889 0.518860
0.714215 0.768900 0.482277
0.821580 0.784389 0.465396
0.887433 0.789047 0.452655
0.128599 0.306337 0.353649
0.205491 0.287834 0.336829
0.342692 0.274908 0.334567
0.510831 0.271418 0.350245
0.678826 0.278532 0.380509
0.785998 0.289894 0.395804
0.866005 0.303451 0.403360
0.918817 0.315043 0.404640
0.146181 0.376508 0.438238
0.195414 0.361910 0.415903
0.317382 0.342561 0.401748
0.485398 0.323973 0.400533
0.666554 0.311334 0.411510
0.781903 0.313691 0.414033
0.865929 0.320039 0.409989
0.919937 0.325007 0.400373
0.166213 0.445906 0.515564
0.202373 0.432263 0.492661
0.299871 0.416809 0.471939
0.453416 0.395310 0.458289
0.641433 0.368992 0.452259
0.769004 0.360901 0.439057
0.860418 0.357340 0.421417
0.918416 0.352931 0.400226
0.187251 0.512856 0.581591
0.218557 0.500932 0.562069
0.294635 0.490855 0.539757
0.425670 0.474316 0.517874
0.602948 0.449219 0.497021
0.746014 0.434991 0.467936
0.848008 0.422562 0.436938
0.912860 0.408618 0.405246
0.209790 0.582171 0.633416
0.238585 0.574325 0.619045
0.303041 0.565848 0.598925
0.410611 0.557735 0.573388
0.559214 0.549870 0.541897
0.716448 0.537628 0.498598
0.830115 0.520559 0.457304
0.903308 0.499442 0.418343
0.242863 0.688910 0.667257
0.263830 0.682253 0.651692
0.318110 0.676073 0.632942
0.416425 0.672654 0.612642
0.557883 0.672622 0.587565
0.704219 0.671150 0.531395
0.819501 0.657942 0.490832
0.894655 0.636605 0.453975
0.263561 0.747393 0.685222
0.277589 0.741765 0.669099
0.321191 0.738269 0.652115
0.407501 0.740434 0.636863
0.540171 0.748558 0.618754
0.698170 0.751526 0.560202
0.813345 0.752015 0.521659
0.887104 0.741300 0.488772
0.274149 0.774297 0.690359
0.282303 0.768294 0.673041
0.315983 0.765575 0.656394
0.390299 0.770609 0.643449
0.513339 0.783696 0.629277
0.682203 0.790445 0.572954
0.805311 0.800797 0.536884
0.883060 0.801830 0.509224
0.145425 0.397085 0.465383
0.217341 0.372727 0.442561
0.351017 0.349281 0.430773
0.516534 0.330606 0.432729
0.685041 0.320522 0.449875
0.811679 0.327492 0.483174
0.881636 0.339098 0.502268
0.923805 0.348830 0.510384
0.163008 0.455401 0.535481
0.206131 0.442766 0.516890
0.319989 0.421037 0.500867
0.480794 0.394308 0.491785
0.661186 0.367884 0.492987
0.804048 0.355879 0.508528
0.880120 0.358802 0.516513
0.924331 0.362689 0.515258
0.183350 0.515327 0.602360
0.212829 0.505286 0.585241
0.300924 0.491573 0.568574
0.444207 0.468522 0.554437
0.627698 0.435134 0.544863
0.788338 0.406080 0.544268
0.873613 0.397179 0.538239
0.922428 0.391481 0.524971
0.205437 0.576288 0.663081
0.229392 0.566305 0.647407
0.295563 0.558673 0.631549
0.415362 0.544460 0.615655
0.586644 0.517994 0.600246
0.763110 0.479761 0.587837
0.860476 0.459551 0.566634
0.917022 0.442880 0.540077
0.228306 0.637864 0.714522
0.249565 0.629890 0.702030
0.303308 0.622393 0.687287
0.400014 0.616620 0.671134
0.543960 0.609196 0.653998
0.728644 0.575231 0.634712
0.839950 0.548434 0.599077
0.907419 0.522444 0.559725
0.250694 0.700107 0.748363
0.270584 0.695816 0.740343
0.316757 0.691182 0.729105
0.399846 0.687846 0.714996
0.525144 0.686074 0.697333
0.690206 0.681122 0.669936
0.812531 0.663116 0.624682
0.892968 0.637884 0.577869
0.273880 0.762884 0.765352
0.287719 0.759847 0.755830
0.324330 0.757134 0.744089
0.396117 0.757165 0.730979
0.510924 0.761521 0.716187
0.674013 0.770565 0.694096
0.800805 0.765803 0.643833
0.884861 0.749700 0.595130
0.288323 0.799637 0.770745
0.296184 0.795815 0.758621
0.323550 0.793144 0.745275
0.384434 0.794632 0.731882
0.489083 0.802606 0.718614
0.650321 0.819874 0.701744
0.787028 0.825338 0.651263
0.878950 0.821143 0.604640
0.173910 0.495081 0.585781
0.237799 0.467307 0.557691
0.363606 0.435521 0.536331
0.523603 0.403124 0.523945
0.690503 0.374424 0.522758
0.820508 0.361391 0.539176
0.892266 0.363259 0.559115
0.930664 0.369138 0.572772
0.187467 0.534466 0.632851
0.224453 0.524441 0.617697
0.328209 0.501720 0.599458
0.479763 0.469156 0.582872
0.655787 0.431165 0.572094
0.804111 0.400422 0.573323
0.887181 0.389522 0.580914
0.930820 0.387869 0.585745
0.204096 0.578279 0.680918
0.228215 0.572029 0.669173
0.306780 0.560759 0.655661
0.439371 0.537816 0.640924
0.614807 0.500579 0.626196
0.780384 0.457422 0.616426
0.877662 0.432624 0.611420
0.928933 0.420024 0.605329
0.223461 0.626583 0.727938
0.242008 0.619335 0.716418
0.299547 0.614612 0.705921
0.408936 0.603297 0.694560
0.570771 0.578354 0.681225
0.748964 0.532800 0.666661
0.862389 0.497026 0.650888
0.923988 0.472635 0.633175
0.244753 0.678453 0.771249
0.260196 0.671878 0.761297
0.305088 0.665919 0.750867
0.392370 0.662414 0.741394
0.528562 0.657774 0.732881
0.710522 0.623643 0.719805
0.840580 0.583968 0.696957
0.915162 0.550031 0.668533
0.265116 0.729133 0.802895
0.279889 0.725334 0.796658
0.317268 0.721346 0.788925
0.389238 0.718737 0.780334
0.503802 0.717898 0.771083
0.668747 0.715160 0.759565
0.811518 0.687897 0.736532
0.900905 0.654641 0.702175
0.283899 0.777907 0.819660
0.296483 0.776518 0.815259
0.327307 0.774940 0.809279
0.388451 0.775028 0.802363
0.488856 0.778325 0.794907
0.640553 0.786973 0.786498
0.788075 0.782239 0.760810
0.886878 0.763899 0.722622
0.298537 0.813145 0.827443
0.307152 0.811843 0.822130
0.330635 0.810746 0.815589
0.381648 0.812058 0.808384
0.470267 0.817872 0.801049
0.612312 0.832417 0.794355
0.765227 0.844385 0.769640
0.874753 0.842402 0.730241
0.209232 0.591043 0.707094
0.262900 0.564703 0.677210
0.376641 0.528924 0.648139
0.526859 0.486296 0.622423
0.689113 0.440876 0.602694
0.820532 0.404955 0.595253
0.896739 0.388763 0.600752
0.934795 0.383599 0.607779
0.216215 0.609053 0.727921
0.246885 0.602444 0.716281
0.338486 0.580891 0.696477
0.477944 0.545363 0.673239
0.646507 0.498682 0.650635
0.795679 0.450589 0.633189
0.886928 0.420785 0.627495
0.933645 0.407128 0.626554
0.226693 0.634337 0.753378
0.246173 0.631346 0.746047
0.314633 0.623283 0.735317
0.435192 0.601982 0.719901
0.600332 0.563012 0.699604
0.764629 0.509633 0.677338
0.872881 0.467401 0.662290
0.930330 0.442719 0.652487
0.241029 0.667541 0.782473
0.255319 0.662473 0.774296
0.304643 0.660661 0.768094
0.403349 0.652676 0.760092
0.554246 0.630445 0.747319
0.727889 0.582128 0.726755
0.853768 0.532560 0.706407
0.924076 0.497284 0.688553
0.258946 0.708181 0.813331
0.269948 0.702659 0.805399
0.306980 0.697915 0.797864
0.385082 0.696748 0.793099
0.512395 0.695877 0.790584
0.686761 0.665165 0.778259
0.829237 0.616930 0.758455
0.914275 0.574627 0.735055
0.278224 0.752616 0.839568
0.288102 0.748775 0.833803
0.317472 0.744785 0.827665
0.379786 0.742641 0.822481
0.484926 0.743234 0.819132
0.645675 0.744288 0.817790
0.799338 0.712942 0.807150
0.899695 0.674166 0.784211
0.294264 0.791511 0.854806
0.303904 0.790326 0.852287
0.328449 0.788739 0.848979
0.380163 0.788569 0.845784
0.468828 0.791424 0.843465
0.610038 0.799937 0.843000
0.768094 0.797149 0.837116
0.881968 0.777673 0.816539
0.307576 0.823366 0.862715
0.315364 0.822948 0.861114
0.334862 0.822495 0.858848
0.377719 0.823845 0.856518
0.453685 0.828725 0.854641
0.579746 0.840489 0.853896
0.736929 0.856985 0.851765
0.863307 0.858726 0.833064
