src/colors/cinematic_&_blockbuster/city_neon_cinema.cube
# LUT by SparkleStock. Enhanced with VOXCOLOR algorithms.
LUT_3D_SIZE 5
DOMAIN_MIN 0.000000 0.000000 0.000000
DOMAIN_MAX 0.903226 0.903226 0.903226
0.132845 0.109402 0.089866
0.274647 0.110536 0.078522
0.529324 0.117657 0.061491
0.779251 0.148726 0.049447
0.918847 0.190232 0.048950
0.159675 0.201371 0.132727
0.302049 0.251924 0.123890
0.553042 0.269538 0.112250
0.798068 0.282687 0.101231
0.921671 0.296372 0.098028
0.200102 0.412092 0.266422
0.353778 0.433166 0.216881
0.568940 0.494863 0.220112
0.800275 0.505576 0.215530
0.915662 0.496594 0.210330
0.233771 0.620032 0.425082
0.386159 0.606913 0.342837
0.607611 0.647635 0.320740
0.792447 0.700786 0.336978
0.903768 0.695151 0.337710
0.245831 0.701674 0.498499
0.374467 0.688253 0.427426
0.602716 0.713942 0.386890
0.807723 0.758390 0.390410
0.898268 0.781156 0.405189
0.126370 0.161219 0.163449
0.293028 0.158452 0.158109
0.545255 0.167471 0.155210
0.783077 0.192785 0.148684
0.917551 0.228680 0.146525
0.141772 0.280772 0.285217
0.278868 0.257537 0.231776
0.534766 0.261399 0.201719
0.787755 0.270156 0.173817
0.920010 0.280062 0.153241
0.188521 0.477997 0.394323
0.304868 0.455973 0.335175
0.532572 0.476763 0.284115
0.784027 0.479934 0.255275
0.913132 0.462916 0.230983
0.234766 0.657922 0.496066
0.323705 0.646858 0.455394
0.555216 0.655648 0.384475
0.770739 0.693827 0.363989
0.898636 0.678964 0.347624
0.251063 0.718276 0.537535
0.313674 0.715830 0.511322
0.537221 0.724423 0.444795
0.778191 0.760390 0.415978
0.892954 0.781605 0.417482
0.125361 0.267911 0.304801
0.300857 0.246085 0.290443
0.588286 0.250185 0.320840
0.800981 0.270548 0.342285
0.917742 0.295421 0.344193
0.154278 0.391593 0.449989
0.271697 0.364357 0.408384
0.554546 0.332571 0.388036
0.793823 0.324297 0.367327
0.918469 0.324999 0.335655
0.192911 0.526572 0.560992
0.279752 0.507496 0.523613
0.503961 0.490047 0.471933
0.764626 0.473771 0.412035
0.908509 0.447297 0.354559
0.246006 0.701382 0.630941
0.305324 0.690134 0.599475
0.499925 0.688340 0.554527
0.743337 0.695952 0.475420
0.893858 0.669123 0.423648
0.267692 0.760399 0.650591
0.302218 0.753275 0.622232
0.464554 0.764306 0.590428
0.734305 0.781830 0.514609
0.885228 0.794972 0.478165
0.150798 0.420497 0.494183
0.314053 0.375554 0.458267
0.605060 0.338127 0.459398
0.842762 0.338203 0.509117
0.925239 0.355928 0.532485
0.182699 0.517580 0.607603
0.275571 0.497549 0.579727
0.544424 0.449396 0.556130
0.827968 0.397762 0.557198
0.924413 0.391328 0.548147
0.221503 0.620914 0.708286
0.281376 0.606473 0.684251
0.479904 0.589846 0.659094
0.785596 0.529278 0.635127
0.913989 0.487435 0.581079
0.258710 0.719053 0.772708
0.306477 0.713168 0.760037
0.451290 0.709093 0.737597
0.715081 0.708456 0.699600
0.890336 0.667679 0.612939
0.291470 0.804788 0.788473
0.317019 0.799590 0.768836
0.429284 0.802646 0.746342
0.679501 0.828867 0.723827
0.877913 0.826165 0.631513
0.209232 0.591043 0.707094
0.342022 0.538841 0.655323
0.610188 0.462907 0.611681
0.847866 0.397948 0.594687
0.934795 0.383599 0.607779
0.223714 0.627267 0.746537
0.295052 0.617450 0.730448
0.529188 0.567951 0.697973
0.807528 0.481652 0.661132
0.931381 0.432580 0.645267
0.249890 0.687590 0.798232
0.291392 0.679290 0.784626
0.460218 0.671688 0.774128
0.747033 0.612846 0.748797
0.919517 0.534370 0.711614
0.282720 0.763171 0.845027
0.311351 0.757152 0.835733
0.425071 0.754242 0.827264
0.675040 0.760110 0.825420
0.895735 0.699448 0.794817
0.307576 0.823366 0.862715
0.328782 0.822612 0.859483
0.412124 0.825793 0.855498
0.614373 0.843903 0.853571
0.863307 0.858726 0.833064
