src/colors/cinematic_&_blockbuster/city_neon_cinema.cube
# LUT by SparkleStock. Enhanced with VOXCOLOR algorithms.
LUT_3D_SIZE 32
0.132845 0.109402 0.089866
0.148584 0.109638 0.088542
0.164323 0.109874 0.087219
0.180062 0.110111 0.085895
0.195801 0.110347 0.084572
0.211540 0.110583 0.083249
0.241656 0.110583 0.080980
0.274647 0.110536 0.078522
0.307637 0.110489 0.076064
0.340628 0.110442 0.073607
0.373618 0.110394 0.071149
0.410926 0.111702 0.068723
0.450392 0.113687 0.066312
0.489858 0.115672 0.063902
0.529324 0.117657 0.061491
0.568790 0.119642 0.059081
0.606200 0.123140 0.057072
0.641553 0.128150 0.055465
0.676907 0.133160 0.053858
0.712261 0.138170 0.052251
0.747615 0.143180 0.050644
0.779251 0.148726 0.049447
0.803450 0.155343 0.049068
0.827650 0.161960 0.048690
0.851849 0.168577 0.048312
0.876049 0.175194 0.047934
0.897956 0.181441 0.047721
0.908401 0.185836 0.048336
0.918847 0.190232 0.048950
0.929292 0.194628 0.049565
0.939738 0.199023 0.050179
0.950183 0.203419 0.050794
0.136059 0.118146 0.093080
0.151734 0.120294 0.092131
0.167409 0.122442 0.091183
0.183084 0.124590 0.090235
0.198759 0.126739 0.089286
0.214434 0.128887 0.088338
0.244585 0.129160 0.086101
0.277630 0.129058 0.083607
0.310676 0.128956 0.081113
0.343721 0.128853 0.078618
0.376767 0.128751 0.076124
0.414227 0.129949 0.073685
0.453894 0.131797 0.071275
0.493561 0.133645 0.068864
0.533228 0.135493 0.066454
0.572896 0.137341 0.064043
0.610319 0.140587 0.062058
0.645499 0.145231 0.060496
0.680679 0.149875 0.058935
0.715859 0.154519 0.057374
0.751040 0.159163 0.055813
0.782422 0.164279 0.054646
0.806210 0.170338 0.054268
0.829998 0.176397 0.053889
0.853786 0.182456 0.053511
0.877573 0.188515 0.053133
0.899098 0.194208 0.052896
0.909305 0.198073 0.053364
0.919513 0.201938 0.053832
0.929721 0.205803 0.054300
0.939928 0.209668 0.054768
0.950136 0.213533 0.055237
0.139273 0.126890 0.096294
0.154884 0.130950 0.095720
0.170495 0.135010 0.095147
0.186106 0.139070 0.094574
0.201717 0.143130 0.094001
0.217328 0.147190 0.093427
0.247514 0.147736 0.091223
0.280614 0.147579 0.088692
0.313714 0.147422 0.086161
0.346815 0.147265 0.083630
0.379915 0.147108 0.081099
0.417528 0.148196 0.078648
0.457396 0.149907 0.076238
0.497265 0.151618 0.073827
0.537133 0.153328 0.071417
0.577001 0.155039 0.069006
0.614439 0.158033 0.067043
0.649445 0.162312 0.065528
0.684451 0.166590 0.064012
0.719458 0.170868 0.062497
0.754464 0.175146 0.060981
0.785593 0.179832 0.059845
0.808970 0.185333 0.059467
0.832346 0.190834 0.059089
0.855722 0.196335 0.058710
0.879098 0.201836 0.058332
0.900240 0.206976 0.058071
0.910210 0.210310 0.058393
0.920179 0.213645 0.058714
0.930149 0.216979 0.059036
0.940119 0.220314 0.059358
0.950089 0.223648 0.059679
0.142487 0.135634 0.099508
0.158034 0.141606 0.099309
0.173581 0.147578 0.099111
0.189128 0.153550 0.098913
0.204675 0.159522 0.098715
0.220222 0.165494 0.098517
0.250442 0.166313 0.096344
0.283598 0.166101 0.093776
0.316753 0.165889 0.091209
0.349908 0.165677 0.088641
0.383064 0.165465 0.086074
0.420829 0.166443 0.083611
0.460898 0.168017 0.081201
0.500968 0.169590 0.078790
0.541038 0.171164 0.076380
0.581107 0.172737 0.073969
0.618558 0.175480 0.072029
0.653391 0.179392 0.070559
0.688223 0.183305 0.069089
0.723056 0.187217 0.067620
0.757888 0.191129 0.066150
0.788765 0.195385 0.065044
0.811729 0.200328 0.064666
0.834694 0.205271 0.064288
0.857658 0.210214 0.063910
0.880623 0.215157 0.063531
0.901382 0.219743 0.063246
0.911114 0.222547 0.063421
0.920846 0.225351 0.063596
0.930578 0.228155 0.063772
0.940309 0.230959 0.063947
0.950041 0.233763 0.064122
0.145701 0.144377 0.102722
0.161184 0.152262 0.102899
0.176667 0.160146 0.103075
0.192150 0.168030 0.103252
0.207633 0.175914 0.103429
0.223116 0.183798 0.103606
0.253371 0.184889 0.101465
0.286582 0.184622 0.098861
0.319792 0.184356 0.096257
0.353002 0.184089 0.093653
0.386212 0.183822 0.091049
0.424130 0.184691 0.088574
0.464401 0.186127 0.086163
0.504671 0.187563 0.083753
0.544942 0.188999 0.081342
0.585213 0.190436 0.078932
0.622678 0.192927 0.077015
0.657337 0.196473 0.075591
0.691995 0.200020 0.074166
0.726654 0.203566 0.072742
0.761313 0.207112 0.071318
0.791936 0.210938 0.070243
0.814489 0.215323 0.069865
0.837042 0.219708 0.069487
0.859595 0.224093 0.069109
0.882147 0.228478 0.068731
0.902524 0.232511 0.068420
0.912018 0.234784 0.068449
0.921512 0.237057 0.068478
0.931006 0.239331 0.068507
0.940500 0.241604 0.068536
0.949994 0.243877 0.068565
0.148915 0.153121 0.105936
0.164334 0.162917 0.106488
0.179753 0.172713 0.107039
0.195172 0.182509 0.107591
0.210591 0.192305 0.108143
0.226009 0.202101 0.108695
0.256300 0.203466 0.106587
0.289565 0.203144 0.103946
0.322830 0.202822 0.101305
0.356096 0.202501 0.098665
0.389361 0.202179 0.096024
0.427430 0.202938 0.093537
0.467903 0.204237 0.091126
0.508375 0.205536 0.088716
0.548847 0.206835 0.086305
0.589319 0.208134 0.083895
0.626798 0.210374 0.082000
0.661283 0.213554 0.080622
0.695767 0.216734 0.079244
0.730252 0.219915 0.077865
0.764737 0.223095 0.076487
0.795107 0.226491 0.075442
0.817249 0.230318 0.075064
0.839390 0.234145 0.074686
0.861531 0.237972 0.074308
0.883672 0.241799 0.073930
0.903666 0.245278 0.073595
0.912922 0.247021 0.073478
0.922178 0.248764 0.073360
0.931434 0.250507 0.073243
0.940691 0.252249 0.073125
0.949947 0.253992 0.073008
0.154098 0.175848 0.118406
0.170040 0.185070 0.118090
0.185982 0.194293 0.117774
0.201924 0.203516 0.117459
0.217866 0.212739 0.117143
0.233808 0.221961 0.116828
0.263304 0.225090 0.115274
0.295511 0.227001 0.113474
0.327718 0.228911 0.111673
0.359925 0.230822 0.109873
0.392132 0.232732 0.108072
0.429820 0.234021 0.105849
0.470250 0.235000 0.103416
0.510679 0.235979 0.100983
0.551109 0.236958 0.098549
0.591538 0.237937 0.096116
0.628951 0.239776 0.094210
0.663345 0.242476 0.092832
0.697740 0.245177 0.091454
0.732135 0.247877 0.090075
0.766530 0.250577 0.088697
0.796741 0.253449 0.087637
0.818585 0.256664 0.087213
0.840429 0.259880 0.086789
0.862273 0.263095 0.086365
0.884117 0.266311 0.085941
0.903834 0.269181 0.085544
0.912921 0.270325 0.085281
0.922008 0.271468 0.085017
0.931095 0.272612 0.084753
0.940182 0.273755 0.084489
0.949269 0.274899 0.084225
0.159675 0.201371 0.132727
0.176258 0.209523 0.131295
0.192840 0.217675 0.129863
0.209422 0.225828 0.128432
0.226004 0.233980 0.127000
0.242587 0.242133 0.125568
0.271122 0.247325 0.124676
0.302049 0.251924 0.123890
0.332975 0.256524 0.123105
0.363901 0.261124 0.122320
0.394827 0.265724 0.121535
0.432028 0.267672 0.119632
0.472366 0.268294 0.117172
0.512704 0.268916 0.114711
0.553042 0.269538 0.112250
0.593380 0.270160 0.109789
0.630710 0.271570 0.107865
0.665032 0.273767 0.106478
0.699353 0.275964 0.105090
0.733675 0.278161 0.103703
0.767997 0.280358 0.102315
0.798068 0.282687 0.101231
0.819637 0.285281 0.100752
0.841207 0.287874 0.100273
0.862776 0.290468 0.099795
0.884345 0.293061 0.099316
0.903808 0.295311 0.098848
0.912740 0.295841 0.098438
0.921671 0.296372 0.098028
0.930603 0.296903 0.097618
0.939534 0.297433 0.097208
0.948466 0.297964 0.096798
0.165253 0.226894 0.147048
0.182475 0.233976 0.144500
0.199698 0.241058 0.141953
0.216920 0.248140 0.139405
0.234143 0.255222 0.136857
0.251366 0.262304 0.134309
0.278941 0.269559 0.134077
0.308586 0.276848 0.134307
0.338232 0.284138 0.134537
0.367877 0.291427 0.134767
0.397523 0.298716 0.134998
0.434236 0.301323 0.133415
0.474482 0.301588 0.130927
0.514729 0.301854 0.128439
0.554975 0.302119 0.125951
0.595222 0.302384 0.123462
0.632469 0.303364 0.121520
0.666718 0.305058 0.120123
0.700967 0.306752 0.118727
0.735215 0.308445 0.117330
0.769464 0.310139 0.115934
0.799394 0.311926 0.114825
0.820689 0.313897 0.114291
0.841984 0.315869 0.113757
0.863279 0.317840 0.113224
0.884574 0.319811 0.112690
0.903783 0.321440 0.112153
0.912559 0.321358 0.111596
0.921334 0.321276 0.111040
0.930110 0.321193 0.110483
0.938886 0.321111 0.109927
0.947662 0.321029 0.109370
0.170830 0.252416 0.161369
0.188693 0.258428 0.157705
0.206556 0.264440 0.154042
0.224419 0.270452 0.150378
0.242282 0.276463 0.146714
0.260145 0.282475 0.143050
0.286759 0.291793 0.143478
0.315124 0.301772 0.144723
0.343489 0.311751 0.145969
0.371854 0.321730 0.147215
0.400219 0.331709 0.148460
0.436444 0.334974 0.147198
0.476599 0.334882 0.144683
0.516754 0.334791 0.142167
0.556909 0.334699 0.139651
0.597064 0.334608 0.137136
0.634229 0.335158 0.135175
0.668404 0.336348 0.133769
0.702580 0.337539 0.132363
0.736755 0.338730 0.130958
0.770930 0.339921 0.129552
0.800721 0.341164 0.128419
0.821741 0.342514 0.127830
0.842762 0.343863 0.127242
0.863782 0.345212 0.126653
0.884803 0.346562 0.126065
0.903757 0.347570 0.125457
0.912377 0.346875 0.124754
0.920998 0.346180 0.124051
0.929618 0.345484 0.123348
0.938238 0.344789 0.122645
0.946859 0.344094 0.121943
0.176407 0.277939 0.175690
0.194910 0.282881 0.170910
0.213414 0.287822 0.166131
0.231917 0.292764 0.161351
0.250420 0.297705 0.156571
0.268924 0.302646 0.151791
0.294578 0.314027 0.152879
0.321662 0.326695 0.155140
0.348746 0.339364 0.157401
0.375830 0.352032 0.159662
0.402914 0.364701 0.161923
0.438651 0.368625 0.160981
0.478715 0.368176 0.158438
0.518778 0.367728 0.155895
0.558842 0.367280 0.153352
0.598906 0.366832 0.150809
0.635988 0.366951 0.148830
0.670091 0.367639 0.147415
0.704193 0.368327 0.146000
0.738295 0.369014 0.144585
0.772397 0.369702 0.143170
0.802047 0.370403 0.142012
0.822793 0.371130 0.141369
0.843539 0.371857 0.140726
0.864285 0.372585 0.140082
0.885031 0.373312 0.139439
0.903731 0.373700 0.138761
0.912196 0.372392 0.137912
0.920661 0.371083 0.137063
0.929126 0.369775 0.136213
0.937590 0.368467 0.135364
0.946055 0.367159 0.134515
0.182236 0.309291 0.196093
0.201130 0.313169 0.190179
0.220024 0.317046 0.184264
0.238917 0.320923 0.178350
0.257811 0.324800 0.172436
0.276705 0.328678 0.166522
0.302322 0.340018 0.167204
0.329284 0.352851 0.169206
0.356246 0.365684 0.171208
0.383208 0.378517 0.173210
0.410171 0.391350 0.175212
0.444985 0.396307 0.174670
0.483725 0.397325 0.172855
0.522465 0.398344 0.171041
0.561205 0.399362 0.169227
0.599945 0.400381 0.167412
0.636339 0.401080 0.165808
0.670386 0.401460 0.164415
0.704434 0.401839 0.163021
0.738481 0.402219 0.161628
0.772528 0.402599 0.160234
0.802087 0.402954 0.159087
0.822668 0.403260 0.158431
0.843250 0.403567 0.157775
0.863831 0.403873 0.157120
0.884412 0.404180 0.156464
0.902956 0.404147 0.155765
0.911308 0.402421 0.154849
0.919660 0.400696 0.153933
0.928012 0.398970 0.153016
0.936364 0.397244 0.152100
0.944716 0.395518 0.151184
0.188192 0.343558 0.219536
0.207351 0.346374 0.212478
0.226510 0.349190 0.205421
0.245668 0.352006 0.198363
0.264827 0.354822 0.191305
0.283986 0.357638 0.184248
0.310029 0.367887 0.183993
0.337449 0.379623 0.185098
0.364868 0.391358 0.186203
0.392288 0.403093 0.187309
0.419707 0.414829 0.188414
0.453381 0.421005 0.188311
0.490182 0.424402 0.187603
0.526983 0.427799 0.186896
0.563783 0.431196 0.186189
0.600584 0.434593 0.185481
0.635985 0.436376 0.184449
0.669987 0.436545 0.183092
0.703988 0.436714 0.181735
0.737990 0.436884 0.180378
0.771991 0.437053 0.179021
0.801483 0.437161 0.177901
0.821955 0.437147 0.177255
0.842426 0.437134 0.176608
0.862898 0.437120 0.175962
0.883370 0.437106 0.175315
0.901806 0.436754 0.174619
0.910067 0.434708 0.173675
0.918327 0.432662 0.172732
0.926588 0.430615 0.171788
0.934849 0.428569 0.170844
0.943109 0.426523 0.169900
0.194147 0.377825 0.242979
0.213571 0.379580 0.234778
0.232995 0.381335 0.226577
0.252420 0.383090 0.218376
0.271844 0.384845 0.210175
0.291268 0.386599 0.201973
0.317736 0.395757 0.200781
0.345613 0.406394 0.200990
0.373490 0.417032 0.201198
0.401367 0.427669 0.201407
0.429244 0.438307 0.201616
0.461777 0.445703 0.201952
0.496639 0.451478 0.202352
0.531500 0.457254 0.202751
0.566362 0.463029 0.203150
0.601223 0.468805 0.203550
0.635632 0.471672 0.203089
0.669587 0.471631 0.201769
0.703543 0.471590 0.200449
0.737499 0.471548 0.199128
0.771455 0.471507 0.197808
0.800879 0.471368 0.196715
0.821241 0.471035 0.196078
0.841603 0.470701 0.195441
0.861965 0.470367 0.194803
0.882327 0.470033 0.194166
0.900656 0.469360 0.193473
0.908826 0.466994 0.192502
0.916995 0.464628 0.191531
0.925164 0.462261 0.190560
0.933333 0.459895 0.189588
0.941502 0.457529 0.188617
0.200102 0.412092 0.266422
0.219792 0.412786 0.257078
0.239481 0.413479 0.247733
0.259171 0.414173 0.238388
0.278860 0.414867 0.229044
0.298550 0.415560 0.219699
0.325443 0.423626 0.217569
0.353778 0.433166 0.216881
0.382112 0.442706 0.216193
0.410446 0.452245 0.215506
0.438781 0.461785 0.214818
0.470174 0.470401 0.215593
0.503096 0.478555 0.217100
0.536018 0.486709 0.218606
0.568940 0.494863 0.220112
0.601862 0.503017 0.221619
0.635278 0.506968 0.221730
0.669188 0.506716 0.220446
0.703098 0.506465 0.219162
0.737008 0.506213 0.217879
0.770918 0.505962 0.216595
0.800275 0.505576 0.215530
0.820528 0.504922 0.214902
0.840780 0.504268 0.214273
0.861032 0.503614 0.213645
0.881284 0.502959 0.213017
0.899507 0.501967 0.212327
0.907585 0.499280 0.211329
0.915662 0.496594 0.210330
0.923740 0.493907 0.209331
0.931818 0.491221 0.208333
0.939895 0.488534 0.207334
0.206058 0.446359 0.289866
0.226013 0.445991 0.279378
0.245967 0.445624 0.268889
0.265922 0.445256 0.258401
0.285877 0.444889 0.247913
0.305832 0.444521 0.237425
0.333151 0.451495 0.234357
0.361942 0.459937 0.232773
0.390734 0.468379 0.231189
0.419526 0.476821 0.229604
0.448318 0.485263 0.228020
0.478570 0.495099 0.229234
0.509553 0.505631 0.231848
0.540535 0.516164 0.234461
0.571518 0.526696 0.237074
0.602501 0.537229 0.239687
0.634924 0.542264 0.240371
0.668788 0.541802 0.239123
0.702653 0.541340 0.237876
0.736517 0.540878 0.236629
0.770381 0.540416 0.235382
0.799672 0.539783 0.234344
0.819814 0.538809 0.233725
0.839956 0.537835 0.233106
0.860099 0.536860 0.232487
0.880241 0.535886 0.231868
0.898357 0.534573 0.231181
0.906343 0.531567 0.230155
0.914330 0.528560 0.229129
0.922316 0.525553 0.228103
0.930302 0.522547 0.227077
0.938288 0.519540 0.226051
0.211351 0.478144 0.313096
0.231311 0.476976 0.301798
0.251270 0.475808 0.290501
0.271229 0.474640 0.279203
0.291189 0.473473 0.267905
0.311148 0.472305 0.256607
0.338803 0.478322 0.252638
0.367998 0.485776 0.250135
0.397192 0.493230 0.247631
0.426386 0.500684 0.245128
0.455580 0.508138 0.242624
0.485464 0.518218 0.243733
0.515692 0.529610 0.246648
0.545920 0.541002 0.249564
0.576148 0.552394 0.252479
0.606376 0.563787 0.255394
0.637980 0.569613 0.256445
0.670962 0.569874 0.255632
0.703943 0.570135 0.254820
0.736925 0.570395 0.254007
0.769906 0.570656 0.253194
0.798584 0.570475 0.252474
0.818653 0.569409 0.251937
0.838722 0.568343 0.251400
0.858791 0.567277 0.250864
0.878860 0.566212 0.250327
0.896905 0.564806 0.249715
0.904827 0.561704 0.248725
0.912749 0.558601 0.247736
0.920672 0.555498 0.246746
0.928594 0.552396 0.245757
0.936516 0.549293 0.244767
0.215983 0.507448 0.336114
0.235687 0.505740 0.324341
0.255390 0.504033 0.312567
0.275093 0.502325 0.300794
0.294796 0.500618 0.289020
0.314499 0.498910 0.277247
0.342402 0.504105 0.272413
0.371943 0.510681 0.268967
0.401485 0.517257 0.265522
0.431027 0.523833 0.262076
0.460569 0.530409 0.258630
0.490855 0.539756 0.259090
0.521513 0.550490 0.261502
0.552171 0.561224 0.263914
0.582829 0.571957 0.266326
0.613487 0.582691 0.268738
0.644446 0.589016 0.269954
0.675708 0.590933 0.269973
0.706970 0.592849 0.269993
0.738232 0.594766 0.270013
0.769493 0.596682 0.270033
0.797012 0.597650 0.269919
0.817044 0.596722 0.269538
0.837077 0.595793 0.269157
0.857110 0.594865 0.268776
0.877142 0.593936 0.268394
0.895150 0.592667 0.267929
0.903036 0.589692 0.267040
0.910921 0.586717 0.266151
0.918807 0.583743 0.265262
0.926692 0.580768 0.264373
0.934578 0.577794 0.263484
0.220615 0.536752 0.359132
0.240062 0.534505 0.346883
0.259509 0.532257 0.334634
0.278956 0.530010 0.322384
0.298404 0.527763 0.310135
0.317851 0.525515 0.297886
0.346000 0.529889 0.292188
0.375889 0.535587 0.287800
0.405779 0.541284 0.283412
0.435668 0.546982 0.279024
0.465558 0.552680 0.274636
0.496246 0.561295 0.274446
0.527334 0.571370 0.276355
0.558422 0.581445 0.278264
0.589510 0.591520 0.280173
0.620598 0.601595 0.282082
0.650913 0.608419 0.283462
0.680454 0.611991 0.284314
0.709996 0.615564 0.285167
0.739538 0.619136 0.286019
0.769080 0.622708 0.286871
0.795440 0.624826 0.287364
0.815436 0.624035 0.287139
0.835432 0.623243 0.286913
0.855428 0.622452 0.286687
0.875424 0.621661 0.286462
0.893395 0.620527 0.286142
0.901244 0.617680 0.285354
0.909093 0.614834 0.284566
0.916942 0.611987 0.283777
0.924791 0.609141 0.282989
0.932640 0.606294 0.282201
0.225247 0.566056 0.382150
0.244438 0.563269 0.369425
0.263629 0.560482 0.356700
0.282820 0.557695 0.343975
0.302011 0.554908 0.331250
0.321202 0.552121 0.318526
0.349598 0.555672 0.311963
0.379835 0.560492 0.306633
0.410072 0.565311 0.301302
0.440309 0.570131 0.295972
0.470546 0.574950 0.290642
0.501637 0.582834 0.289802
0.533155 0.592251 0.291208
0.564673 0.601667 0.292614
0.596191 0.611083 0.294020
0.627709 0.620500 0.295425
0.657379 0.627822 0.296971
0.685201 0.633050 0.298655
0.713023 0.638278 0.300340
0.740845 0.643506 0.302025
0.768667 0.648734 0.303710
0.793868 0.652001 0.304809
0.813827 0.651347 0.304739
0.833787 0.650693 0.304669
0.853746 0.650039 0.304599
0.873706 0.649385 0.304529
0.891640 0.648387 0.304356
0.899453 0.645668 0.303668
0.907265 0.642950 0.302981
0.915078 0.640232 0.302293
0.922890 0.637513 0.301605
0.930702 0.634795 0.300918
0.229879 0.595360 0.405168
0.248814 0.592033 0.391967
0.267749 0.588707 0.378767
0.286683 0.585380 0.365566
0.305618 0.582053 0.352365
0.324553 0.578726 0.339165
0.353196 0.581456 0.331738
0.383781 0.585397 0.325465
0.414366 0.589339 0.319193
0.444950 0.593280 0.312920
0.475535 0.597221 0.306648
0.507029 0.604373 0.305159
0.538976 0.613131 0.306061
0.570924 0.621889 0.306964
0.602872 0.630646 0.307867
0.634820 0.639404 0.308769
0.663845 0.647225 0.310479
0.689947 0.654109 0.312996
0.716049 0.660992 0.315514
0.742151 0.667876 0.318031
0.768254 0.674760 0.320548
0.792296 0.679177 0.322255
0.812219 0.678660 0.322340
0.832142 0.678143 0.322425
0.852064 0.677626 0.322511
0.871987 0.677110 0.322596
0.889886 0.676247 0.322569
0.897661 0.673657 0.321982
0.905437 0.671066 0.321395
0.913213 0.668476 0.320808
0.920989 0.665886 0.320221
0.928764 0.663295 0.319634
0.233771 0.620032 0.425082
0.252330 0.616346 0.411659
0.270890 0.612659 0.398235
0.289450 0.608972 0.384812
0.308009 0.605286 0.371389
0.326569 0.601599 0.357966
0.355343 0.603680 0.349869
0.386159 0.606913 0.342837
0.416976 0.610147 0.335806
0.447792 0.613381 0.328774
0.478609 0.616615 0.321742
0.510468 0.623137 0.319642
0.542849 0.631303 0.320008
0.575230 0.639469 0.320374
0.607611 0.647635 0.320740
0.639991 0.655801 0.321106
0.668737 0.663846 0.322796
0.693849 0.671770 0.325810
0.718960 0.679693 0.328824
0.744071 0.687617 0.331839
0.769182 0.695541 0.334853
0.792447 0.700786 0.336978
0.812019 0.700675 0.337326
0.831591 0.700563 0.337674
0.851163 0.700452 0.338021
0.870735 0.700341 0.338369
0.888332 0.699856 0.338586
0.896050 0.697503 0.338148
0.903768 0.695151 0.337710
0.911485 0.692798 0.337273
0.919203 0.690446 0.336835
0.926921 0.688093 0.336398
0.236181 0.635441 0.438788
0.254128 0.631754 0.425649
0.272075 0.628067 0.412509
0.290021 0.624381 0.399370
0.307968 0.620694 0.386230
0.325915 0.617007 0.373091
0.354587 0.618783 0.364713
0.385403 0.621651 0.357288
0.416220 0.624519 0.349863
0.447036 0.627387 0.342438
0.477853 0.630254 0.335013
0.510005 0.636349 0.332379
0.542825 0.644058 0.332141
0.575645 0.651767 0.331903
0.608464 0.659476 0.331666
0.641284 0.667184 0.331428
0.670483 0.674904 0.332729
0.696061 0.682636 0.335570
0.721639 0.690368 0.338410
0.747216 0.698099 0.341250
0.772794 0.705831 0.344091
0.796044 0.711262 0.346259
0.814637 0.712093 0.347082
0.833230 0.712924 0.347906
0.851824 0.713755 0.348729
0.870417 0.714586 0.349552
0.887181 0.714962 0.350207
0.894798 0.713067 0.350016
0.902415 0.711172 0.349825
0.910032 0.709277 0.349635
0.917650 0.707382 0.349444
0.925267 0.705487 0.349254
0.238592 0.650849 0.452495
0.255925 0.647162 0.439639
0.273259 0.643476 0.426783
0.290593 0.639789 0.413927
0.307927 0.636102 0.401071
0.325261 0.632416 0.388215
0.353830 0.633886 0.379557
0.384647 0.636388 0.371739
0.415463 0.638890 0.363920
0.446280 0.641392 0.356102
0.477096 0.643894 0.348283
0.509541 0.649562 0.345116
0.542800 0.656814 0.344275
0.576059 0.664065 0.343433
0.609318 0.671316 0.342591
0.642577 0.678567 0.341750
0.672229 0.685963 0.342662
0.698273 0.693502 0.345329
0.724317 0.701042 0.347996
0.750362 0.708581 0.350662
0.776406 0.716121 0.353329
0.799640 0.721738 0.355540
0.817255 0.723511 0.356839
0.834869 0.725284 0.358138
0.852484 0.727058 0.359437
0.870098 0.728831 0.360736
0.886030 0.730069 0.361828
0.893546 0.728631 0.361884
0.901063 0.727193 0.361940
0.908579 0.725756 0.361997
0.916096 0.724318 0.362053
0.923613 0.722880 0.362110
0.241002 0.666257 0.466202
0.257723 0.662570 0.453630
0.274444 0.658884 0.441057
0.291165 0.655197 0.428485
0.307886 0.651510 0.415912
0.324607 0.647824 0.403340
0.353074 0.648989 0.394401
0.383891 0.651126 0.386190
0.414707 0.653262 0.377978
0.445524 0.655398 0.369766
0.476340 0.657534 0.361554
0.509078 0.662775 0.357853
0.542776 0.669569 0.356408
0.576474 0.676363 0.354962
0.610172 0.683157 0.353517
0.643870 0.689951 0.352072
0.673975 0.697021 0.352595
0.700485 0.704369 0.355088
0.726996 0.711716 0.357581
0.753507 0.719063 0.360074
0.780018 0.726411 0.362567
0.803237 0.732214 0.364820
0.819873 0.734929 0.366595
0.836508 0.737645 0.368370
0.853144 0.740360 0.370144
0.869780 0.743076 0.371919
0.884879 0.745175 0.373448
0.892294 0.744195 0.373752
0.899710 0.743214 0.374055
0.907126 0.742234 0.374359
0.914542 0.741254 0.374662
0.921958 0.740273 0.374966
0.243413 0.681665 0.479909
0.259521 0.677979 0.467620
0.275629 0.674292 0.455331
0.291737 0.670605 0.443042
0.307845 0.666919 0.430753
0.323953 0.663232 0.418465
0.352318 0.664093 0.409246
0.383134 0.665863 0.400640
0.413951 0.667633 0.392035
0.444767 0.669403 0.383430
0.475584 0.671173 0.374825
0.508614 0.675988 0.370590
0.542751 0.682324 0.368541
0.576889 0.688661 0.366492
0.611026 0.694997 0.364443
0.645163 0.701334 0.362394
0.675720 0.708080 0.362529
0.702698 0.715235 0.364848
0.729675 0.722390 0.367167
0.756653 0.729545 0.369486
0.783630 0.736701 0.371805
0.806834 0.742690 0.374101
0.822491 0.746348 0.376351
0.838147 0.750005 0.378602
0.853804 0.753663 0.380852
0.869461 0.757321 0.383102
0.883727 0.760282 0.385069
0.891043 0.759759 0.385620
0.898358 0.759236 0.386170
0.905673 0.758713 0.386721
0.912989 0.758190 0.387271
0.920304 0.757667 0.387821
0.245453 0.695057 0.491882
0.260945 0.691413 0.479935
0.276437 0.687769 0.467988
0.291929 0.684125 0.456041
0.307421 0.680481 0.444093
0.322913 0.676837 0.432146
0.351127 0.677453 0.422728
0.381886 0.678922 0.413817
0.412645 0.680390 0.404905
0.443403 0.681858 0.395993
0.474162 0.683326 0.387082
0.507438 0.687770 0.382377
0.541973 0.693701 0.379776
0.576508 0.699632 0.377175
0.611043 0.705563 0.374574
0.645579 0.711494 0.371973
0.676573 0.717944 0.371731
0.704028 0.724915 0.373849
0.731483 0.731886 0.375967
0.758937 0.738857 0.378084
0.786392 0.745827 0.380202
0.809669 0.751956 0.382494
0.824591 0.756400 0.385135
0.839513 0.760845 0.387776
0.854435 0.765289 0.390416
0.869356 0.769734 0.393057
0.882985 0.773423 0.395388
0.890148 0.773334 0.396170
0.897311 0.773246 0.396952
0.904474 0.773157 0.397735
0.911637 0.773069 0.398517
0.918799 0.772980 0.399299
0.245642 0.698365 0.495191
0.260503 0.694978 0.483875
0.275364 0.691590 0.472559
0.290224 0.688202 0.461243
0.305085 0.684814 0.449927
0.319946 0.681426 0.438611
0.347766 0.682101 0.429405
0.378176 0.683587 0.420621
0.408587 0.685074 0.411838
0.438998 0.686560 0.403054
0.469409 0.688047 0.394271
0.502698 0.692399 0.389414
0.537425 0.698183 0.386520
0.572152 0.703968 0.383626
0.606880 0.709752 0.380732
0.641607 0.715537 0.377838
0.672963 0.721841 0.377281
0.700948 0.728666 0.379060
0.728933 0.735490 0.380840
0.756919 0.742315 0.382619
0.784904 0.749139 0.384398
0.808696 0.755173 0.386452
