src/colors/cinematic_&_blockbuster/cool_cinema.cube
LUT_3D_SIZE 16
0.003900 0.000000 0.000000
0.044098 0.004042 0.000142
0.098328 0.011752 0.007800
0.151087 0.007800 0.007800
0.213561 0.014950 0.011800
0.271179 0.022106 0.022106
0.340901 0.030993 0.029246
0.416941 0.044938 0.041038
0.487195 0.058950 0.058950
0.565845 0.069938 0.069938
0.627119 0.077240 0.077240
0.701907 0.087853 0.081197
0.769671 0.097597 0.093295
0.842189 0.115236 0.100425
0.911070 0.127216 0.102858
0.964562 0.137260 0.098040
0.007800 0.008228 0.000142
0.040476 0.008505 0.000273
0.098282 0.019625 0.003946
0.143625 0.019514 0.007800
0.209848 0.030271 0.011800
0.264888 0.043535 0.015879
0.329464 0.057311 0.027241
0.406552 0.075527 0.041038
0.483837 0.099813 0.058950
0.565845 0.113885 0.075993
0.627119 0.117355 0.079436
0.701907 0.128633 0.081197
0.769671 0.145709 0.089797
0.840725 0.157407 0.094282
0.907245 0.169955 0.098929
0.964523 0.178290 0.101733
0.007800 0.031680 0.003900
0.047269 0.031680 0.003947
0.098282 0.031726 0.000138
0.147187 0.042093 0.004060
0.213489 0.059024 0.014950
0.274522 0.075572 0.019401
0.339850 0.092269 0.024894
0.410097 0.113061 0.038045
0.497922 0.140518 0.059025
0.573221 0.155044 0.077076
0.641816 0.161341 0.082400
0.704248 0.169716 0.082400
0.772597 0.183784 0.092650
0.845945 0.201096 0.094100
0.914970 0.222816 0.099711
0.964562 0.234012 0.094659
0.007800 0.076845 0.003900
0.046669 0.076845 0.011453
0.100539 0.080417 0.011535
0.151087 0.077574 0.007783
0.209661 0.096896 0.012144
0.273985 0.119030 0.018506
0.340901 0.141230 0.025291
0.413949 0.166229 0.038045
0.498943 0.190112 0.062850
0.574811 0.204308 0.073838
0.640499 0.211678 0.077691
0.708601 0.220447 0.085127
0.779981 0.231228 0.097486
0.844553 0.245334 0.098000
0.911744 0.265693 0.098000
0.965342 0.275301 0.098000
0.011800 0.154011 0.011031
0.050059 0.146303 0.011763
0.102894 0.149727 0.011800
0.149393 0.156705 0.011800
0.209661 0.155078 0.011800
0.275474 0.168322 0.014306
0.343365 0.190511 0.023931
0.424017 0.218585 0.041547
0.502959 0.241690 0.057111
0.580179 0.255642 0.071965
0.643536 0.264936 0.079752
0.713588 0.277435 0.082400
0.778848 0.290028 0.091233
0.844553 0.307002 0.096464
0.911124 0.326681 0.094958
0.972284 0.331005 0.096961
0.022106 0.214885 0.015700
0.059904 0.210987 0.011979
0.108948 0.214314 0.015700
0.152372 0.217945 0.012340
0.213137 0.221690 0.015700
0.282598 0.223978 0.019102
0.359648 0.250240 0.029172
0.437112 0.276160 0.047233
0.512204 0.290733 0.062850
0.590811 0.306301 0.073838
0.657976 0.318291 0.081210
0.722032 0.331568 0.086300
0.780079 0.344059 0.089797
0.852024 0.370693 0.094100
0.914730 0.387327 0.094890
0.968449 0.397360 0.094100
0.027500 0.282046 0.021346
0.064896 0.282046 0.021346
0.109691 0.280224 0.017768
0.159473 0.288341 0.019305
0.217682 0.305039 0.026395
0.281584 0.302985 0.027038
0.356346 0.309051 0.032922
0.442333 0.327771 0.049224
0.523473 0.348554 0.062850
0.595008 0.355232 0.070600
0.661259 0.369346 0.080952
0.725057 0.384348 0.087900
0.789180 0.405410 0.090200
0.851952 0.428049 0.090200
0.911928 0.446866 0.091346
0.964562 0.456501 0.094100
0.031400 0.350318 0.029314
0.070171 0.357691 0.028506
0.114239 0.355125 0.029116
0.159883 0.357133 0.031931
0.217648 0.375587 0.034896
0.283080 0.394163 0.042802
0.361052 0.398730 0.046296
0.443941 0.389813 0.051214
0.526395 0.400697 0.062840
0.601807 0.409939 0.073779
0.663999 0.421203 0.081569
0.725257 0.438304 0.086300
0.788958 0.459920 0.092312
0.845830 0.482745 0.094100
0.911070 0.504586 0.094100
0.964562 0.509021 0.088403
0.035374 0.424322 0.047248
0.079575 0.424322 0.043805
0.123729 0.432202 0.043250
0.167944 0.436168 0.045778
0.218029 0.444084 0.045287
0.281927 0.461760 0.052610
0.365399 0.483205 0.058894
0.449296 0.477713 0.059482
0.526394 0.459915 0.062852
0.598062 0.468692 0.070066
0.661363 0.478855 0.083995
0.731691 0.497313 0.086300
0.789467 0.517390 0.089797
0.843979 0.538810 0.094984
0.908414 0.556390 0.090091
0.968423 0.567548 0.086318
0.042438 0.499245 0.058138
0.083148 0.499245 0.058138
0.130664 0.502793 0.055079
0.176847 0.510095 0.057880
0.227876 0.520717 0.061058
0.289671 0.533597 0.063003
0.367400 0.550173 0.069408
0.454183 0.561188 0.069588
0.534272 0.542786 0.066673
0.608366 0.535094 0.073288
0.663217 0.538697 0.077709
0.728032 0.550112 0.087752
0.789360 0.572544 0.090200
0.849823 0.595285 0.090846
0.911070 0.611716 0.092931
0.972323 0.624312 0.088642
0.047100 0.572638 0.065510
0.090044 0.571629 0.065510
0.134774 0.572638 0.065510
0.181839 0.572990 0.065510
0.235573 0.586054 0.064625
0.294767 0.600074 0.071563
0.369370 0.614753 0.075108
0.458842 0.625155 0.077240
0.539556 0.629102 0.079943
0.607524 0.609323 0.074764
0.668619 0.602114 0.077240
0.728810 0.611917 0.085127
0.789392 0.625938 0.089890
0.848740 0.652024 0.086300
0.910592 0.671003 0.088359
0.969712 0.684953 0.090200
0.049827 0.645454 0.073327
0.088914 0.645454 0.073327
0.138640 0.648180 0.067346
0.184564 0.648180 0.073327
0.237973 0.661477 0.069427
0.300187 0.670365 0.068766
0.375187 0.686597 0.080343
0.462252 0.696146 0.085592
0.543272 0.700354 0.089027
0.607131 0.698161 0.085382
0.665983 0.683542 0.078699
0.732106 0.677321 0.079241
0.793220 0.689839 0.085902
0.846918 0.709855 0.086300
0.909415 0.725836 0.089522
0.961717 0.741718 0.087337
0.061895 0.718358 0.081987
0.099381 0.718358 0.081987
0.144268 0.721539 0.077669
0.189180 0.725755 0.078289
0.250772 0.735052 0.074500
0.320022 0.743746 0.077780
0.387730 0.751816 0.081939
0.471630 0.759349 0.091585
0.556371 0.762900 0.097597
0.627444 0.769268 0.096590
0.680806 0.767521 0.092673
0.744734 0.745884 0.082027
0.793621 0.742260 0.089395
0.847592 0.760222 0.086300
0.912502 0.779301 0.090362
0.964562 0.797604 0.089418
0.058800 0.802099 0.082400
0.102549 0.804524 0.080047
0.154473 0.806099 0.085936
0.205530 0.813353 0.086300
0.257417 0.819721 0.076773
0.328110 0.825577 0.086565
0.405158 0.833237 0.087836
0.488359 0.840912 0.092823
0.564859 0.844631 0.102055
0.636262 0.847002 0.107436
0.696384 0.846825 0.111336
0.758442 0.843786 0.107852
0.806426 0.831111 0.091301
0.853863 0.824124 0.086300
0.911750 0.841634 0.086802
0.968428 0.855258 0.086305
0.067558 0.896228 0.091058
0.119649 0.894114 0.094835
0.162498 0.898062 0.086423
0.217405 0.901192 0.090240
0.282370 0.908886 0.091305
0.350721 0.910006 0.095769
0.429721 0.915850 0.098083
0.510214 0.915850 0.103287
0.588285 0.918892 0.107035
0.651002 0.919325 0.113397
0.718766 0.921456 0.117600
0.778009 0.918892 0.118296
0.828115 0.917744 0.118715
0.872435 0.911994 0.102781
0.915639 0.903861 0.091556
0.964830 0.919421 0.093826
0.070600 0.964484 0.094100
0.115576 0.964781 0.094103
0.171706 0.968904 0.097407
0.223541 0.972284 0.090980
0.295705 0.972323 0.097971
0.363359 0.972323 0.096714
0.433800 0.972363 0.099600
0.512419 0.972363 0.105900
0.589304 0.972345 0.107996
0.654209 0.972363 0.116003
0.720318 0.976323 0.117600
0.787804 0.973416 0.120537
0.845486 0.972363 0.121600
0.891033 0.972328 0.117600
0.931938 0.972287 0.117452
0.968462 0.972284 0.117483
0.004042 0.004042 0.012083
0.043957 0.004036 0.008227
0.098304 0.007848 0.015817
0.151087 0.011800 0.027062
0.209848 0.015664 0.030985
0.273785 0.022106 0.039755
0.340740 0.030993 0.056982
0.410455 0.041137 0.078901
0.487195 0.058950 0.095824
0.565845 0.069938 0.116619
0.633433 0.077240 0.122300
0.704141 0.087853 0.129022
0.769671 0.100854 0.134716
0.844443 0.115236 0.136454
0.914922 0.131124 0.146255
0.964822 0.137033 0.146407
0.007658 0.016272 0.012220
0.044238 0.012356 0.004871
0.098143 0.016166 0.019788
0.147329 0.020156 0.023777
0.209529 0.035065 0.031193
0.271080 0.046332 0.040846
0.331398 0.057106 0.056736
0.406230 0.078942 0.078093
0.486779 0.106492 0.099221
0.565576 0.111781 0.113875
0.630052 0.117574 0.121497
0.700354 0.131805 0.128985
0.766160 0.145148 0.137736
0.842189 0.155579 0.142107
0.911206 0.171412 0.144960
0.964426 0.177495 0.141917
0.007824 0.035629 0.015771
0.044150 0.031820 0.016030
0.090663 0.031726 0.016074
0.150837 0.042254 0.023536
0.209802 0.059648 0.028282
0.269702 0.076682 0.040635
0.331398 0.093100 0.051598
0.406125 0.114258 0.075453
0.483295 0.141721 0.103004
0.562090 0.156423 0.113937
0.634689 0.162767 0.121264
0.701345 0.174738 0.129164
0.769268 0.185101 0.137724
0.844408 0.207916 0.139866
0.907461 0.221389 0.144152
0.964540 0.229850 0.138295
0.011712 0.084401 0.019429
0.051732 0.077258 0.020141
0.104309 0.076845 0.023387
0.151170 0.077327 0.020492
0.210286 0.097081 0.027199
0.269767 0.119477 0.040741
0.340222 0.145606 0.059783
0.412565 0.166913 0.072574
0.489649 0.187143 0.100467
0.573563 0.202687 0.116561
0.643156 0.209156 0.123840
0.709999 0.220564 0.129224
0.772570 0.225439 0.133996
0.848436 0.246156 0.142129
0.913985 0.265801 0.141219
0.965394 0.271997 0.138987
0.011800 0.153975 0.026352
0.055903 0.149532 0.031075
0.107234 0.150109 0.031075
0.149723 0.153245 0.027785
0.213419 0.155075 0.031681
0.276354 0.166249 0.040883
0.344034 0.194650 0.057016
0.420196 0.220281 0.073820
0.500797 0.244027 0.099083
0.575631 0.256170 0.117144
0.647039 0.263644 0.125073
0.715989 0.274805 0.129126
0.776638 0.283150 0.133896
0.848453 0.305605 0.142053
0.911897 0.323615 0.141197
0.968386 0.329813 0.141075
0.018206 0.224833 0.037069
0.059755 0.218827 0.042177
0.103890 0.215290 0.038639
0.152242 0.220655 0.037258
0.214614 0.224491 0.042342
0.273736 0.221614 0.044713
0.348766 0.246224 0.060719
0.423610 0.268776 0.077610
0.506466 0.289649 0.100675
0.582852 0.307179 0.117364
0.647060 0.314849 0.122553
0.712730 0.328025 0.130213
0.781001 0.345790 0.134157
0.848378 0.366860 0.135393
0.911928 0.387345 0.141045
0.968355 0.393381 0.139488
0.021710 0.287956 0.049346
0.069359 0.284393 0.049758
0.117472 0.285771 0.052972
0.157037 0.287611 0.052907
0.214089 0.294982 0.051875
0.279570 0.298400 0.055205
0.360567 0.305014 0.065683
0.442198 0.327300 0.085311
0.520196 0.345832 0.104131
0.588776 0.356410 0.121173
0.658728 0.367026 0.126343
0.724872 0.383530 0.131035
0.786903 0.405467 0.137672
0.847324 0.424306 0.134243
0.914576 0.447038 0.135499
0.966161 0.458024 0.140563
0.028735 0.361513 0.066370
0.071731 0.358046 0.058851
0.117738 0.357646 0.068576
0.161556 0.358746 0.065656
0.218973 0.370816 0.069751
0.287112 0.386540 0.074072
0.358112 0.382081 0.075152
0.444764 0.385326 0.087342
0.526503 0.400835 0.106904
0.601746 0.416856 0.121241
0.661502 0.422626 0.128994
0.721491 0.438489 0.126554
0.787578 0.460086 0.132341
0.851844 0.482824 0.136617
0.911928 0.504632 0.131554
0.968320 0.509133 0.134233
0.035300 0.427905 0.084048
0.075777 0.424602 0.079618
0.121251 0.431363 0.082683
0.164784 0.430848 0.083476
0.220456 0.444061 0.085501
0.284750 0.458610 0.091258
0.360653 0.475289 0.098954
0.442127 0.474578 0.099524
0.530081 0.459991 0.106977
0.601783 0.468868 0.117921
0.668817 0.480206 0.129090
0.726345 0.497226 0.133947
0.785371 0.515065 0.124242
0.848364 0.538774 0.136630
0.912038 0.556529 0.134787
0.966320 0.567538 0.134157
0.038538 0.506538 0.094791
0.086351 0.502529 0.100875
0.131232 0.503158 0.097696
0.178354 0.510282 0.101588
0.228322 0.517162 0.101512
0.283527 0.530159 0.103437
0.356743 0.545853 0.106989
0.449616 0.564660 0.111070
0.527715 0.553148 0.113918
0.599237 0.530849 0.112634
0.662018 0.537724 0.118713
0.728885 0.550261 0.129319
0.788609 0.572615 0.130373
0.848362 0.593973 0.131814
0.914440 0.614842 0.138153
0.968447 0.624302 0.134242
0.042090 0.577193 0.105594
0.093515 0.573799 0.106994
0.136240 0.567914 0.108737
0.180590 0.576123 0.106880
0.235952 0.587472 0.110844
0.293501 0.598027 0.115944
0.368632 0.611683 0.116961
0.453641 0.626212 0.121274
0.529359 0.628833 0.121268
0.607200 0.609051 0.114215
0.669779 0.598739 0.120097
0.732552 0.611883 0.126138
0.786096 0.622757 0.133622
0.844593 0.648838 0.130327
0.909323 0.670994 0.133591
0.965828 0.684836 0.131560
0.049827 0.651788 0.113784
0.094957 0.648413 0.116252
0.139885 0.649841 0.117137
0.183414 0.647803 0.116487
0.237970 0.660210 0.117307
0.301169 0.671741 0.120200
0.372414 0.682955 0.127097
0.460230 0.693245 0.129006
0.542071 0.700260 0.129000
0.609665 0.699557 0.124195
0.670977 0.680175 0.124968
0.736106 0.674663 0.126353
0.793242 0.689508 0.133609
0.848453 0.705498 0.129186
0.911697 0.726353 0.130155
0.964655 0.737767 0.127497
0.058397 0.732553 0.119383
0.095098 0.722399 0.122595
0.144866 0.722397 0.122128
0.189837 0.725851 0.124951
0.247430 0.732506 0.122239
0.305790 0.743869 0.122055
0.378284 0.751589 0.121076
0.466341 0.762729 0.135359
0.548873 0.766485 0.137844
0.617289 0.773113 0.137352
0.673973 0.770966 0.137146
0.737411 0.756644 0.126418
0.792901 0.742943 0.129982
0.852250 0.762163 0.124928
0.914137 0.781106 0.129681
0.964562 0.797589 0.126495
0.058800 0.810534 0.128303
0.102904 0.804888 0.128032
0.153608 0.808516 0.130170
0.200933 0.811893 0.130243
0.256998 0.819353 0.124744
0.324593 0.825522 0.127628
0.406364 0.829763 0.134648
0.485049 0.836923 0.135788
0.560374 0.838375 0.143158
0.634587 0.846713 0.150521
0.700268 0.847924 0.154519
0.760266 0.842640 0.152316
0.806155 0.828137 0.137431
0.852358 0.823238 0.127340
0.918084 0.838660 0.130577
0.964596 0.858605 0.133521
0.063566 0.893248 0.134615
0.111346 0.895000 0.142638
0.158837 0.897970 0.135846
0.211273 0.898227 0.133580
0.280422 0.905029 0.141938
0.341756 0.908782 0.137003
0.422501 0.912963 0.146036
0.501743 0.915850 0.146827
0.576950 0.915850 0.154161
0.643987 0.918797 0.161792
0.713009 0.922193 0.162604
0.773219 0.920261 0.163185
0.830673 0.920241 0.165897
0.874848 0.909766 0.150408
0.916419 0.905569 0.138588
0.972057 0.923350 0.137910
0.073941 0.964484 0.142989
0.114426 0.960939 0.142053
0.168019 0.968877 0.141595
0.228689 0.972284 0.135043
0.287626 0.972294 0.143077
0.355360 0.972371 0.145953
0.431248 0.972426 0.147500
0.510339 0.972363 0.149998
0.589268 0.972344 0.155809
0.655558 0.972363 0.157862
0.722825 0.972508 0.160409
0.787725 0.972363 0.164561
0.845473 0.972362 0.168557
0.891025 0.968967 0.165698
0.932070 0.972460 0.154377
0.972323 0.972285 0.157738
0.011847 0.007848 0.031587
0.039464 0.003947 0.027686
0.090573 0.003993 0.023826
0.143452 0.011547 0.038513
0.202162 0.015700 0.049492
0.260294 0.022106 0.062395
0.330225 0.030993 0.082945
0.399775 0.041236 0.109306
0.480277 0.062832 0.133710
0.559058 0.072824 0.154193
0.628852 0.081210 0.162654
0.697627 0.088749 0.170656
0.766086 0.101184 0.176789
0.842410 0.115236 0.186004
0.911070 0.130258 0.188088
0.968423 0.133300 0.187432
0.003947 0.027619 0.031563
0.051852 0.016349 0.027683
0.102093 0.019837 0.027686
0.147570 0.027411 0.038466
0.203012 0.034984 0.052973
0.266205 0.048493 0.070212
0.336707 0.059161 0.085730
0.409859 0.081839 0.114520
0.479397 0.099176 0.137884
0.555947 0.116748 0.151872
0.631573 0.127356 0.168420
0.701426 0.132758 0.169451
0.772889 0.145148 0.177351
0.844408 0.153232 0.189086
0.911922 0.175094 0.189129
0.957401 0.181253 0.190590
0.003993 0.051327 0.023780
0.047909 0.035667 0.027730
0.094472 0.031772 0.027731
0.150737 0.042817 0.038778
0.213478 0.057572 0.056615
0.268562 0.078416 0.071806
0.336853 0.097537 0.087826
0.406150 0.124578 0.113650
0.483295 0.149504 0.145559
0.568386 0.164310 0.160419
0.633822 0.166240 0.167754
0.700447 0.171701 0.175577
0.769278 0.187680 0.180680
0.844553 0.205688 0.188434
0.911044 0.218566 0.189314
0.964608 0.227734 0.188434
0.007800 0.100005 0.038353
0.048058 0.095423 0.042112
0.094334 0.076892 0.035136
0.143522 0.077324 0.039022
0.206222 0.097644 0.053531
0.267415 0.123910 0.066743
0.331572 0.143716 0.087805
0.402881 0.165896 0.109970
0.480308 0.190950 0.145559
0.565184 0.205333 0.160457
0.636602 0.209307 0.170431
0.707346 0.220362 0.176511
0.773002 0.227437 0.180676
0.844553 0.244621 0.188434
0.911928 0.265283 0.189132
0.968457 0.273675 0.187922
0.011800 0.168953 0.052340
0.055207 0.161027 0.052644
0.108450 0.150249 0.052734
0.149606 0.152925 0.049619
0.206367 0.148612 0.054752
0.269777 0.162965 0.067964
0.342040 0.191434 0.092924
0.419966 0.220172 0.116153
0.495647 0.244026 0.145559
0.572044 0.255003 0.160418
0.640002 0.261781 0.164511
0.711644 0.274591 0.174821
0.777424 0.288292 0.184131
0.844553 0.295730 0.186447
0.911080 0.316372 0.183939
0.964589 0.327645 0.185391
0.016058 0.236429 0.069469
0.059895 0.222539 0.066543
0.116366 0.221291 0.067947
0.153884 0.215291 0.064420
0.208603 0.223533 0.069824
0.275249 0.225553 0.069280
0.344795 0.239143 0.089535
0.421825 0.269624 0.119117
0.498896 0.290768 0.145525
0.577661 0.311623 0.160118
0.645990 0.317755 0.171097
0.713987 0.327307 0.176143
0.777560 0.343336 0.180236
0.844557 0.362780 0.180998
0.911133 0.383470 0.185329
0.961858 0.389910 0.187256
0.019600 0.298896 0.084424
0.064106 0.289652 0.085131
0.113961 0.288175 0.083872
0.156635 0.286425 0.083897
0.211369 0.294035 0.085380
0.273699 0.302680 0.089740
0.348319 0.300464 0.097373
0.430397 0.324664 0.121443
0.505157 0.343907 0.146718
0.583363 0.358888 0.160372
0.653238 0.371570 0.170381
0.718547 0.384882 0.176766
0.782904 0.400915 0.180428
0.848045 0.424732 0.182407
0.909160 0.446799 0.180373
0.968418 0.458845 0.184534
0.023704 0.365346 0.100430
0.072850 0.361546 0.100607
0.118765 0.358166 0.104956
0.160731 0.358212 0.105002
0.216826 0.367311 0.104919
0.276971 0.376181 0.110779
0.355293 0.381512 0.114460
0.443803 0.385516 0.126803
0.526739 0.401139 0.150050
0.594870 0.413624 0.164602
0.657784 0.421912 0.168963
0.723840 0.438254 0.172529
0.789037 0.458445 0.180121
0.850048 0.483079 0.183017
0.911928 0.502228 0.177919
0.964562 0.516416 0.182784
0.028456 0.442947 0.120917
0.079260 0.431421 0.122040
0.125809 0.428368 0.122224
0.167289 0.428440 0.126051
0.218731 0.438486 0.126052
0.286062 0.451293 0.135465
0.358976 0.471308 0.141559
0.442620 0.460544 0.139013
0.526320 0.463624 0.149576
0.605050 0.469033 0.164411
0.665078 0.479386 0.171556
0.725058 0.487821 0.172825
0.787916 0.517387 0.176367
0.846012 0.535824 0.183047
0.914598 0.560303 0.184540
0.962706 0.569137 0.178676
0.031751 0.516792 0.141074
0.077005 0.509912 0.146320
0.132873 0.503237 0.147333
0.174124 0.509510 0.150216
0.226225 0.513624 0.147302
0.286709 0.525969 0.150211
0.361174 0.542300 0.153582
0.443596 0.559660 0.159726
0.520315 0.548913 0.159663
0.601106 0.533657 0.160961
0.665120 0.536666 0.165405
0.725089 0.552764 0.175493
0.785371 0.569332 0.176788
0.844553 0.593518 0.177367
0.911928 0.615660 0.184105
0.966831 0.624082 0.179095
0.041940 0.587326 0.152503
0.082890 0.580776 0.155469
0.134744 0.576533 0.159902
0.178750 0.574988 0.157178
0.227686 0.583947 0.156492
0.287548 0.596152 0.156486
0.354157 0.604559 0.157944
0.440585 0.620243 0.165264
0.527192 0.631322 0.167707
0.601950 0.616105 0.165403
0.664771 0.602579 0.167711
0.728558 0.609654 0.171608
0.785410 0.625855 0.176061
0.846652 0.649804 0.175911
0.911086 0.673449 0.180165
0.965858 0.682207 0.178115
0.041019 0.659952 0.161862
0.090147 0.653017 0.162997
0.136344 0.649416 0.167629
0.185019 0.646111 0.160791
0.235390 0.655284 0.162743
0.300434 0.668721 0.163790
0.367555 0.676983 0.166901
0.449287 0.688382 0.169650
0.531626 0.696692 0.175577
0.609929 0.699271 0.174479
0.671083 0.685450 0.169121
0.736634 0.677674 0.172386
0.790128 0.686067 0.172782
0.848453 0.703610 0.177973
0.912443 0.725674 0.177598
0.967373 0.737664 0.176734
0.047407 0.733323 0.164599
0.094749 0.729184 0.172328
0.144936 0.725760 0.172332
0.191555 0.725424 0.165559
0.242823 0.729523 0.168419
0.307056 0.738608 0.168669
0.377706 0.747601 0.170764
0.456183 0.759038 0.174303
0.545435 0.765321 0.185152
0.617498 0.765733 0.184178
0.677924 0.764248 0.183432
0.737890 0.749763 0.172788
0.792945 0.742626 0.175960
0.848453 0.762846 0.174356
0.911766 0.783704 0.178194
0.965355 0.797480 0.176780
0.049000 0.816120 0.171875
0.100434 0.815843 0.176584
0.146898 0.810046 0.178269
0.196910 0.812175 0.174356
0.258033 0.816036 0.172784
0.315396 0.822055 0.176427
0.393731 0.829372 0.181152
0.469786 0.833111 0.182235
0.554376 0.841620 0.191025
0.626992 0.844465 0.198800
0.694560 0.846099 0.200710
0.750701 0.844950 0.200231
0.802560 0.834332 0.183076
0.851431 0.824451 0.175292
0.914970 0.847282 0.180812
0.964609 0.858529 0.176814
0.059411 0.897108 0.186907
0.102978 0.897257 0.185525
0.158027 0.900160 0.186299
0.212897 0.901008 0.180851
0.270180 0.898135 0.183266
0.336751 0.905155 0.183168
0.416065 0.908886 0.188841
0.493462 0.912808 0.193342
0.572227 0.915850 0.194574
0.640876 0.916278 0.205279
0.709970 0.918933 0.211558
0.772718 0.918908 0.212200
0.828101 0.921075 0.210633
0.873108 0.906454 0.199751
0.918855 0.904683 0.184894
0.972039 0.922991 0.180363
0.058280 0.961143 0.196372
0.102649 0.964626 0.188113
0.164897 0.968384 0.188527
0.223685 0.968936 0.188401
0.288390 0.972284 0.188480
0.347917 0.970815 0.191240
0.428953 0.974787 0.191440
0.502067 0.972341 0.200195
0.582953 0.972343 0.200258
0.647600 0.972363 0.204860
0.721191 0.976323 0.208096
0.784751 0.973434 0.210976
0.845341 0.969332 0.212042
0.891431 0.968514 0.212034
0.935621 0.976004 0.208254
0.972317 0.972323 0.207879
0.015700 0.015442 0.065403
0.050317 0.011621 0.057841
0.100452 0.011535 0.061403
0.143528 0.011782 0.051172
0.198630 0.015700 0.070180
0.249008 0.022106 0.084572
0.318921 0.034411 0.110936
0.394709 0.044938 0.139686
0.469104 0.061444 0.167110
0.554994 0.073838 0.194259
0.627538 0.083611 0.202617
0.700354 0.089027 0.211457
0.768191 0.101184 0.217011
0.844222 0.116811 0.232007
0.911110 0.130443 0.236592
0.966115 0.134100 0.237661
0.007888 0.034870 0.061750
0.051722 0.031160 0.057488
0.093927 0.024019 0.050457
0.139906 0.020510 0.054349
0.195525 0.030453 0.071547
0.252935 0.044804 0.094317
0.321650 0.066059 0.120100
0.390521 0.081222 0.138914
0.468019 0.103190 0.171708
0.553361 0.117635 0.188619
0.630715 0.129093 0.205167
0.701688 0.136084 0.212517
0.766782 0.145550 0.214774
0.840719 0.158859 0.228986
0.908035 0.175100 0.233635
0.965281 0.181253 0.236703
0.011535 0.061681 0.054021
0.044355 0.053892 0.050457
0.101876 0.042864 0.053862
0.143769 0.043253 0.054393
0.209745 0.057572 0.078496
0.261384 0.074500 0.095701
0.326630 0.097494 0.114430
0.407418 0.125530 0.149260
0.486263 0.152427 0.183109
0.561991 0.164316 0.198604
0.632041 0.171621 0.206021
0.706425 0.181679 0.217270
0.773002 0.191946 0.226489
0.848094 0.205643 0.229471
0.910284 0.221573 0.232314
0.964575 0.227734 0.234481
0.007800 0.107970 0.054349
0.044204 0.099863 0.057999
0.090768 0.084678 0.054149
0.143313 0.077332 0.058025
0.209678 0.098434 0.076029
0.267066 0.119883 0.092974
0.331129 0.142753 0.115802
0.405940 0.170637 0.143925
0.486954 0.194697 0.183608
0.565804 0.206084 0.208694
0.638919 0.216885 0.214000
0.708094 0.222092 0.220700
0.773643 0.229706 0.222426
0.844553 0.241262 0.228405
0.911123 0.262082 0.226197
0.968425 0.265403 0.226197
0.008267 0.179749 0.074455
0.048395 0.175669 0.081868
0.094437 0.170873 0.074864
0.143720 0.153682 0.072216
0.203229 0.154910 0.079774
0.268715 0.173534 0.096837
0.336579 0.195800 0.120987
0.409336 0.226880 0.151345
0.490033 0.246671 0.182209
0.566056 0.257374 0.204965
0.636811 0.264801 0.212855
0.705563 0.275712 0.216894
0.770592 0.286498 0.221801
0.844553 0.295769 0.226410
0.911928 0.312293 0.229775
0.968432 0.316985 0.229465
0.012340 0.250990 0.100577
0.052765 0.240096 0.096078
0.105593 0.233078 0.097830
0.156209 0.221550 0.093036
0.208154 0.227020 0.099780
0.269415 0.223219 0.099454
0.338216 0.240343 0.116517
0.420556 0.273562 0.156229
0.498948 0.296308 0.185087
0.577621 0.308823 0.201794
0.641715 0.316171 0.212438
0.711082 0.330050 0.220814
0.776229 0.344847 0.218542
0.847486 0.355867 0.225959
0.911070 0.371765 0.225996
0.964499 0.383396 0.225350
0.018041 0.318637 0.121426
0.061947 0.303394 0.121371
0.108715 0.293462 0.115519
0.158998 0.290275 0.117458
0.208669 0.294908 0.117273
0.270471 0.302351 0.118967
0.345789 0.303323 0.125321
0.424011 0.321454 0.153010
0.504153 0.346421 0.187123
0.581365 0.358044 0.201683
0.648381 0.369744 0.207878
0.717278 0.382660 0.218710
0.777892 0.399681 0.221945
0.845310 0.422260 0.225939
0.910937 0.445546 0.222774
0.964641 0.452857 0.222241
0.024430 0.389237 0.144621
0.064140 0.375238 0.144290
0.111082 0.365218 0.140661
0.159967 0.369475 0.147339
0.212869 0.362415 0.139271
0.271084 0.374218 0.145440
0.344492 0.385862 0.154669
0.427013 0.381465 0.155927
