src/colors/cinematic_&_blockbuster/cool_cinema.cube
LUT_3D_SIZE 6
0.003900 0.000000 0.000000
0.151087 0.007800 0.007800
0.340901 0.030993 0.029246
0.565845 0.069938 0.069938
0.769671 0.097597 0.093295
0.964562 0.137260 0.098040
0.007800 0.076845 0.003900
0.151087 0.077574 0.007783
0.340901 0.141230 0.025291
0.574811 0.204308 0.073838
0.779981 0.231228 0.097486
0.965342 0.275301 0.098000
0.027500 0.282046 0.021346
0.159473 0.288341 0.019305
0.356346 0.309051 0.032922
0.595008 0.355232 0.070600
0.789180 0.405410 0.090200
0.964562 0.456501 0.094100
0.042438 0.499245 0.058138
0.176847 0.510095 0.057880
0.367400 0.550173 0.069408
0.608366 0.535094 0.073288
0.789360 0.572544 0.090200
0.972323 0.624312 0.088642
0.061895 0.718358 0.081987
0.189180 0.725755 0.078289
0.387730 0.751816 0.081939
0.627444 0.769268 0.096590
0.793621 0.742260 0.089395
0.964562 0.797604 0.089418
0.070600 0.964484 0.094100
0.223541 0.972284 0.090980
0.433800 0.972363 0.099600
0.654209 0.972363 0.116003
0.845486 0.972363 0.121600
0.968462 0.972284 0.117483
0.015700 0.015442 0.065403
0.143528 0.011782 0.051172
0.318921 0.034411 0.110936
0.554994 0.073838 0.194259
0.768191 0.101184 0.217011
0.966115 0.134100 0.237661
0.007800 0.107970 0.054349
0.143313 0.077332 0.058025
0.331129 0.142753 0.115802
0.565804 0.206084 0.208694
0.773643 0.229706 0.222426
0.968425 0.265403 0.226197
0.018041 0.318637 0.121426
0.158998 0.290275 0.117458
0.345789 0.303323 0.125321
0.581365 0.358044 0.201683
0.777892 0.399681 0.221945
0.964641 0.452857 0.222241
0.031400 0.528224 0.188349
0.181337 0.510887 0.188877
0.354914 0.537091 0.198312
0.597907 0.535724 0.205596
0.786402 0.566726 0.222722
0.964578 0.626996 0.223592
0.046687 0.740781 0.215934
0.189851 0.726133 0.213873
0.374829 0.742496 0.212513
0.611140 0.759368 0.229436
0.789580 0.745911 0.217669
0.964609 0.799978 0.221138
0.050220 0.966076 0.261150
0.209995 0.968386 0.230077
0.419005 0.972287 0.234954
0.639791 0.972363 0.247726
0.841395 0.972363 0.249740
0.964820 0.968678 0.245719
0.023500 0.067984 0.297339
0.139686 0.047120 0.279110
0.289933 0.045449 0.265364
0.504149 0.084297 0.327332
0.751870 0.123119 0.362663
0.972323 0.160020 0.398461
0.015700 0.197282 0.286021
0.139764 0.188517 0.294861
0.292709 0.158177 0.266383
0.517829 0.223735 0.336412
0.761205 0.260697 0.364668
0.969673 0.284750 0.387481
0.012764 0.350430 0.282768
0.119682 0.331936 0.286574
0.302198 0.320492 0.296762
0.568232 0.366095 0.351681
0.776112 0.390845 0.360605
0.968433 0.411866 0.349570
0.022789 0.590146 0.386798
0.139230 0.566457 0.371504
0.318122 0.540796 0.349555
0.577986 0.542150 0.342900
0.782727 0.582165 0.347389
0.964555 0.624762 0.347824
0.029833 0.769305 0.424819
0.143438 0.752374 0.391478
0.343757 0.745334 0.361448
0.587617 0.761650 0.371806
0.783605 0.746817 0.343364
0.964562 0.796500 0.344221
0.033740 0.974699 0.488622
0.141129 0.969833 0.442829
0.364860 0.975314 0.379714
0.615914 0.976345 0.393044
0.831165 0.977756 0.394468
0.968484 0.972263 0.390304
0.027500 0.165934 0.542345
0.153152 0.129817 0.519510
0.275760 0.114091 0.488921
0.455135 0.101533 0.448432
0.732553 0.132564 0.482677
0.976323 0.194502 0.630531
0.023914 0.309064 0.536658
0.147686 0.292922 0.544764
0.278152 0.253135 0.504332
0.462092 0.243683 0.459898
0.736579 0.269000 0.493994
0.976324 0.332355 0.629118
0.020973 0.441698 0.533834
0.123016 0.430589 0.535732
0.259667 0.426034 0.553702
0.499157 0.385050 0.501545
0.755136 0.422501 0.550397
0.980987 0.458698 0.613457
0.018938 0.579858 0.533390
0.102799 0.572771 0.533939
0.231516 0.572044 0.541207
0.528739 0.579494 0.555675
0.780383 0.603942 0.553014
0.976912 0.601080 0.528144
0.018524 0.780384 0.607573
0.096203 0.786625 0.612441
0.235325 0.776488 0.595634
0.540058 0.768435 0.545663
0.781332 0.765236 0.514075
0.972363 0.795339 0.500542
0.017258 0.974765 0.691012
0.092598 0.972363 0.666652
0.236097 0.974107 0.638020
0.562538 0.979674 0.539493
0.807674 0.980257 0.536756
0.976355 0.972990 0.529770
0.023913 0.241892 0.745758
0.143879 0.212333 0.736100
0.285434 0.196812 0.725758
0.426512 0.182679 0.697470
0.701926 0.164978 0.678990
0.979410 0.203079 0.797580
0.023208 0.387402 0.749668
0.128763 0.365854 0.750067
0.279532 0.330329 0.728699
0.428469 0.317717 0.708228
0.713206 0.307719 0.697517
0.980184 0.339602 0.796028
0.017450 0.515431 0.743788
0.110734 0.503171 0.747587
0.243670 0.484938 0.756494
0.432109 0.458546 0.738773
0.728585 0.439662 0.722336
0.978702 0.472855 0.800445
0.011729 0.646370 0.741927
0.092298 0.635185 0.748770
0.213356 0.630743 0.751686
0.420246 0.622039 0.771782
0.759669 0.614692 0.741385
0.980262 0.648907 0.788193
0.007758 0.774341 0.746045
0.073758 0.769822 0.750156
0.185172 0.770203 0.750898
0.405856 0.770702 0.768510
0.780012 0.812214 0.734058
0.984516 0.816413 0.733687
0.007026 0.961436 0.830596
0.058869 0.962347 0.830221
0.175530 0.972344 0.826816
0.372808 0.971915 0.808274
0.771791 0.983801 0.718760
0.976761 0.980220 0.702566
0.023500 0.298000 0.960623
0.147500 0.273689 0.954335
0.309841 0.257201 0.962939
0.443192 0.254861 0.962166
0.743642 0.251743 0.976283
0.980184 0.223461 0.972324
0.019569 0.451761 0.964523
0.127863 0.422414 0.968165
0.283543 0.402050 0.961997
0.440771 0.386767 0.964520
0.739457 0.386569 0.975435
0.980220 0.359245 0.972358
0.018040 0.596002 0.964507
0.099760 0.571033 0.964560
0.230148 0.536961 0.966492
0.421610 0.519538 0.972284
0.753256 0.512019 0.980198
0.976323 0.488583 0.974454
0.011800 0.721530 0.964523
0.080987 0.709121 0.964526
0.197629 0.694279 0.968423
0.364610 0.651572 0.968423
0.745375 0.665926 0.977425
0.980223 0.650248 0.976322
0.004713 0.846288 0.962210
0.055200 0.841210 0.962470
0.163731 0.833985 0.964541
0.335336 0.815738 0.964653
0.713660 0.816410 0.979825
0.976796 0.817169 0.976717
0.003900 0.956762 0.960701
0.038468 0.952839 0.964598
0.141386 0.960662 0.964562
0.316301 0.957450 0.964523
0.706870 0.968572 0.979790
0.980301 0.984240 0.972324
