src/colors/cinematic_&_blockbuster/dreamy_cinema.cube
LUT_3D_SIZE 6
0.000000 0.000000 0.000000
0.130591 0.027997 0.002094
0.328003 0.048773 0.000000
0.516516 0.080847 0.006689
0.737677 0.114398 0.039343
0.913074 0.181936 0.056607
0.000000 0.106494 0.011023
0.192078 0.116819 0.000000
0.410947 0.130279 0.000000
0.620082 0.178457 0.016611
0.833184 0.250099 0.024386
0.973439 0.337524 0.014180
0.000000 0.209168 0.009033
0.192133 0.272061 0.000000
0.497904 0.224676 0.001204
0.703194 0.255381 0.024990
0.882457 0.336264 0.024417
0.998143 0.438398 0.021750
0.000000 0.319195 0.021704
0.220426 0.400306 0.012677
0.518983 0.473262 0.044083
0.765261 0.398956 0.021193
0.920340 0.448507 0.027694
1.000000 0.559265 0.051110
0.025183 0.471924 0.048499
0.300737 0.575657 0.039302
0.564697 0.665107 0.041831
0.763077 0.726698 0.078436
0.928490 0.667337 0.070567
1.000000 0.706940 0.085946
0.080029 0.655633 0.084606
0.432540 0.753545 0.068895
0.635715 0.821990 0.067773
0.810507 0.882211 0.086124
0.932879 0.922840 0.114910
1.000000 0.868223 0.110421
0.000000 0.020623 0.104041
0.054648 0.049920 0.102802
0.251908 0.073298 0.099845
0.450150 0.117745 0.120293
0.743906 0.170463 0.117157
0.940871 0.246741 0.107746
0.000000 0.102375 0.139496
0.066240 0.155692 0.174619
0.343954 0.207234 0.172027
0.619700 0.237569 0.138518
0.857950 0.304540 0.116946
0.993780 0.387858 0.109858
0.000000 0.294953 0.251030
0.061666 0.307217 0.194618
0.425500 0.314078 0.111115
0.673241 0.353460 0.131419
0.874012 0.463167 0.130489
0.994598 0.562979 0.148808
0.013121 0.441884 0.287228
0.077364 0.433707 0.192970
0.391508 0.515296 0.140933
0.729105 0.517761 0.105937
0.904313 0.583133 0.139707
0.999953 0.672887 0.156086
0.034124 0.570508 0.294609
0.123155 0.604421 0.219378
0.450852 0.692841 0.216332
0.741139 0.769607 0.148366
0.929689 0.752990 0.142610
1.000000 0.782029 0.171915
0.073965 0.702182 0.357202
0.290226 0.803124 0.279993
0.577620 0.848288 0.303489
0.776777 0.900399 0.292996
0.928959 0.944510 0.193143
1.000000 0.905695 0.164305
0.000000 0.070728 0.209576
0.004578 0.089021 0.202079
0.136455 0.113593 0.193622
0.397103 0.137738 0.174434
0.677579 0.210033 0.203271
0.896360 0.322563 0.257798
0.000000 0.132863 0.250918
0.031216 0.179730 0.305788
0.183821 0.226620 0.290518
0.514108 0.296856 0.284284
0.787949 0.394366 0.325316
0.964770 0.472895 0.345143
0.000000 0.210289 0.286456
0.048773 0.274139 0.351898
0.206158 0.354929 0.391704
0.604236 0.448423 0.385886
0.853430 0.533174 0.408139
0.990365 0.604170 0.426967
0.030886 0.433214 0.457796
0.077845 0.519652 0.517471
0.210091 0.556759 0.443059
0.679470 0.601405 0.334734
0.881902 0.670174 0.426557
0.999694 0.742394 0.428613
0.075054 0.687314 0.649805
0.117585 0.700307 0.592547
0.320835 0.712963 0.453329
0.694904 0.790526 0.425408
0.923993 0.807260 0.253941
1.000000 0.831973 0.347618
0.103737 0.822760 0.696525
0.167104 0.812752 0.560404
0.509929 0.881010 0.463100
0.760627 0.916060 0.481618
0.923030 0.957937 0.419242
1.000000 0.931787 0.211559
0.000000 0.127960 0.331549
0.008080 0.140651 0.315294
0.050536 0.157346 0.307085
0.255010 0.182715 0.278365
0.633454 0.231805 0.255683
0.866053 0.344549 0.316395
0.000000 0.190559 0.381509
0.033299 0.235510 0.447558
0.086476 0.259095 0.439051
0.383975 0.332279 0.398114
0.732040 0.412657 0.397718
0.922599 0.524407 0.492435
0.005089 0.239862 0.421082
0.048557 0.296347 0.490822
0.121605 0.360304 0.557595
0.477924 0.478736 0.526285
0.795865 0.575367 0.554082
0.960311 0.653008 0.611329
0.024275 0.333174 0.471790
0.068676 0.401170 0.544426
0.150673 0.491457 0.621912
0.562488 0.649300 0.649834
0.858421 0.727010 0.658317
0.991928 0.776711 0.677332
0.075550 0.588647 0.670114
0.115666 0.660263 0.731673
0.195822 0.742846 0.785668
0.638073 0.812355 0.669331
0.907119 0.848020 0.586564
0.999995 0.873127 0.642786
0.121578 0.809375 0.847564
0.158998 0.852289 0.872056
0.255347 0.899825 0.830409
0.741925 0.939523 0.656302
0.911101 0.969665 0.645686
1.000000 0.954164 0.448784
0.000000 0.210400 0.508368
0.028881 0.219879 0.488245
0.050161 0.225808 0.465964
0.115914 0.254519 0.458325
0.549533 0.295990 0.346156
0.838248 0.372434 0.384894
0.015790 0.273406 0.559059
0.053350 0.320030 0.624725
0.082661 0.333733 0.616160
0.185492 0.373754 0.594568
0.667958 0.471365 0.527106
0.895942 0.547190 0.579995
0.028471 0.322086 0.596936
0.067685 0.377215 0.663864
0.115453 0.428846 0.722640
0.276195 0.490579 0.710535
0.746524 0.602498 0.667111
0.933414 0.675681 0.714258
0.043226 0.381403 0.640570
0.083272 0.443263 0.704806
0.142371 0.514258 0.767609
0.412857 0.630076 0.803243
0.823778 0.740404 0.774710
0.967878 0.793382 0.803474
0.067942 0.503415 0.701050
0.107285 0.562804 0.757983
0.180435 0.635067 0.814671
0.473792 0.753104 0.845474
0.876953 0.877030 0.835621
0.999582 0.899963 0.840823
0.115149 0.697218 0.832448
0.150220 0.744191 0.870704
0.195566 0.792345 0.906922
0.401873 0.909244 0.945108
0.897933 0.977336 0.833695
1.000000 0.973676 0.767451
0.026110 0.309042 0.692930
0.053207 0.317519 0.677635
0.073780 0.324353 0.663976
0.107923 0.338725 0.647943
0.373289 0.433637 0.652527
0.795172 0.471177 0.582803
0.041037 0.366878 0.731134
0.075017 0.406607 0.780331
0.097158 0.419542 0.783537
0.157031 0.449291 0.776945
0.524151 0.561009 0.775315
0.862393 0.581297 0.712967
0.052698 0.411669 0.760620
0.088235 0.456665 0.807931
0.117675 0.490290 0.844346
0.206601 0.534052 0.851531
0.651471 0.665651 0.854566
0.910145 0.673134 0.803332
0.066285 0.461469 0.791848
0.102644 0.510303 0.837692
0.136909 0.555308 0.874684
0.295194 0.635648 0.903674
0.764355 0.783827 0.910241
0.948935 0.789379 0.879384
0.084632 0.540692 0.830834
0.120458 0.591010 0.871167
0.165581 0.642369 0.905768
0.347455 0.727042 0.929343
0.838230 0.883584 0.942785
0.984252 0.898534 0.924421
0.109063 0.648263 0.871676
0.143621 0.690860 0.905516
0.202002 0.739530 0.936908
0.393857 0.816797 0.955390
0.856116 0.959327 0.971653
0.999857 0.998100 0.942549
