src/colors/cinematic_&_blockbuster/dreamy_cinema.cube
LUT_3D_SIZE 16
0.000000 0.000000 0.000000
0.001617 0.000250 0.000000
0.059216 0.012587 0.000767
0.130591 0.027997 0.002094
0.199452 0.036684 0.000000
0.265727 0.042938 0.000000
0.328003 0.048773 0.000000
0.385073 0.057322 0.000000
0.446468 0.068722 0.000000
0.516516 0.080847 0.006689
0.591309 0.091980 0.017558
0.665643 0.102364 0.028176
0.737677 0.114398 0.039343
0.802722 0.130851 0.049455
0.859999 0.154783 0.055784
0.913074 0.181936 0.056607
0.000000 0.024172 0.007822
0.002191 0.032517 0.004099
0.071905 0.042689 0.007736
0.144942 0.054475 0.007131
0.218921 0.064185 0.001003
0.287084 0.070469 0.000000
0.351099 0.077729 0.000000
0.412361 0.087619 0.000000
0.478657 0.101337 0.000067
0.551601 0.117377 0.008475
0.629777 0.135486 0.018605
0.706065 0.155118 0.025557
0.776947 0.176514 0.030067
0.841697 0.199251 0.031188
0.898473 0.222844 0.028117
0.945779 0.246645 0.022798
0.000000 0.070044 0.012805
0.002383 0.083169 0.013423
0.085578 0.079131 0.000000
0.174197 0.080171 0.000762
0.248664 0.087347 0.000000
0.316335 0.094665 0.000000
0.380031 0.104190 0.000000
0.443708 0.117231 0.000000
0.513274 0.132846 0.002532
0.587204 0.150416 0.011914
0.663832 0.170833 0.019469
0.739481 0.193624 0.023910
0.809844 0.218133 0.025352
0.870327 0.243573 0.022752
0.921023 0.270358 0.018286
0.962722 0.297881 0.014447
0.000000 0.106494 0.011023
0.001848 0.126797 0.015136
0.076070 0.136752 0.000000
0.192078 0.116819 0.000000
0.279894 0.111273 0.000000
0.347848 0.118278 0.000000
0.410947 0.130279 0.000000
0.477215 0.144182 0.001213
0.546339 0.159983 0.008685
0.620082 0.178457 0.016611
0.696214 0.200486 0.022158
0.768299 0.224465 0.024911
0.833184 0.250099 0.024386
0.889393 0.277644 0.021381
0.936069 0.306961 0.017866
0.973439 0.337524 0.014180
0.000000 0.142587 0.010010
0.001323 0.162726 0.016134
0.060051 0.184932 0.000000
0.194259 0.179242 0.000000
0.296709 0.152288 0.000000
0.377126 0.146549 0.000000
0.445178 0.155496 0.000127
0.509905 0.169176 0.006263
0.577646 0.185364 0.014244
0.648814 0.204303 0.020846
0.722837 0.226859 0.024677
0.791569 0.251920 0.026251
0.852654 0.278692 0.025127
0.904542 0.307930 0.021169
0.948005 0.339815 0.017706
0.983190 0.372352 0.015666
0.000000 0.175792 0.009694
0.001295 0.192963 0.016348
0.055847 0.222935 0.000000
0.191996 0.231411 0.000000
0.305577 0.217337 0.000000
0.399339 0.187066 0.000000
0.474445 0.184001 0.000887
0.541811 0.194305 0.009669
0.608160 0.210098 0.018272
0.676798 0.229771 0.023907
0.746935 0.253079 0.026638
0.811561 0.278909 0.026813
0.868522 0.307082 0.025159
0.917701 0.337837 0.021185
0.957893 0.371240 0.018291
0.990879 0.405391 0.017471
0.000000 0.209168 0.009033
0.002346 0.226021 0.016691
0.060253 0.253494 0.000000
0.192133 0.272061 0.000000
0.308756 0.282997 0.005542
0.410988 0.255318 0.003381
0.497904 0.224676 0.001204
0.569792 0.223747 0.010256
0.637390 0.236278 0.019726
0.703194 0.255381 0.024990
0.768872 0.279179 0.027207
0.829469 0.306535 0.026810
0.882457 0.336264 0.024417
0.928327 0.369016 0.021746
0.965920 0.404258 0.020259
0.998143 0.438398 0.021750
0.000000 0.242828 0.010706
0.007352 0.261548 0.017364
0.069543 0.286328 0.001555
0.196728 0.310449 0.000044
0.313448 0.333817 0.009195
0.411545 0.334552 0.020540
0.510551 0.299376 0.011258
0.593389 0.269062 0.008737
0.663349 0.269519 0.017635
0.729108 0.284634 0.024121
0.790906 0.307784 0.026337
0.847007 0.336770 0.025908
0.895757 0.368592 0.024240
0.937274 0.403809 0.023712
0.972853 0.440716 0.025215
0.999906 0.475581 0.029381
0.000000 0.278933 0.014941
0.013440 0.300451 0.018926
0.080887 0.324995 0.008446
0.205772 0.352711 0.005118
0.319048 0.381148 0.010141
0.421904 0.399580 0.028421
0.507823 0.395756 0.032870
0.605358 0.358211 0.020698
0.684248 0.325614 0.014988
0.751346 0.325643 0.019760
0.812317 0.343001 0.023833
0.864354 0.371157 0.024987
0.908150 0.405647 0.025385
0.946110 0.444112 0.027642
0.980561 0.481654 0.032959
0.999981 0.515895 0.039262
0.000000 0.319195 0.021704
0.021118 0.344125 0.023103
0.097899 0.370768 0.015857
0.220426 0.400306 0.012677
0.328210 0.431400 0.013460
0.435177 0.458572 0.028807
0.518983 0.473262 0.044083
0.598717 0.472237 0.046033
0.690625 0.435307 0.033185
0.765261 0.398956 0.021193
0.828125 0.396684 0.020488
0.878940 0.416961 0.023889
0.920340 0.448507 0.027694
0.954722 0.488066 0.034346
0.989100 0.524727 0.043344
1.000000 0.559265 0.051110
0.003275 0.366211 0.030324
0.031488 0.395006 0.029848
0.123634 0.423278 0.023626
0.242601 0.455597 0.020790
0.343662 0.487023 0.019611
0.445797 0.518090 0.027164
0.536910 0.541131 0.045168
0.608539 0.557976 0.056678
0.679593 0.559553 0.059573
0.764305 0.523863 0.048151
0.833001 0.487027 0.033193
0.885730 0.484771 0.029951
0.927368 0.505849 0.034725
0.962126 0.538644 0.043886
0.997165 0.572023 0.054001
1.000000 0.604828 0.062916
0.013940 0.417544 0.039189
0.044793 0.452609 0.037670
0.156653 0.480680 0.032226
0.269080 0.515009 0.029880
0.366032 0.546708 0.027978
0.459922 0.577194 0.029494
0.549841 0.605676 0.041925
0.627440 0.626705 0.058389
0.689658 0.644757 0.067632
0.752811 0.648029 0.072099
0.825386 0.612762 0.064759
0.883549 0.579398 0.051853
0.928798 0.579047 0.048892
0.967447 0.599294 0.055165
0.999203 0.626537 0.064768
1.000000 0.655094 0.074805
0.025183 0.471924 0.048499
0.066793 0.514062 0.044199
0.195285 0.542864 0.041162
0.300737 0.575657 0.039302
0.393444 0.607377 0.037689
0.480085 0.636253 0.037256
0.564697 0.665107 0.041831
0.642857 0.688750 0.056662
0.708859 0.708108 0.070640
0.763077 0.726698 0.078436
0.817385 0.731242 0.083520
0.877446 0.696279 0.080399
0.928490 0.667337 0.070567
0.971221 0.666173 0.068856
0.999489 0.682500 0.075188
1.000000 0.706940 0.085946
0.037691 0.531002 0.058333
0.113291 0.577516 0.051645
0.240432 0.606452 0.050324
0.339410 0.637943 0.048715
0.427981 0.667325 0.047234
0.508426 0.694672 0.046620
0.584885 0.720906 0.047550
0.658172 0.745133 0.056244
0.724778 0.764742 0.071510
0.783429 0.785554 0.082990
0.831701 0.804774 0.090019
0.878635 0.809012 0.095868
0.928341 0.775606 0.094445
0.972240 0.747003 0.087983
0.999605 0.746198 0.087783
1.000000 0.757153 0.093326
0.051607 0.591781 0.068363
0.177715 0.639438 0.060323
0.292504 0.667994 0.060073
0.386184 0.698261 0.058451
0.468207 0.725245 0.057342
0.540785 0.749676 0.056941
0.609923 0.772141 0.057587
0.676145 0.794104 0.061548
0.739061 0.814712 0.072942
0.799078 0.835999 0.086222
0.849703 0.855409 0.095554
0.890690 0.871542 0.102347
0.926994 0.874674 0.108401
0.972786 0.844196 0.106756
0.999667 0.816427 0.100788
1.000000 0.812078 0.104578
0.080029 0.655633 0.084606
0.235721 0.709971 0.070425
0.346388 0.726639 0.069801
0.432540 0.753545 0.068895
0.507897 0.777838 0.068143
0.574345 0.800839 0.067431
0.635715 0.821990 0.067773
0.693972 0.842284 0.069851
0.753421 0.863486 0.074621
0.810507 0.882211 0.086124
0.860455 0.898248 0.098864
0.899713 0.911247 0.107320
0.932879 0.922840 0.114910
0.963868 0.924362 0.122140
0.999127 0.898658 0.117687
1.000000 0.868223 0.110421
0.000000 0.000000 0.026894
0.000585 0.001155 0.029828
0.041737 0.017616 0.037813
0.108482 0.029522 0.040780
0.174172 0.043521 0.042438
0.237725 0.052829 0.042069
0.301680 0.060651 0.041638
0.369566 0.067692 0.040626
0.441591 0.075088 0.038198
0.513084 0.084557 0.038350
0.588960 0.096670 0.044793
0.666511 0.110864 0.053199
0.740063 0.128477 0.059612
0.808571 0.150410 0.064526
0.868149 0.173608 0.064308
0.921972 0.197934 0.060388
0.000000 0.015564 0.036208
0.001299 0.033537 0.048070
0.057425 0.054759 0.053261
0.132986 0.068497 0.052945
0.205527 0.079347 0.050287
0.276366 0.087729 0.046561
0.347395 0.094898 0.042035
0.421588 0.100667 0.035683
0.493934 0.107505 0.030440
0.566698 0.118960 0.033391
0.644990 0.134349 0.042040
0.721559 0.152480 0.048614
0.790742 0.173496 0.051040
0.852992 0.196052 0.049609
0.907082 0.219382 0.045484
0.952126 0.243531 0.037971
0.000000 0.081244 0.068882
0.001463 0.086919 0.065235
0.063714 0.093793 0.052014
0.149999 0.100139 0.056221
0.224031 0.110755 0.055475
0.296929 0.121141 0.050215
0.369539 0.128927 0.042607
0.444013 0.135435 0.033460
0.518150 0.143910 0.027420
0.594971 0.157962 0.029541
0.674999 0.177877 0.034907
0.753181 0.201203 0.037899
0.821727 0.226434 0.037217
0.880641 0.253683 0.033616
0.928842 0.283457 0.029400
0.968364 0.313832 0.026990
0.000000 0.131744 0.075210
0.000816 0.132750 0.063799
0.044547 0.147056 0.055330
0.170644 0.135533 0.037237
0.256269 0.136023 0.042259
0.328866 0.144887 0.040543
0.400099 0.153420 0.034445
0.471672 0.162181 0.027747
0.545361 0.174597 0.026120
0.623374 0.192347 0.029749
0.702195 0.215078 0.033455
0.776837 0.241605 0.033351
0.841785 0.271078 0.031975
0.894975 0.304130 0.030455
0.938905 0.339115 0.029712
0.975936 0.372725 0.032459
0.000000 0.172498 0.072002
0.000581 0.169489 0.059445
0.033271 0.192432 0.055130
0.158853 0.198152 0.030067
0.279536 0.174858 0.020974
0.365071 0.167741 0.021273
0.434724 0.174610 0.023038
0.500841 0.185915 0.025398
0.572151 0.200808 0.028950
0.649386 0.220456 0.033066
0.726445 0.245118 0.035254
0.797347 0.274372 0.034863
0.857934 0.306655 0.033434
0.907837 0.342062 0.032285
0.949145 0.379213 0.033271
0.984416 0.414231 0.039158
0.000000 0.207389 0.068237
0.000708 0.205068 0.057490
0.031831 0.230354 0.056360
0.140736 0.248167 0.032677
0.278797 0.243006 0.019899
0.382347 0.212238 0.017285
0.464457 0.202189 0.018768
0.533631 0.210877 0.025573
0.602028 0.226958 0.031778
0.674748 0.248147 0.035963
0.747925 0.274286 0.037443
0.814732 0.305460 0.036605
0.871007 0.339759 0.035984
0.918067 0.377232 0.036504
0.957408 0.415197 0.039172
0.992488 0.449615 0.045774
0.000000 0.240411 0.064627
0.002701 0.239439 0.058641
0.034682 0.266175 0.058150
0.133852 0.290840 0.032946
0.271670 0.298890 0.023915
0.385305 0.286883 0.027851
0.483708 0.251332 0.022305
0.563049 0.242229 0.025853
0.633194 0.254123 0.032659
0.700884 0.276421 0.037450
0.768077 0.304958 0.039124
0.829977 0.337818 0.038931
0.882490 0.373739 0.039623
0.926457 0.413365 0.042478
0.965004 0.451120 0.047459
0.998831 0.485812 0.054485
0.000000 0.273281 0.063488
0.008497 0.274188 0.060729
0.038885 0.301560 0.060071
0.134009 0.331789 0.033382
0.267088 0.343932 0.026389
0.382610 0.357221 0.036061
0.485529 0.335994 0.036571
0.581470 0.298567 0.029208
0.660038 0.291197 0.031785
0.727694 0.307820 0.036824
0.788775 0.337599 0.040171
0.844688 0.373867 0.042184
0.893124 0.411792 0.045516
0.934335 0.451591 0.050871
0.972705 0.488547 0.057190
0.999897 0.523554 0.064745
0.000000 0.309134 0.065499
0.014318 0.312190 0.062757
0.045212 0.341488 0.061243
0.142001 0.373833 0.036117
0.268607 0.389123 0.029611
0.384931 0.413881 0.036961
0.482529 0.422753 0.050555
0.582792 0.398285 0.047076
0.674991 0.361012 0.037126
0.749637 0.354729 0.036586
0.809850 0.376077 0.040598
0.859529 0.413119 0.046294
0.903124 0.453994 0.053373
0.943309 0.492764 0.061177
0.980411 0.528383 0.068277
0.999968 0.562967 0.075995
0.000000 0.349978 0.070625
0.020921 0.354516 0.065157
0.053216 0.390218 0.060040
0.158625 0.419860 0.040534
0.277285 0.437997 0.035163
0.388149 0.467162 0.037187
0.491159 0.491287 0.052833
0.576510 0.500078 0.063983
0.671105 0.477373 0.060233
0.757244 0.440023 0.048278
0.824617 0.435177 0.045162
0.874114 0.460259 0.051175
0.914127 0.498558 0.061475
0.953101 0.536535 0.071491
0.988116 0.571580 0.079683
1.000000 0.604999 0.087687
0.000133 0.395388 0.077859
0.028784 0.401788 0.068608
0.065423 0.444513 0.060208
0.181980 0.471738 0.047425
0.293259 0.493536 0.043205
0.396309 0.523006 0.041606
0.499041 0.553483 0.050503
0.588375 0.575533 0.067219
0.664669 0.587358 0.076785
0.749403 0.565722 0.075277
0.824783 0.529698 0.064062
0.880966 0.527859 0.061893
0.924205 0.551049 0.069477
0.963072 0.582984 0.080368
0.995856 0.616418 0.090909
1.000000 0.646966 0.099451
0.010057 0.443460 0.088309
0.039360 0.454255 0.076034
0.088490 0.504456 0.063562
0.211344 0.529036 0.055727
0.316981 0.553003 0.052734
0.413346 0.582056 0.050393
0.508458 0.613022 0.051706
0.601076 0.640579 0.064540
0.677368 0.661208 0.079822
0.743134 0.673807 0.088186
0.815101 0.651489 0.089455
0.878726 0.619734 0.081895
0.929481 0.618437 0.081606
0.970961 0.637573 0.089094
0.999218 0.664717 0.100228
1.000000 0.690414 0.109261
0.023815 0.491899 0.104519
0.052686 0.510928 0.087093
0.123109 0.568992 0.071625
0.249069 0.591468 0.065490
0.350338 0.614618 0.063209
0.440729 0.641855 0.061171
0.526952 0.670618 0.060244
0.614120 0.698888 0.065591
0.693436 0.721408 0.080497
0.757370 0.741847 0.092260
0.814789 0.754569 0.100297
0.875894 0.731838 0.103232
0.930534 0.702451 0.098110
0.975227 0.700287 0.099279
0.999588 0.715202 0.106691
1.000000 0.736013 0.117242
0.039951 0.541879 0.124311
0.070413 0.573705 0.103646
0.170007 0.640420 0.083205
0.293145 0.659826 0.079832
0.390263 0.677501 0.079116
0.474928 0.700174 0.076670
0.553646 0.725681 0.073974
0.631834 0.751371 0.075096
0.707851 0.775306 0.081841
0.776630 0.797753 0.095558
0.830754 0.818138 0.104650
0.878730 0.829223 0.113186
0.929112 0.805730 0.115213
0.975679 0.775373 0.111979
0.999764 0.772109 0.114643
1.000000 0.780164 0.122073
0.057905 0.588042 0.145410
0.092678 0.647776 0.123776
0.226816 0.710776 0.102275
0.345190 0.722972 0.105972
0.435596 0.739125 0.105805
0.513470 0.755582 0.105794
0.584569 0.776507 0.106342
0.653755 0.799145 0.098564
0.723657 0.823285 0.091187
0.790330 0.846227 0.097875
0.845670 0.865502 0.109084
0.887400 0.880688 0.116388
0.925249 0.888007 0.125143
0.970482 0.866939 0.125712
0.999612 0.837096 0.121761
1.000000 0.830129 0.127604
0.077077 0.634897 0.169940
0.139151 0.734970 0.141083
0.292457 0.767769 0.135700
0.398929 0.780649 0.143904
0.480524 0.792826 0.150754
0.549870 0.807163 0.154000
0.613582 0.826810 0.148561
0.676603 0.849482 0.130946
0.738754 0.871707 0.114243
0.798791 0.890833 0.107036
0.852655 0.906705 0.110068
0.896853 0.919600 0.120325
0.931861 0.930825 0.128950
0.963080 0.935929 0.139268
0.999009 0.914500 0.137248
1.000000 0.882645 0.130318
0.000000 0.004419 0.065450
0.000000 0.013979 0.065101
0.019367 0.027926 0.067052
0.093276 0.034457 0.068459
0.158030 0.045072 0.068893
0.213245 0.057934 0.074496
0.267121 0.069588 0.079710
0.326732 0.080954 0.084003
0.400353 0.093012 0.086098
0.490059 0.104251 0.085373
0.583031 0.114544 0.080002
0.667567 0.130728 0.078127
0.747658 0.151540 0.080460
0.820152 0.173755 0.080637
0.881826 0.196535 0.077915
0.932388 0.219753 0.071706
0.000000 0.026709 0.076577
0.000006 0.040821 0.087084
0.026221 0.057384 0.089490
0.103746 0.075767 0.093193
0.176279 0.089063 0.094540
0.240013 0.102004 0.097134
0.305758 0.113654 0.097848
0.379337 0.122620 0.095704
0.465180 0.129821 0.090419
0.557502 0.136659 0.081196
0.642845 0.147600 0.073380
0.722165 0.164897 0.071781
0.795426 0.185216 0.071414
0.859362 0.206938 0.068891
0.913903 0.230378 0.063955
0.957015 0.253598 0.056975
0.000000 0.060717 0.088268
0.000271 0.076953 0.101480
0.029359 0.093733 0.109171
0.117374 0.115694 0.111842
0.202298 0.128849 0.110762
0.276863 0.138647 0.107576
0.353203 0.147081 0.101887
0.433363 0.154158 0.094549
0.520317 0.159758 0.082945
0.608249 0.166970 0.069945
0.688688 0.181768 0.063251
0.765013 0.203478 0.061938
0.832515 0.227793 0.060069
0.890225 0.254049 0.055803
0.937364 0.281978 0.050695
0.974966 0.310824 0.046722
0.000000 0.128070 0.127540
0.000263 0.146047 0.136223
0.027330 0.153552 0.128515
0.129665 0.156170 0.103768
0.223772 0.160871 0.107739
0.296549 0.173459 0.112385
0.371346 0.184992 0.107724
0.451691 0.194481 0.097417
0.538049 0.203509 0.083831
0.626320 0.214831 0.068657
0.708825 0.233721 0.059092
0.782900 0.260416 0.055271
0.846581 0.291468 0.054546
0.899898 0.325727 0.054783
0.942458 0.359686 0.057209
0.979599 0.391677 0.061410
0.000000 0.191062 0.155534
0.000423 0.200628 0.148552
0.025348 0.199097 0.124690
0.102821 0.210366 0.104057
0.246513 0.197876 0.081462
0.331450 0.198391 0.094324
0.403290 0.209535 0.096709
0.480556 0.220576 0.087638
0.562921 0.232063 0.073877
0.645127 0.249148 0.062607
0.723932 0.274895 0.057646
0.795693 0.307754 0.057317
0.855799 0.344394 0.059440
0.906121 0.382730 0.063709
0.947830 0.418844 0.070058
0.982644 0.453387 0.077736
0.000000 0.239025 0.167037
0.000682 0.242122 0.149318
0.027069 0.236951 0.121576
0.085518 0.255496 0.106011
0.228964 0.262775 0.077625
0.354962 0.240075 0.063968
0.442300 0.233398 0.068543
0.514912 0.242975 0.070128
0.589408 0.258227 0.065255
0.666869 0.279553 0.060252
0.742114 0.309041 0.059259
0.809695 0.344836 0.060570
0.866363 0.383314 0.063715
0.913755 0.422319 0.068843
0.955750 0.457862 0.075886
0.989251 0.493107 0.084202
0.000000 0.279221 0.171475
0.001750 0.278485 0.145461
0.031210 0.272807 0.121362
0.079557 0.295810 0.107104
0.208913 0.314114 0.082864
0.348360 0.313752 0.059689
0.457706 0.283784 0.053330
0.545497 0.272485 0.053763
0.617771 0.285676 0.057830
0.688202 0.311312 0.061021
0.758552 0.343979 0.063472
0.822429 0.381431 0.066664
0.875764 0.420925 0.070852
0.922248 0.459492 0.076802
0.962674 0.494134 0.082765
0.995963 0.528210 0.089937
0.000000 0.316613 0.170486
0.006732 0.313428 0.141869
0.035867 0.309328 0.121669
0.079356 0.336908 0.108737
0.199270 0.360264 0.086618
0.337583 0.373683 0.066245
0.454768 0.370500 0.061068
0.559405 0.334850 0.056439
0.645825 0.323698 0.055197
0.714724 0.345081 0.061024
0.776664 0.381298 0.068707
0.834798 0.421482 0.074882
0.885594 0.460707 0.080328
0.931512 0.496888 0.085868
0.969510 0.531715 0.092485
0.999777 0.565035 0.099461
0.000000 0.353093 0.167420
0.012704 0.349690 0.139372
0.041828 0.349078 0.123257
0.083562 0.381760 0.111129
0.198171 0.409439 0.090114
0.329514 0.424872 0.072366
0.450424 0.444103 0.066137
0.555234 0.436892 0.071384
0.656569 0.400251 0.065084
0.737852 0.393080 0.063294
0.798260 0.421368 0.071584
0.849179 0.462883 0.081891
0.896598 0.501997 0.090041
0.940360 0.536966 0.096564
0.976543 0.570914 0.103574
0.999925 0.602753 0.110395
0.000383 0.391356 0.163010
0.019668 0.390545 0.139037
0.049344 0.392967 0.126451
0.093035 0.433085 0.112592
0.207062 0.463717 0.093834
0.331432 0.478658 0.079007
0.448542 0.503764 0.068928
0.553444 0.523965 0.077665
0.648984 0.515500 0.083403
0.743306 0.480873 0.077770
0.814599 0.477780 0.077053
0.865522 0.507232 0.086881
0.909360 0.544449 0.098539
0.949617 0.579564 0.107580
0.983896 0.612374 0.115046
0.999990 0.641779 0.121586
0.001560 0.433247 0.160109
0.028795 0.435898 0.144604
0.058584 0.441841 0.131357
0.107873 0.492779 0.114472
0.224901 0.523276 0.099999
0.342827 0.537681 0.089122
0.450865 0.561194 0.077941
0.559050 0.591311 0.078392
0.648453 0.609818 0.090067
0.734145 0.600321 0.096716
0.815439 0.568174 0.093073
0.876200 0.567406 0.094255
0.922658 0.590794 0.104202
0.960079 0.622542 0.115925
0.991436 0.653964 0.125512
1.000000 0.681110 0.132766
0.009904 0.478785 0.164754
0.040323 0.484316 0.155922
0.070676 0.495777 0.140052
0.130653 0.557692 0.121904
0.250590 0.585674 0.112073
0.364081 0.599827 0.105758
0.464324 0.619875 0.096430
0.566235 0.650045 0.087120
0.660639 0.676847 0.092037
0.735207 0.694224 0.102640
0.808367 0.683997 0.109875
0.877118 0.653500 0.108370
0.930290 0.651718 0.111059
0.968387 0.670731 0.120916
0.998281 0.696620 0.132524
1.000000 0.719910 0.141183
0.022836 0.527602 0.181607
0.054438 0.533283 0.172863
0.086678 0.557977 0.153545
0.165464 0.623054 0.135597
0.288454 0.646330 0.131172
0.396202 0.660162 0.131160
0.489380 0.677662 0.126505
0.581392 0.703910 0.114438
0.672539 0.732817 0.103972
0.750693 0.756646 0.105864
0.813700 0.774102 0.114932
0.875463 0.760497 0.122406
0.931676 0.730712 0.122164
0.973271 0.727954 0.125955
0.999436 0.741530 0.134871
1.000000 0.760816 0.145712
0.038545 0.577012 0.206733
0.070967 0.581566 0.189614
0.108459 0.633400 0.166938
0.218492 0.686727 0.155898
0.339350 0.704743 0.157932
0.437321 0.716767 0.163439
0.522463 0.732045 0.166716
0.604047 0.754578 0.161275
0.687730 0.782832 0.135745
0.766274 0.808986 0.114937
0.827727 0.830188 0.117885
0.877217 0.843829 0.127004
0.927640 0.827392 0.133484
0.974460 0.798038 0.132594
0.999638 0.793483 0.138226
1.000000 0.800820 0.146740
0.056688 0.624721 0.236528
0.090380 0.628880 0.210406
0.147959 0.707441 0.188541
0.284977 0.743593 0.184855
0.395927 0.757522 0.192686
0.483918 0.768242 0.203040
0.559493 0.782140 0.209733
0.632346 0.802565 0.206858
0.706547 0.828657 0.181683
0.778399 0.854445 0.143281
0.839524 0.874431 0.126926
0.885299 0.890182 0.129936
0.924386 0.899956 0.139530
0.968027 0.883302 0.143747
0.999528 0.853557 0.140673
1.000000 0.845079 0.149289
0.076457 0.668025 0.264998
0.112400 0.684345 0.233855
0.215125 0.770681 0.213835
0.350562 0.796890 0.214659
0.449458 0.809882 0.225366
0.525843 0.821958 0.235822
0.594593 0.835205 0.240883
0.659795 0.854083 0.235444
0.724687 0.875967 0.223799
0.786848 0.896019 0.201161
0.844558 0.913232 0.159181
0.893654 0.927426 0.138749
0.930953 0.938616 0.144700
0.964157 0.945968 0.153227
0.998987 0.926916 0.155342
1.000000 0.894647 0.148497
0.000000 0.020623 0.104041
0.000000 0.028703 0.102953
0.002463 0.039638 0.104339
0.054648 0.049920 0.102802
0.137705 0.052225 0.098022
0.199797 0.060300 0.094907
0.251908 0.073298 0.099845
0.305538 0.087178 0.107146
0.370028 0.102420 0.114887
0.450150 0.117745 0.120293
0.547384 0.132304 0.122131
0.650197 0.149538 0.121375
0.743906 0.170463 0.117157
0.824309 0.193426 0.111703
0.887954 0.218814 0.105710
0.940871 0.246741 0.107746
0.000000 0.041687 0.115060
0.000000 0.055985 0.129518
0.003364 0.065530 0.127374
0.061034 0.082347 0.125786
0.149752 0.093487 0.123450
0.219621 0.105206 0.122947
0.277260 0.120161 0.129075
0.339288 0.134595 0.134737
0.417504 0.148901 0.137755
0.513385 0.162852 0.136398
0.616487 0.176883 0.131067
0.714316 0.193892 0.123751
0.798306 0.213485 0.115230
0.863936 0.236712 0.109710
0.921145 0.262268 0.108204
0.965326 0.287830 0.105423
0.000000 0.067025 0.126221
0.000000 0.082730 0.142073
0.009561 0.096906 0.153056
0.065106 0.113587 0.151723
0.161307 0.136678 0.151906
0.240563 0.152762 0.154716
0.309406 0.167742 0.157193
0.385318 0.179780 0.156059
0.474409 0.190536 0.150486
0.573875 0.201478 0.140840
0.672852 0.214527 0.130040
0.761226 0.232066 0.120372
0.833009 0.253661 0.112684
0.894130 0.276448 0.106655
0.943934 0.301288 0.099271
0.982051 0.326763 0.093795
0.000000 0.102375 0.139496
0.000000 0.120948 0.156664
0.015134 0.138698 0.170229
0.066240 0.155692 0.174619
0.172851 0.178316 0.173389
0.266008 0.194895 0.174770
0.343954 0.207234 0.172027
0.428191 0.217195 0.164329
0.521983 0.226518 0.152021
0.619700 0.237569 0.138518
0.711669 0.254461 0.127382
0.791312 0.277654 0.120125
0.857950 0.304540 0.116946
0.912601 0.332811 0.114170
0.957706 0.361098 0.111261
0.993780 0.387858 0.109858
0.000000 0.166290 0.179632
0.000069 0.187464 0.195420
0.018359 0.208122 0.205216
0.062822 0.217263 0.195288
0.187110 0.221954 0.163631
0.291800 0.227029 0.165370
0.367863 0.240244 0.172831
0.448988 0.254356 0.168006
0.538706 0.268694 0.157386
0.631932 0.286461 0.145501
0.719564 0.310177 0.136545
0.796412 0.340308 0.134344
0.860111 0.372788 0.136064
0.914306 0.404196 0.135260
0.956872 0.434371 0.138461
0.992107 0.464109 0.142599
0.000000 0.236066 0.221974
0.000549 0.252074 0.231193
0.024238 0.266990 0.225926
0.060455 0.267283 0.198270
0.161526 0.274854 0.164585
0.312512 0.267395 0.134399
0.403554 0.266933 0.149562
0.479163 0.281087 0.157302
0.563759 0.298671 0.149934
0.652088 0.320993 0.138477
0.734174 0.350448 0.130889
0.805462 0.386479 0.132130
0.865338 0.423547 0.136092
0.916881 0.458066 0.138142
0.957910 0.491443 0.145551
0.991152 0.521852 0.155902
0.000000 0.294953 0.251030
0.004694 0.305835 0.251909
0.030281 0.313202 0.231383
0.061666 0.307217 0.194618
0.140867 0.322574 0.167428
0.290668 0.332063 0.132821
0.425500 0.314078 0.111115
0.517104 0.309267 0.124100
0.594364 0.326425 0.132917
0.673241 0.353460 0.131419
0.749898 0.387032 0.128230
0.817255 0.425061 0.130002
0.874012 0.463167 0.130489
0.921871 0.498334 0.131845
0.961209 0.532174 0.139110
0.994598 0.562979 0.148808
0.000353 0.347338 0.270552
0.012179 0.353743 0.262259
0.035844 0.353905 0.228812
0.064990 0.346187 0.192916
0.131648 0.367586 0.169470
0.268016 0.387459 0.142621
0.413124 0.393800 0.108966
0.532237 0.368849 0.094406
