src/colors/cinematic_&_blockbuster/elegant_dark_cinema.cube
TITLE "Generated by Resolve"
LUT_3D_SIZE 9
0 0 0
0.0772869 0 0
0.181048 0 0
0.295262 0 0
0.416663 0 0
0.543664 0 0
0.675303 0 0
0.810895 0 0
0.94992 0 0
0 0.0787671 0
0.0823529 0.0816663 0
0.190341 0.0803845 0
0.307774 0.0775006 0
0.431815 0.0736553 0
0.561105 0.0691386 0
0.694713 0.0641031 0
0.832074 0.0586557 0
0.972717 0.0528267 0
0 0.18381 0
0.081239 0.18909 0
0.191501 0.18996 0
0.31075 0.189029 0
0.436439 0.186938 0
0.567224 0.184009 0
0.702251 0.180423 0
0.840925 0.176318 0
0.982788 0.171725 0
0 0.299245 0
0.078645 0.306065 0
0.190631 0.308385 0
0.31133 0.308843 0
0.438285 0.308064 0
0.570245 0.306355 0
0.706355 0.303929 0
0.846067 0.300893 0
0.988937 0.297337 0
0 0.42182 0
0.0753033 0.429862 0
0.188632 0.43331 0
0.310552 0.434852 0
0.43859 0.435111 0
0.571527 0.434409 0
0.708568 0.432914 0
0.849149 0.430808 0
0.992859 0.428122 0
0 0.550057 0
0.071458 0.559045 0
0.185901 0.563439 0
0.308858 0.565866 0
0.437858 0.56701 0
0.571664 0.567132 0
0.709514 0.566476 0
0.850874 0.565133 0
0.995315 0.56321 0
0 0.682902 0
0.0672313 0.692699 0
0.182635 0.697902 0
0.306477 0.701106 0
0.436332 0.702983 0
0.570932 0.703853 0
0.709514 0.703899 0
0.851575 0.703258 0
0.996689 0.702022 0
0 0.81973 0
0.0627146 0.830213 0
0.178927 0.836118 0
0.303578 0.840024 0
0.43418 0.842557 0
0.569497 0.844068 0
0.708766 0.844755 0
0.851469 0.844739 0
0.997208 0.844114 0
0 0.960082 0
0.0579843 0.971145 0
0.174945 0.977691 0
0.300298 0.982208 0
0.431571 0.985351 0
0.567544 0.987457 0
0.707439 0.988693 0
0.850736 0.989242 0
0.997055 0.989166 0
0 0 0.0650645
0.0777295 0 0.0616464
0.182147 0 0.0564279
0.296803 0 0.0504311
0.41857 0 0.043946
0.545876 0 0.0371099
0.67776 0 0.0299992
0.813565 0 0.0226596
0.952819 0 0.0150912
0 0.0800946 0.0634928
0.0842298 0.0832532 0.0662852
0.192294 0.0822461 0.0649271
0.310033 0.0795453 0.0618906
0.434333 0.0758831 0.0578927
0.563821 0.071519 0.053193
0.697627 0.0666209 0.0479744
0.835157 0.0613107 0.0423285
0.975982 0.0556191 0.0363165
0 0.185977 0.0589761
0.0840162 0.191333 0.06421
0.194278 0.192401 0.0648966
0.313573 0.191669 0.0635386
0.439429 0.189715 0.0610971
0.570382 0.186892 0.0578622
0.705562 0.183413 0.0540017
0.844373 0.1794 0.0496223
0.986389 0.174945 0.0448005
0 0.301961 0.0535744
0.0818494 0.308843 0.0602731
0.194003 0.311254 0.0624247
0.314702 0.311864 0.0625467
0.441718 0.311208 0.0613565
0.57377 0.309621 0.0592508
0.710002 0.307286 0.0564736
0.849836 0.304326 0.0531014
0.992828 0.300877 0.0492561
0 0.424979 0.0476692
0.0788434 0.433036 0.0555276
0.192355 0.436561 0.0587778
0.314351 0.438193 0.0600443
0.442435 0.43856 0.0599222
0.575418 0.437964 0.0588083
0.712535 0.436576 0.0569314
0.853208 0.434531 0.0544442
0.997024 0.431937 0.0514229
0 0.553552 0.0414588
0.075288 0.562554 0.0502174
0.189914 0.566995 0.0544137
0.312963 0.569497 0.0565805
0.442023 0.570718 0.0573739
0.575875 0.570947 0.0571298
0.713771 0.570352 0.0560616
0.855192 0.5691 0.0543374
0.99971 0.567254 0.0520333
0 0.686717 0.0349737
0.0713207 0.696498 0.0445258
0.186877 0.701732 0.0495003
0.310842 0.704997 0.0524453
0.440757 0.706935 0.0540169
0.575387 0.707881 0.0545205
0.714031 0.708003 0.0541848
0.856138 0.707439 0.0531624
1 0.706264 0.0515297
0 0.823804 0.0283055
0.0670329 0.834241 0.0384985
0.183398 0.840192 0.0441749
0.308156 0.844144 0.0478218
0.438834 0.846738 0.0500649
0.574197 0.84831 0.0512398
0.713512 0.849058 0.0515602
0.85626 0.849104 0.0511635
1 0.848554 0.0501564
0 0.96437 0.0214542
0.062501 0.975418 0.0322423
0.179599 0.981994 0.0385443
0.305058 0.986557 0.0428016
0.436423 0.989746 0.045655
0.572457 0.991882 0.0474403
0.712398 0.993194 0.0483406
0.855741 0.99379 0.0485237
1 0.99379 0.0480659
0 0 0.152438
0.0771191 0 0.150149
0.182101 0 0.145388
0.297093 0 0.139834
0.41915 0 0.1337
0.546715 0 0.127138
0.678813 0 0.120241
0.814832 0 0.113069
0.954253 0 0.105669
0 0.0800946 0.152834
0.0847181 0.0834516 0.15555
0.193088 0.0826581 0.154376
0.310948 0.0801709 0.151781
0.435447 0.0766461 0.148058
0.565103 0.0724346 0.143557
0.699092 0.0676738 0.138506
0.836789 0.0624857 0.132982
0.977737 0.0569162 0.127092
0 0.18677 0.148943
0.0851453 0.192218 0.154025
0.195636 0.193423 0.154818
0.314824 0.192874 0.153857
0.440909 0.191012 0.151614
0.572045 0.188296 0.148531
0.707378 0.184909 0.144778
0.846326 0.180987 0.14049
0.988464 0.176623 0.135744
0 0.303258 0.144045
0.0835126 0.310155 0.150729
0.195987 0.312612 0.153063
0.316594 0.313375 0.153414
0.44358 0.312886 0.152224
0.575753 0.311376 0.150179
0.712108 0.309117 0.147448
0.852064 0.306249 0.144152
0.995178 0.302876 0.140352
0 0.426673 0.138476
0.0808576 0.43473 0.146319
0.194614 0.438285 0.149691
0.316701 0.440009 0.15111
0.444739 0.440497 0.151064
0.577737 0.439994 0.149966
0.714931 0.438697 0.148104
0.855711 0.436728 0.145632
0.999619 0.434211 0.142641
0 0.555581 0.132494
0.0775921 0.564538 0.141222
0.192401 0.569024 0.14548
0.315587 0.571588 0.147753
0.444678 0.572885 0.148638
0.578531 0.573205 0.148425
0.716457 0.572717 0.147372
0.857939 0.571527 0.145647
1 0.569757 0.143359
0 0.689006 0.126162
0.0738689 0.698756 0.135668
0.189593 0.704036 0.140688
0.31368 0.707347 0.143709
0.443671 0.709346 0.145357
0.578347 0.710353 0.145907
0.716991 0.710567 0.145586
0.859144 0.710079 0.144564
1 0.708965 0.142931
0 0.826337 0.119585
0.0697948 0.836744 0.129732
0.186313 0.842725 0.135439
0.311192 0.846723 0.139132
0.441962 0.849363 0.141436
0.577386 0.850996 0.142657
0.716731 0.851804 0.142992
0.859495 0.851926 0.142611
1 0.851438 0.141588
0 0.967117 0.112795
0.0654612 0.978134 0.123537
0.182712 0.984741 0.129854
0.308293 0.989334 0.134157
0.439734 0.992569 0.137041
0.57583 0.994766 0.138857
0.715816 0.996124 0.139788
0.85919 0.996796 0.139986
1 0.996841 0.139528
0 0 0.248798
0.0759747 0 0.247318
0.181598 0 0.242908
0.296941 0 0.237629
0.419257 0 0.231769
0.547021 0 0.225467
0.679332 0 0.218784
0.815534 0 0.21181
0.955123 0 0.204562
0 0.0794995 0.250782
0.084596 0.0830396 0.253712
0.19353 0.0823987 0.252567
0.311482 0.0801251 0.250019
0.436072 0.0767987 0.246525
0.565866 0.0727398 0.242237
0.699992 0.0681163 0.237354
0.837827 0.0630503 0.231983
0.978912 0.0575875 0.226215
0 0.186954 0.247379
0.0854353 0.192554 0.252415
0.196399 0.193851 0.25301
0.315785 0.193423 0.252155
0.441871 0.191684 0.250309
0.573129 0.189075 0.247471
0.708598 0.185794 0.243885
0.847669 0.181964 0.239719
0.989944 0.177676 0.235096
0 0.30396 0.242878
0.0843671 0.310918 0.249454
0.197162 0.313466 0.251591
0.317906 0.314336 0.252018
0.444724 0.313985 0.251225
0.577081 0.312535 0.249378
0.713588 0.310353 0.246784
0.853666 0.307546 0.243595
0.996887 0.30425 0.239887
0 0.427756 0.237675
0.0821546 0.435813 0.245426
0.196185 0.439429 0.248798
0.318563 0.441169 0.250416
0.446433 0.441794 0.250599
0.57937 0.441428 0.2495
0.716655 0.440208 0.247684
0.857542 0.438315 0.245289
1 0.435843 0.242359
0 0.55697 0.231952
0.0791943 0.565927 0.240635
0.194232 0.570459 0.244923
0.317632 0.573053 0.247318
0.446784 0.574411 0.248371
0.58056 0.574838 0.248234
0.718486 0.574441 0.247196
0.860014 0.573327 0.245487
1 0.571603 0.243229
0 0.690654 0.225834
0.0757458 0.700389 0.235294
0.191653 0.705715 0.24036
0.315908 0.709056 0.243458
0.446006 0.711101 0.245212
0.580682 0.712184 0.245853
0.719326 0.712474 0.245579
0.861479 0.712062 0.244572
1 0.711025 0.242954
0 0.828214 0.219409
0.0718853 0.838605 0.229526
0.188586 0.844633 0.235279
0.313603 0.848646 0.239017
0.44448 0.851331 0.241398
0.57995 0.853025 0.242695
0.71931 0.853895 0.243091
0.862074 0.854078 0.242725
1 0.853651 0.241733
0 0.969207 0.212741
0.0677501 0.980209 0.223453
0.185153 0.986831 0.229801
0.310857 0.99147 0.23415
0.442405 0.994736 0.237095
0.578576 0.996979 0.238972
0.718593 0.998383 0.239963
0.861982 0.999115 0.240177
1 0.999222 0.23975
0 0 0.351293
0.0745251 0 0.350439
0.180713 0 0.34638
0.296468 0 0.341344
0.419028 0 0.335698
0.547021 0 0.32961
0.679515 0 0.32314
0.815869 0 0.316335
0.955612 0 0.309255
0 0.0785382 0.354665
0.0841077 0.0822309 0.357778
0.193454 0.0817426 0.356756
0.311696 0.0796521 0.354253
0.436423 0.0765087 0.350835
0.566323 0.0726024 0.3467
0.700557 0.0681315 0.341985
0.838499 0.0631876 0.336767
0.979706 0.057847 0.331121
0 0.186755 0.351781
0.0854047 0.192432 0.356863
0.196704 0.19382 0.35761
0.316548 0.193454 0.356695
0.442664 0.191882 0.354833
0.573938 0.18941 0.352148
0.709468 0.186221 0.348745
0.848646 0.182498 0.344732
0.991012 0.178302 0.34023
0 0.30425 0.347616
0.0847334 0.311284 0.354131
0.19762 0.31397 0.356207
0.318807 0.314885 0.356374
0.445762 0.314611 0.355657
0.578088 0.313268 0.354192
0.714687 0.311147 0.351843
0.854871 0.308431 0.348791
0.998199 0.30518 0.345205
0 0.428443 0.342687
0.0829175 0.436515 0.350347
0.197116 0.440223 0.353643
0.319768 0.442023 0.355016
0.447745 0.442741 0.355261
0.580468 0.442496 0.354559
0.717922 0.441306 0.352956
0.85893 0.43946 0.350683
1 0.437049 0.347845
0 0.557946 0.337224
0.0803082 0.566903 0.345846
0.195544 0.571481 0.350103
0.319173 0.574121 0.352483
0.448585 0.575479 0.353719
0.582162 0.576043 0.353811
0.720012 0.575769 0.352758
0.861616 0.574716 0.35111
1 0.573053 0.348913
0 0.69189 0.331319
0.0771344 0.70161 0.340734
0.193225 0.706966 0.3458
0.317662 0.710353 0.348943
0.447944 0.712428 0.350805
0.582666 0.713558 0.351614
0.721202 0.713954 0.351415
0.86334 0.713634 0.350408
1 0.712642 0.348821
0 0.829664 0.325093
0.0735027 0.840055 0.335164
0.190372 0.846098 0.340917
0.315541 0.850156 0.344717
0.446555 0.852872 0.347173
0.582132 0.854597 0.348577
0.721477 0.855543 0.349065
0.864225 0.855802 0.348745
1 0.855451 0.347768
0 0.970855 0.318578
0.0695811 0.981842 0.329259
0.187137 0.98851 0.335622
0.312963 0.993164 0.340002
0.444648 0.99646 0.343008
0.580911 0.998734 0.344976
0.720974 1 0.346029
0.864363 1 0.346303
1 1 0.345907
0 0 0.458579
0.0728466 0 0.458228
0.179568 0 0.454505
0.295705 0 0.449699
0.418555 0 0.444251
0.546761 0 0.438331
0.679423 0 0.432029
0.815946 0 0.425391
0.95584 0 0.418463
0 0.0773022 0.463157
0.0833143 0.0811475 0.466423
0.193011 0.080827 0.465568
0.311574 0.0788739 0.463157
0.436484 0.0758984 0.4598
0.566522 0.0721447 0.455756
0.700862 0.0678111 0.451164
0.838926 0.0629892 0.446067
0.98024 0.0577707 0.440558
0 0.186236 0.460792
0.0851148 0.191989 0.465965
0.196704 0.193469 0.466835
0.316869 0.193179 0.46598
0.443198 0.19173 0.464088
0.574548 0.18938 0.461448
0.710124 0.186328 0.458137
0.849378 0.182696 0.454261
0.991821 0.178607 0.449866
0 0.304219 0.456962
0.0847944 0.311315 0.463478
0.197864 0.314092 0.465629
0.319341 0.315038 0.465904
0.446723 0.314809 0.465095
0.579019 0.313603 0.463569
0.715602 0.311589 0.461357
0.855833 0.308949 0.458473
0.999222 0.305791 0.455024
0 0.428779 0.452293
0.0833143 0.436896 0.459907
0.197635 0.440696 0.463157
0.320348 0.442618 0.464454
0.448753 0.443351 0.464408
0.581582 0.443183 0.463783
0.718975 0.442084 0.462547
0.860044 0.440284 0.460487
1 0.437934 0.457816
0 0.558587 0.447044
0.0810407 0.567575 0.455604
0.196399 0.572229 0.459831
0.320165 0.574945 0.462104
0.449821 0.576349 0.463066
0.58349 0.576974 0.463203
0.721096 0.576822 0.462577
0.862852 0.575799 0.461097
1 0.574166 0.459037
0 0.692775 0.441367
0.0781262 0.702525 0.450721
0.194385 0.707927 0.455756
0.318975 0.71136 0.458869
0.449485 0.713451 0.4607
0.584451 0.71458 0.461692
0.722774 0.715099 0.461723
0.864805 0.714885 0.460716
1 0.713954 0.459159
0 0.830793 0.435309
0.0747539 0.841169 0.445335
0.19176 0.847257 0.451087
0.317098 0.851362 0.454887
0.44828 0.854093 0.457374
0.584009 0.855833 0.4589
0.723384 0.856825 0.459556
0.866026 0.857191 0.459297
1 0.856916 0.45832
0 0.972183 0.428977
0.071046 0.983154 0.439597
0.188739 0.989853 0.445975
0.314702 0.994553 0.45037
0.446525 0.997864 0.453422
0.58291 1 0.455451
0.723049 1 0.456626
0.866423 1 0.456992
1 1 0.456626
0 0 0.569787
0.0710002 0 0.569879
0.17821 0 0.566476
0.294713 0 0.561898
0.417853 0 0.556619
0.546288 0 0.550866
0.679133 0 0.544717
0.815824 0 0.538231
0.955856 0 0.531426
0 0.0758526 0.575463
0.0823072 0.0798352 0.578866
0.192325 0.0796674 0.578164
0.311147 0.0778821 0.575875
0.436301 0.0750286 0.572595
0.566491 0.0714275 0.568643
0.700969 0.0672313 0.564126
0.839124 0.0625467 0.559136
0.980529 0.057435 0.553735
0 0.185473 0.573632
0.084596 0.191287 0.578866
0.196445 0.192874 0.579843
0.316869 0.192676 0.57908
0.443427 0.191318 0.577218
0.574914 0.189075 0.574594
0.710582 0.18613 0.571344
0.849897 0.18262 0.567544
0.992416 0.178622 0.563256
0 0.303929 0.570123
0.0846418 0.31107 0.576669
0.197894 0.313924 0.578897
0.3196 0.314931 0.579278
0.447272 0.314748 0.5785
0.579751 0.313619 0.576913
0.716365 0.311727 0.574716
0.856611 0.309178 0.571908
1 0.306111 0.568566
0 0.428855 0.565698
0.0834669 0.437018 0.573297
0.197925 0.440894 0.576593
0.320745 0.442893 0.577935
0.449424 0.443641 0.577996
0.582666 0.443473 0.577218
0.719997 0.442496 0.575921
0.861021 0.440787 0.573999
1 0.438514 0.571481
0 0.558953 0.560662
0.0814679 0.567971 0.569177
0.196948 0.572702 0.573388
0.32079 0.575509 0.575631
0.450477 0.57702 0.576501
0.584558 0.577646 0.576318
0.722255 0.577554 0.575738
0.86392 0.576593 0.574655
1 0.575006 0.572808
0 0.693416 0.555169
0.0788281 0.703166 0.564477
0.195193 0.708644 0.569497
0.319905 0.712139 0.572549
0.450507 0.714305 0.574258
0.585718 0.71548 0.574975
0.724117 0.716045 0.575051
0.865873 0.715938 0.574441
1 0.715023 0.573083
0 0.831632 0.549294
0.0757 0.842023 0.559274
0.192828 0.848157 0.565011
0.318288 0.852308 0.56878
0.449607 0.855085 0.571221
0.58555 0.85684 0.572717
0.725185 0.857816 0.573541
0.867567 0.858305 0.573526
1 0.858122 0.572534
0 0.973236 0.543114
0.0721904 0.984207 0.553704
0.190021 0.990936 0.560082
0.316106 0.995666 0.564462
0.448066 0.999023 0.567514
0.584619 1 0.569558
0.72491 1 0.57084
0.868299 1 0.571389
1 1 0.571099
0 0 0.684382
0.0690318 0 0.68484
0.176684 0 0.681743
0.293523 0 0.677378
0.416953 0 0.672282
0.545617 0 0.666682
0.67866 0 0.660655
0.815503 0 0.654307
0.955688 0 0.647639
0 0.0742504 0.691035
0.0811017 0.0783398 0.69456
0.191424 0.0783398 0.694026
0.310506 0.0766766 0.691844
0.435874 0.0739757 0.688685
0.566262 0.0704967 0.684794
0.700862 0.0664378 0.680369
0.839139 0.0618601 0.675471
0.980636 0.0568551 0.670146
0 0.184497 0.689723
0.0838941 0.190372 0.695018
0.195972 0.192065 0.696117
0.316625 0.191959 0.695445
0.443397 0.190692 0.693645
0.575067 0.188556 0.691051
0.710842 0.185718 0.687846
0.850233 0.1823 0.684092
0.992828 0.178393 0.679881
0 0.30341 0.686534
0.0843061 0.310582 0.693126
0.197742 0.313527 0.695445
0.319646 0.314611 0.695918
0.447547 0.314488 0.695186
0.580209 0.31342 0.693614
0.716945 0.31162 0.691402
0.857252 0.309163 0.68864
1 0.306172 0.685344
0 0.428687 0.682353
0.0834058 0.436896 0.689982
0.198016 0.440848 0.693324
0.320989 0.442908 0.694743
0.449866 0.443702 0.694881
0.583383 0.443565 0.694133
0.720867 0.442649 0.692744
0.861921 0.441032 0.690822
1 0.438849 0.688365
0 0.559091 0.677531
0.0816815 0.568139 0.686046
0.197269 0.572946 0.690272
0.321202 0.575814 0.692531
0.450996 0.577386 0.693446
0.585336 0.578027 0.693355
0.72343 0.57792 0.692622
0.865034 0.577081 0.691447
1 0.575586 0.689738
0 0.693812 0.672221
0.0792859 0.703578 0.681498
0.195758 0.709117 0.686519
0.320546 0.712673 0.68954
0.451209 0.714916 0.691203
0.586435 0.716182 0.691814
0.725246 0.716747 0.691554
0.867079 0.716701 0.69099
1 0.715846 0.690013
0 0.832258 0.666514
0.0763714 0.842664 0.676463
0.193637 0.848844 0.682185
0.319158 0.85304 0.685924
0.450584 0.855894 0.688304
0.586618 0.85771 0.689662
0.726467 0.858717 0.690196
0.868925 0.859251 0.690211
1 0.859174 0.689632
0 0.974044 0.660502
0.0730755 0.985016 0.671046
0.191028 0.991806 0.677409
0.31722 0.996567 0.681758
0.449287 0.999969 0.684779
0.585962 1 0.686778
0.726467 1 0.688029
0.8701 1 0.688746
1 1 0.688685
0 0 0.801953
0.0669566 0 0.802716
0.175006 0 0.799893
0.29218 0 0.795758
0.415885 0 0.790829
0.544778 0 0.785382
0.678019 0 0.779492
0.81503 0 0.773251
0.955352 0 0.766705
0 0.0724651 0.809476
0.0797436 0.0766766 0.813123
0.190341 0.0768292 0.812726
0.309667 0.0753185 0.810697
0.435248 0.0727398 0.80763
0.56582 0.069398 0.80383
0.700572 0.0654459 0.799481
0.838987 0.0609903 0.794659
0.980591 0.0561074 0.78941
0 0.183322 0.808667
0.0830243 0.189288 0.814023
0.195331 0.191073 0.815229
0.316182 0.191073 0.814649
0.443153 0.189899 0.81294
0.57499 0.187839 0.810407
0.710903 0.185092 0.807218
0.850416 0.181781 0.80354
0.993072 0.177966 0.799374
0 0.302708 0.805829
0.0837873 0.309926 0.812451
0.197421 0.312947 0.814862
0.319493 0.314107 0.815412
0.447578 0.314031 0.81474
0.580438 0.313054 0.813214
0.717311 0.311315 0.811017
0.85771 0.308949 0.80827
1 0.30605 0.80502
0 0.428336 0.801892
0.0831769 0.436561 0.809522
0.19794 0.440589 0.81294
0.32105 0.44271 0.814435
0.450095 0.443565 0.814633
0.583825 0.443458 0.813931
0.721523 0.442618 0.812558
0.862669 0.441093 0.810605
1 0.438972 0.808164
0 0.559075 0.797314
0.0817121 0.568139 0.805798
0.197452 0.573007 0.810071
0.321477 0.575921 0.812375
0.451408 0.577554 0.813352
0.585931 0.578225 0.813336
0.7243 0.578119 0.812604
0.866026 0.577325 0.811322
1 0.575906 0.809583
0 0.694041 0.792172
0.0795605 0.703822 0.801419
0.196155 0.709407 0.806455
0.321019 0.713039 0.809491
0.451743 0.715343 0.81117
0.58706 0.71667 0.81181
0.726131 0.717235 0.811643
0.86836 0.717144 0.81091
1 0.716396 0.809812
0 0.832685 0.786587
0.0768444 0.843091 0.796506
0.194217 0.849348 0.802243
0.319829 0.853605 0.805982
0.451316 0.856504 0.808331
0.587396 0.858396 0.809613
0.727245 0.859495 0.81004
0.870115 0.860014 0.809705
1 0.859968 0.809155
0 0.974701 0.780743
0.0737621 0.985656 0.791241
0.191821 0.992477 0.797604
0.31809 0.997299 0.801938
0.450233 1 0.804929
0.586984 1 0.806867
0.727581 1 0.807965
0.871443 1 0.808377
1 1 0.808362
