src/colors/cinematic_&_blockbuster/elegant_dark_cinema.cube
TITLE "Generated by Resolve"
LUT_3D_SIZE 5
0 0 0
0.181048 0 0
0.416663 0 0
0.675303 0 0
0.94992 0 0
0 0.18381 0
0.191501 0.18996 0
0.436439 0.186938 0
0.702251 0.180423 0
0.982788 0.171725 0
0 0.42182 0
0.188632 0.43331 0
0.43859 0.435111 0
0.708568 0.432914 0
0.992859 0.428122 0
0 0.682902 0
0.182635 0.697902 0
0.436332 0.702983 0
0.709514 0.703899 0
0.996689 0.702022 0
0 0.960082 0
0.174945 0.977691 0
0.431571 0.985351 0
0.707439 0.988693 0
0.997055 0.989166 0
0 0 0.152438
0.182101 0 0.145388
0.41915 0 0.1337
0.678813 0 0.120241
0.954253 0 0.105669
0 0.18677 0.148943
0.195636 0.193423 0.154818
0.440909 0.191012 0.151614
0.707378 0.184909 0.144778
0.988464 0.176623 0.135744
0 0.426673 0.138476
0.194614 0.438285 0.149691
0.444739 0.440497 0.151064
0.714931 0.438697 0.148104
0.999619 0.434211 0.142641
0 0.689006 0.126162
0.189593 0.704036 0.140688
0.443671 0.709346 0.145357
0.716991 0.710567 0.145586
1 0.708965 0.142931
0 0.967117 0.112795
0.182712 0.984741 0.129854
0.439734 0.992569 0.137041
0.715816 0.996124 0.139788
1 0.996841 0.139528
0 0 0.351293
0.180713 0 0.34638
0.419028 0 0.335698
0.679515 0 0.32314
0.955612 0 0.309255
0 0.186755 0.351781
0.196704 0.19382 0.35761
0.442664 0.191882 0.354833
0.709468 0.186221 0.348745
0.991012 0.178302 0.34023
0 0.428443 0.342687
0.197116 0.440223 0.353643
0.447745 0.442741 0.355261
0.717922 0.441306 0.352956
1 0.437049 0.347845
0 0.69189 0.331319
0.193225 0.706966 0.3458
0.447944 0.712428 0.350805
0.721202 0.713954 0.351415
1 0.712642 0.348821
0 0.970855 0.318578
0.187137 0.98851 0.335622
0.444648 0.99646 0.343008
0.720974 1 0.346029
1 1 0.345907
0 0 0.569787
0.17821 0 0.566476
0.417853 0 0.556619
0.679133 0 0.544717
0.955856 0 0.531426
0 0.185473 0.573632
0.196445 0.192874 0.579843
0.443427 0.191318 0.577218
0.710582 0.18613 0.571344
0.992416 0.178622 0.563256
0 0.428855 0.565698
0.197925 0.440894 0.576593
0.449424 0.443641 0.577996
0.719997 0.442496 0.575921
1 0.438514 0.571481
0 0.693416 0.555169
0.195193 0.708644 0.569497
0.450507 0.714305 0.574258
0.724117 0.716045 0.575051
1 0.715023 0.573083
0 0.973236 0.543114
0.190021 0.990936 0.560082
0.448066 0.999023 0.567514
0.72491 1 0.57084
1 1 0.571099
0 0 0.801953
0.175006 0 0.799893
0.415885 0 0.790829
0.678019 0 0.779492
0.955352 0 0.766705
0 0.183322 0.808667
0.195331 0.191073 0.815229
0.443153 0.189899 0.81294
0.710903 0.185092 0.807218
0.993072 0.177966 0.799374
0 0.428336 0.801892
0.19794 0.440589 0.81294
0.450095 0.443565 0.814633
0.721523 0.442618 0.812558
1 0.438972 0.808164
0 0.694041 0.792172
0.196155 0.709407 0.806455
0.451743 0.715343 0.81117
0.726131 0.717235 0.811643
1 0.716396 0.809812
0 0.974701 0.780743
0.191821 0.992477 0.797604
0.450233 1 0.804929
0.727581 1 0.807965
1 1 0.808362
