src/colors/cinematic_&_blockbuster/elegant_dark_cinema.cube
TITLE "Generated by Resolve"
LUT_3D_SIZE 33
0 0 0
0.0124056 0 0
0.0318914 0 0
0.0538186 0 0
0.0772869 0 0
0.10193 0 0
0.127535 0 0
0.153933 0 0
0.181048 0 0
0.208804 0 0
0.23711 0 0
0.265949 0 0
0.295262 0 0
0.325002 0 0
0.355169 0 0
0.385733 0 0
0.416663 0 0
0.447929 0 0
0.47953 0 0
0.511452 0 0
0.543664 0 0
0.576165 0 0
0.608942 0 0
0.641993 0 0
0.675303 0 0
0.708843 0 0
0.742641 0 0
0.776654 0 0
0.810895 0 0
0.84535 0 0
0.880003 0 0
0.914855 0 0
0.94992 0 0
0 0.0124971 0
0.0132753 0.013138 0
0.0338903 0.0129091 0
0.0565499 0.0123293 0
0.0805982 0.0115511 0
0.10573 0.0106355 0
0.131762 0.00962844 0
0.158541 0.00852979 0
0.185977 0.00737011 0
0.214023 0.00614939 0
0.242618 0.00488289 0
0.271717 0.00357061 0
0.301259 0.00222782 0
0.331243 0.000839246 0
0.361624 0 0
0.392386 0 0
0.423499 0 0
0.454948 0 0
0.486732 0 0
0.518807 0 0
0.551171 0 0
0.583841 0 0
0.616754 0 0
0.649943 0 0
0.683391 0 0
0.717067 0 0
0.750988 0 0
0.785122 0 0
0.819486 0 0
0.854063 0 0
0.888823 0 0
0.923796 0 0
0.958953 0 0
0 0.0325933 0
0.0131533 0.0337682 0
0.0342718 0.0339818 0
0.0572976 0.0338293 0
0.0816815 0.0334325 0
0.107103 0.0328527 0
0.13341 0.0321508 0
0.160449 0.031342 0
0.188144 0.0304417 0
0.216434 0.0294652 0
0.245243 0.0284276 0
0.274525 0.0273136 0
0.30428 0.0261692 0
0.334447 0.024979 0
0.364996 0.023743 0
0.395926 0.0224765 0
0.427207 0.0211643 0
0.458808 0.0198215 0
0.49073 0.0184482 0
0.522972 0.0170443 0
0.555489 0.0156252 0
0.588281 0.0141756 0
0.621332 0.0126955 0
0.654643 0.0112001 0
0.688212 0.00967422 0
0.722011 0.00813306 0
0.756039 0.00657664 0
0.790295 0.00500496 0
0.824765 0.00340276 0
0.859449 0.00178531 0
0.894316 0.00015259 0
0.929397 0 0
0.96466 0 0
0 0.0549325 0
0.0126955 0.0564279 0
0.0342107 0.0569314 0
0.0575418 0.0570687 0
0.0821698 0.0569467 0
0.10782 0.0566262 0
0.13434 0.0561532 0
0.161593 0.0555734 0
0.189471 0.0548714 0
0.217929 0.0541085 0
0.246921 0.053254 0
0.276387 0.0523384 0
0.30631 0.0513619 0
0.336629 0.0503243 0
0.36733 0.0492561 0
0.398413 0.048127 0
0.429831 0.0469673 0
0.46157 0.0457618 0
0.493645 0.0445258 0
0.525979 0.0432593 0
0.558633 0.0419623 0
0.591546 0.0406348 0
0.62472 0.0392767 0
0.658152 0.0379034 0
0.691829 0.0364996 0
0.725734 0.0350652 0
0.759869 0.0336156 0
0.794232 0.0321355 0
0.828809 0.0306554 0
0.863569 0.0291295 0
0.898543 0.0275883 0
0.933715 0.0260319 0
0.96907 0.0244602 0
0 0.0787671 0
0.0120699 0.0805066 0
0.0338903 0.081239 0
0.057496 0.0815747 0
0.0823529 0.0816663 0
0.108186 0.0815595 0
0.134874 0.0812848 0
0.162295 0.0808881 0
0.190341 0.0803845 0
0.218967 0.0797742 0
0.248112 0.0790875 0
0.277714 0.0783246 0
0.307774 0.0775006 0
0.338231 0.0766155 0
0.369085 0.0756695 0
0.40029 0.0746929 0
0.431815 0.0736553 0
0.463691 0.0725872 0
0.495872 0.0714733 0
0.528344 0.0703136 0
0.561105 0.0691386 0
0.594125 0.0679179 0
0.627405 0.0666819 0
0.660945 0.0654002 0
0.694713 0.0641031 0
0.728725 0.0627756 0
0.762966 0.0614176 0
0.797421 0.0600595 0
0.832074 0.0586557 0
0.866957 0.0572366 0
0.902022 0.055787 0
0.93727 0.0543069 0
0.972717 0.0528267 0
0 0.103746 0
0.0113375 0.105684 0
0.0334173 0.1066 0
0.0572366 0.107118 0
0.0822919 0.107378 0
0.108324 0.107439 0
0.135164 0.107332 0
0.162737 0.107103 0
0.190921 0.106737 0
0.219684 0.106279 0
0.248951 0.105745 0
0.278691 0.105119 0
0.308873 0.104433 0
0.339452 0.10367 0
0.370413 0.102861 0
0.40174 0.101991 0
0.433402 0.101091 0
0.46537 0.10013 0
0.497658 0.0991226 0
0.530236 0.098085 0
0.563088 0.0970016 0
0.596216 0.0959029 0
0.629602 0.0947585 0
0.663233 0.0935836 0
0.697108 0.0923781 0
0.731197 0.0911421 0
0.76553 0.0898909 0
0.800076 0.0885939 0
0.834836 0.0872969 0
0.86978 0.0859541 0
0.904936 0.084596 0
0.940261 0.0832074 0
0.975799 0.0818036 0
0 0.129671 0
0.0105287 0.131777 0
0.0327764 0.13283 0
0.0568093 0.133486 0
0.0820478 0.133898 0
0.108232 0.134096 0
0.135241 0.134142 0
0.162936 0.134035 0
0.191257 0.133822 0
0.220127 0.133501 0
0.249516 0.133089 0
0.279377 0.132586 0
0.309667 0.132021 0
0.340368 0.13138 0
0.371435 0.130694 0
0.402853 0.129931 0
0.434607 0.129122 0
0.466697 0.128267 0
0.499077 0.127382 0
0.531762 0.126436 0
0.564706 0.12546 0
0.597925 0.124437 0
0.631403 0.1234 0
0.66511 0.122316 0
0.699077 0.121202 0
0.733257 0.120058 0
0.767666 0.118883 0
0.802304 0.117678 0
0.83714 0.116457 0
0.872175 0.115206 0
0.907393 0.113924 0
0.942809 0.112612 0
0.978424 0.111299 0
0 0.15639 0
0.0096437 0.158633 0
0.0320897 0.159838 0
0.0562905 0.160647 0
0.0816968 0.161166 0
0.108034 0.161501 0
0.135164 0.161669 0
0.162997 0.161685 0
0.19144 0.161593 0
0.220432 0.161395 0
0.249943 0.161089 0
0.279896 0.160708 0
0.310292 0.16025 0
0.341085 0.159716 0
0.372244 0.159136 0
0.403769 0.15848 0
0.43563 0.157778 0
0.467796 0.157015 0
0.500282 0.156222 0
0.533043 0.155367 0
0.566079 0.154482 0
0.59939 0.153567 0
0.632944 0.152605 0
0.666743 0.151598 0
0.700786 0.150576 0
0.735058 0.149508 0
0.769558 0.148425 0
0.804257 0.147311 0
0.83917 0.146166 0
0.874266 0.144976 0
0.909575 0.143771 0
0.945068 0.14255 0
0.980743 0.141299 0
0 0.18381 0
0.00872816 0.186191 0
0.031342 0.187518 0
0.0556954 0.188449 0
0.081239 0.18909 0
0.107713 0.189532 0
0.134981 0.189807 0
0.162936 0.189944 0
0.191501 0.18996 0
0.220584 0.189853 0
0.250187 0.18967 0
0.280262 0.189395 0
0.31075 0.189029 0
0.341634 0.188602 0
0.372885 0.188113 0
0.404501 0.187549 0
0.436439 0.186938 0
0.468711 0.186282 0
0.501274 0.185565 0
0.534112 0.184817 0
0.567224 0.184009 0
0.600626 0.183169 0
0.634256 0.1823 0
0.668132 0.181369 0
0.702251 0.180423 0
0.736599 0.179446 0
0.77116 0.178424 0
0.805936 0.177386 0
0.840925 0.176318 0
0.876097 0.175204 0
0.911482 0.174075 0
0.947036 0.172915 0
0.982788 0.171725 0
0 0.211872 0
0.00776684 0.214343 0
0.030518 0.215808 0
0.0549935 0.216831 0
0.0806897 0.217578 0
0.107301 0.218128 0
0.134691 0.218509 0
0.162753 0.218738 0
0.191424 0.21886 0
0.220615 0.21886 0
0.250324 0.218753 0
0.280476 0.218585 0
0.311055 0.218311 0
0.342031 0.217975 0
0.373373 0.217578 0
0.405066 0.217105 0
0.437095 0.216587 0
0.469429 0.216007 0
0.502083 0.215381 0
0.534997 0.21471 0
0.5682 0.213993 0
0.601663 0.21323 0
0.63537 0.212436 0
0.669322 0.211582 0
0.703517 0.210712 0
0.737926 0.209812 0
0.772564 0.208865 0
0.807416 0.207889 0
0.842466 0.206882 0
0.877714 0.205859 0
0.913161 0.204791 0
0.948791 0.203708 0
0.984604 0.202594 0
0 0.240482 0
0.00677501 0.243061 0
0.0296635 0.244617 0
0.0542611 0.245762 0
0.0800641 0.246601 0
0.106798 0.247257 0
0.134295 0.247715 0
0.162478 0.248051 0
0.191241 0.248249 0
0.220554 0.248341 0
0.25034 0.248341 0
0.280583 0.248249 0
0.311254 0.248066 0
0.342306 0.247822 0
0.373739 0.247501 0
0.405509 0.24712 0
0.437613 0.246677 0
0.470024 0.246174 0
0.502739 0.24564 0
0.535744 0.245045 0
0.569009 0.244388 0
0.602548 0.243717 0
0.636332 0.242985 0
0.670359 0.242222 0
0.704601 0.241413 0
0.739086 0.240574 0
0.7738 0.239704 0
0.808713 0.238804 0
0.843824 0.237873 0
0.879149 0.236896 0
0.914656 0.235904 0
0.950332 0.234867 0
0.986221 0.233829 0
0 0.269627 0
0.00575265 0.272297 0
0.0287633 0.27396 0
0.0534676 0.275181 0
0.0793927 0.276127 0
0.106233 0.276844 0
0.133837 0.277409 0
0.162127 0.277821 0
0.190982 0.278111 0
0.220386 0.278294 0
0.250263 0.27837 0
0.280598 0.278355 0
0.311345 0.278264 0
0.342489 0.278096 0
0.373983 0.277852 0
0.405829 0.277546 0
0.43801 0.27718 0
0.470497 0.276768 0
0.503288 0.276295 0
0.536355 0.275776 0
0.569696 0.275196 0
0.603281 0.274586 0
0.63714 0.27393 0
0.671229 0.273228 0
0.705562 0.272496 0
0.740108 0.271733 0
0.774868 0.270924 0
0.809842 0.270085 0
0.845029 0.269215 0
0.8804 0.268315 0
0.915969 0.267369 0
0.95172 0.266407 0
0.987655 0.265415 0
0 0.299245 0
0.00469978 0.302007 0
0.0278172 0.303746 0
0.0526436 0.305058 0
0.078645 0.306065 0
0.105592 0.306889 0
0.133303 0.30753 0
0.161669 0.308019 0
0.190631 0.308385 0
0.220127 0.308644 0
0.25008 0.308797 0
0.280491 0.308858 0
0.31133 0.308843 0
0.342535 0.308751 0
0.374121 0.308583 0
0.406043 0.308354 0
0.438285 0.308064 0
0.470848 0.307713 0
0.5037 0.307317 0
0.536828 0.306859 0
0.570245 0.306355 0
0.603906 0.305821 0
0.637812 0.305226 0
0.671977 0.304601 0
0.706355 0.303929 0
0.740963 0.303227 0
0.775799 0.30248 0
0.810834 0.301701 0
0.846067 0.300893 0
0.881498 0.300053 0
0.917128 0.299184 0
0.952941 0.298268 0
0.988937 0.297337 0
0 0.329274 0
0.00360113 0.332128 0
0.0268254 0.333944 0
0.0517586 0.335348 0
0.0778668 0.336446 0
0.104906 0.337346 0
0.132708 0.338064 0
0.161166 0.338628 0
0.190219 0.339071 0
0.219791 0.339406 0
0.249851 0.339635 0
0.280339 0.339773 0
0.311238 0.339834 0
0.342519 0.339803 0
0.374182 0.339712 0
0.406165 0.339544 0
0.438483 0.33933 0
0.471107 0.33904 0
0.504036 0.338704 0
0.537224 0.338323 0
0.570687 0.337881 0
0.604425 0.337407 0
0.638392 0.336873 0
0.672602 0.336309 0
0.707057 0.335714 0
0.741726 0.335058 0
0.776608 0.334386 0
0.811704 0.333669 0
0.846998 0.332921 0
0.88249 0.332143 0
0.918181 0.331319 0
0.95404 0.330465 0
0.990082 0.329595 0
0 0.359747 0
0.00250248 0.362661 0
0.0258183 0.364569 0
0.0508431 0.366033 0
0.0770581 0.367239 0
0.104173 0.3682 0
0.132067 0.368978 0
0.160616 0.369635 0
0.189746 0.370138 0
0.219409 0.370535 0
0.249531 0.37084 0
0.280095 0.371038 0
0.311086 0.37116 0
0.342443 0.371206 0
0.374166 0.371191 0
0.406226 0.371084 0
0.43859 0.370932 0
0.47129 0.370718 0
0.504265 0.370443 0
0.53753 0.370123 0
0.571054 0.369757 0
0.604852 0.369329 0
0.63888 0.368872 0
0.673152 0.368353 0
0.707652 0.367819 0
0.742382 0.367224 0
0.77731 0.366598 0
0.812451 0.365942 0
0.847807 0.36524 0
0.88336 0.364523 0
0.919081 0.36376 0
0.955016 0.362966 0
0.991104 0.362142 0
0 0.390585 0
0.00137331 0.393591 0
0.0247959 0.39556 0
0.049897 0.397101 0
0.0761883 0.398367 0
0.103395 0.399405 0
0.131365 0.400259 0
0.159991 0.400961 0
0.189212 0.401556 0
0.218936 0.402014 0
0.249149 0.40238 0
0.279789 0.402655 0
0.310842 0.402838 0
0.342275 0.402945 0
0.37406 0.402991 0
0.40618 0.402945 0
0.438621 0.402853 0
0.471382 0.402701 0
0.504417 0.402487 0
0.537743 0.402228 0
0.571313 0.401907 0
0.605173 0.401556 0
0.639261 0.401144 0
0.673594 0.400702 0
0.708141 0.400214 0
0.742931 0.399695 0
0.77792 0.399115 0
0.813123 0.39852 0
0.848524 0.397879 0
0.884123 0.397208 0
0.919905 0.39649 0
0.955886 0.395758 0
0.992035 0.394995 0
0 0.42182 0
0.000244144 0.424887 0
0.0237278 0.426917 0
0.0489357 0.42855 0
0.0753033 0.429862 0
0.102586 0.430961 0
0.130648 0.431891 0
0.15935 0.43267 0
0.188632 0.43331 0
0.218433 0.433845 0
0.248722 0.434272 0
0.279438 0.434607 0
0.310552 0.434852 0
0.342046 0.435019 0
0.373892 0.435111 0
0.406088 0.435142 0
0.43859 0.435111 0
0.471397 0.435004 0
0.504494 0.434852 0
0.537881 0.434653 0
0.571527 0.434409 0
0.605432 0.434104 0
0.639567 0.433753 0
0.673945 0.433356 0
0.708568 0.432914 0
0.743389 0.432441 0
0.778439 0.431937 0
0.813703 0.431388 0
0.849149 0.430808 0
0.884794 0.430182 0
0.920638 0.429526 0
0.956664 0.42884 0
0.992859 0.428122 0
0 0.453391 0
0 0.456519 0
0.0226596 0.458625 0
0.0479286 0.460304 0
0.0743877 0.461707 0
0.101747 0.462867 0
0.12987 0.463859 0
0.158648 0.464683 0
0.188006 0.4654 0
0.217884 0.46598 0
0.248234 0.466468 0
0.279011 0.466865 0
0.310201 0.46717 0
0.341772 0.467399 0
0.373678 0.467552 0
0.405921 0.467628 0
0.438499 0.467658 0
0.471366 0.467628 0
0.504524 0.467521 0
0.537957 0.467384 0
0.571649 0.46717 0
0.6056 0.466926 0
0.639811 0.466636 0
0.674235 0.4663 0
0.708904 0.465919 0
0.743786 0.465492 0
0.778881 0.465034 0
0.814191 0.46453 0
0.849699 0.463996 0
0.88539 0.463432 0
0.921279 0.462821 0
0.957336 0.462181 0
0.993591 0.461524 0
0 0.485313 0
0 0.488487 0
0.021561 0.490654 0
0.0469062 0.492409 0
0.0734264 0.493858 0
0.100862 0.495079 0
0.129076 0.496132 0
0.157916 0.497032 0
0.18735 0.497795 0
0.217304 0.498436 0
0.247715 0.498985 0
0.278553 0.499428 0
0.309804 0.499794 0
0.341421 0.500069 0
0.373404 0.500282 0
0.405722 0.500435 0
0.438346 0.500511 0
0.471275 0.500526 0
0.504479 0.500481 0
0.537972 0.500374 0
0.571725 0.500237 0
0.605737 0.500038 0
0.639979 0.499794 0
0.674464 0.499504 0
0.709178 0.499168 0
0.744106 0.498802 0
0.779263 0.498405 0
0.814603 0.497948 0
0.850172 0.497475 0
0.885908 0.496941 0
0.921843 0.496391 0
0.957946 0.495796 0
0.994247 0.495171 0
0 0.517525 0
0 0.52076 0
0.0204471 0.522988 0
0.0458686 0.524788 0
0.0724498 0.526299 0
0.0999619 0.527596 0
0.128237 0.52871 0
0.157153 0.529656 0
0.186648 0.53048 0
0.216648 0.531182 0
0.247135 0.531777 0
0.27805 0.53228 0
0.309361 0.532692 0
0.341039 0.533043 0
0.373083 0.533303 0
0.405447 0.533486 0
0.438117 0.533623 0
0.471107 0.533684 0
0.504372 0.5337 0
0.537926 0.533654 0
0.571725 0.533562 0
0.605783 0.53341 0
0.640085 0.533211 0
0.674617 0.532982 0
0.709377 0.532692 0
0.744366 0.532372 0
0.779553 0.532021 0
0.814954 0.531624 0
0.850553 0.531182 0
0.886336 0.530709 0
0.922316 0.53019 0
0.95848 0.529656 0
0.994827 0.529076 0
0 0.550057 0
0 0.553338 0
0.0193027 0.555627 0
0.0448005 0.557473 0
0.071458 0.559045 0
0.0990311 0.560388 0
0.127367 0.561563 0
0.156344 0.56257 0
0.185901 0.563439 0
0.215976 0.564202 0
0.246525 0.564858 0
0.277501 0.565408 0
0.308858 0.565866 0
0.340597 0.566262 0
0.372702 0.566583 0
0.405127 0.566827 0
0.437858 0.56701 0
0.470893 0.567117 0
0.504219 0.567178 0
0.537804 0.567178 0
0.571664 0.567132 0
0.605783 0.567041 0
0.640131 0.566903 0
0.674708 0.566705 0
0.709514 0.566476 0
0.744549 0.566201 0
0.779782 0.565881 0
0.815229 0.56553 0
0.850874 0.565133 0
0.886702 0.564706 0
0.922728 0.564233 0
0.958923 0.563745 0
0.995315 0.56321 0
0 0.582849 0
0 0.586175 0
0.018143 0.588525 0
0.0437018 0.590433 0
0.0704204 0.59205 0
0.0980545 0.593454 0
0.126452 0.594675 0
0.155505 0.595743 0
0.185107 0.596658 0
0.215244 0.597467 0
0.245853 0.598184 0
0.276875 0.598779 0
0.308309 0.599298 0
0.340108 0.599741 0
0.372259 0.600107 0
0.404746 0.600397 0
0.437522 0.60061 0
0.470619 0.600778 0
0.50399 0.6009 0
0.537636 0.600946 0
0.571542 0.600946 0
0.605692 0.6009 0
0.640101 0.600793 0
0.674723 0.600656 0
0.70959 0.600473 0
0.744656 0.600244 0
0.77995 0.59997 0
0.815427 0.599664 0
0.851118 0.599329 0
0.887007 0.598932 0
0.923079 0.59852 0
0.959319 0.598077 0
0.995743 0.597589 0
0 0.61593 0
0 0.619318 0
0.016968 0.621698 0
0.0426032 0.623682 0
0.0693828 0.625345 0
0.0970779 0.626795 0
0.125536 0.628061 0
0.154635 0.629175 0
0.184314 0.630167 0
0.214511 0.631022 0
0.245167 0.631769 0
0.276249 0.632425 0
0.307744 0.63299 0
0.33959 0.633478 0
0.371786 0.63389 0
0.404318 0.634226 0
0.437171 0.634501 0
0.470314 0.634714 0
0.503731 0.634882 0
0.537423 0.634974 0
0.571374 0.635019 0
0.605585 0.635019 0
0.64004 0.634958 0
0.674708 0.634867 0
0.709606 0.634714 0
0.744732 0.634531 0
0.780056 0.634318 0
0.815595 0.634058 0
0.851331 0.633753 0
0.887251 0.633417 0
0.923354 0.633036 0
0.95964 0.632624 0
0.996124 0.632181 0
0 0.649287 0
0 0.65272 0
0.0157931 0.655161 0
0.041474 0.657176 0
0.0683146 0.6589 0
0.0960708 0.660395 0
0.12459 0.661723 0
0.15375 0.662882 0
0.18349 0.66392 0
0.213733 0.66482 0
0.24445 0.665614 0
0.275578 0.666316 0
0.307118 0.666926 0
0.33904 0.66746 0
0.371283 0.667918 0
0.403876 0.668315 0
0.436759 0.66862 0
0.469947 0.668879 0
0.503426 0.669093 0
0.537179 0.66923 0
0.571176 0.669322 0
0.605417 0.669352 0
0.639918 0.669352 0
0.674632 0.669291 0
0.70959 0.6692 0
0.744747 0.669062 0
0.780118 0.668879 0
0.815702 0.66865 0
0.851469 0.668391 0
0.887434 0.668101 0
0.923598 0.667765 0
0.95993 0.667399 0
0.996429 0.666987 0
0 0.682902 0
0 0.686366 0
0.0145876 0.688853 0
0.0403296 0.690929 0
0.0672313 0.692699 0
0.0950484 0.694255 0
0.123613 0.695613 0
0.152834 0.696818 0
0.182635 0.697902 0
0.212924 0.698848 0
0.243702 0.699702 0
0.274891 0.70045 0
0.306477 0.701106 0
0.338445 0.701686 0
0.370748 0.70219 0
0.403388 0.702632 0
0.436332 0.702983 0
0.469566 0.703288 0
0.50309 0.703532 0
0.536873 0.703716 0
0.570932 0.703853 0
0.605219 0.703929 0
0.639765 0.703975 0
0.674525 0.70396 0
0.709514 0.703899 0
0.744717 0.703807 0
0.780133 0.70367 0
0.815747 0.703487 0
0.851575 0.703258 0
0.887587 0.703014 0
0.923766 0.702708 0
0.960143 0.702388 0
0.996689 0.702022 0
0 0.716762 0
0 0.720272 0
0.0133669 0.722805 0
0.0391852 0.724926 0
0.0661326 0.726741 0
0.0940108 0.728344 0
0.122637 0.729747 0
0.151904 0.731014 0
0.181735 0.732128 0
0.2121 0.733135 0
0.242924 0.73402 0
0.274159 0.734813 0
0.305806 0.735531 0
0.337819 0.736141 0
0.370169 0.73669 0
0.402853 0.737163 0
0.435843 0.737575 0
0.469139 0.737911 0
0.502708 0.738201 0
0.536538 0.738415 0
0.570626 0.738598 0
0.604974 0.73872 0
0.639551 0.738796 0
0.674372 0.738827 0
0.709392 0.738811 0
0.74464 0.73875 0
0.780102 0.738659 0
0.815763 0.738521 0
0.851621 0.738338 0
0.887663 0.738125 0
0.923903 0.737865 0
0.960311 0.737591 0
0.996887 0.737255 0
0 0.750866 0
0 0.754406 0
0.0121462 0.757 0
0.0380102 0.759152 0
0.0650187 0.761013 0
0.0929427 0.762661 0
0.12163 0.764126 0
0.150942 0.765423 0
0.180835 0.766583 0
0.211246 0.76762 0
0.242115 0.768566 0
0.273411 0.76939 0
0.305104 0.770153 0
0.337163 0.770809 0
0.369558 0.771405 0
0.402304 0.771923 0
0.435325 0.772366 0
0.468666 0.772747 0
0.502281 0.773068 0
0.536156 0.773342 0
0.570306 0.773556 0
0.604685 0.773724 0
0.639307 0.773846 0
0.674159 0.773907 0
0.709239 0.773938 0
0.744533 0.773907 0
0.780026 0.773861 0
0.815732 0.773754 0
0.851621 0.773617 0
0.887709 0.773434 0
0.92398 0.77322 0
0.960418 0.772976 0
0.99704 0.772686 0
0 0.785183 0
0 0.788754 0
0.0108949 0.791379 0
0.0368048 0.793591 0
0.0638743 0.795499 0
0.0918441 0.797177 0
0.120577 0.798688 0
0.14995 0.800031 0
0.179889 0.801236 0
