src/colors/cinematic_&_blockbuster/heroic_cinema.cube
TITLE "Generated by Resolve"
LUT_3D_SIZE 9
0 0 0
0.114992 0.00717174 0.00810254
0.240391 0.0139925 0.0143282
0.369009 0.0189059 0.021912
0.50042 0.0238346 0.027924
0.635431 0.030808 0.0317235
0.772595 0.0374456 0.0385595
0.91165 0.0433204 0.050782
1 0.0509804 0.0525063
0.00177005 0.0989242 0.00135805
0.116838 0.10605 0.00909438
0.241306 0.111513 0.0152438
0.36817 0.114809 0.0192416
0.497734 0.117754 0.0229038
0.63241 0.123491 0.0293736
0.769757 0.130007 0.0366217
0.908751 0.136599 0.0439612
1 0.143252 0.0513924
0 0.211139 0
0.115801 0.219028 0.00758373
0.240421 0.224659 0.0138857
0.3664 0.22707 0.0169985
0.494331 0.228367 0.019028
0.627909 0.233005 0.0243992
0.76524 0.239521 0.0316472
0.90425 0.246113 0.0390021
1 0.252766 0.0464027
0 0.324971 0
0.108782 0.333394 6.10361e-05
0.234501 0.340124 0.00746166
0.361425 0.343481 0.0115206
0.489662 0.345083 0.0138399
0.623117 0.349599 0.019089
0.760464 0.356115 0.0263371
0.899458 0.362707 0.0336919
1 0.36936 0.0411231
0 0.441413 0
0.0975357 0.448585 0
0.223743 0.455787 0
0.352544 0.461021 0.00210575
0.483192 0.465049 0.0068513
0.618128 0.471031 0.0135653
0.755459 0.477546 0.0208286
0.894469 0.484138 0.0281682
1 0.490806 0.035584
0 0.566049 0
0.0900587 0.57142 0
0.214984 0.57734 0
0.344686 0.58349 0
0.477623 0.589792 0.000732433
0.61297 0.596216 0.00787366
0.750317 0.602731 0.0151369
0.889311 0.609323 0.0224765
1 0.615976 0.0298924
0 0.69427 0
0.0847791 0.699657 0
0.209705 0.705577 0
0.339422 0.711727 0
0.472343 0.718029 0
0.607706 0.724453 0.00204471
0.745037 0.730968 0.009308
0.884047 0.73756 0.0166476
1 0.744213 0.0240787
0 0.825116 0
0.079408 0.830488 0
0.204318 0.836408 0
0.334035 0.842573 0
0.466972 0.848875 0
0.602319 0.855283 0
0.739681 0.861799 0.00335698
0.878676 0.868391 0.0107118
1 0.875059 0.0181125
0 0.958221 0
0.0739452 0.963592 0
0.198856 0.969528 0
0.328588 0.975677 0
0.461494 0.981979 0
0.596857 0.988403 0
0.734203 0.994904 0
0.873213 1 0.004654
1 1 0.0120699
0 0.032517 0.15198
0 0.0246891 0.12784
0.223011 0.00341802 0.127977
0.357153 0.0078584 0.134203
0.488167 0.012253 0.139315
0.622965 0.0180972 0.145907
0.760296 0.0246128 0.153155
0.899306 0.0312047 0.16051
1 0.0378576 0.167941
0 0.111788 0.151202
0 0.12372 0.141085
0.220508 0.10428 0.129961
0.358099 0.105959 0.134752
0.486625 0.107866 0.137377
0.619135 0.111421 0.14168
0.756466 0.117922 0.148913
0.895476 0.124514 0.156268
1 0.131182 0.163684
0 0.198749 0.138201
0.087892 0.216556 0.123903
0.195087 0.229664 0.130297
0.360143 0.222019 0.136324
0.486381 0.221637 0.13666
0.615564 0.221866 0.137621
0.751965 0.227436 0.143938
0.890974 0.234028 0.151293
1 0.240696 0.158694
0 0.313909 0.118059
0.101259 0.327108 0.118303
0.230381 0.337209 0.128908
0.35874 0.342 0.134401
0.484916 0.341543 0.134676
0.612314 0.340017 0.133867
0.747173 0.34403 0.138643
0.886183 0.350622 0.145983
1 0.35729 0.153414
0 0.430396 0.101457
0.0893416 0.441596 0.10576
0.219211 0.452461 0.117205
0.349966 0.459663 0.125109
0.478614 0.461677 0.127855
0.607279 0.461418 0.128313
0.742184 0.465476 0.13312
0.881178 0.472068 0.140459
1 0.478737 0.147875
0 0.553445 0.0910201
0.0770581 0.55964 0.0928969
0.204349 0.567926 0.101808
0.335821 0.57583 0.110414
0.467582 0.580957 0.116258
0.600122 0.584558 0.120592
0.737026 0.590646 0.127428
0.876036 0.597238 0.134783
1 0.603906 0.142184
0 0.681849 0.0839857
0.0714885 0.687572 0.0867475
0.196414 0.693507 0.0933089
0.326131 0.699657 0.10016
0.459068 0.705959 0.107195
0.59443 0.712383 0.114336
0.731762 0.718883 0.121599
0.870771 0.725475 0.128939
1 0.732143 0.136355
0 0.812772 0.0773022
0.0661173 0.818418 0.0807813
0.191043 0.824338 0.0873579
0.32076 0.830488 0.0942245
0.453681 0.836789 0.101244
0.589044 0.843214 0.108385
0.726375 0.849729 0.115648
0.8654 0.856321 0.122988
1 0.862974 0.130404
0 0.945937 0.0707713
0.0606394 0.951522 0.0747387
0.18558 0.957443 0.0813153
0.315282 0.963592 0.0881666
0.448218 0.969909 0.0951858
0.583566 0.976318 0.102342
0.720913 0.982834 0.10959
0.859922 0.989425 0.116945
1 0.996094 0.124361
0 0.0420996 0.28748
0 0.0390326 0.267185
0.0988022 0.0154574 0.233997
0.3364 0 0.246357
0.475547 0.000396735 0.251957
0.610025 0.00593576 0.258244
0.747372 0.0124514 0.265492
0.886366 0.0190433 0.272847
1 0.0256962 0.280247
0 0.120958 0.285924
0 0.129198 0.273854
0.0601968 0.12369 0.250385
0.33489 0.0973983 0.248081
0.47538 0.0973831 0.251392
0.606729 0.0997787 0.254536
0.743526 0.10576 0.26125
0.882536 0.112352 0.268605
1 0.11902 0.27602
0 0.201892 0.280369
0 0.224094 0.274205
0.07776 0.23946 0.265995
0.327871 0.220295 0.252872
0.47863 0.214649 0.25417
0.605859 0.21294 0.253178
0.739025 0.215274 0.256275
0.878035 0.221866 0.263615
1 0.228534 0.271031
0 0.295445 0.273503
0.0720226 0.315572 0.262608
0.185946 0.340505 0.24799
0.298589 0.355673 0.252949
0.482444 0.339849 0.257465
0.606973 0.335424 0.253788
0.735302 0.332937 0.252033
0.873243 0.33846 0.258305
1 0.345129 0.265736
0 0.412436 0.252399
0.0784772 0.430594 0.237125
0.214328 0.448371 0.237934
0.349905 0.460365 0.250309
0.480339 0.464164 0.254826
0.605798 0.460685 0.252079
0.732235 0.456291 0.248432
0.868254 0.459907 0.252796
1 0.46656 0.260212
0 0.537301 0.228733
0.0649424 0.548211 0.215915
0.197787 0.562158 0.220706
0.334203 0.574975 0.234043
0.468391 0.582544 0.242344
0.598016 0.58323 0.243748
0.726833 0.581216 0.242481
0.863111 0.585077 0.247105
1 0.591745 0.25452
0 0.66717 0.213611
0.0577249 0.674708 0.204883
0.183581 0.681437 0.205859
0.315847 0.690135 0.215137
0.450889 0.698558 0.224277
0.584894 0.703609 0.23006
0.719127 0.707012 0.234211
0.857832 0.713314 0.24126
0.998291 0.719982 0.248692
0 0.798901 0.202197
0.0525216 0.805768 0.197345
0.178103 0.812177 0.199771
0.30782 0.818326 0.206546
0.440742 0.824628 0.213565
0.57612 0.831052 0.220722
0.713466 0.837568 0.227985
0.852461 0.84416 0.235325
0.992905 0.850813 0.242741
0 0.93254 0.192737
0.0471656 0.938994 0.190341
0.172625 0.945281 0.193698
0.302358 0.951431 0.200488
0.435279 0.957732 0.207523
0.570642 0.964157 0.214664
0.707988 0.970672 0.221927
0.846983 0.977264 0.229267
0.987442 0.983917 0.236683
0 0.0478523 0.420142
0 0.045655 0.399985
0 0.0281071 0.363226
0.258167 0 0.353887
0.457527 0 0.363729
0.597177 0 0.370565
0.734508 0.000259403 0.377829
0.873518 0.0068513 0.385168
1 0.0135195 0.392584
0 0.12694 0.41886
0 0.13167 0.403479
0 0.128237 0.38114
0.229908 0.104723 0.354223
0.456199 0.0860914 0.363363
0.594156 0.087892 0.367147
0.730678 0.0935836 0.373587
0.869688 0.100175 0.380911
1 0.106828 0.388342
0 0.209751 0.412787
0 0.224598 0.402106
0 0.235859 0.39089
0.185534 0.234089 0.370153
0.458396 0.206226 0.3682
0.595376 0.203128 0.36788
0.726635 0.203555 0.36907
0.865187 0.209689 0.375952
1 0.216342 0.383368
0 0.289509 0.404059
0 0.311452 0.397436
0.0731518 0.33846 0.393057
0.19855 0.357977 0.388037
0.457069 0.339452 0.376608
0.601373 0.33051 0.373373
0.72668 0.324987 0.368597
0.86038 0.326284 0.370642
1 0.332937 0.378058
0 0.392203 0.400977
0.0567788 0.410636 0.391836
0.187991 0.435843 0.383352
0.312139 0.463706 0.370855
0.427741 0.480461 0.377356
0.607004 0.462577 0.378485
0.729198 0.453925 0.370581
0.856474 0.448798 0.366201
0.99585 0.454383 0.372534
0 0.515831 0.388968
0.0513619 0.529702 0.368887
0.187808 0.551843 0.353857
0.331777 0.573251 0.357214
0.472221 0.58706 0.371359
0.603906 0.589792 0.374823
0.728176 0.58323 0.369009
0.853498 0.576135 0.362676
0.990692 0.579553 0.366857
0 0.647623 0.36791
0.0429541 0.658152 0.344686
0.171374 0.669795 0.329305
0.310491 0.685466 0.335195
0.451682 0.700008 0.350256
0.58851 0.707897 0.358877
0.718746 0.707301 0.35903
0.847684 0.703838 0.356298
0.985428 0.70779 0.361028
0 0.781506 0.346532
0.0379034 0.790799 0.328573
0.164355 0.799237 0.318273
0.294942 0.806134 0.319005
0.430182 0.81474 0.328191
0.567864 0.823468 0.337667
0.703731 0.828504 0.343435
0.839704 0.832074 0.347753
0.980056 0.838636 0.355077
0 0.91664 0.329274
0.0327764 0.92491 0.316426
0.15906 0.93257 0.310536
0.289479 0.939239 0.312917
0.422415 0.945556 0.319844
0.557794 0.95198 0.327001
0.695125 0.95848 0.334264
0.834134 0.965072 0.341604
0.974578 0.97174 0.34902
0 0.0512093 0.550866
0 0.0499886 0.531212
0 0.035935 0.497948
0.138628 0.00605783 0.46128
0.409354 0 0.473274
0.582712 0 0.482811
0.721691 0 0.490166
0.8607 0 0.49749
1 0.00131228 0.504936
0 0.130739 0.550134
0 0.135012 0.534279
0 0.131029 0.510597
0.0944686 0.111269 0.471504
0.395987 0.0814374 0.471458
0.578882 0.0754711 0.478904
0.717861 0.0813764 0.485908
0.85687 0.0879683 0.493263
0.997314 0.0946365 0.500679
0 0.216342 0.545556
0 0.227848 0.532998
0 0.233249 0.516014
0.0639811 0.231006 0.494011
0.374792 0.207736 0.474952
0.579538 0.19086 0.479652
0.714107 0.191653 0.481697
0.852369 0.197498 0.488273
0.992813 0.20415 0.495705
0 0.295583 0.535988
0 0.31458 0.526131
0 0.332708 0.515389
0.102724 0.34757 0.506661
0.332937 0.349401 0.488777
0.587152 0.321386 0.487999
0.716991 0.315923 0.484062
0.847929 0.314443 0.483345
0.988022 0.320745 0.490394
0 0.38381 0.529824
0 0.399329 0.518456
0.104448 0.424659 0.512901
0.20734 0.456046 0.51136
0.337469 0.480232 0.509789
0.595605 0.461418 0.500023
0.725902 0.45127 0.492439
0.848844 0.441794 0.483726
0.983032 0.442191 0.484886
0 0.496895 0.53164
0.0369268 0.50837 0.516655
0.170611 0.530343 0.50837
0.314092 0.559731 0.502907
0.453971 0.588815 0.49398
0.572198 0.605447 0.502663
0.733211 0.588891 0.499214
0.852689 0.575952 0.487007
0.978882 0.568353 0.480186
0 0.625895 0.525719
0.0301823 0.636576 0.50515
0.157855 0.651331 0.482429
0.301503 0.676158 0.468956
0.451804 0.700786 0.475883
0.596262 0.716274 0.491783
0.72871 0.717891 0.494133
0.85156 0.708339 0.485344
0.97586 0.698833 0.4766
0 0.760037 0.507927
0.0235752 0.771054 0.483742
0.14963 0.782666 0.458152
0.282445 0.794171 0.441978
0.425727 0.810925 0.449073
0.570687 0.826917 0.465629
0.709636 0.835035 0.474495
0.840345 0.833326 0.473533
0.969604 0.828809 0.46978
0 0.896849 0.48484
0.0179751 0.907301 0.461845
0.144488 0.917586 0.441871
0.275792 0.926299 0.431357
0.409583 0.933349 0.432288
0.546639 0.941451 0.441001
0.686259 0.950256 0.450553
0.823789 0.955367 0.456413
0.961761 0.959548 0.461357
0 0.0529641 0.680278
0 0.0523537 0.660899
0 0.0415351 0.630655
0.0179751 0.0145571 0.58584
0.330373 0 0.580163
0.552499 0 0.594003
0.708797 0 0.602487
0.847913 0 0.609842
0.988357 0 0.617258
0 0.132753 0.679911
0 0.136767 0.663706
0 0.134127 0.640848
0 0.116045 0.602609
0.297871 0.0841077 0.576226
0.544167 0.0663462 0.589441
0.704952 0.0691997 0.598245
0.844083 0.0757763 0.6056
0.984527 0.0824292 0.613016
0 0.220066 0.67631
0 0.23006 0.66302
0 0.234958 0.645502
0 0.229709 0.619745
0.250446 0.209445 0.582467
0.535058 0.181598 0.587884
0.700633 0.178912 0.593454
0.839567 0.18529 0.60061
0.980026 0.191959 0.608042
0 0.302419 0.668208
0 0.319844 0.657755
0 0.333593 0.644236
0.0174105 0.339712 0.626841
0.209445 0.340047 0.606668
0.525994 0.316289 0.595315
0.703258 0.302953 0.595605
0.835462 0.302571 0.596002
0.975235 0.308553 0.602731
0 0.384024 0.658732
0 0.401205 0.647593
0.0114748 0.422187 0.636622
0.112062 0.444373 0.627878
0.244083 0.464088 0.622904
0.496849 0.467826 0.608743
0.715831 0.442039 0.607721
0.84007 0.4336 0.600076
0.970504 0.430243 0.597482
0 0.485603 0.658778
0.00653086 0.496956 0.644205
0.124895 0.513741 0.631983
0.247379 0.541985 0.629114
0.358633 0.577569 0.6309
0.490043 0.606439 0.632273
0.73164 0.588373 0.623163
0.851926 0.575784 0.611399
0.972198 0.562264 0.598627
0 0.606943 0.663966
0.0204013 0.616922 0.647913
0.145693 0.629114 0.630869
0.287678 0.653849 0.624018
0.441169 0.687587 0.621607
0.595224 0.717845 0.617929
0.729885 0.729213 0.627741
0.860609 0.717968 0.619501
0.977157 0.700725 0.603037
0 0.738811 0.660716
0.0121767 0.749294 0.641642
0.136797 0.761105 0.618738
0.268971 0.775967 0.594369
0.417853 0.802853 0.582742
0.573449 0.830289 0.593744
0.721294 0.847288 0.611292
0.854215 0.847791 0.612543
0.975631 0.835416 0.600931
0 0.87483 0.646143
0.00471504 0.885786 0.623377
0.130144 0.897917 0.596674
0.261082 0.909895 0.570413
0.396628 0.920928 0.554147
0.542702 0.938109 0.562325
0.690623 0.9552 0.580041
0.831327 0.963485 0.589075
0.962509 0.960876 0.587228
0 0.0535592 0.808713
0 0.0533608 0.789487
0 0.0447089 0.761151
0 0.0215763 0.718227
0.2327 0 0.690486
0.502312 0 0.702983
0.688762 0 0.714366
0.835142 0 0.722179
0.975586 0 0.72961
0 0.133532 0.808606
0 0.137346 0.792157
0 0.135592 0.769787
0 0.121187 0.735134
0.187701 0.0905165 0.69247
0.485008 0.0628977 0.697765
0.68365 0.0581521 0.710033
0.831312 0.0635691 0.717937
0.971756 0.070222 0.725353
0 0.221958 0.805676
0 0.230945 0.791852
0 0.235538 0.773968
0 0.231922 0.74931
0.135088 0.210559 0.707561
0.456886 0.17882 0.692363
0.676966 0.168032 0.704906
0.82681 0.173083 0.712963
0.967254 0.179751 0.720378
0 0.307134 0.798901
0 0.322698 0.787655
0 0.334691 0.773312
0 0.340002 0.755108
0.113207 0.333577 0.72752
0.417456 0.313283 0.696422
0.672404 0.28957 0.703563
0.822126 0.289799 0.707759
0.962463 0.296345 0.715068
0 0.387304 0.788586
0 0.406302 0.778546
0 0.426703 0.767437
0.0351873 0.442267 0.75378
0.158556 0.45008 0.737057
0.370092 0.454276 0.720012
0.67599 0.430014 0.714733
0.826459 0.420554 0.711574
0.958114 0.418418 0.710201
0 0.479713 0.7841
0 0.493309 0.770748
0.0614633 0.510323 0.757259
0.157717 0.532021 0.746029
0.261448 0.559915 0.7411
0.397925 0.585626 0.740749
0.6701 0.587106 0.732982
0.843229 0.567636 0.727794
0.964523 0.555138 0.71606
0 0.592737 0.789364
0.00364691 0.603037 0.774212
0.125505 0.614649 0.757626
0.255558 0.632624 0.746105
0.395987 0.664546 0.747204
0.525078 0.703319 0.752743
0.653284 0.736156 0.755596
0.862669 0.720592 0.74667
0.979217 0.703349 0.73019
0 0.720211 0.796521
0.0028687 0.730159 0.78056
0.127123 0.741176 0.762692
0.256992 0.753552 0.744442
0.404349 0.780682 0.738582
0.564858 0.818921 0.73875
0.725307 0.851865 0.740688
0.867414 0.861555 0.750851
0.9888 0.849149 0.739208
0 0.854154 0.794781
0 0.8645 0.776562
0.118639 0.876081 0.755276
0.248066 0.888411 0.731121
0.383108 0.903136 0.705104
0.536004 0.931411 0.695491
0.696071 0.961212 0.710704
0.846815 0.979522 0.729671
0.980011 0.978927 0.729824
0 0.0532387 0.936385
0 0.0533455 0.917266
0 0.0462501 0.890211
0 0.0263676 0.850217
0.129 0 0.809476
0.434256 0 0.811185
0.656214 0 0.824765
0.820722 0 0.834409
0.962844 0 0.841947
0 0.133333 0.936477
0 0.137041 0.919829
0 0.135882 0.89778
0 0.124147 0.865629
0.0822766 0.0967269 0.820081
0.405936 0.0639811 0.806424
0.647303 0.0498817 0.820111
0.816678 0.0515755 0.830152
0.958999 0.0580148 0.837705
0 0.222568 0.934051
0 0.230838 0.919829
0 0.235233 0.901656
0 0.23267 0.877653
0.0406043 0.215335 0.839597
0.360754 0.182452 0.803677
0.633997 0.16112 0.81442
0.811841 0.161135 0.825147
0.954498 0.167544 0.832715
0 0.309789 0.928222
0 0.323934 0.916381
0 0.334707 0.901396
0 0.339696 0.882795
0.0376745 0.335149 0.856596
0.303044 0.310597 0.812818
0.61416 0.281636 0.808682
0.806485 0.277821 0.819821
0.949706 0.284123 0.82742
0 0.391287 0.918502
0 0.41033 0.908522
0 0.428962 0.896651
0 0.442557 0.882109
0.0899825 0.448478 0.863523
0.267384 0.441444 0.83476
0.589517 0.42092 0.813291
0.805158 0.403983 0.81883
0.944793 0.405646 0.821973
0 0.477455 0.910567
0 0.4934 0.898543
0 0.513344 0.886763
0.0822003 0.53518 0.87538
0.183429 0.553002 0.862013
0.309911 0.564569 0.847868
0.545525 0.572915 0.834806
0.818601 0.550118 0.833631
0.951049 0.542229 0.82768
0 0.582559 0.912367
0 0.593957 0.897704
0.0902266 0.607309 0.881971
0.205005 0.622766 0.86656
0.315206 0.645579 0.856519
0.424002 0.679988 0.856519
0.562722 0.712337 0.860899
0.836606 0.710018 0.857618
0.972137 0.696818 0.848219
0 0.704204 0.921187
0 0.714122 0.905806
0.116274 0.725109 0.888884
0.244724 0.736568 0.871351
0.383536 0.756069 0.861082
0.539834 0.792432 0.866957
0.695888 0.83386 0.876768
0.824399 0.868132 0.878843
0.99472 0.855619 0.870222
0 0.835798 0.929107
0 0.845731 0.913222
0.10927 0.856733 0.895491
0.238285 0.868223 0.876722
0.371099 0.88069 0.857328
0.522637 0.90985 0.851972
0.689296 0.952392 0.854429
0.854658 0.98793 0.862669
0.998093 0.997574 0.873014
0 0.0522011 1
0 0.0525521 1
0 0.0466011 1
0 0.0294041 0.98088
0.0281682 0 0.935546
0.353536 0 0.921538
0.610788 0 0.933974
0.798718 0 0.945678
0.950088 0 0.954269
0 0.132403 1
0 0.136004 1
0 0.135286 1
0 0.125521 0.994675
0 0.101381 0.950759
0.314427 0.0675212 0.920012
0.595575 0.0448157 0.929
0.793301 0.0409094 0.941283
0.946258 0.0458076 0.950027
0 0.222232 1
0 0.229953 1
0 0.234195 1
0 0.232364 1
0 0.218112 0.970031
0.2607 0.187533 0.925582
0.571908 0.158312 0.92314
0.786236 0.150866 0.936065
0.941756 0.155322 0.945052
0 0.311055 1
0 0.32401 1
0 0.333913 1
0 0.338674 1
0 0.335363 0.984543
0.207126 0.315038 0.943542
0.535729 0.281651 0.917861
0.777279 0.268193 0.930404
0.936965 0.271916 0.939757
0 0.3944 1
0 0.412818 1
0 0.429755 1
0 0.441947 1
0.0256809 0.447456 0.990585
0.191806 0.441871 0.96286
0.481102 0.414603 0.920363
0.765194 0.39144 0.924666
0.931975 0.393362 0.934234
0 0.47744 1
0 0.495415 1
0 0.516518 1
0.0123293 0.537285 1
0.117403 0.552804 0.989746
0.241627 0.559564 0.970962
0.433036 0.553307 0.94258
0.757168 0.533165 0.931289
0.932357 0.524056 0.934066
0 0.575479 1
0 0.588434 1
0.0411231 0.60412 1
0.144854 0.622751 0.993973
0.240803 0.64477 0.981888
0.340139 0.665309 0.969162
0.470909 0.683818 0.960525
0.733989 0.694255 0.952438
0.95201 0.677226 0.95317
0 0.691157 1
0 0.701534 1
0.0963455 0.713176 1
0.221469 0.725689 0.993698
0.346792 0.739361 0.976562
0.477089 0.765164 0.970077
0.600855 0.805112 0.975372
0.737102 0.843976 0.983444
0.98146 0.842878 0.98204
0 0.819257 1
0 0.829099 1
0.100313 0.839948 1
0.229328 0.851209 1
0.361532 0.86276 0.985763
0.505241 0.883589 0.97644
0.670909 0.92459 0.986847
0.842512 0.970001 1
1 1 1
