src/colors/cinematic_&_blockbuster/heroic_cinema.cube
TITLE "Generated by Resolve"
LUT_3D_SIZE 5
0 0 0
0.240391 0.0139925 0.0143282
0.50042 0.0238346 0.027924
0.772595 0.0374456 0.0385595
1 0.0509804 0.0525063
0 0.211139 0
0.240421 0.224659 0.0138857
0.494331 0.228367 0.019028
0.76524 0.239521 0.0316472
1 0.252766 0.0464027
0 0.441413 0
0.223743 0.455787 0
0.483192 0.465049 0.0068513
0.755459 0.477546 0.0208286
1 0.490806 0.035584
0 0.69427 0
0.209705 0.705577 0
0.472343 0.718029 0
0.745037 0.730968 0.009308
1 0.744213 0.0240787
0 0.958221 0
0.198856 0.969528 0
0.461494 0.981979 0
0.734203 0.994904 0
1 1 0.0120699
0 0.0420996 0.28748
0.0988022 0.0154574 0.233997
0.475547 0.000396735 0.251957
0.747372 0.0124514 0.265492
1 0.0256962 0.280247
0 0.201892 0.280369
0.07776 0.23946 0.265995
0.47863 0.214649 0.25417
0.739025 0.215274 0.256275
1 0.228534 0.271031
0 0.412436 0.252399
0.214328 0.448371 0.237934
0.480339 0.464164 0.254826
0.732235 0.456291 0.248432
1 0.46656 0.260212
0 0.66717 0.213611
0.183581 0.681437 0.205859
0.450889 0.698558 0.224277
0.719127 0.707012 0.234211
0.998291 0.719982 0.248692
0 0.93254 0.192737
0.172625 0.945281 0.193698
0.435279 0.957732 0.207523
0.707988 0.970672 0.221927
0.987442 0.983917 0.236683
0 0.0512093 0.550866
0 0.035935 0.497948
0.409354 0 0.473274
0.721691 0 0.490166
1 0.00131228 0.504936
0 0.216342 0.545556
0 0.233249 0.516014
0.374792 0.207736 0.474952
0.714107 0.191653 0.481697
0.992813 0.20415 0.495705
0 0.38381 0.529824
0.104448 0.424659 0.512901
0.337469 0.480232 0.509789
0.725902 0.45127 0.492439
0.983032 0.442191 0.484886
0 0.625895 0.525719
0.157855 0.651331 0.482429
0.451804 0.700786 0.475883
0.72871 0.717891 0.494133
0.97586 0.698833 0.4766
0 0.896849 0.48484
0.144488 0.917586 0.441871
0.409583 0.933349 0.432288
0.686259 0.950256 0.450553
0.961761 0.959548 0.461357
0 0.0535592 0.808713
0 0.0447089 0.761151
0.2327 0 0.690486
0.688762 0 0.714366
0.975586 0 0.72961
0 0.221958 0.805676
0 0.235538 0.773968
0.135088 0.210559 0.707561
0.676966 0.168032 0.704906
0.967254 0.179751 0.720378
0 0.387304 0.788586
0 0.426703 0.767437
0.158556 0.45008 0.737057
0.67599 0.430014 0.714733
0.958114 0.418418 0.710201
0 0.592737 0.789364
0.125505 0.614649 0.757626
0.395987 0.664546 0.747204
0.653284 0.736156 0.755596
0.979217 0.703349 0.73019
0 0.854154 0.794781
0.118639 0.876081 0.755276
0.383108 0.903136 0.705104
0.696071 0.961212 0.710704
0.980011 0.978927 0.729824
0 0.0522011 1
0 0.0466011 1
0.0281682 0 0.935546
0.610788 0 0.933974
0.950088 0 0.954269
0 0.222232 1
0 0.234195 1
0 0.218112 0.970031
0.571908 0.158312 0.92314
0.941756 0.155322 0.945052
0 0.3944 1
0 0.429755 1
0.0256809 0.447456 0.990585
0.481102 0.414603 0.920363
0.931975 0.393362 0.934234
0 0.575479 1
0.0411231 0.60412 1
0.240803 0.64477 0.981888
0.470909 0.683818 0.960525
0.95201 0.677226 0.95317
0 0.819257 1
0.100313 0.839948 1
0.361532 0.86276 0.985763
0.670909 0.92459 0.986847
1 1 1
