src/colors/cinematic_&_blockbuster/heroic_cinema.cube
TITLE "Generated by Resolve"
LUT_3D_SIZE 33
0 0 0
0.0260624 0.00167849 0.00189212
0.0547799 0.00349432 0.00393683
0.0845502 0.00535592 0.00602731
0.114992 0.00717174 0.00810254
0.145907 0.00895705 0.010132
0.177172 0.0106508 0.0120851
0.208698 0.012253 0.0139467
0.240391 0.0139925 0.0143282
0.272358 0.0151675 0.01738
0.304356 0.0167697 0.0172122
0.336645 0.017731 0.0204623
0.369009 0.0189059 0.021912
0.401541 0.0200656 0.0233463
0.434272 0.0212406 0.0247959
0.467201 0.0224765 0.0263066
0.50042 0.0238346 0.027924
0.533959 0.0253758 0.0297398
0.567697 0.026978 0.0316167
0.601434 0.02916 0.0300298
0.635431 0.030808 0.0317235
0.669551 0.0324559 0.0334173
0.703777 0.0341192 0.0351263
0.738323 0.0350805 0.0411231
0.772595 0.0374456 0.0385595
0.807355 0.0383612 0.0449683
0.842023 0.0400092 0.046891
0.876783 0.0416724 0.0488289
0.91165 0.0433204 0.050782
0.946593 0.0449836 0.0527199
0.981628 0.0466468 0.0546731
1 0.0483253 0.0566262
1 0.0509804 0.0525063
0.000503548 0.0210574 0.000411994
0.0265812 0.0227207 0.00222782
0.055314 0.0245365 0.00418097
0.0850843 0.0263523 0.00616464
0.115511 0.0281376 0.00810254
0.146395 0.0298466 0.0099794
0.17763 0.0314641 0.0117647
0.209094 0.03299 0.0134585
0.240787 0.0343938 0.0150454
0.272633 0.0357061 0.0165255
0.304631 0.0369116 0.0178988
0.336767 0.0380407 0.0192111
0.369055 0.0391089 0.0204623
0.401511 0.0401617 0.0216831
0.434165 0.0412299 0.0229343
0.467048 0.042359 0.0242466
0.500206 0.0436255 0.0256962
0.5337 0.0450904 0.0273442
0.567483 0.0466926 0.0291295
0.601389 0.0483101 0.0309148
0.635431 0.0499123 0.0327153
0.669596 0.0515297 0.0345159
0.703868 0.0531624 0.0363317
0.738277 0.0547951 0.0381628
0.772763 0.0564279 0.0399786
0.807385 0.0580758 0.0418097
0.842084 0.0597238 0.0436408
0.87689 0.0613718 0.0454719
0.911788 0.0630198 0.0473182
0.946761 0.064683 0.0491798
0.981826 0.0663462 0.0510262
1 0.0680095 0.0528878
1 0.069688 0.0547341
0.00103761 0.0457313 0.000839246
0.0271305 0.0474098 0.00267033
0.0558633 0.0492103 0.00462348
0.0856031 0.0510109 0.00657664
0.115999 0.0527504 0.00848402
0.146822 0.0543984 0.0102998
0.177981 0.0559548 0.0120241
0.209369 0.0573892 0.0136263
0.24094 0.0587015 0.0151064
0.272679 0.0598917 0.0164797
0.304555 0.0609751 0.017731
0.336583 0.0619821 0.0189212
0.368734 0.0629282 0.0200351
0.401068 0.0638437 0.0211337
0.433585 0.0647898 0.0222477
0.466331 0.0657969 0.0234379
0.499382 0.0669413 0.0247807
0.532769 0.0682994 0.0263066
0.566522 0.0698711 0.0280766
0.600443 0.0714885 0.0298619
0.634485 0.073106 0.0316625
0.668635 0.0747234 0.0334783
0.702922 0.0763409 0.0352789
0.737316 0.0779736 0.0370947
0.771817 0.0796063 0.0389105
0.806424 0.0812543 0.0407568
0.841123 0.0829023 0.0425727
0.875929 0.0845502 0.044419
0.910826 0.0861982 0.0462654
0.9458 0.0878614 0.0481117
0.98088 0.0895247 0.049958
1 0.0912032 0.0518196
1 0.0928664 0.0536812
0.00148013 0.07187 0.0011902
0.0276036 0.073579 0.00303655
0.0563516 0.0753948 0.00500496
0.0860914 0.0771954 0.00695811
0.116457 0.0789197 0.00883497
0.14725 0.0805219 0.0106203
0.178332 0.0820172 0.0122683
0.209659 0.08336 0.0137942
0.241138 0.0845808 0.0151827
0.27277 0.0856641 0.0164492
0.304524 0.0866407 0.0175937
0.336416 0.0875257 0.0186465
0.368444 0.0883345 0.0196384
0.400641 0.0891127 0.0205997
0.433021 0.0899214 0.0215763
0.465629 0.0907912 0.0226291
0.498558 0.0918135 0.0238346
0.531823 0.0930495 0.0252537
0.565515 0.0945602 0.0269474
0.59942 0.0961624 0.028748
0.633463 0.0977798 0.0305486
0.667628 0.0993973 0.0323339
0.701915 0.10103 0.034165
0.736309 0.102663 0.0359655
0.770809 0.104295 0.0377966
0.805402 0.105928 0.0396277
0.840116 0.107576 0.0414588
0.874907 0.109239 0.0433051
0.909804 0.110887 0.0451362
0.944793 0.112551 0.0469825
0.979873 0.114214 0.0488441
1 0.115877 0.0507057
1 0.117556 0.0525521
0.00177005 0.0989242 0.00135805
0.027924 0.100664 0.00325017
0.0567025 0.10251 0.0052491
0.0864729 0.104326 0.00721752
0.116838 0.10605 0.00909438
0.147601 0.107637 0.0108492
0.178637 0.109087 0.0124666
0.209903 0.110369 0.0139315
0.241306 0.111513 0.0152438
0.272847 0.112505 0.0164187
0.304494 0.113375 0.0174563
0.336263 0.114137 0.0183871
0.36817 0.114809 0.0192416
0.400229 0.115465 0.0200809
0.432471 0.116136 0.0209201
0.464942 0.116869 0.0218357
0.497734 0.117754 0.0229038
0.530877 0.118853 0.0242008
0.564462 0.120272 0.0257877
0.598367 0.121874 0.0275731
0.63241 0.123491 0.0293736
0.666575 0.125109 0.0311742
0.700862 0.126726 0.03299
0.735256 0.128359 0.0348058
0.769757 0.130007 0.0366217
0.804349 0.13164 0.038468
0.839063 0.133288 0.0402838
0.873869 0.134936 0.0421149
0.908751 0.136599 0.0439612
0.94374 0.138262 0.0458228
0.978805 0.13991 0.0476692
1 0.141588 0.0495308
1 0.143252 0.0513924
0.00181582 0.126558 0.00129702
0.0280156 0.128344 0.00321965
0.0568399 0.130236 0.00526436
0.0866407 0.132082 0.00726329
0.117021 0.133822 0.00917067
0.147784 0.135409 0.0109255
0.17882 0.136843 0.0125277
0.210025 0.138094 0.013962
0.241382 0.139178 0.0152132
0.272847 0.140108 0.0163119
0.304417 0.140887 0.017258
0.33608 0.141527 0.0180819
0.367864 0.142107 0.0188296
0.399802 0.142626 0.0195315
0.431922 0.14316 0.020264
0.464271 0.143771 0.0210422
0.49691 0.144533 0.021973
0.529931 0.145495 0.0231327
0.563378 0.146792 0.0245975
0.597269 0.148379 0.0263676
0.631312 0.149981 0.0281682
0.665476 0.151614 0.0299687
0.699763 0.153231 0.0317845
0.734157 0.154864 0.0336004
0.768658 0.156497 0.0354314
0.803265 0.158145 0.0372625
0.837964 0.159792 0.0390936
0.87277 0.16144 0.0409247
0.907668 0.163088 0.042771
0.942641 0.164752 0.0446174
0.977722 0.166415 0.046479
1 0.168078 0.0483253
1 0.169757 0.0502022
0.00155642 0.154559 0.000915541
0.0278172 0.156405 0.00289921
0.0566873 0.158343 0.00500496
0.0865339 0.160235 0.00704967
0.116945 0.162005 0.0089723
0.147738 0.163622 0.0107576
0.178775 0.165072 0.0123751
0.209979 0.166308 0.0137942
0.241306 0.167376 0.0150149
0.272725 0.168246 0.0160678
0.304234 0.168948 0.0169528
0.335821 0.169528 0.0177005
0.367514 0.170001 0.0183566
0.399329 0.170428 0.0189517
0.431342 0.17084 0.0195621
0.463569 0.171328 0.0202182
0.496086 0.171969 0.0210269
0.528984 0.172808 0.0220645
0.562325 0.173983 0.0234073
0.59617 0.175509 0.0251316
0.630198 0.177127 0.0269322
0.664363 0.178759 0.028748
0.69865 0.180377 0.0305486
0.733043 0.18201 0.0323644
0.767544 0.183642 0.0341955
0.802152 0.18529 0.0360266
0.836851 0.186923 0.0378576
0.871656 0.188586 0.039704
0.906554 0.190234 0.0415351
0.941543 0.191897 0.0433814
0.976608 0.193561 0.045243
1 0.195224 0.0470893
1 0.196902 0.0489662
0.000961318 0.182788 0.000198367
0.0272679 0.184695 0.00222782
0.0561837 0.186694 0.00437934
0.0860914 0.188632 0.00648508
0.116564 0.190448 0.00846876
0.147387 0.192111 0.0102998
0.17847 0.193591 0.0119326
0.209689 0.194842 0.0133669
0.241016 0.195911 0.0146029
0.272419 0.196765 0.0156252
0.303883 0.197436 0.0164797
0.335409 0.197955 0.0171817
0.367041 0.198367 0.0177615
0.398779 0.198703 0.0182803
0.430686 0.199039 0.0187839
0.462821 0.19942 0.0193484
0.495232 0.199939 0.0200504
0.528023 0.200687 0.0209812
0.561257 0.20174 0.0222324
0.595026 0.20322 0.0238804
0.629068 0.204837 0.0256657
0.663233 0.206455 0.0274662
0.697505 0.208072 0.0292973
0.731899 0.209705 0.0311131
0.766415 0.211337 0.032929
0.801007 0.212985 0.0347601
0.835721 0.214633 0.0365911
0.870527 0.216281 0.0384375
0.905409 0.217929 0.0402838
0.940398 0.219593 0.0421302
0.975464 0.221256 0.0439765
1 0.222919 0.0458228
1 0.224598 0.0476997
0 0.211139 0
0.0263371 0.213092 0.00117494
0.055314 0.215152 0.0033875
0.0852674 0.217151 0.00553903
0.115801 0.219028 0.00758373
0.1467 0.220752 0.00947585
0.177813 0.222263 0.0111543
0.209079 0.223575 0.0126345
0.240421 0.224659 0.0138857
0.271839 0.225528 0.0149386
0.303304 0.226184 0.0157778
0.334813 0.226688 0.0164492
0.3664 0.22707 0.0169985
0.398093 0.227344 0.0174716
0.429938 0.227619 0.0179141
0.461997 0.227939 0.0184024
0.494331 0.228367 0.019028
0.527031 0.229038 0.0198672
0.560174 0.229999 0.0210269
0.593866 0.231388 0.0225986
0.627909 0.233005 0.0243992
0.662074 0.234623 0.0261997
0.696361 0.236255 0.0280156
0.730739 0.237888 0.0298161
0.76524 0.239521 0.0316472
0.799847 0.241154 0.0334783
0.834562 0.242802 0.0353094
0.869352 0.244465 0.0371405
0.90425 0.246113 0.0390021
0.939239 0.247776 0.0408331
0.974304 0.249439 0.0426947
1 0.251102 0.0445563
1 0.252766 0.0464027
0 0.239551 0
0.0250095 0.24155 0
0.0540322 0.243656 0.00198367
0.0840467 0.245701 0.00419623
0.114641 0.247654 0.00630198
0.145602 0.249424 0.00825513
0.176776 0.251011 0.0100099
0.208103 0.252384 0.0115358
0.239506 0.253513 0.0128481
0.270954 0.254414 0.0139315
0.302434 0.255116 0.0148013
0.333959 0.255634 0.0154879
0.365545 0.256001 0.016022
0.397223 0.25626 0.0164797
0.429038 0.256504 0.0168917
0.461051 0.256779 0.0173495
0.493339 0.25716 0.0179141
0.525979 0.257755 0.0186923
0.55906 0.258671 0.0197757
0.592691 0.259998 0.0213016
0.626734 0.261616 0.0231022
0.660899 0.263233 0.0249027
0.695171 0.264851 0.0267033
0.72958 0.266484 0.0285344
0.764065 0.268132 0.0303502
0.798672 0.269764 0.0321813
0.833387 0.271412 0.0339971
0.868177 0.27306 0.0358587
0.903075 0.274708 0.0376898
0.938064 0.276371 0.0395514
0.973129 0.278035 0.0413977
1 0.279698 0.0432593
1 0.281376 0.0451057
0 0.267994 0
0.0232853 0.270008 0
0.0523537 0.272145 0.000183108
0.082414 0.274266 0.00244144
0.113069 0.276265 0.00460822
0.144091 0.278111 0.00662242
0.175341 0.279759 0.00843824
0.206744 0.281193 0.0100557
0.238224 0.282399 0.011429
0.269734 0.283375 0.0125734
0.301274 0.284123 0.0135042
0.332845 0.284672 0.0142367
0.364446 0.285084 0.0148013
0.396155 0.285374 0.0152743
0.42797 0.285603 0.0157015
0.459983 0.285878 0.016144
0.492256 0.286244 0.0166934
0.524865 0.286824 0.0174411
0.5579 0.287694 0.0185092
0.591501 0.288991 0.0199741
0.625544 0.290593 0.0217746
0.659709 0.292226 0.0235752
0.69398 0.293843 0.025391
0.728374 0.295476 0.0272068
0.762875 0.297108 0.0290379
0.797482 0.298756 0.030869
0.832181 0.300404 0.0327001
0.866987 0.302052 0.0345312
0.901884 0.3037 0.0363775
0.936873 0.305364 0.0382086
0.971939 0.307027 0.0400702
1 0.30869 0.0419471
1 0.310369 0.0437934
0 0.296452 0
0.02121 0.298482 0
0.050309 0.300649 0
0.0803998 0.302785 0.00030518
0.111101 0.304845 0.00251774
0.142184 0.306752 0.00459297
0.17351 0.308476 0.00648508
0.20499 0.309987 0.00816358
0.236545 0.311284 0.00962844
0.268147 0.312337 0.0108492
0.299763 0.313161 0.0118563
0.331411 0.313787 0.012665
0.363088 0.314244 0.0133059
0.394827 0.314595 0.0138247
0.426688 0.314885 0.0142824
0.458732 0.315175 0.0147707
0.49102 0.315572 0.0153353
0.523644 0.316152 0.0161135
0.556695 0.317037 0.0171664
0.590295 0.318334 0.0186465
0.624338 0.319936 0.0204471
0.658503 0.321553 0.0222477
0.692775 0.323186 0.0240482
0.727169 0.324819 0.0258793
0.761669 0.326452 0.0276951
0.796277 0.328099 0.0295262
0.830991 0.329732 0.0313725
0.865782 0.331395 0.0332036
0.900679 0.333043 0.03505
0.935668 0.334691 0.0368963
0.970733 0.33637 0.0387427
1 0.338033 0.0406043
1 0.339712 0.0424506
0 0.324971 0
0.0188296 0.32697 0
0.0479286 0.329137 0
0.0780499 0.331304 0
0.108782 0.333394 6.10361e-05
0.13991 0.335348 0.00218204
0.171298 0.337148 0.0041352
0.202853 0.338735 0.00590524
0.234501 0.340124 0.00746166
0.266194 0.341268 0.00877394
0.297917 0.342199 0.00988785
0.329656 0.342916 0.0107881
0.361425 0.343481 0.0115206
0.393256 0.343908 0.0121309
0.425208 0.344274 0.012665
0.457313 0.34464 0.0132143
0.489662 0.345083 0.0138399
0.522332 0.345724 0.0146639
0.555444 0.346654 0.0157778
0.589075 0.347982 0.0172885
0.623117 0.349599 0.019089
0.657282 0.351217 0.0208896
0.691554 0.35285 0.0227054
0.725948 0.354482 0.0245212
0.760464 0.356115 0.0263371
0.795071 0.357748 0.0281834
0.82977 0.359396 0.0300145
0.864576 0.361044 0.0318608
0.899458 0.362707 0.0336919
0.934447 0.364355 0.0355535
0.969512 0.366033 0.0373999
1 0.367697 0.0392462
1 0.36936 0.0411231
0 0.353597 0
0.0162356 0.355566 0
0.0452888 0.357702 0
0.0754101 0.359854 0
0.106142 0.361959 0
0.137316 0.363943 0
0.168765 0.365789 0.00146487
0.200381 0.367468 0.00331121
0.232136 0.368933 0.00494392
0.26392 0.370184 0.00637827
0.29575 0.371221 0.00758373
0.327611 0.372061 0.00860609
0.359503 0.372732 0.00946059
0.391455 0.373281 0.0101778
0.423499 0.373754 0.0108339
0.455711 0.374228 0.01149
0.488167 0.374792 0.0122225
0.520928 0.375525 0.013138
0.554131 0.376532 0.0143282
0.587839 0.377951 0.0159304
0.621881 0.379553 0.017731
0.656046 0.381186 0.0195315
0.690318 0.382803 0.0213474
0.724727 0.384436 0.0231632
0.759228 0.386069 0.0249943
0.793835 0.387717 0.0268101
0.828534 0.389349 0.0286564
0.863325 0.391012 0.0304875
0.898238 0.39266 0.0323339
0.933211 0.394324 0.034165
0.968292 0.395987 0.0360266
1 0.39765 0.0378882
1 0.399329 0.0397498
0 0.382467 0
0.0135348 0.384344 0
0.0425269 0.386419 0
0.0725872 0.388525 0
0.103304 0.3906 0
0.134493 0.392599 0
0.165972 0.394476 0
0.19765 0.396216 0.000442512
0.22948 0.397757 0.00216678
0.261372 0.399115 0.00369268
0.293309 0.400275 0.00502022
0.325307 0.401236 0.00616464
0.357336 0.402045 0.00715648
0.38941 0.402731 0.00802625
0.421607 0.403357 0.00881971
0.453971 0.403967 0.00961318
0.486564 0.404654 0.0104829
0.519463 0.405524 0.0115358
0.552789 0.406668 0.0128634
0.586603 0.408179 0.0145571
0.620645 0.409796 0.0163577
0.65481 0.411414 0.0181582
0.689082 0.413046 0.0199741
0.723491 0.414679 0.0217899
0.757977 0.416312 0.0236057
0.792584 0.417945 0.0254368
0.827283 0.419593 0.0272679
0.862089 0.421241 0.0291142
0.897002 0.422904 0.0309606
0.931975 0.424567 0.0327916
0.967041 0.42623 0.0346532
1 0.427893 0.0365148
1 0.429557 0.0383764
0 0.411673 0
0.0108644 0.413428 0
0.0397498 0.415381 0
0.0697185 0.417411 0
0.100389 0.419425 0
0.131548 0.421408 0
0.163027 0.423301 0
0.194751 0.425055 0
0.226642 0.426673 0
0.258625 0.428122 0.000808728
0.290684 0.429389 0.00225834
0.322805 0.430488 0.00354009
0.354971 0.431449 0.00466926
0.387228 0.432303 0.00569161
0.419593 0.433082 0.00666819
0.452125 0.43386 0.00762951
0.484871 0.43473 0.00866712
0.517968 0.435767 0.0099031
0.551446 0.437079 0.0113985
0.585351 0.438682 0.0131685
0.619394 0.440299 0.0149691
0.653559 0.441917 0.0167697
0.687831 0.443534 0.0185855
0.722225 0.445167 0.0204013
0.756741 0.446799 0.0222171
0.791333 0.448447 0.0240482
0.826032 0.450095 0.0258793
0.860838 0.451743 0.0277256
0.895735 0.453407 0.029572
0.930724 0.455055 0.0314183
0.965789 0.456718 0.0332647
1 0.458396 0.0351263
1 0.46006 0.0369879
0 0.441413 0
0.00840772 0.442985 0
0.0371252 0.44477 0
0.0669718 0.446662 0
0.0975357 0.448585 0
0.128618 0.450492 0
0.160082 0.452354 0
0.191821 0.454124 0
0.223743 0.455787 0
0.255802 0.457298 0
0.287968 0.458671 0
0.320211 0.459907 0.000808728
0.352544 0.461021 0.00210575
0.38497 0.462043 0.00329595
0.417502 0.463004 0.00444038
0.450233 0.463981 0.00560006
0.483192 0.465049 0.0068513
0.516472 0.4663 0.00828565
0.550179 0.467811 0.0099794
0.584085 0.469429 0.0117647
0.618128 0.471031 0.0135653
0.652277 0.472663 0.0153811
0.686564 0.474281 0.0171817
0.720958 0.475914 0.0189975
0.755459 0.477546 0.0208286
0.790066 0.479194 0.0226444
0.824765 0.480842 0.0244907
0.859586 0.48249 0.0263218
0.894469 0.484138 0.0281682
0.929458 0.485801 0.0300145
0.964523 0.487465 0.0318761
0.99968 0.489128 0.0337377
1 0.490806 0.035584
0 0.47187 0
0.00637827 0.473198 0
0.0348669 0.474769 0
0.0645151 0.476463 0
0.0949264 0.478233 0
0.125902 0.480034 0
0.15729 0.481819 0
0.188998 0.483558 0
0.220935 0.485222 0
0.253056 0.486793 0
0.285298 0.488258 0
0.317662 0.489601 0
0.350134 0.490867 0
0.382727 0.492058 0.0009308
0.415473 0.493217 0.00227359
0.448417 0.494408 0.00364691
0.481605 0.495705 0.00512703
0.515114 0.497185 0.00679026
0.548898 0.498787 0.00857557
0.582818 0.500404 0.0103609
0.616861 0.502007 0.0121614
0.651011 0.503639 0.013962
0.685298 0.505257 0.0157778
0.719692 0.506889 0.0175937
0.754192 0.508522 0.0194247
0.7888 0.51017 0.0212558
0.823499 0.511818 0.0230716
0.858305 0.513466 0.024918
0.893202 0.515114 0.0267643
0.928176 0.516777 0.0286107
0.963241 0.518441 0.030457
0.998413 0.520104 0.0323186
1 0.521782 0.0341802
0 0.503029 0
0.00494392 0.50425 0
0.0332189 0.505592 0
0.0626078 0.507027 0
0.0928054 0.508583 0
0.123613 0.510201 0
0.154879 0.511864 0
0.186496 0.513527 0
0.218402 0.515175 0
0.250523 0.516762 0
0.282841 0.518273 0
0.315297 0.519722 0
0.347906 0.521111 0
0.380667 0.522484 0
0.413611 0.523842 0.000274662
0.446769 0.525261 0.00187686
0.480201 0.526787 0.00358587
0.513848 0.528389 0.00537118
0.547616 0.529992 0.00715648
0.581521 0.531594 0.00894179
0.615564 0.533211 0.0107424
0.649729 0.534829 0.0125582
0.684016 0.536461 0.0143587
0.71841 0.538079 0.0161746
0.752911 0.539727 0.0180056
0.787518 0.54136 0.0198215
0.822217 0.543008 0.0216526
0.857023 0.544656 0.0234989
0.89192 0.546319 0.0253452
0.926894 0.547982 0.0271916
0.961959 0.54963 0.0290532
0.997131 0.551308 0.0308995
1 0.552972 0.0327764
0 0.534432 0
0.00366217 0.535653 0
0.0319219 0.536995 0
0.0612802 0.538384 0
0.0913558 0.539818 0
0.121981 0.541268 0
0.153063 0.542748 0
0.184543 0.544274 0
0.216373 0.54583 0
0.248478 0.547387 0
0.280797 0.548928 0
0.313329 0.550454 0
0.346059 0.551965 0
0.378973 0.553475 0
0.412116 0.555016 0
0.445441 0.556603 0.000396735
0.47892 0.55819 0.00216678
0.512551 0.559792 0.00393683
0.546334 0.561395 0.00572213
0.58024 0.562997 0.0075227
0.614282 0.564614 0.00932326
0.648432 0.566232 0.0111238
0.682719 0.567864 0.0129244
0.717113 0.569482 0.0147402
0.751629 0.57113 0.0165713
0.786221 0.572763 0.0184024
0.82092 0.574411 0.0202335
0.855726 0.576059 0.0220798
0.890623 0.577722 0.0239109
0.925612 0.57937 0.0257725
0.960678 0.581033 0.0276188
0.995834 0.582712 0.0294652
1 0.584375 0.031342
0 0.566049 0
0.00236515 0.567254 0
0.0306249 0.568597 0
0.059968 0.569986 0
0.0900587 0.57142 0
0.120668 0.572869 0
0.151751 0.574334 0
0.1832 0.57583 0
0.214984 0.57734 0
0.247044 0.578866 0
0.279362 0.580392 0
0.311925 0.581933 0
0.344686 0.58349 0
0.377661 0.585061 0
0.410803 0.586633 0
0.444144 0.588205 0
0.477623 0.589792 0.000732433
0.511254 0.591394 0.00250248
0.545022 0.592996 0.00428778
0.578943 0.594598 0.00608835
0.61297 0.596216 0.00787366
0.647135 0.597833 0.00968948
0.681422 0.599466 0.0115053
0.715816 0.601099 0.0133211
0.750317 0.602731 0.0151369
0.784939 0.604364 0.016968
0.819623 0.606012 0.0187991
0.854429 0.60766 0.0206302
0.889311 0.609323 0.0224765
0.9243 0.610986 0.0243229
0.959381 0.61265 0.0261845
0.994537 0.614313 0.0280461
1 0.615976 0.0298924
0 0.597833 0
0.00105287 0.599054 0
0.0293278 0.600397 0
0.0586709 0.601785 0
0.0887465 0.603204 0
0.119371 0.604654 0
0.150439 0.606134 0
0.181888 0.60763 0
0.213657 0.60914 0
0.245731 0.610651 0
0.27805 0.612192 0
0.310613 0.613733 0
0.343389 0.61529 0
0.376364 0.616846 0
0.409506 0.618418 0
0.442832 0.620005 0
0.47631 0.621592 0
0.509941 0.623178 0.00106813
0.543725 0.624781 0.00283818
0.57763 0.626398 0.00463874
0.611673 0.628016 0.00643931
0.645838 0.629633 0.00823987
0.680125 0.631251 0.0100557
0.714504 0.632883 0.0118715
0.749004 0.634516 0.0136873
0.783627 0.636164 0.0155184
0.818326 0.637812 0.0173495
0.853132 0.63946 0.0191958
0.888014 0.641108 0.0210269
0.923003 0.642771 0.0228733
0.958083 0.644434 0.0247349
0.993225 0.646097 0.0265965
1 0.647776 0.0284428
0 0.629816 0
0 0.631022 0
0.0280003 0.632364 0
0.0573587 0.633753 0
0.0874342 0.635187 0
0.118059 0.636637 0
0.149126 0.638117 0
0.180575 0.639597 0
0.21236 0.641108 0
0.244434 0.642634 0
0.276738 0.64416 0
0.3093 0.645701 0
0.342061 0.647257 0
0.375036 0.648829 0
0.408194 0.650401 0
0.44152 0.651972 0
0.474998 0.653559 0
0.508629 0.655161 0
0.542412 0.656764 0.00138857
0.576318 0.658366 0.00318914
0.610361 0.659983 0.00497444
0.644526 0.661601 0.00679026
0.678798 0.663233 0.00859083
0.713207 0.664851 0.0104067
0.747692 0.666499 0.0122377
0.7823 0.668132 0.0140688
0.817014 0.669779 0.0158999
0.851804 0.671427 0.0177462
0.886702 0.673091 0.0195773
0.921675 0.674754 0.0214237
0.956771 0.676402 0.0232853
0.991928 0.67808 0.0251316
1 0.679744 0.0269932
0 0.661967 0
0 0.663172 0
0.026688 0.664515 0
0.0560311 0.665904 0
0.0861067 0.667338 0
0.116732 0.668788 0
0.147799 0.670253 0
0.179263 0.671748 0
0.211032 0.673259 0
0.243107 0.674784 0
0.275425 0.67631 0
0.307988 0.677852 0
0.340749 0.679408 0
0.373709 0.68098 0
0.406867 0.682551 0
0.440192 0.684123 0
0.473671 0.68571 0
0.507317 0.687312 0
0.541085 0.688914 0
0.57499 0.690517 0.00172427
0.609033 0.692134 0.00352483
0.643198 0.693751 0.0053254
0.677485 0.695384 0.00714122
0.711879 0.697017 0.00894179
0.74638 0.69865 0.0107729
0.780987 0.700282 0.012604
0.815686 0.70193 0.014435
0.850492 0.703578 0.0162814
0.88539 0.705242 0.0181125
0.920363 0.706905 0.0199741
0.955444 0.708553 0.0218204
0.9906 0.710231 0.023682
1 0.711894 0.0255283
0 0.69427 0
0 0.695491 0
0.0253605 0.696834 0
0.0547036 0.698222 0
0.0847791 0.699657 0
0.115404 0.701106 0
0.146487 0.702571 0
0.177935 0.704067 0
0.209705 0.705577 0
0.241779 0.707103 0
0.274098 0.708629 0
0.306645 0.71017 0
0.339422 0.711727 0
0.372396 0.713283 0
0.405539 0.71487 0
0.438865 0.716442 0
0.472343 0.718029 0
0.505974 0.719631 0
0.539757 0.721233 0
0.573663 0.722835 0.000259403
0.607706 0.724453 0.00204471
0.641871 0.72607 0.00386053
0.676158 0.727703 0.0056611
0.710552 0.729335 0.00747692
0.745037 0.730968 0.009308
0.77966 0.732601 0.0111391
0.814359 0.734249 0.0129702
0.849165 0.735897 0.0148165
0.884047 0.73756 0.0166476
0.919036 0.739208 0.0184939
0.954116 0.740871 0.0203555
0.989273 0.74255 0.0222019
1 0.744213 0.0240787
0 0.726757 0
0 0.727977 0
0.024033 0.72932 0
0.0533761 0.730709 0
0.0834516 0.732128 0
0.114061 0.733577 0
0.145144 0.735058 0
0.176593 0.736553 0
0.208377 0.738048 0
0.240436 0.739574 0
0.272755 0.741115 0
0.305303 0.742657 0
0.338079 0.744213 0
0.371054 0.745769 0
0.404211 0.747341 0
0.437522 0.748928 0
0.471015 0.750515 0
0.504631 0.752102 0
0.53843 0.753704 0
0.572335 0.755322 0
0.606378 0.756924 0.000579843
0.640543 0.758556 0.00238041
0.674815 0.760174 0.00419623
0.709209 0.761807 0.00601205
0.743725 0.763439 0.00782788
0.778317 0.765087 0.0096437
0.813031 0.766735 0.01149
0.847822 0.768383 0.0133211
0.882719 0.770031 0.0151675
0.917708 0.771695 0.0170291
0.952789 0.773358 0.0188754
0.98793 0.775021 0.0207218
1 0.776699 0.0225986
0 0.759396 0
0 0.760616 0
0.0226749 0.761944 0
0.0520333 0.763348 0
0.0820935 0.764767 0
0.112734 0.766217 0
0.143801 0.767697 0
0.17525 0.769192 0
0.207034 0.770687 0
0.239094 0.772213 0
0.271412 0.773739 0
0.303975 0.775296 0
0.336751 0.776837 0
0.369726 0.778408 0
0.402869 0.77998 0
0.436179 0.781567 0
0.469657 0.783154 0
0.503304 0.784741 0
0.537087 0.786343 0
0.570993 0.787945 0
0.605035 0.789563 0
0.6392 0.791196 0.000900282
0.673472 0.792813 0.00270085
0.707881 0.794446 0.00453193
0.742367 0.796078 0.00634775
0.776989 0.797726 0.00817884
0.811673 0.799374 0.0100099
0.846494 0.801022 0.011841
0.881376 0.80267 0.0136873
0.916365 0.804334 0.0155337
0.951446 0.805997 0.01738
0.986587 0.80766 0.0192416
1 0.809339 0.0211032
0 0.792187 0
0 0.793393 0
0.0213321 0.794736 0
0.0506905 0.796124 0
0.0807507 0.797559 0
0.111376 0.799008 0
0.142443 0.800488 0
0.173907 0.801968 0
0.205676 0.803479 0
