src/colors/cinematic_&_blockbuster/romantic_cinema.cube
TITLE "Generated by Resolve"
LUT_3D_SIZE 33
0.0148928 0.0157015 0.0207065
0.0167239 0.0163119 0.0208438
0.0212253 0.0171206 0.0212711
0.0275883 0.018204 0.022385
0.0362554 0.0194858 0.0238804
0.052079 0.0218204 0.0261845
0.0785077 0.0273442 0.0300755
0.111742 0.0361944 0.035523
0.14728 0.0451667 0.043122
0.182803 0.0534371 0.0505074
0.218997 0.0613413 0.0585031
0.261692 0.0720836 0.0682383
0.30193 0.0820478 0.0771954
0.34255 0.0921645 0.0861524
0.382239 0.102022 0.0948959
0.420966 0.111757 0.103563
0.457115 0.12076 0.111604
0.492897 0.12987 0.1196
0.52459 0.137789 0.126604
0.555627 0.145617 0.133547
0.584375 0.152834 0.139864
0.610437 0.159319 0.145571
0.635691 0.165576 0.151095
0.659129 0.171328 0.156161
0.681743 0.176944 0.161013
0.703243 0.182239 0.165591
0.724743 0.187488 0.17023
0.745815 0.192721 0.174868
0.766125 0.197757 0.179278
0.787793 0.203387 0.184176
0.808652 0.20882 0.188968
0.829175 0.214252 0.193729
0.850828 0.220218 0.198962
0.016022 0.0190585 0.0218814
0.0180056 0.0196841 0.0223392
0.0228428 0.0205081 0.0226139
0.0289006 0.0217594 0.0233921
0.0379339 0.0234226 0.0247959
0.0545663 0.0266728 0.0272984
0.081178 0.0327153 0.0310216
0.114549 0.0410468 0.0365606
0.150683 0.0498665 0.0441138
0.186648 0.057969 0.0515908
0.223682 0.0662547 0.0598459
0.264912 0.0763409 0.0691844
0.305287 0.0863813 0.0781567
0.345968 0.0965438 0.087129
0.385489 0.106432 0.0958267
0.423728 0.115999 0.104326
0.459617 0.125002 0.112306
0.494652 0.133898 0.120134
0.526635 0.141909 0.127199
0.55761 0.149767 0.134127
0.586038 0.156893 0.140383
0.612207 0.163409 0.146075
0.637415 0.169711 0.151598
0.660685 0.175418 0.156619
0.683314 0.181079 0.161471
0.704829 0.186358 0.166079
0.726101 0.191577 0.170657
0.74757 0.196948 0.175387
0.768048 0.202106 0.179858
0.789517 0.20766 0.184741
0.81033 0.213153 0.189502
0.830991 0.218631 0.194324
0.852644 0.224659 0.19968
0.0166323 0.0263066 0.0225834
0.0200351 0.0269627 0.0233005
0.0249485 0.0278172 0.0236362
0.0306554 0.0289464 0.0239109
0.0401923 0.0312505 0.0254063
0.0580758 0.0356146 0.0281682
0.0854963 0.0420996 0.0320134
0.119066 0.0500649 0.037705
0.155032 0.0582742 0.0449531
0.191287 0.0660105 0.052781
0.228443 0.0739757 0.0612039
0.268269 0.0831769 0.0700999
0.308827 0.0932631 0.0790723
0.349355 0.10341 0.0880598
0.389059 0.113329 0.0968185
0.426337 0.122637 0.105028
0.462211 0.13164 0.113008
0.496513 0.140291 0.120638
0.528328 0.148287 0.127687
0.559487 0.156176 0.134661
0.587518 0.16318 0.140826
0.613611 0.169665 0.146517
0.638956 0.175967 0.152071
0.662226 0.181704 0.157076
0.684977 0.187396 0.16199
0.706554 0.192706 0.166613
0.72784 0.197925 0.171176
0.749599 0.203403 0.176013
0.770123 0.208591 0.180514
0.791241 0.214054 0.18529
0.812329 0.219608 0.190204
0.833097 0.225132 0.195026
0.854582 0.231159 0.200443
0.0175174 0.036408 0.0236973
0.0216831 0.0369116 0.0242618
0.0270542 0.0375067 0.024506
0.0330053 0.0382544 0.0245365
0.0437781 0.0406348 0.025803
0.065156 0.0454871 0.0286259
0.0949721 0.0522316 0.0328374
0.128359 0.0599527 0.0386511
0.163088 0.0678874 0.0460212
0.198611 0.0754101 0.0543832
0.235096 0.0825971 0.0628977
0.273091 0.0907912 0.0713512
0.312779 0.100465 0.0801099
0.353216 0.110552 0.0890211
0.392233 0.120317 0.0976272
0.429191 0.129549 0.105806
0.464942 0.138491 0.113756
0.498466 0.146929 0.121157
0.530251 0.154925 0.128206
0.56109 0.162707 0.135119
0.588952 0.169635 0.141238
0.615473 0.176257 0.147005
0.640772 0.182559 0.152529
0.664118 0.188281 0.157595
0.68687 0.193912 0.162539
0.708598 0.199298 0.167193
0.730068 0.204547 0.171862
0.75169 0.209979 0.176608
0.772137 0.215091 0.181155
0.79321 0.220569 0.185931
0.81445 0.226184 0.19086
0.835355 0.2318 0.195789
0.856413 0.237751 0.20116
0.018616 0.0497139 0.0249485
0.0233768 0.0502022 0.0254978
0.029099 0.0506447 0.025803
0.0360723 0.0513619 0.0259403
0.0475624 0.0531472 0.0263981
0.0709544 0.0569009 0.0279545
0.105913 0.0623331 0.0321202
0.140948 0.0700236 0.0393835
0.175677 0.0783398 0.0482032
0.210971 0.0860609 0.0573892
0.245945 0.0926223 0.0657816
0.28188 0.0999619 0.0737469
0.319966 0.108934 0.082002
0.358694 0.118517 0.0904555
0.396262 0.127794 0.0986648
0.432563 0.136812 0.106661
0.467552 0.145586 0.114412
0.500618 0.153857 0.121721
0.532586 0.161959 0.128832
0.562768 0.169497 0.135576
0.590997 0.176532 0.141756
0.618204 0.183383 0.147784
0.643488 0.189654 0.153292
0.66685 0.195392 0.158343
0.689418 0.200961 0.163272
0.711345 0.206363 0.168017
0.732937 0.211673 0.172686
0.754269 0.216922 0.177371
0.774929 0.222095 0.181964
0.796048 0.227558 0.18677
0.817227 0.233234 0.191684
0.838239 0.238849 0.196704
0.858717 0.244694 0.20209
0.0196231 0.0652323 0.0255894
0.0248722 0.0660868 0.0260929
0.030808 0.0665904 0.0263828
0.037995 0.067216 0.0263523
0.0504005 0.0684215 0.026215
0.074052 0.0705882 0.0266575
0.112596 0.0736858 0.0300298
0.153353 0.0807355 0.0399786
0.190616 0.0895247 0.0514534
0.22652 0.0972152 0.0616007
0.261097 0.103624 0.0698863
0.296559 0.110903 0.0776684
0.332998 0.119371 0.0855116
0.369436 0.128237 0.0933089
0.404868 0.136873 0.100969
0.439246 0.145357 0.108415
0.472099 0.15349 0.115602
0.504692 0.161715 0.122789
0.536309 0.169726 0.129839
0.565713 0.17702 0.136355
0.593973 0.184115 0.142565
0.621592 0.191089 0.14873
0.646662 0.197299 0.154192
0.670039 0.203021 0.159243
0.692805 0.208621 0.164202
0.714763 0.214023 0.169009
0.736477 0.219348 0.173724
0.757687 0.224598 0.178347
0.778408 0.229694 0.182986
0.799313 0.23508 0.187747
0.82063 0.240742 0.192737
0.841627 0.246387 0.197757
0.861372 0.252186 0.203204
0.020325 0.0804456 0.025391
0.0259098 0.0819715 0.0255436
0.0319371 0.0827955 0.0255131
0.0387427 0.0834363 0.0252842
0.0507362 0.0843824 0.0248112
0.0744945 0.0857404 0.0249485
0.11397 0.0878309 0.0284123
0.161578 0.092256 0.0389715
0.204837 0.101122 0.053666
0.242298 0.10901 0.0653849
0.277592 0.115206 0.0742962
0.313451 0.122515 0.0822461
0.349783 0.13106 0.0899672
0.385306 0.139681 0.0975204
0.419303 0.147967 0.104814
0.451301 0.155764 0.11165
0.482338 0.163394 0.118364
0.513024 0.171069 0.125063
0.543084 0.178637 0.131701
0.571679 0.185748 0.137987
0.59939 0.192676 0.14406
0.626078 0.19942 0.149935
0.650629 0.205478 0.155276
0.674205 0.211292 0.160433
0.697002 0.216953 0.165423
0.718883 0.222309 0.170199
0.740307 0.227527 0.174853
0.761349 0.23267 0.179461
0.782269 0.237919 0.184146
0.80325 0.24332 0.188937
0.824475 0.24889 0.193912
0.845335 0.254414 0.198947
0.864317 0.260471 0.204517
0.0208591 0.0953078 0.0248417
0.0267796 0.0973983 0.0248722
0.0328985 0.0983749 0.0245975
0.0396582 0.0988479 0.0241855
0.0517281 0.100038 0.02327
0.0762036 0.101946 0.0230259
0.115892 0.104112 0.0266423
0.165713 0.106889 0.0369268
0.215335 0.112459 0.0524453
0.256565 0.120943 0.0675975
0.29369 0.127275 0.078294
0.329946 0.134218 0.0865187
0.367178 0.143038 0.0945449
0.402518 0.151644 0.102098
0.435874 0.159854 0.10927
0.467201 0.167514 0.115969
0.497551 0.175036 0.12253
0.526467 0.182254 0.128786
0.554391 0.189151 0.134829
0.581628 0.195895 0.140734
0.607965 0.202472 0.146471
0.632975 0.208667 0.151919
0.656764 0.214542 0.157061
0.68014 0.220371 0.162127
0.702541 0.225879 0.166995
0.724269 0.231205 0.171756
0.745464 0.236408 0.176394
0.76643 0.241611 0.181033
0.787381 0.246937 0.185748
0.808026 0.252247 0.190463
0.829007 0.25774 0.195361
0.849622 0.263279 0.200458
0.867704 0.269657 0.206073
0.0214389 0.111284 0.0243992
0.0276799 0.113054 0.0245365
0.0339361 0.113771 0.0244297
0.0407111 0.11426 0.0240787
0.0536507 0.115816 0.0229953
0.0798657 0.118761 0.0223392
0.120089 0.12163 0.025391
0.170184 0.123415 0.0346075
0.223285 0.126162 0.0496834
0.269474 0.13312 0.0671244
0.308278 0.13994 0.0809186
0.345556 0.145708 0.0905165
0.384039 0.154986 0.0989242
0.419745 0.163745 0.106645
0.453178 0.17203 0.113878
0.484047 0.17969 0.120516
0.513405 0.186984 0.126833
0.54139 0.193927 0.132891
0.567727 0.200412 0.138506
0.594079 0.206943 0.144228
0.619211 0.213199 0.149645
0.643305 0.219165 0.154864
0.666316 0.224842 0.159792
0.688609 0.23035 0.164599
0.710384 0.235691 0.169314
0.731624 0.240955 0.173953
0.752255 0.246006 0.178439
0.772717 0.251087 0.182956
0.793301 0.256291 0.187579
0.813443 0.261463 0.192157
0.833829 0.266819 0.196902
0.854032 0.272465 0.20209
0.87097 0.278828 0.207691
0.022385 0.128649 0.0244297
0.0287785 0.130129 0.0245975
0.035172 0.130922 0.0247196
0.0418708 0.13167 0.0245823
0.0548867 0.133562 0.0234684
0.0831464 0.137331 0.0222934
0.126223 0.140932 0.0248112
0.177432 0.142855 0.0331426
0.230625 0.143969 0.0469673
0.28098 0.147219 0.0641947
0.323384 0.153521 0.0813611
0.361395 0.158999 0.0938735
0.399313 0.166781 0.1028
0.436057 0.17583 0.110796
0.469886 0.184283 0.118273
0.500923 0.192096 0.125032
0.529854 0.199298 0.131258
0.556939 0.206027 0.137133
0.582849 0.212451 0.142733
0.608591 0.218952 0.148272
0.632883 0.224948 0.153506
0.655909 0.230625 0.15848
0.678325 0.236194 0.163272
0.699702 0.241398 0.167849
0.72076 0.24654 0.172351
0.741253 0.25156 0.176745
0.761303 0.256489 0.181125
0.780957 0.261402 0.185443
0.800549 0.266316 0.189822
0.819989 0.271214 0.194217
0.839689 0.276371 0.198779
0.858854 0.2822 0.204089
0.873884 0.288396 0.209323
0.0236362 0.147509 0.0248417
0.030045 0.149416 0.0249943
0.0365911 0.150652 0.0251926
0.0433204 0.151843 0.0252537
0.0554513 0.154498 0.0241855
0.0847334 0.159045 0.0225528
0.133074 0.164187 0.0247959
0.186938 0.167758 0.0323796
0.240177 0.167773 0.0432136
0.292409 0.167376 0.0586252
0.340169 0.170199 0.0781415
0.379202 0.174899 0.0949569
0.415061 0.180163 0.106218
0.451759 0.188464 0.114885
0.48629 0.197116 0.122576
0.517906 0.205066 0.129519
0.546563 0.212253 0.135805
0.574029 0.21915 0.141802
0.599496 0.225483 0.147295
0.624399 0.231739 0.152697
0.647761 0.237507 0.157748
0.669978 0.243015 0.162463
0.691585 0.24828 0.167102
0.712718 0.253422 0.171664
0.733242 0.258488 0.176043
0.753079 0.263355 0.180331
0.77261 0.268193 0.184619
0.791699 0.272984 0.188846
0.810712 0.277714 0.193072
0.829786 0.282582 0.197391
0.848417 0.287617 0.201968
0.864897 0.293645 0.207126
0.876814 0.299153 0.211292
0.0250706 0.167941 0.02533
0.0315709 0.170474 0.0255131
0.0382544 0.172641 0.025742
0.0451362 0.175036 0.0259098
0.0556802 0.178744 0.0250401
0.0841688 0.18407 0.0231327
0.138537 0.190311 0.0245975
0.19855 0.196109 0.0317998
0.253025 0.197925 0.0411231
0.30515 0.195407 0.0521859
0.356283 0.193591 0.0692912
0.401053 0.19559 0.0907912
0.436652 0.199084 0.107958
0.470054 0.203815 0.119036
0.504173 0.211566 0.127398
0.536126 0.219532 0.134554
0.564614 0.226688 0.140826
0.591409 0.233341 0.146685
0.616617 0.239597 0.152132
0.640757 0.245655 0.157397
0.66334 0.251148 0.162219
0.684901 0.256443 0.166781
0.706111 0.261601 0.171328
0.726619 0.266636 0.175753
0.746975 0.271702 0.180194
0.766247 0.276402 0.184375
0.785473 0.281193 0.188632
0.804303 0.285908 0.192844
0.823056 0.2907 0.197024
0.841337 0.295552 0.20145
0.85803 0.300923 0.206485
0.870695 0.306645 0.21091
0.879255 0.310018 0.213123
0.0268101 0.189776 0.0258946
0.033463 0.193271 0.0260929
0.0402838 0.196612 0.0263523
0.0474556 0.200305 0.0265049
0.0569924 0.204761 0.0259709
0.0845655 0.210651 0.024033
0.143999 0.217807 0.0240177
0.21004 0.225666 0.0304112
0.268879 0.230472 0.0413214
0.321462 0.229648 0.0498817
0.372488 0.224445 0.0609751
0.42118 0.221286 0.0799878
0.461631 0.22266 0.102251
0.493355 0.225238 0.119783
0.523018 0.228565 0.131304
0.553964 0.235218 0.139452
0.58349 0.242267 0.146426
0.609873 0.248768 0.152239
0.634012 0.254704 0.157427
0.656779 0.260319 0.162219
0.67924 0.265904 0.167102
0.700923 0.27126 0.171786
0.721538 0.276234 0.176196
0.741726 0.281239 0.180529
0.761288 0.286046 0.184848
0.780255 0.290776 0.189044
0.799496 0.295659 0.193301
0.817792 0.300221 0.197421
0.836194 0.305119 0.201724
0.852857 0.310491 0.206714
0.865309 0.316396 0.211292
0.873808 0.319722 0.213519
0.880873 0.320684 0.213733
0.0288701 0.212375 0.0265202
0.035584 0.216907 0.0267491
0.0424964 0.221424 0.0270237
0.0498665 0.226078 0.0272068
0.0601816 0.231144 0.0268559
0.0881208 0.237827 0.0251164
0.151446 0.246281 0.0234226
0.221988 0.255268 0.0287938
0.285756 0.262242 0.0417182
0.339315 0.264179 0.0509346
0.389532 0.261036 0.0576028
0.437903 0.254261 0.0686961
0.48304 0.250233 0.0881361
0.520317 0.251347 0.110094
0.54931 0.253483 0.128267
0.575219 0.255192 0.141527
0.601556 0.259312 0.150454
0.627405 0.264988 0.157168
0.651728 0.270817 0.16286
0.673884 0.276036 0.167819
0.695293 0.281147 0.172473
0.716457 0.286412 0.177035
0.73637 0.291386 0.181262
0.756146 0.296239 0.185641
0.77557 0.301259 0.189899
0.794186 0.305974 0.194049
0.813275 0.310872 0.198306
0.831952 0.315923 0.202808
0.848646 0.321111 0.207568
0.860716 0.327291 0.212009
0.868666 0.330312 0.214099
0.875837 0.331411 0.214069
0.884276 0.334295 0.212543
0.0310216 0.234379 0.0271916
0.0378271 0.240009 0.027451
0.044892 0.245533 0.0277256
0.0523995 0.251118 0.0278935
0.0639811 0.25713 0.0275883
0.0955978 0.264652 0.025803
0.16173 0.274052 0.0234684
0.2336 0.283848 0.0275273
0.301411 0.292988 0.0403906
0.35964 0.297292 0.0529335
0.407279 0.298817 0.0589914
0.452598 0.294423 0.0639963
0.497139 0.285863 0.074052
0.540566 0.280735 0.0915389
0.577234 0.281285 0.11162
0.605127 0.284062 0.129671
0.627771 0.286 0.144854
0.648295 0.286976 0.156878
0.668574 0.288762 0.165209
0.690364 0.29279 0.171588
0.710948 0.297078 0.176837
0.730999 0.301686 0.181552
0.750301 0.306249 0.185962
0.76965 0.311162 0.190265
0.788739 0.316167 0.194553
0.807828 0.321386 0.198703
0.826596 0.326543 0.202945
0.843519 0.332418 0.207813
0.856474 0.33962 0.212238
0.864775 0.343191 0.214237
0.871656 0.344091 0.214267
0.88159 0.348669 0.211353
0.89575 0.358572 0.203952
0.0332189 0.255283 0.0278477
0.0401007 0.261555 0.0281224
0.0472572 0.267842 0.0284123
0.0549783 0.274617 0.0285954
0.0685893 0.282185 0.0281834
0.105135 0.290929 0.0262608
0.174044 0.301518 0.0240024
0.245029 0.311986 0.0269627
0.315282 0.323339 0.0374762
0.378363 0.329686 0.054078
0.428321 0.334691 0.0620584
0.469093 0.335607 0.0658885
0.508888 0.329992 0.0695048
0.549371 0.320119 0.0767071
0.592615 0.313603 0.0900435
0.628672 0.31249 0.106462
0.65594 0.314427 0.122683
0.678294 0.316976 0.137682
0.697673 0.319295 0.151019
0.71606 0.32134 0.162448
0.733928 0.323461 0.171725
0.750744 0.32488 0.179858
0.767941 0.327169 0.186328
0.785763 0.330922 0.191501
0.804303 0.335637 0.195926
0.82385 0.341848 0.199557
0.843168 0.349828 0.203235
0.857984 0.359701 0.206729
0.867308 0.364858 0.20853
0.872343 0.363012 0.210269
0.881071 0.364935 0.207507
0.897337 0.375509 0.196216
0.913451 0.385061 0.183642
0.0354009 0.274662 0.0284428
0.0423896 0.281651 0.0287633
0.0496223 0.288869 0.0290684
0.0576791 0.296773 0.0292363
0.0738079 0.305989 0.0285801
0.115602 0.316579 0.0264286
0.186526 0.328237 0.0245518
0.256718 0.339208 0.0268254
0.327001 0.351965 0.0353094
0.393561 0.361501 0.0530861
0.448234 0.367712 0.0642557
0.486488 0.372 0.0691539
0.522484 0.373938 0.0720684
0.556817 0.368185 0.074403
0.595132 0.358404 0.0787823
0.636744 0.349828 0.0867933
0.671824 0.345541 0.0981918
0.698085 0.344945 0.110887
0.720211 0.346197 0.12369
0.740917 0.348562 0.136172
0.760311 0.351598 0.14757
0.778546 0.355062 0.157534
0.796399 0.358755 0.166842
0.814435 0.36289 0.17528
0.831586 0.367071 0.182574
0.848981 0.373114 0.188174
0.864713 0.381018 0.191806
0.875486 0.387625 0.193515
0.881773 0.388907 0.195254
0.887922 0.388205 0.194949
0.900328 0.392676 0.185519
0.915068 0.399466 0.172076
0.92607 0.404257 0.162524
0.0375982 0.292729 0.029099
0.0446479 0.300771 0.0294041
0.0519722 0.309087 0.0297093
0.0602579 0.318349 0.0298619
0.0783551 0.329 0.0290379
0.124544 0.341085 0.0268406
0.197314 0.353506 0.0250858
0.267842 0.36582 0.0268559
0.337804 0.379889 0.033814
0.405447 0.392035 0.0498207
0.46215 0.398352 0.0643931
0.504326 0.405234 0.0713359
0.535637 0.410407 0.0748608
0.567437 0.413169 0.0775006
0.598932 0.408301 0.0792859
0.634073 0.398444 0.0818036
0.673426 0.388876 0.0859846
0.705684 0.382254 0.0918135
0.731365 0.378912 0.0996567
0.754284 0.377737 0.109255
0.775357 0.378195 0.119249
0.795331 0.379934 0.129137
0.815045 0.383032 0.138643
0.834852 0.387106 0.147707
0.853803 0.391775 0.156893
0.87013 0.397589 0.165576
0.881086 0.402823 0.172534
0.887709 0.405295 0.177371
0.893812 0.405844 0.178637
0.90251 0.407828 0.173831
0.914015 0.412604 0.163592
0.925536 0.418021 0.152895
0.934005 0.422095 0.145541
0.0397498 0.310109 0.0297551
0.0468452 0.319112 0.0300603
0.0541848 0.328618 0.0303807
0.0624094 0.339345 0.0305943
0.0820172 0.351263 0.0297551
0.132052 0.364874 0.027451
0.206134 0.37882 0.0256962
0.27715 0.392111 0.0271153
0.346792 0.406668 0.0325475
0.414496 0.420493 0.0456397
0.471534 0.427939 0.0621958
0.517678 0.435889 0.0714733
0.549737 0.442374 0.076173
0.577295 0.44828 0.0793317
0.60621 0.451164 0.082002
0.634363 0.44625 0.0839094
0.667796 0.43798 0.0857557
0.703319 0.429801 0.0880598
0.73373 0.422507 0.0909133
0.758556 0.41735 0.094789
0.780972 0.413809 0.0998245
0.802365 0.411734 0.106218
0.823301 0.411429 0.113863
0.844205 0.412772 0.122042
0.865034 0.4159 0.130983
0.882536 0.420096 0.140734
0.893141 0.423163 0.149859
0.899092 0.423438 0.156298
0.905241 0.423514 0.157488
0.913466 0.426154 0.152895
0.923232 0.431266 0.14461
0.932723 0.436774 0.136599
0.939315 0.440803 0.131716
0.0418555 0.327077 0.030396
0.0489052 0.337026 0.0307317
0.0562142 0.347768 0.0311131
0.0644846 0.359396 0.031342
0.0855573 0.372549 0.030457
0.139269 0.387884 0.0280003
0.214725 0.403098 0.0263371
0.28632 0.416892 0.0273289
0.354925 0.431678 0.0310674
0.421744 0.446265 0.0417182
0.479438 0.456031 0.0587015
0.525902 0.463416 0.0699474
0.562875 0.471641 0.0763714
0.588754 0.477791 0.0799725
0.614282 0.483864 0.0830243
0.640513 0.487053 0.0858778
0.666636 0.482963 0.0880598
0.696651 0.476814 0.0900282
0.729534 0.469535 0.0918746
0.757717 0.463615 0.0934615
0.781491 0.458488 0.0951705
0.803342 0.454154 0.0974289
0.825086 0.450599 0.10074
0.847166 0.448218 0.105257
0.869459 0.447456 0.11133
0.888777 0.44831 0.119326
0.901305 0.448753 0.127855
0.908568 0.447547 0.133669
0.91487 0.447227 0.134859
0.922133 0.449393 0.132525
0.929946 0.453208 0.12845
0.937758 0.457969 0.124132
0.942962 0.461707 0.121248
0.0437781 0.343069 0.0310521
0.0508125 0.354101 0.0314488
0.0581369 0.365896 0.0318456
0.0664073 0.378454 0.0320897
0.0891432 0.392844 0.0311742
0.146563 0.409506 0.0285039
0.223743 0.425559 0.0269169
0.295964 0.440101 0.0275578
0.3635 0.455085 0.0301823
0.428855 0.470069 0.0391699
0.486275 0.481758 0.0546273
0.532235 0.489021 0.0673686
0.571603 0.497475 0.0754559
0.601511 0.505516 0.0802777
0.624201 0.51165 0.0831769
0.647425 0.518044 0.0861219
0.67068 0.520287 0.088716
0.694575 0.517418 0.0913863
0.722759 0.512978 0.093843
0.752682 0.508217 0.0959945
0.778973 0.503655 0.0974289
0.801816 0.499123 0.0984207
0.823941 0.495277 0.0996567
0.846204 0.491066 0.101366
0.869688 0.487419 0.103883
0.891356 0.484718 0.108232
0.906142 0.481834 0.113527
0.914656 0.479393 0.116991
0.921141 0.478569 0.117845
0.927749 0.479713 0.117174
0.934615 0.482185 0.115709
0.941497 0.485069 0.114168
0.945586 0.486946 0.113191
0.0455024 0.35787 0.0317388
0.0525826 0.369772 0.0321508
0.0598764 0.382452 0.032578
0.0681773 0.396155 0.0328527
0.0928817 0.411856 0.0318151
0.154498 0.42977 0.0289616
0.233402 0.446937 0.027512
0.305547 0.462135 0.0280156
0.372045 0.477378 0.0299229
0.435462 0.492622 0.0369116
0.49192 0.504997 0.050248
0.537713 0.512947 0.0641337
0.577829 0.52105 0.0736553
0.611246 0.530571 0.0796979
0.635584 0.53785 0.0831159
0.655421 0.543984 0.0855879
0.676387 0.550271 0.0879835
0.698238 0.552483 0.0910048
0.719158 0.549569 0.0939345
0.745174 0.547143 0.096788
0.773342 0.543786 0.0994278
0.798581 0.540322 0.10132
0.821363 0.537453 0.102586
0.843931 0.533989 0.103639
0.868742 0.530297 0.104967
0.892836 0.526223 0.107347
0.908873 0.522026 0.109804
0.917647 0.519036 0.11107
0.924147 0.517143 0.111269
0.930541 0.51664 0.111055
0.937026 0.517418 0.110796
0.943557 0.518761 0.110536
0.94696 0.519539 0.110369
0.0472114 0.371725 0.0324559
0.0542611 0.384497 0.0328527
0.0615244 0.398093 0.0333104
0.0700694 0.412772 0.0335851
0.0973831 0.429801 0.0322728
0.163912 0.448951 0.0292821
0.243656 0.466911 0.0280919
0.315648 0.482887 0.0285496
0.381003 0.498222 0.0298619
0.442267 0.513481 0.0348058
0.497475 0.52636 0.0463722
0.543313 0.535164 0.0608377
0.58294 0.543236 0.0712291
0.617487 0.552819 0.0782025
0.644953 0.562081 0.0823987
0.664775 0.569009 0.0848707
0.682734 0.574899 0.0870222
0.702464 0.580652 0.0894331
0.721447 0.582925 0.0922103
0.741604 0.58146 0.0954147
0.766018 0.579507 0.0987564
0.792767 0.577478 0.102068
0.818235 0.575433 0.104707
0.843168 0.573083 0.106706
0.869841 0.570596 0.108446
0.894942 0.566934 0.110338
0.910613 0.564019 0.111986
0.919051 0.56141 0.112535
0.925505 0.55819 0.112444
0.931823 0.555871 0.112276
0.938216 0.555062 0.112215
0.94464 0.554711 0.112245
0.947463 0.554772 0.112215
0.0489204 0.384314 0.0331884
0.0558938 0.398169 0.0335699
0.0630503 0.412665 0.0340276
0.0723735 0.428519 0.0341497
0.103197 0.446601 0.0324865
0.174701 0.46688 0.0294652
0.255039 0.485725 0.0285801
0.326131 0.502129 0.0290227
0.389883 0.517586 0.0301061
0.44921 0.532647 0.0334936
0.503044 0.545953 0.0435798
0.548806 0.555932 0.0576028
0.587564 0.563912 0.0685588
0.621714 0.57348 0.0760204
0.650965 0.584024 0.0808423
0.673396 0.592386 0.0839399
0.690166 0.598169 0.0859083
0.707195 0.604715 0.0875715
0.725338 0.61033 0.0898909
0.743023 0.61207 0.0927443
0.762112 0.61088 0.0961471
0.784955 0.610086 0.100023
0.812161 0.609186 0.104143
0.841978 0.608316 0.10808
0.871138 0.607492 0.111116
0.896834 0.606256 0.113695
0.911955 0.605585 0.115434
0.920027 0.603601 0.115908
0.926452 0.59913 0.11574
0.932784 0.594491 0.115404
0.939132 0.591012 0.115251
0.94548 0.588891 0.115145
0.947784 0.588418 0.115099
0.0505531 0.39884 0.0338598
0.0574807 0.413413 0.0342565
0.064622 0.429343 0.0347448
0.0742504 0.446891 0.0348058
0.107225 0.466606 0.0329442
0.182208 0.488563 0.0298161
0.263325 0.508186 0.0290837
0.334646 0.524987 0.0294652
0.397894 0.540658 0.0302586
0.455528 0.555093 0.0326696
0.508339 0.568597 0.0403906
0.553628 0.578729 0.0526131
0.591806 0.586526 0.06421
0.625147 0.595239 0.0724193
0.654536 0.605188 0.0780652
0.679179 0.614221 0.0820783
0.697337 0.621134 0.0843824
0.712871 0.627146 0.0858625
0.729015 0.632792 0.0876326
0.745785 0.637949 0.0897078
0.763119 0.639643 0.0927443
0.781506 0.639338 0.0965744
0.804791 0.638987 0.101076
0.83653 0.639918 0.106645
0.869932 0.641428 0.111742
0.897139 0.642908 0.115511
0.912703 0.643961 0.117784
0.921126 0.643076 0.118456
0.927565 0.637964 0.118456
0.933791 0.631464 0.118227
0.940108 0.625559 0.118044
0.94638 0.6215 0.117922
0.948165 0.620645 0.117845
0.0523079 0.426764 0.0347143
0.059205 0.442054 0.0350958
0.066331 0.459586 0.0356451
0.0749523 0.478737 0.035935
0.104829 0.500099 0.0342718
0.178653 0.52311 0.0306249
0.265309 0.54287 0.0296788
0.339757 0.558709 0.0299077
0.403525 0.572992 0.0304875
0.460639 0.586206 0.0319371
0.512642 0.598245 0.0360113
0.557641 0.607721 0.0449531
0.595361 0.614359 0.0563973
0.628092 0.620737 0.066331
0.657115 0.628214 0.0735332
0.682338 0.636057 0.0786603
0.702495 0.643305 0.0818341
0.718334 0.648936 0.0836957
0.732998 0.654124 0.0852216
0.748547 0.6598 0.0869764
0.765591 0.664698 0.0893416
0.782437 0.665995 0.0928817
0.802106 0.66659 0.0971542
0.829236 0.668757 0.102678
0.863554 0.671733 0.109438
0.895277 0.676051 0.114977
0.913527 0.678981 0.118151
0.922454 0.679118 0.119142
0.928862 0.674159 0.119509
0.935012 0.666575 0.119722
0.941192 0.65861 0.119814
0.947341 0.652613 0.119921
0.948638 0.651606 0.119875
0.0543679 0.475578 0.0358434
0.0612192 0.491035 0.0362707
0.0683452 0.50869 0.0368048
0.0758831 0.527413 0.0373083
0.0978256 0.547936 0.0361639
0.163348 0.569909 0.0324865
0.261891 0.587686 0.0304875
0.342214 0.600855 0.0303655
0.407507 0.612253 0.0307774
0.46482 0.622736 0.0315251
0.516274 0.632425 0.0330205
0.561303 0.64062 0.0377356
0.598962 0.64596 0.0467536
0.630884 0.649683 0.0574655
