src/colors/cinematic_&_blockbuster/romantic_cinema.cube
TITLE "Generated by Resolve"
LUT_3D_SIZE 9
0.0148928 0.0157015 0.0207065
0.0362554 0.0194858 0.0238804
0.14728 0.0451667 0.043122
0.30193 0.0820478 0.0771954
0.457115 0.12076 0.111604
0.584375 0.152834 0.139864
0.681743 0.176944 0.161013
0.766125 0.197757 0.179278
0.850828 0.220218 0.198962
0.018616 0.0497139 0.0249485
0.0475624 0.0531472 0.0263981
0.175677 0.0783398 0.0482032
0.319966 0.108934 0.082002
0.467552 0.145586 0.114412
0.590997 0.176532 0.141756
0.689418 0.200961 0.163272
0.774929 0.222095 0.181964
0.858717 0.244694 0.20209
0.0214389 0.111284 0.0243992
0.0536507 0.115816 0.0229953
0.223285 0.126162 0.0496834
0.384039 0.154986 0.0989242
0.513405 0.186984 0.126833
0.619211 0.213199 0.149645
0.710384 0.235691 0.169314
0.793301 0.256291 0.187579
0.87097 0.278828 0.207691
0.0268101 0.189776 0.0258946
0.0569924 0.204761 0.0259709
0.268879 0.230472 0.0413214
0.461631 0.22266 0.102251
0.58349 0.242267 0.146426
0.67924 0.265904 0.167102
0.761288 0.286046 0.184848
0.836194 0.305119 0.201724
0.880873 0.320684 0.213733
0.0354009 0.274662 0.0284428
0.0738079 0.305989 0.0285801
0.327001 0.351965 0.0353094
0.522484 0.373938 0.0720684
0.671824 0.345541 0.0981918
0.760311 0.351598 0.14757
0.831586 0.367071 0.182574
0.881773 0.388907 0.195254
0.92607 0.404257 0.162524
0.0437781 0.343069 0.0310521
0.0891432 0.392844 0.0311742
0.3635 0.455085 0.0301823
0.571603 0.497475 0.0754559
0.67068 0.520287 0.088716
0.778973 0.503655 0.0974289
0.869688 0.487419 0.103883
0.921141 0.478569 0.117845
0.945586 0.486946 0.113191
0.0505531 0.39884 0.0338598
0.107225 0.466606 0.0329442
0.397894 0.540658 0.0302586
0.591806 0.586526 0.06421
0.697337 0.621134 0.0843824
0.763119 0.639643 0.0927443
0.869932 0.641428 0.111742
0.927565 0.637964 0.118456
0.948165 0.620645 0.117845
0.0587625 0.593744 0.038529
0.0906539 0.65275 0.0397345
0.412726 0.690883 0.0316167
0.604425 0.709133 0.034699
0.709392 0.712947 0.0648356
0.774197 0.72639 0.0795148
0.853376 0.751431 0.0946365
0.931899 0.765896 0.112306
0.950683 0.737682 0.118334
0.0665446 0.806409 0.043595
0.0959793 0.825666 0.044419
0.404944 0.828061 0.0334783
0.600885 0.829572 0.0347448
0.717891 0.837476 0.0358587
0.799847 0.841291 0.0479744
0.861387 0.848951 0.0654002
0.933425 0.881178 0.0769055
0.953079 0.84799 0.0961929
0.0162966 0.0227207 0.0476997
0.045243 0.0251011 0.0532082
0.172564 0.0498512 0.0694438
0.32459 0.0897078 0.102144
0.476326 0.127214 0.135637
0.595697 0.156878 0.162112
0.690089 0.180102 0.182696
0.772229 0.200122 0.200565
0.853803 0.2215 0.219516
0.0204623 0.0560922 0.057969
0.0463111 0.0597848 0.0619059
0.155642 0.081529 0.0725109
0.316869 0.109667 0.100679
0.470481 0.147066 0.134783
0.595926 0.178637 0.162844
0.695369 0.203479 0.184848
0.780789 0.224659 0.20383
0.858 0.244297 0.221271
0.0243229 0.128099 0.0531472
0.0521553 0.134203 0.0577096
0.20116 0.132677 0.0631571
0.367437 0.157107 0.110307
0.494804 0.181552 0.142382
0.614267 0.212009 0.168811
0.711147 0.236301 0.190173
0.794064 0.256901 0.208484
0.864683 0.274022 0.223957
0.0274357 0.20354 0.0477607
0.0567941 0.22594 0.0496223
0.244663 0.250431 0.0550698
0.474525 0.235187 0.112749
0.584405 0.246067 0.166796
0.677348 0.267262 0.187686
0.758663 0.288869 0.202792
0.839628 0.317403 0.21091
0.909773 0.352895 0.200351
0.0357824 0.278798 0.0515145
0.0684062 0.327535 0.0534066
0.297093 0.37258 0.0523232
0.522393 0.405447 0.096849
0.687709 0.376562 0.113695
0.775647 0.368429 0.147265
0.849561 0.385092 0.169146
0.905241 0.409689 0.17554
0.93933 0.426917 0.152636
0.0440375 0.344839 0.0552377
0.0792554 0.413657 0.0571756
0.339757 0.475486 0.053193
0.559442 0.521462 0.0898146
0.675883 0.550912 0.111711
0.790127 0.538018 0.126223
0.880751 0.518334 0.130373
0.923415 0.509255 0.135225
0.947295 0.533471 0.134722
0.0508583 0.401877 0.0588235
0.0894636 0.484871 0.0597086
0.375402 0.559167 0.0551614
0.579263 0.610452 0.0725109
0.697246 0.64094 0.103593
0.770123 0.665919 0.113939
0.890959 0.674113 0.140261
0.928084 0.661662 0.144411
0.94876 0.652384 0.14464
0.0592508 0.61088 0.0639353
0.0884871 0.675929 0.0658732
0.380041 0.712886 0.0569619
0.591638 0.731517 0.0587015
0.7075 0.738323 0.0753338
0.788052 0.754742 0.0991989
0.867277 0.780224 0.115572
0.932433 0.779919 0.134112
0.951034 0.757046 0.140505
0.0671092 0.825116 0.068986
0.0940261 0.849058 0.0701915
0.35436 0.851728 0.0585641
0.589212 0.856855 0.0595102
0.718975 0.868208 0.0616312
0.810819 0.875776 0.0652628
0.879789 0.880323 0.0825666
0.937011 0.903105 0.0899367
0.95285 0.861067 0.115099
0.0206607 0.0441596 0.107576
0.0479591 0.0427253 0.106584
0.208804 0.0574655 0.106905
0.357382 0.100404 0.135515
0.504616 0.136736 0.167163
0.61796 0.164767 0.192416
0.705104 0.185779 0.211322
0.784268 0.204944 0.228794
0.853483 0.221515 0.243793
0.0240635 0.0760815 0.116213
0.0492561 0.078645 0.116045
0.177081 0.0859388 0.114488
0.344366 0.11487 0.135241
0.494255 0.155657 0.165133
0.61326 0.185306 0.191852
0.705089 0.20763 0.212024
0.785245 0.226947 0.229664
0.849821 0.241398 0.242969
0.0328679 0.146838 0.137331
0.0583047 0.146258 0.130831
0.16614 0.153857 0.134417
0.364706 0.171786 0.141009
0.502525 0.187625 0.166781
0.619837 0.214908 0.194614
0.712474 0.237537 0.214969
0.787579 0.25536 0.230625
0.851881 0.274113 0.238315
0.0369573 0.269429 0.112657
0.0610056 0.252888 0.0975662
0.199954 0.279789 0.0971542
0.461997 0.256046 0.116304
0.601297 0.269352 0.156237
0.701137 0.296422 0.17322
0.783719 0.320394 0.179934
0.853559 0.34316 0.178454
0.921401 0.366354 0.18024
0.0360113 0.332769 0.0806287
0.0656748 0.33843 0.081178
0.255024 0.395315 0.0775921
0.508675 0.438499 0.115099
0.671199 0.420142 0.136812
0.772549 0.403937 0.144793
0.84593 0.421469 0.150652
0.91458 0.446296 0.157336
0.945922 0.468284 0.156664
0.0430915 0.373342 0.0829328
0.0737774 0.410636 0.0851453
0.294377 0.493721 0.080415
0.531975 0.552911 0.0926986
0.664759 0.583291 0.127687
0.782483 0.572793 0.153338
0.879179 0.557549 0.16054
0.923949 0.552254 0.163165
0.947707 0.578546 0.165133
0.0500801 0.400259 0.0861067
0.0797131 0.475212 0.0886091
0.327749 0.574701 0.0825055
0.550484 0.635355 0.0848402
0.688685 0.673579 0.112703
0.777539 0.707393 0.129778
0.893339 0.697551 0.166293
0.928588 0.685542 0.170764
0.949248 0.676677 0.171481
0.0584573 0.586694 0.090898
0.0872358 0.677806 0.0933242
0.317159 0.731106 0.0843061
0.563272 0.755764 0.0858625
0.707485 0.780392 0.0879072
0.799313 0.798688 0.108324
0.874083 0.81001 0.132891
0.93283 0.795422 0.156664
0.950607 0.770977 0.16437
0.0662547 0.805844 0.0957961
0.093492 0.851301 0.097322
0.280018 0.866255 0.0869154
0.563256 0.886915 0.0863508
0.709865 0.896742 0.0884108
0.803342 0.899336 0.0887617
0.876738 0.895216 0.0992294
0.935699 0.909117 0.112184
0.953277 0.874388 0.135546
0.0272068 0.074876 0.191821
0.0480659 0.0720531 0.181064
0.20885 0.0646372 0.16878
0.392569 0.108248 0.175845
0.535454 0.148135 0.203815
0.638315 0.173205 0.226642
0.717922 0.19173 0.243748
0.786633 0.207248 0.258137
0.84033 0.217578 0.267964
0.0301976 0.107103 0.198291
0.0543221 0.112306 0.20235
0.167758 0.102678 0.195621
0.391836 0.124132 0.181872
0.527642 0.167895 0.203342
0.634287 0.194644 0.226581
0.717205 0.21413 0.244617
0.782605 0.228016 0.257786
0.838468 0.238987 0.267872
0.0379797 0.171176 0.231067
0.0634775 0.173083 0.226184
0.131334 0.177569 0.225345
0.377615 0.195239 0.212757
0.548821 0.208469 0.222599
0.647028 0.229068 0.234379
0.727459 0.248997 0.249561
0.795758 0.269886 0.256809
0.86688 0.29514 0.257176
0.0534676 0.27982 0.271855
0.081529 0.29221 0.270008
0.127153 0.309789 0.266896
0.405936 0.316289 0.250263
0.58407 0.336141 0.236301
0.714244 0.358724 0.233936
0.803494 0.375128 0.236728
0.876036 0.390036 0.237583
0.928832 0.412375 0.234272
0.07776 0.462455 0.320165
0.0979171 0.440116 0.265919
0.138003 0.429587 0.236957
0.451423 0.476341 0.210986
0.629496 0.477165 0.200198
0.749035 0.486503 0.191653
0.832288 0.507851 0.1897
0.903243 0.528115 0.190631
0.946609 0.536645 0.191516
0.0751049 0.51664 0.255848
0.0945602 0.476768 0.204868
0.147692 0.511528 0.214328
0.463706 0.581476 0.209079
0.646036 0.617945 0.157565
0.771832 0.620768 0.176104
0.861204 0.611093 0.191028
0.923079 0.608652 0.196292
0.947906 0.61735 0.196597
0.0588846 0.544015 0.150347
0.0950179 0.519982 0.179416
0.162905 0.582666 0.196704
0.49427 0.663371 0.201007
0.668467 0.705119 0.145861
0.771817 0.735454 0.143008
0.874571 0.727199 0.184176
0.928466 0.700282 0.198917
0.949554 0.698589 0.198871
0.058793 0.695216 0.121294
0.0862135 0.686091 0.122271
0.177295 0.726055 0.120073
0.520974 0.776486 0.125978
0.681773 0.798901 0.121828
0.785977 0.815198 0.121462
0.860151 0.82678 0.144305
0.932509 0.804044 0.182498
0.950835 0.784344 0.189609
0.0658732 0.851011 0.124727
0.0922103 0.843229 0.125353
0.1944 0.865797 0.120607
0.519661 0.896941 0.114672
0.679332 0.913207 0.11635
0.787488 0.916671 0.117052
0.867979 0.913191 0.118868
0.933516 0.91339 0.136355
0.95285 0.886213 0.157244
0.0363928 0.12137 0.291081
0.0572213 0.118929 0.273274
0.157488 0.102892 0.26833
0.409339 0.117662 0.221332
0.574594 0.161746 0.245457
0.661784 0.182345 0.264698
0.732021 0.198154 0.279469
0.789349 0.214237 0.28574
0.859403 0.243671 0.278523
0.0385595 0.149462 0.295674
0.0634928 0.15874 0.30518
0.115175 0.149813 0.294606
0.400076 0.148592 0.242908
0.581094 0.187671 0.251087
0.664607 0.209125 0.265568
0.738643 0.230732 0.275776
0.808576 0.256519 0.270939
0.874784 0.276371 0.267659
0.0448615 0.206531 0.327733
0.0704509 0.210956 0.327626
0.105104 0.223331 0.34081
0.379049 0.215274 0.311009
0.589548 0.275395 0.304173
0.701122 0.303426 0.319402
0.779095 0.328969 0.33135
0.849317 0.34519 0.334112
0.902998 0.368978 0.329137
0.0576791 0.295399 0.392813
0.0849012 0.304585 0.394202
0.119203 0.332219 0.406592
0.329015 0.357076 0.408728
0.564309 0.40798 0.395819
0.697017 0.437308 0.406256
0.79321 0.453513 0.410224
0.869459 0.467338 0.411765
0.913329 0.497337 0.42327
0.0796216 0.438422 0.460929
0.111192 0.459571 0.462074
0.150759 0.507317 0.47921
0.317418 0.514702 0.450462
0.583078 0.523507 0.432181
0.710384 0.549798 0.442634
0.815824 0.56994 0.436912
0.90193 0.579171 0.423484
0.938643 0.587396 0.431952
0.110079 0.622599 0.535409
0.139971 0.62974 0.522103
0.165209 0.607401 0.468513
0.344259 0.601083 0.439307
0.617243 0.644205 0.420523
0.743893 0.651652 0.385382
0.839673 0.656168 0.375448
0.918135 0.660868 0.363607
0.94757 0.650889 0.377752
0.125566 0.726726 0.538506
0.140932 0.681498 0.444419
0.164401 0.644175 0.410361
0.365743 0.681392 0.424552
0.635218 0.721447 0.424598
0.756207 0.753704 0.352316
0.853773 0.747951 0.251255
0.927123 0.719966 0.258244
0.948425 0.716533 0.345663
0.113161 0.806729 0.380758
0.126223 0.774319 0.305211
0.160235 0.757458 0.337926
0.375723 0.819715 0.320043
0.656367 0.817945 0.372412
0.767666 0.831266 0.356237
0.848432 0.839155 0.240879
0.931151 0.815274 0.206607
0.950652 0.798627 0.317861
0.0687572 0.944213 0.158297
0.0953689 0.906615 0.161318
0.128359 0.87216 0.18497
0.417487 0.926314 0.163806
0.656245 0.933516 0.211292
0.765637 0.929747 0.230121
0.856916 0.927199 0.205188
0.929747 0.920363 0.15729
0.952361 0.902068 0.19939
0.0462196 0.171206 0.399115
0.0675975 0.171756 0.380133
0.106172 0.16495 0.356725
0.385977 0.159991 0.30808
0.611688 0.19118 0.26479
0.715465 0.218753 0.279118
0.782437 0.239078 0.2701
0.843214 0.257603 0.265232
0.901625 0.276326 0.263966
0.0482338 0.19884 0.408499
0.0729381 0.20679 0.416907
0.101518 0.205203 0.393484
0.370687 0.18497 0.367666
0.614206 0.240589 0.304814
0.728862 0.265171 0.300328
0.796902 0.296956 0.327047
0.858991 0.316411 0.335882
0.906416 0.340902 0.336614
0.0525826 0.246448 0.429541
0.0782025 0.252033 0.436728
0.10956 0.276005 0.464103
0.306249 0.260136 0.454032
0.592599 0.322271 0.37966
0.714488 0.369497 0.40856
0.790707 0.392889 0.427787
0.857252 0.414359 0.439353
0.900053 0.451499 0.456382
0.064744 0.334188 0.498405
0.0918593 0.344717 0.504204
0.126314 0.376623 0.524681
0.253178 0.41236 0.545037
0.56878 0.432929 0.487404
0.702327 0.484932 0.503914
0.79295 0.507347 0.516991
0.867384 0.524559 0.522576
0.909026 0.55433 0.536294
0.0842298 0.458549 0.57525
0.113954 0.471031 0.575906
0.151369 0.506691 0.592584
0.232914 0.53164 0.586099
0.561868 0.556649 0.563516
0.700465 0.584146 0.563561
0.800778 0.603143 0.568231
0.885191 0.612634 0.562615
0.922667 0.629602 0.574853
0.106065 0.5888 0.622309
0.13843 0.607919 0.621988
0.176776 0.652232 0.638712
0.214359 0.668177 0.627207
0.577279 0.663523 0.579629
0.725277 0.673609 0.567544
0.814298 0.686793 0.572198
0.903792 0.689616 0.558083
0.941741 0.691768 0.575967
0.133425 0.73814 0.676829
0.164965 0.755734 0.675044
0.195422 0.766064 0.660136
0.226062 0.726009 0.594354
0.591119 0.739269 0.567056
0.747646 0.764599 0.550927
0.840238 0.765301 0.514641
0.923644 0.747951 0.503532
0.948104 0.740566 0.535897
0.154543 0.864851 0.691707
0.176104 0.855253 0.636606
0.19617 0.837064 0.575967
0.23537 0.808545 0.536828
0.597192 0.843565 0.501335
0.754055 0.841337 0.535653
0.841856 0.850919 0.490135
0.928771 0.826307 0.432044
0.949554 0.812512 0.517891
0.152377 0.986328 0.562905
0.162295 0.977462 0.470039
0.186572 0.943633 0.458625
0.208789 0.920989 0.407889
0.60705 0.96556 0.372396
0.750591 0.950515 0.43508
0.845487 0.939422 0.457237
0.927169 0.928176 0.38439
0.952743 0.91841 0.395224
0.0569772 0.229206 0.512856
0.0782635 0.228519 0.491859
0.103639 0.224903 0.457252
0.327306 0.218021 0.432395
0.605188 0.266468 0.373877
0.743832 0.276158 0.348974
0.818814 0.314839 0.38909
0.86807 0.347906 0.419608
0.903258 0.385595 0.447196
0.0589303 0.256184 0.52549
0.0833753 0.263325 0.5308
0.109957 0.266712 0.506279
0.288502 0.253681 0.495491
0.587198 0.287297 0.417029
0.724697 0.329015 0.425254
0.802304 0.360494 0.45623
0.856046 0.392447 0.482902
0.894392 0.437919 0.512856
0.0613718 0.29427 0.533181
0.0879988 0.305943 0.550576
0.120394 0.337102 0.581277
0.233814 0.334966 0.573983
0.59176 0.33756 0.522286
0.7149 0.375784 0.481025
0.797864 0.405936 0.506218
0.856794 0.440772 0.532235
0.893645 0.503227 0.575982
0.0736248 0.385855 0.594491
0.100587 0.396597 0.602777
0.134783 0.4262 0.625467
0.202152 0.469276 0.652537
0.54313 0.453681 0.633524
0.710658 0.477028 0.568231
0.797177 0.50135 0.577081
0.865248 0.529168 0.592996
0.90222 0.583947 0.629831
0.0901198 0.490913 0.658137
0.119661 0.5037 0.663584
0.157076 0.5402 0.68394
0.207385 0.564584 0.679179
0.53164 0.591501 0.682643
0.706371 0.595163 0.641947
0.797192 0.621256 0.648402
0.876387 0.635782 0.651133
0.915114 0.663661 0.669551
0.109194 0.59997 0.707805
0.140002 0.611841 0.707835
0.175845 0.64303 0.721248
0.210376 0.656397 0.709422
0.529854 0.682567 0.702678
0.716579 0.691295 0.676707
0.807126 0.700877 0.673198
0.891173 0.705898 0.665843
0.92932 0.719051 0.681483
0.128054 0.703929 0.734218
0.159411 0.72076 0.733761
0.194644 0.753613 0.746181
0.225849 0.768521 0.737484
0.471901 0.782925 0.721477
0.729335 0.772869 0.677165
0.827543 0.775692 0.659892
0.909407 0.768795 0.647318
0.946456 0.77261 0.670069
0.152026 0.830579 0.774548
0.183169 0.851865 0.772427
0.215366 0.875685 0.77026
0.238941 0.862379 0.72845
0.45388 0.862089 0.664881
0.732036 0.857114 0.642222
0.837385 0.857725 0.63476
0.92575 0.838895 0.608179
0.949218 0.830915 0.641917
0.177142 0.979294 0.783658
0.200916 0.986587 0.748287
0.221469 0.987121 0.69163
0.239582 0.970214 0.63476
0.404593 0.979355 0.505791
0.721218 0.969589 0.538201
0.835065 0.950774 0.584604
0.924239 0.936721 0.558053
0.952392 0.931975 0.558724
0.0691539 0.299855 0.618387
0.0906844 0.298375 0.604501
0.117067 0.300557 0.583215
0.241016 0.300206 0.568719
0.581796 0.308171 0.513313
0.718807 0.344366 0.504753
0.809949 0.365652 0.513298
0.858305 0.41239 0.564508
0.892088 0.455604 0.603006
0.0711681 0.327581 0.631251
0.0954604 0.333318 0.636637
0.122576 0.338567 0.62417
0.210956 0.3355 0.612131
0.590158 0.323507 0.592096
0.718776 0.341573 0.528466
0.805646 0.359945 0.527337
0.858595 0.403403 0.567681
0.889937 0.461875 0.611505
0.0726482 0.359838 0.635401
0.0995651 0.373907 0.654505
0.132067 0.404837 0.686625
0.193347 0.407752 0.675624
0.548348 0.385016 0.680385
0.732754 0.397971 0.628382
0.816556 0.407141 0.592355
0.873396 0.440757 0.612329
0.898177 0.494942 0.638239
0.082826 0.440452 0.680903
0.109514 0.449348 0.68893
0.143816 0.478523 0.714107
0.190021 0.519677 0.738781
0.504433 0.507561 0.742641
0.728313 0.497963 0.725963
0.82118 0.504814 0.674052
0.883665 0.523033 0.669123
0.906523 0.569268 0.679652
0.0972457 0.531838 0.72987
0.126757 0.544472 0.737194
0.163516 0.577569 0.758114
0.202457 0.597391 0.75378
0.513588 0.630106 0.774319
0.706966 0.602396 0.758556
0.814328 0.608423 0.716503
0.881804 0.614466 0.699565
0.911879 0.654902 0.71754
0.112596 0.615869 0.767086
0.14316 0.627131 0.769848
0.178729 0.658015 0.786709
0.211261 0.67158 0.775418
0.501945 0.70074 0.777142
0.698421 0.702235 0.769436
0.807263 0.707973 0.744457
0.882902 0.715267 0.738994
0.921904 0.739208 0.757565
0.129564 0.705287 0.800427
0.159426 0.715663 0.799558
0.192981 0.74165 0.810544
0.222507 0.74963 0.79675
0.451072 0.775158 0.799329
0.696101 0.785809 0.782681
0.816754 0.784558 0.754147
0.899413 0.77847 0.737255
0.937743 0.792172 0.759762
0.145937 0.794476 0.823835
0.17554 0.808362 0.82153
0.208682 0.835447 0.829007
0.239185 0.850141 0.820462
0.318578 0.877638 0.817655
0.646479 0.887587 0.768872
0.825605 0.864713 0.736736
0.919966 0.849256 0.711604
0.949371 0.851316 0.736751
0.170871 0.926467 0.862058
0.201602 0.95082 0.855848
0.232441 0.973007 0.845624
0.25948 0.981735 0.819654
0.28542 0.98674 0.75494
0.612589 0.98613 0.617639
0.820645 0.965621 0.668879
0.922423 0.945541 0.672679
0.951293 0.944259 0.672679
0.0817731 0.374548 0.71397
0.10367 0.373434 0.707668
0.130922 0.378988 0.701961
0.177813 0.369192 0.674266
0.550927 0.359792 0.691417
0.726452 0.364309 0.634394
0.810529 0.368399 0.611475
0.86453 0.402869 0.629801
0.897078 0.445304 0.671885
0.0834974 0.40061 0.724056
0.107439 0.403784 0.729091
0.13518 0.410758 0.728099
0.178988 0.404685 0.708736
0.528969 0.386328 0.733181
0.740093 0.383536 0.707332
0.823835 0.386328 0.665934
0.878355 0.411261 0.660868
0.906584 0.462119 0.692882
0.0843671 0.429801 0.72723
0.11075 0.440421 0.741848
0.143008 0.468406 0.77145
0.181765 0.471885 0.763165
0.496422 0.456901 0.786038
0.733913 0.439307 0.786343
0.835966 0.438331 0.752041
0.896788 0.455253 0.725856
0.920317 0.509712 0.735851
0.0914168 0.491234 0.75317
0.117937 0.497841 0.760647
0.15288 0.530007 0.790234
0.193866 0.563958 0.807309
0.477791 0.562371 0.822232
0.701106 0.527932 0.823468
0.833661 0.52752 0.810071
0.905364 0.529137 0.773602
0.927489 0.577386 0.768215
0.104417 0.572213 0.792264
0.133577 0.582116 0.799908
0.169665 0.611994 0.820401
0.203387 0.627436 0.8159
0.491264 0.661555 0.842878
0.679576 0.626093 0.841108
0.825681 0.621592 0.832441
0.904356 0.61326 0.792203
0.928191 0.648478 0.784802
0.117647 0.641443 0.8224
0.147906 0.65185 0.827253
0.182864 0.680583 0.845228
0.213809 0.691646 0.832456
0.470726 0.719692 0.840772
0.680964 0.724651 0.854627
0.81648 0.706371 0.839002
0.897322 0.69485 0.798291
0.926406 0.720684 0.800824
0.131838 0.711696 0.853391
0.161181 0.721035 0.85449
0.194385 0.746227 0.867353
0.223194 0.752361 0.851606
0.425315 0.780377 0.859937
0.675868 0.796078 0.855634
0.806958 0.790661 0.836713
0.893294 0.78349 0.810681
0.930434 0.804303 0.827741
0.1458 0.788052 0.883406
0.174426 0.797894 0.880995
0.206088 0.818845 0.887572
0.23505 0.827527 0.875425
0.328725 0.852461 0.881132
0.643931 0.870649 0.875471
0.795712 0.873182 0.836561
0.908858 0.857923 0.800137
0.94873 0.862303 0.811917
0.161578 0.875944 0.911528
0.19057 0.891096 0.90837
0.22295 0.917464 0.911589
0.254307 0.938018 0.901717
0.288685 0.967514 0.899092
0.544274 0.982361 0.852613
0.748867 0.986267 0.75729
0.913985 0.956573 0.765545
0.949676 0.954269 0.759548
