src/colors/cinematic_&_blockbuster/romantic_cinema.cube
TITLE "Generated by Resolve"
LUT_3D_SIZE 5
0.0148928 0.0157015 0.0207065
0.14728 0.0451667 0.043122
0.457115 0.12076 0.111604
0.681743 0.176944 0.161013
0.850828 0.220218 0.198962
0.0214389 0.111284 0.0243992
0.223285 0.126162 0.0496834
0.513405 0.186984 0.126833
0.710384 0.235691 0.169314
0.87097 0.278828 0.207691
0.0354009 0.274662 0.0284428
0.327001 0.351965 0.0353094
0.671824 0.345541 0.0981918
0.831586 0.367071 0.182574
0.92607 0.404257 0.162524
0.0505531 0.39884 0.0338598
0.397894 0.540658 0.0302586
0.697337 0.621134 0.0843824
0.869932 0.641428 0.111742
0.948165 0.620645 0.117845
0.0665446 0.806409 0.043595
0.404944 0.828061 0.0334783
0.717891 0.837476 0.0358587
0.861387 0.848951 0.0654002
0.953079 0.84799 0.0961929
0.0206607 0.0441596 0.107576
0.208804 0.0574655 0.106905
0.504616 0.136736 0.167163
0.705104 0.185779 0.211322
0.853483 0.221515 0.243793
0.0328679 0.146838 0.137331
0.16614 0.153857 0.134417
0.502525 0.187625 0.166781
0.712474 0.237537 0.214969
0.851881 0.274113 0.238315
0.0360113 0.332769 0.0806287
0.255024 0.395315 0.0775921
0.671199 0.420142 0.136812
0.84593 0.421469 0.150652
0.945922 0.468284 0.156664
0.0500801 0.400259 0.0861067
0.327749 0.574701 0.0825055
0.688685 0.673579 0.112703
0.893339 0.697551 0.166293
0.949248 0.676677 0.171481
0.0662547 0.805844 0.0957961
0.280018 0.866255 0.0869154
0.709865 0.896742 0.0884108
0.876738 0.895216 0.0992294
0.953277 0.874388 0.135546
0.0363928 0.12137 0.291081
0.157488 0.102892 0.26833
0.574594 0.161746 0.245457
0.732021 0.198154 0.279469
0.859403 0.243671 0.278523
0.0448615 0.206531 0.327733
0.105104 0.223331 0.34081
0.589548 0.275395 0.304173
0.779095 0.328969 0.33135
0.902998 0.368978 0.329137
0.0796216 0.438422 0.460929
0.150759 0.507317 0.47921
0.583078 0.523507 0.432181
0.815824 0.56994 0.436912
0.938643 0.587396 0.431952
0.125566 0.726726 0.538506
0.164401 0.644175 0.410361
0.635218 0.721447 0.424598
0.853773 0.747951 0.251255
0.948425 0.716533 0.345663
0.0687572 0.944213 0.158297
0.128359 0.87216 0.18497
0.656245 0.933516 0.211292
0.856916 0.927199 0.205188
0.952361 0.902068 0.19939
0.0569772 0.229206 0.512856
0.103639 0.224903 0.457252
0.605188 0.266468 0.373877
0.818814 0.314839 0.38909
0.903258 0.385595 0.447196
0.0613718 0.29427 0.533181
0.120394 0.337102 0.581277
0.59176 0.33756 0.522286
0.797864 0.405936 0.506218
0.893645 0.503227 0.575982
0.0901198 0.490913 0.658137
0.157076 0.5402 0.68394
0.53164 0.591501 0.682643
0.797192 0.621256 0.648402
0.915114 0.663661 0.669551
0.128054 0.703929 0.734218
0.194644 0.753613 0.746181
0.471901 0.782925 0.721477
0.827543 0.775692 0.659892
0.946456 0.77261 0.670069
0.177142 0.979294 0.783658
0.221469 0.987121 0.69163
0.404593 0.979355 0.505791
0.835065 0.950774 0.584604
0.952392 0.931975 0.558724
0.0817731 0.374548 0.71397
0.130922 0.378988 0.701961
0.550927 0.359792 0.691417
0.810529 0.368399 0.611475
0.897078 0.445304 0.671885
0.0843671 0.429801 0.72723
0.143008 0.468406 0.77145
0.496422 0.456901 0.786038
0.835966 0.438331 0.752041
0.920317 0.509712 0.735851
0.104417 0.572213 0.792264
0.169665 0.611994 0.820401
0.491264 0.661555 0.842878
0.825681 0.621592 0.832441
0.928191 0.648478 0.784802
0.131838 0.711696 0.853391
0.194385 0.746227 0.867353
0.425315 0.780377 0.859937
0.806958 0.790661 0.836713
0.930434 0.804303 0.827741
0.161578 0.875944 0.911528
0.22295 0.917464 0.911589
0.288685 0.967514 0.899092
0.748867 0.986267 0.75729
0.949676 0.954269 0.759548
