src/colors/cinematic_&_blockbuster/sunlit_cinema.cube
TITLE "Generated by Resolve"
LUT_3D_SIZE 5
0 0 0
0.125872 0 0
0.743084 0 0
1 0 0
1 0 0
0 0.120302 0
0.0293736 0.107881 7.62951e-05
0.624903 0.0567178 0
1 0.0414588 0
1 0.0572213 0
0 0.597955 0
0 0.576913 0
0.434806 0.577707 0
0.948318 0.536049 0
1 0.566705 0
0 0.991333 0
0.00614939 0.977493 0
0.465064 0.944396 0
0.824552 0.933883 0
1 0.894041 0
0 1 0
0.0116579 1 0
0.448295 1 0
0.782437 1 0
1 1 0
0 0 0.13402
0.124681 0 0.121035
0.763043 0 0.071519
1 0 0.0484779
1 0 0.042237
0 0.118624 0.0729992
0.0343633 0.0987106 0.0674754
0.627131 0.0482338 0.0312963
0.998932 0.0374762 0.0324407
1 0.0516976 0.0447547
0 0.593774 0.0162661
0 0.575998 0.012604
0.448142 0.565087 0.000244144
0.920012 0.541115 0.0565652
1 0.563455 0.105516
0 0.988144 0.0487831
0.00244144 0.971878 0.0346075
0.446159 0.936629 0.0203708
0.827008 0.917891 0
1 0.880919 0
0 1 0.0890516
0.00773632 1 0.0648966
0.426566 1 0.0318303
0.803769 1 0
1 1 0
0 0 0.790311
0.108873 0 0.780102
0.743587 0 0.735271
1 0 0.706264
1 0 0.699992
0 0.102556 0.699031
0.0240177 0.0809186 0.676982
0.620188 0.0303197 0.62002
1 0.0235904 0.595529
1 0.034226 0.597543
0 0.582452 0.549783
0 0.561746 0.531121
0.479667 0.53727 0.517235
0.925597 0.519493 0.491112
1 0.529503 0.497719
0 0.982574 0.536767
0.000457771 0.961257 0.504631
0.418494 0.925597 0.458686
0.831434 0.890715 0.347021
1 0.868223 0.403357
0 1 0.547005
0.00350958 1 0.506554
0.403021 1 0.448188
0.81857 1 0.384619
1 1 0.334493
0 0 1
0.0979934 0 1
0.727687 0 1
1 0 1
1 0 1
0 0.0955673 1
0.0201572 0.0750134 1
0.600015 0.0301976 1
1 0.0227817 1
1 0.032517 1
0 0.575525 1
0 0.550698 0.992538
0.474678 0.530663 0.978485
0.926238 0.508263 0.964431
1 0.511879 0.963134
0 0.973297 1
0 0.949416 0.975937
0.402762 0.911299 0.932296
0.836088 0.86421 0.888075
1 0.847379 0.863066
0 1 1
0 1 0.972351
0.379339 1 0.906889
0.790875 1 0.842496
1 1 0.808164
0 0 1
0.0934615 0 1
0.718975 0 1
1 0 1
1 0 1
0 0.0935683 1
0.0200198 0.0744945 1
0.593378 0.0326238 1
1 0.0257725 1
1 0.0351873 1
0 0.575631 1
0 0.549706 1
0.474159 0.532143 1
0.92018 0.510216 1
1 0.511543 1
0 0.971542 1
0 0.944915 1
0.403143 0.90602 1
0.830671 0.858976 1
1 0.84065 1
0 1 1
0 1 1
0.374731 1 1
0.784741 1 1
1 1 1
