src/colors/cinematic_&_blockbuster/sunlit_cinema.cube
TITLE "Generated by Resolve"
LUT_3D_SIZE 9
0 0 0
0 0 0
0.125872 0 0
0.45568 0 0
0.743084 0 0
0.962921 0 0
1 0 0
1 0 0
1 0 0
0 0 0
0 0 0
0.108522 0 0
0.440314 0 0
0.736904 0 0
0.958694 0 0
1 0 0
1 0 0
1 0 0
0 0.120302 0
0 0.118791 0
0.0293736 0.107881 7.62951e-05
0.304906 0.0869764 0
0.624903 0.0567178 0
0.846998 0.0396124 0
1 0.0414588 0
1 0.0506752 0
1 0.0572213 0
0 0.347036 0
0 0.34667 0
0.0107881 0.322667 0
0.203174 0.327367 0
0.56788 0.288426 0
0.762417 0.295628 0
0.932784 0.307256 0
1 0.312154 0
1 0.31342 0
0 0.597955 0
0 0.598154 0
0 0.576913 0
0.197375 0.569894 0
0.434806 0.577707 0
0.757107 0.535149 0
0.948318 0.536049 0
1 0.553491 0
1 0.566705 0
0 0.811322 0
0 0.811643 0
0 0.792126 0
0.182879 0.78114 0
0.435767 0.775799 0
0.648844 0.775799 0
0.913191 0.742367 0
1 0.741421 0
1 0.740963 0
0 0.991333 0
0 0.991516 0
0.00614939 0.977493 0
0.206378 0.961532 0
0.465064 0.944396 0
0.631693 0.947723 0
0.824552 0.933883 0
1 0.899336 0
1 0.894041 0
0 1 0
0 1 0
0.0130312 1 0
0.226474 1 0
0.459403 1 0
0.670024 1 0
0.784115 1 0
0.954452 1 0
1 1 0
0 1 0
0 1 0
0.0116579 1 0
0.228611 1 0
0.448295 1 0
0.672419 1 0
0.782437 1 0
0.91899 1 0
1 1 0
0 0 0
0 0 0
0.130724 0 1.5259e-05
0.462638 0 0
0.747585 0 0
0.96669 0 0
1 0 0
1 0 0
1 0 0
0 0 0
0 0 0
0.119158 0 0
0.450462 0 0
0.742702 0 0
0.963073 0 0
1 0 0
1 0 0
1 0 0
0 0.12221 0
0 0.122393 0
0.0293126 0.110185 0
0.311727 0.0871748 0
0.630961 0.0563821 0
0.851011 0.0402838 0
1 0.0426184 0
1 0.0521859 0
1 0.0587778 0
0 0.349432 0
0 0.349813 0
0.00949111 0.326589 0
0.203693 0.32961 1.5259e-05
0.571633 0.289693 0
0.765972 0.296834 0
0.93611 0.308675 0
1 0.313573 0
1 0.314778 0
0 0.600534 0
0 0.601328 0
0 0.581155 0
0.195941 0.572808 0
0.435996 0.579644 0
0.759838 0.536583 0
0.951003 0.537499 0
1 0.555001 0
1 0.567803 0
0 0.813397 0
0 0.814038 0
0 0.795377 0
0.181384 0.783673 0
0.436439 0.777676 0
0.649775 0.777508 0
0.915175 0.743511 0
1 0.742519 0
1 0.741894 0
0 0.992111 0
0 0.992401 0
0.0056611 0.97995 0
0.20528 0.963592 0
0.464042 0.946349 0
0.632288 0.949111 0
0.825284 0.935149 0
1 0.900206 0
1 0.895018 0
0 1 0
0 1 0
0.0117494 1 3.0518e-05
0.225605 1 0
0.458015 1 0
0.670085 1 0
0.784451 1 0
0.955032 1 0
1 1 0
0 1 0
0 1 0
0.0104372 1 0
0.227817 1 0
0.447272 1 0
0.672023 1 0
0.782513 1 0
0.9196 1 0
1 1 0
0 0 0.13402
0 0 0.135531
0.124681 0 0.121035
0.46125 0 0.105821
0.763043 0 0.071519
0.98323 0 0.0566567
1 0 0.0484779
1 0 0.0439612
1 0 0.042237
0 0 0.12639
0 0 0.132509
0.11368 0 0.121233
0.455817 0 0.104952
0.759777 0 0.0696574
0.980819 0 0.0550698
1 0 0.0475319
1 0 0.044007
1 0 0.0426642
0 0.118624 0.0729992
0 0.118395 0.0745708
0.0343633 0.0987106 0.0674754
0.324758 0.0749828 0.0469673
0.627131 0.0482338 0.0312963
0.845563 0.0352331 0.0278172
0.998932 0.0374762 0.0324407
1 0.045594 0.0397803
1 0.0516976 0.0447547
0 0.342184 0.0358282
0 0.343267 0.0335088
0.00567636 0.321584 0.026276
0.217594 0.315404 0.0130007
0.550164 0.292821 0.0412604
0.781918 0.28275 0.0342107
0.969573 0.282429 0.0423133
1 0.292103 0.0571908
1 0.298283 0.066041
0 0.593774 0.0162661
0 0.595331 0.0148928
0 0.575998 0.012604
0.186526 0.567315 0.0145571
0.448142 0.565087 0.000244144
0.752224 0.528862 0.0109712
0.920012 0.541115 0.0565652
1 0.559609 0.0967117
1 0.563455 0.105516
0 0.806149 0.018677
0 0.807431 0.0173953
0 0.788739 0.012665
0.172061 0.776333 0.0134432
0.452842 0.761975 0.00949111
0.656291 0.762783 0
0.904646 0.733547 0.00318914
1 0.732006 0.00979629
1 0.735088 0.0285649
0 0.988144 0.0487831
0 0.988922 0.0458228
0.00244144 0.971878 0.0346075
0.194751 0.953338 0.0286259
0.446159 0.936629 0.0203708
0.655573 0.924086 0.000122072
0.827008 0.917891 0
0.999985 0.886793 0
1 0.880919 0
0 1 0.0776684
0 1 0.0738231
0.00854505 1 0.0563058
0.213779 1 0.0417945
0.437812 1 0.0294194
0.669642 1 0.00894179
0.795026 1 0
0.954345 1 0
1 0.997299 0
0 1 0.0890516
0 1 0.0852674
0.00773632 1 0.0648966
0.216388 1 0.0454566
0.426566 1 0.0318303
0.656291 1 0.00769055
0.803769 1 0
0.921218 1 0
1 1 0
0 0 0.479515
0 0 0.48278
0.1178 0 0.458213
0.442786 0 0.418677
0.755917 0 0.386267
0.97113 0 0.364569
1 0 0.350317
1 0 0.343893
1 0 0.341939
0 0 0.473625
0 0 0.480491
0.105287 0 0.461143
0.435676 0 0.423819
0.753094 0 0.388251
0.969406 0 0.36527
1 0 0.350652
1 0 0.344182
1 0 0.342473
0 0.112032 0.362081
0 0.111131 0.368124
0.0317845 0.0904707 0.347265
0.314153 0.0684672 0.318273
0.638178 0.0364843 0.276722
0.864942 0.0258793 0.258412
1 0.0281987 0.25658
1 0.0341955 0.262135
1 0.0386969 0.265507
0 0.336385 0.275975
0 0.336721 0.277485
0.00680552 0.313619 0.25774
0.229023 0.30312 0.256977
0.560525 0.280339 0.235065
0.786206 0.274281 0.228229
0.966873 0.281483 0.236225
1 0.292378 0.247395
1 0.29778 0.253178
0 0.590539 0.224048
0 0.59173 0.223102
0 0.571847 0.210269
0.1785 0.564538 0.206699
0.464622 0.551354 0.156649
0.739681 0.530282 0.213916
0.913573 0.547539 0.25948
1 0.541833 0.243473
1 0.539101 0.239918
0 0.803052 0.216144
0 0.804196 0.21471
0 0.785138 0.200626
0.167483 0.771786 0.197818
0.441917 0.758175 0.189715
0.662776 0.748806 0.127123
0.898039 0.726833 0.181521
1 0.733486 0.225269
1 0.745174 0.271092
0 0.986969 0.247807
0 0.987839 0.246464
0.00172427 0.967727 0.228458
0.1906 0.946593 0.221515
0.431815 0.930419 0.214359
0.67155 0.904524 0.190997
0.827955 0.900603 0.13431
1 0.876554 0.186938
1 0.871015 0.18703
0 1 0.276402
0 1 0.274907
0.00653086 1 0.253407
0.21088 1 0.240711
0.422858 1 0.23592
0.654032 1 0.213062
0.811154 1 0.126818
0.953216 1 0.137667
1 0.991547 0.187472
0 1 0.283696
0 1 0.282322
0.00573739 1 0.260319
0.213703 1 0.245686
0.412894 1 0.241306
0.640452 1 0.218631
0.820783 1 0.183551
0.920928 1 0.0861219
1 1 0.153796
0 0 0.790311
0 0 0.79263
0.108873 0 0.780102
0.424094 0 0.754864
0.743587 0 0.735271
0.958648 0 0.717479
1 0 0.706264
1 0 0.701762
1 0 0.699992
0 0 0.788205
0 0 0.791791
0.0975357 0 0.782223
0.415732 0 0.75938
0.740001 0 0.739132
0.956771 0 0.720088
1 0 0.70837
1 0 0.703166
1 0 0.701396
0 0.102556 0.699031
0 0.101884 0.703944
0.0240177 0.0809186 0.676982
0.291569 0.06215 0.65243
0.620188 0.0303197 0.62002
0.853666 0.0214694 0.601419
1 0.0235904 0.595529
1 0.0296941 0.597131
1 0.034226 0.597543
0 0.326177 0.612116
0 0.326085 0.615641
0.00411994 0.301442 0.590753
0.224582 0.295033 0.584848
0.553323 0.272984 0.564446
0.798535 0.261616 0.544198
0.985214 0.267033 0.539467
1 0.275929 0.541619
1 0.281025 0.542535
0 0.582452 0.549783
0 0.5832 0.5514
0 0.561746 0.531121
0.178073 0.555291 0.525505
0.479667 0.53727 0.517235
0.742809 0.517662 0.495079
0.925597 0.519493 0.491112
1 0.526192 0.495491
1 0.529503 0.497719
0 0.796368 0.52369
0 0.797482 0.523903
0 0.778225 0.499199
0.163592 0.765469 0.484688
0.42652 0.75436 0.467353
0.671656 0.737041 0.394812
0.890227 0.728191 0.453605
1 0.741527 0.494072
1 0.734874 0.480537
0 0.982574 0.536767
0 0.98352 0.535958
0.000457771 0.961257 0.504631
0.185595 0.939574 0.478767
0.418494 0.925597 0.458686
0.661662 0.900404 0.421256
0.831434 0.890715 0.347021
1 0.870619 0.392554
1 0.868223 0.403357
0 1 0.548577
0 1 0.547417
0.00425727 1 0.509865
0.206653 1 0.471748
0.411475 1 0.453391
0.642527 1 0.416068
0.825055 0.999466 0.363455
0.955093 0.996933 0.321141
1 0.988846 0.371206
0 1 0.547005
0 1 0.545586
0.00350958 1 0.506554
0.209033 1 0.464057
0.403021 1 0.448188
0.630259 1 0.41297
0.81857 1 0.384619
0.925231 1 0.263142
1 1 0.334493
0 0 1
0 0 1
0.101549 0 1
0.414542 0 0.996536
0.734173 0 0.98175
0.949874 0 0.968765
1 0 0.962493
1 0 0.961746
1 0 0.961913
0 0 0.999924
0 0 1
0.0933547 0 1
0.405692 0 0.996811
0.730068 0 0.983444
0.947723 0 0.971191
1 0 0.964874
1 0 0.963958
1 0 0.963638
0 0.097734 0.942107
0 0.0973526 0.945357
0.0208591 0.0762951 0.918029
0.279225 0.0593881 0.896788
0.607233 0.0290074 0.875257
0.844388 0.0194858 0.864393
1 0.021088 0.862882
1 0.0271763 0.866087
1 0.0314641 0.866346
0 0.320241 0.867277
0 0.320226 0.870253
0.00230411 0.294987 0.845609
0.22121 0.291508 0.838239
0.54052 0.272114 0.821698
0.787823 0.258991 0.808301
0.979004 0.263035 0.806104
1 0.271107 0.808072
1 0.276158 0.807858
0 0.576669 0.814008
0 0.577249 0.816358
0 0.553323 0.795254
0.179812 0.547539 0.787717
0.475563 0.531075 0.776623
0.735164 0.511208 0.762325
0.932036 0.508583 0.755383
1 0.512505 0.753567
1 0.514824 0.751659
0 0.790661 0.78912
0 0.79144 0.790524
0 0.770718 0.766918
0.162264 0.757595 0.750683
0.422751 0.745983 0.738857
0.680568 0.723369 0.72192
0.885069 0.711147 0.706462
1 0.710307 0.698512
1 0.709743 0.695033
0 0.97583 0.7991
0 0.976745 0.799741
0 0.953689 0.768795
0.179904 0.930739 0.738521
0.405859 0.917159 0.71957
0.644678 0.892622 0.684855
0.832319 0.874846 0.62739
0.997894 0.871565 0.671916
1 0.877592 0.692058
0 1 0.80589
0 1 0.805875
0.00178531 1 0.769009
0.198352 1 0.724392
0.396841 1 0.703792
0.626169 1 0.664775
0.816709 0.99501 0.630503
0.954894 0.990036 0.58407
1 0.980255 0.608469
0 1 0.801648
0 1 0.801114
0.0011902 1 0.762951
0.199451 1 0.712932
0.388632 1 0.693217
0.614893 1 0.655497
0.803555 1 0.623209
0.930648 1 0.54699
1 1 0.586404
0 0 1
0 0 1
0.0979934 0 1
0.411124 0 1
0.727687 0 1
0.944366 0 1
1 0 1
1 0 1
1 0 1
0 0 1
0 0 1
0.0908217 0 1
0.40293 0 1
0.723232 0 1
0.941955 0 1
1 0 1
1 0 1
1 0 1
0 0.0955673 1
0 0.0953841 1
0.0201572 0.0750134 1
0.273762 0.0594949 1
0.600015 0.0301976 1
0.838956 0.0207065 1
1 0.0227817 1
1 0.0285801 1
1 0.032517 1
0 0.318791 1
0 0.318807 1
0.0037995 0.294331 1
0.222171 0.29218 1
0.535683 0.274784 1
0.782391 0.261524 0.997467
0.974594 0.264591 0.997955
1 0.272023 0.999878
1 0.276509 1
0 0.575525 1
0 0.576135 1
0 0.550698 0.992538
0.183963 0.546166 0.986328
0.474678 0.530663 0.978485
0.728801 0.512169 0.966537
0.926238 0.508263 0.964431
1 0.510521 0.964904
1 0.511879 0.963134
0 0.789578 0.993454
0 0.790234 0.993805
0 0.767895 0.974319
0.166217 0.754833 0.959075
0.42501 0.742428 0.947372
0.678111 0.720378 0.930404
0.87921 0.707057 0.921202
1 0.701762 0.913649
1 0.699596 0.906966
0 0.973297 1
0 0.974075 1
0 0.949416 0.975937
0.179782 0.925368 0.948318
0.402762 0.911299 0.932296
0.64097 0.885344 0.90547
0.836088 0.86421 0.888075
0.992874 0.851438 0.873594
1 0.847379 0.863066
0 1 1
0 1 1
0.000320439 1 0.976699
0.194324 1 0.936187
0.389319 1 0.917876
0.616587 0.999954 0.884596
0.803601 0.991852 0.856504
0.953079 0.983108 0.818402
1 0.979019 0.843137
0 1 1
0 1 1
0 1 0.972351
0.193729 1 0.925109
0.379339 1 0.906889
0.603815 1 0.87277
0.790875 1 0.842496
0.943084 1 0.817502
1 1 0.808164
0 0 1
0 0 1
0.0961624 0 1
0.406836 0 1
0.72285 0 1
0.940688 0 1
1 0 1
1 0 1
1 0 1
0 0 1
0 0 1
0.0893873 0 1
0.399374 0 1
0.718395 0 1
0.937987 0 1
1 0 1
1 0 1
1 0 1
0 0.0944839 1
0 0.0944839 1
0.0200656 0.074876 1
0.271412 0.0601053 1
0.596262 0.0320592 1
0.83624 0.0227512 1
1 0.0248722 1
1 0.0307317 1
1 0.0345769 1
0 0.319112 1
0 0.319326 1
0.00630198 0.295674 1
0.224262 0.29485 1
0.534066 0.278599 1
0.77969 0.265599 1
0.971649 0.267948 1
1 0.274861 1
1 0.279072 1
0 0.576211 1
0 0.576638 1
0 0.550698 1
0.188312 0.5467 1
0.474815 0.532082 1
0.726345 0.514504 1
0.922866 0.509941 1
1 0.511025 1
1 0.511666 1
0 0.790112 1
0 0.790768 1
0 0.767193 1
0.17084 0.754391 1
0.426871 0.741497 1
0.676371 0.71986 1
0.873671 0.706737 1
1 0.700587 1
1 0.697246 1
0 0.972671 1
0 0.973312 1
0 0.946868 1
0.182116 0.922713 1
0.40267 0.908141 1
0.640009 0.881483 1
0.832532 0.860563 1
0.988693 0.848371 1
1 0.841901 1
0 1 1
0 1 1
0 1 1
0.193484 1 1
0.38677 1 1
0.613748 0.999435 1
0.801434 0.988357 1
0.955871 0.975189 0.999619
1 0.966323 0.997711
0 1 1
0 1 1
0 1 1
0.191852 1 1
0.375372 1 1
0.598886 1 1
0.785092 1 1
0.936828 1 0.994079
1 1 0.985595
0 0 1
0 0 1
0.0934615 0 1
0.402243 0 1
0.718975 0 1
0.937621 0 1
1 0 1
1 0 1
1 0 1
0 0 1
0 0 1
0.0875563 0 1
0.395377 0 1
0.714717 0 1
0.934752 0 1
1 0 1
1 0 1
1 0 1
0 0.0935683 1
0 0.0937514 1
0.0200198 0.0744945 1
0.269459 0.0600595 1
0.593378 0.0326238 1
0.833738 0.0234684 1
1 0.0257725 1
1 0.0314336 1
1 0.0351873 1
0 0.318578 1
0 0.318761 1
0.00747692 0.295705 1
0.224643 0.295338 1
0.532052 0.2795 1
0.777279 0.266667 1
0.968902 0.268879 1
1 0.275761 1
1 0.279942 1
0 0.575631 1
0 0.576028 1
0 0.549706 1
0.189975 0.54609 1
0.474159 0.532143 1
0.724193 0.514855 1
0.92018 0.510216 1
1 0.511406 1
1 0.511543 1
0 0.789578 1
0 0.790204 1
0 0.765927 1
0.172992 0.753414 1
0.427619 0.74049 1
0.675288 0.719127 1
0.870604 0.706249 1
1 0.700236 1
1 0.69633 1
0 0.971542 1
0 0.972061 1
0 0.944915 1
0.18323 0.920745 1
0.403143 0.90602 1
0.639719 0.879362 1
0.830671 0.858976 1
0.984451 0.84744 1
1 0.84065 1
0 1 1
0 1 1
0 1 1
0.193622 1 1
0.386801 1 1
0.613794 0.999023 1
0.801587 0.985901 1
0.954543 0.972992 1
1 0.965164 1
0 1 1
0 1 1
0 1 1
0.191409 1 1
0.374731 1 1
0.598123 1 1
0.784741 1 1
0.936736 1 1
1 1 1
