src/colors/cinematic_&_blockbuster/sunlit_cinema.cube
TITLE "Generated by Resolve"
LUT_3D_SIZE 33
0 0 0
0 0 0
0 0 0
0 0 0
0 0 0
0 0 0
0 0 0
0.0373846 0 0
0.125872 0 0
0.19971 0 0
0.278813 0 0
0.365667 0 0
0.45568 0 0
0.540841 0 0
0.617044 0 0
0.682826 0 0
0.743084 0 0
0.801221 0 0
0.861433 0 0
0.913161 0 0
0.962921 0 0
0.996201 0 0
1 0 0
1 0 0
1 0 0
1 0 0
1 0 0
1 0 0
1 0 0
1 0 0
1 0 0
1 0 0
1 0 0
0 0 0
0 0 0
0 0 0
0 0 0
0 0 0
0 0 0
0 0 0
0.0328374 0 0
0.122866 0 0
0.196979 0 0
0.275593 0 0
0.362676 0 0
0.451621 0 0
0.536309 0 0
0.613519 0 0
0.679667 0 0
0.741772 0 0
0.799985 0 0
0.860441 0 0
0.91223 0 0
0.961975 0 0
0.995834 0 0
1 0 0
1 0 0
1 0 0
1 0 0
1 0 0
1 0 0
1 0 0
1 0 0
1 0 0
1 0 0
1 0 0
0 0 0
0 0 0
0 0 0
0 0 0
0 0 0
0 0 6.10361e-05
0 0 0.000137331
0.0273899 0 0.00105287
0.119158 0 0.000137331
0.19176 0 6.10361e-05
0.270375 0 0
0.357259 0 0
0.447272 0 0
0.534035 0 0
0.611444 0 0
0.677882 0 0
0.740276 0 0
0.798566 0 0
0.859098 0 0
0.911147 0 0
0.961044 0 0
0.995315 0 0
1 0 0
1 0 0
1 0 0
1 0 0
1 0 0
1 0 0
1 0 0
1 0 0
1 0 0
1 0 0
1 0 0
0 0 0
0 0 0
0 0 0
0 0 0
0 0 0
0 0 0
0 0 0
0.0186007 0 0
0.113146 0 0
0.188357 0 0
0.266911 0 0
0.354009 0 0
0.443793 0 0
0.531258 0 0
0.609079 0 0
0.676097 0 0
0.738582 0 0
0.797147 0 0
0.857771 0 0
0.910063 0 0
0.959945 0 0
0.994873 0 0
1 0 0
1 0 0
1 0 0
1 0 0
1 0 0
1 0 0
1 0 0
1 0 0
1 0 0
1 0 0
1 0 0
0 0 0
0 0 0
0 0 0
0 0 0
0 0 0
0 0 0
0 0 0
0.0159609 0 0
0.108522 0 0
0.184497 0 0
0.263188 0 0
0.35021 0 0
0.440314 0 0
0.528237 0 0
0.60647 0 0
0.674128 0 0
0.736904 0 0
0.795544 0 0
0.856046 0 0
0.908827 0 0
0.958694 0 0
0.994278 0 0
1 0 0
1 0 0
1 0 0
1 0 0
1 0 0
1 0 0
1 0 0
1 0 0
1 0 0
1 0 0
1 0 0
0 0 0
0 0 0
0 0 0
0 0 0
0 0 0
0 0 0
0 0 0
0.0123751 0 0
0.0983749 0 0
0.173175 0 0
0.246586 0 0
0.327855 0 0
0.416617 0 0
0.506371 0 0
0.586984 0 0
0.661555 0 0
0.728496 0 0
0.788785 0 0
0.844633 0 0
0.895582 0 0
0.944701 0 0
0.989242 0 0
1 0 0
1 0 0
1 0 0
1 0 0
1 0 0
1 0 0
1 0 0
1 0 0
1 0 0
1 0 0
1 0 0
0 0.00794995 0
0 0.00782788 0
0 0.00746166 0
0 0.00698863 0
0 0.00640879 0
0 0.00578317 0
0 0.00469978 0
0.00923171 0.0037995 0
0.0776532 0.00250248 0
0.159213 0.00202945 0
0.23032 0.00149538 0
0.308629 0.000564584 0
0.397131 0 0
0.49369 0 0
0.577249 0 0
0.647761 0 0
0.711437 0 0
0.770474 0 0
0.82446 0 0
0.87454 0 0
0.922927 0 0
0.970214 0 0
0.998291 0 0
1 0 0
1 0 0
1 0 0
1 0 0
1 0 0
1 0 0
1 0 0
1 0 0
1 0 0
1 0 0
0 0.0572518 0
0 0.0570382 0
0 0.056611 0
0 0.056199 0
0 0.0553445 0
0 0.0544442 0
0 0.0500801 0
0.0027924 0.0454108 0
0.0565347 0.0411688 0
0.124529 0.0358587 0
0.196414 0.0325475 0
0.276387 0.0269932 0
0.359823 0.0219272 0
0.45037 0.0184176 0
0.539162 0.0143435 0
0.613886 0.0109865 0
0.677623 0.00869764 0
0.736034 0.00697337 0
0.789761 0.00570687 0
0.839902 0.00477607 0
0.88809 0.00416571 0
0.934966 0.00386053 0
0.979492 0.0037232 0
0.997406 0.00361639 0
1 0.00384527 0
1 0.00424201 0
1 0.00477607 0
1 0.00546273 0
1 0.0062562 0
1 0.00715648 0
1 0.00825513 0
1 0.00843824 0
1 0.00851453 0
0 0.120302 0
0 0.120119 0
0 0.119738 0
0 0.119356 0
0 0.118791 0
0 0.118212 0
0 0.1149 0
0 0.108629 4.57771e-05
0.0293736 0.107881 7.62951e-05
0.0993362 0.10219 0.000122072
0.174426 0.0943313 7.62951e-05
0.238163 0.0904097 4.57771e-05
0.304906 0.0869764 0
0.382712 0.0825818 0
0.471 0.0745403 0
0.552468 0.0654917 0
0.624903 0.0567178 0
0.68925 0.0493782 0
0.746609 0.0443732 0
0.798428 0.0411994 0
0.846998 0.0396124 0
0.893706 0.0391546 0
0.938476 0.0394293 0
0.981369 0.0401923 0
1 0.0414588 0
1 0.0433509 0
1 0.0454261 0
1 0.0480507 0
1 0.0506752 0
1 0.0534524 0
1 0.0564736 0
1 0.0570077 0
1 0.0572213 0
0 0.179812 0
0 0.179614 0
0 0.179431 0
0 0.179049 0
0 0.178683 0
0 0.178119 0
0 0.174304 0
0 0.166857 0
0.0288853 0.159197 0
0.0712444 0.16318 0
0.146242 0.154391 0
0.225391 0.144625 0
0.299336 0.138399 0
0.369574 0.134417 0
0.438163 0.133028 0
0.510063 0.129198 0
0.579812 0.122942 0
0.646738 0.116167 0
0.710018 0.109529 0
0.769146 0.104295 0
0.823285 0.101091 0
0.87393 0.0996872 0
0.921202 0.0995651 0
0.965591 0.100664 0
0.998276 0.102388 0
1 0.104768 0
1 0.107515 0
1 0.110643 0
1 0.113695 0
1 0.117021 0
1 0.120638 0
1 0.121263 0
1 0.121447 0
0 0.234745 0
0 0.234745 0
0 0.234577 0
0 0.234409 0
0 0.234058 0
0 0.233722 0
0 0.229526 0
0 0.221805 0
0.0234989 0.211414 0
0.0702983 0.211292 0
0.114183 0.215183 0
0.196551 0.204273 0
0.281498 0.193576 0
0.364446 0.186206 0
0.439963 0.181689 0
0.502159 0.181918 0
0.561227 0.181048 0
0.619959 0.178668 0
0.676555 0.17586 0
0.731929 0.173129 0
0.78648 0.170413 0
0.840696 0.168017 0
0.89308 0.166369 0
0.942718 0.165621 0
0.985641 0.166247 0
0.999802 0.167391 0
1 0.169436 0
1 0.171801 0
1 0.174762 0
1 0.177935 0
1 0.181277 0
1 0.181949 0
1 0.182132 0
0 0.289494 0
0 0.289494 0
0 0.289311 0
0 0.289128 0
0 0.288945 0
0 0.288594 0
0 0.284566 0
0 0.277546 0
0.0171206 0.265446 0
0.0650797 0.261952 0
0.109422 0.265965 0
0.158099 0.268711 0
0.246677 0.256733 0
0.343725 0.244556 0
0.431037 0.23714 0
0.507805 0.232929 0
0.566354 0.232456 0
0.618265 0.233768 0
0.668009 0.234699 0
0.716854 0.235401 0
0.765347 0.236225 0
0.813718 0.237049 0
0.861479 0.237705 0
0.908003 0.23801 0
0.956313 0.238132 0
0.992706 0.238239 0
1 0.238788 0
1 0.239429 0
1 0.240726 0
1 0.242329 0
1 0.244312 0
1 0.244846 0
1 0.245045 0
0 0.347036 0
0 0.347219 0
0 0.347036 0
0 0.347036 0
0 0.34667 0
0 0.346487 0
0 0.342641 0
0 0.335882 0
0.0107881 0.322667 0
0.0523384 0.319112 0
0.107454 0.319265 0
0.150042 0.325048 0
0.203174 0.327367 0
0.299763 0.314366 0
0.408347 0.299748 0
0.495155 0.292805 0
0.56788 0.288426 0
0.626871 0.28719 0
0.675959 0.288823 0
0.719676 0.291859 0
0.762417 0.295628 0
0.805646 0.299016 0
0.848615 0.30219 0
0.89015 0.304982 0
0.932784 0.307256 0
0.975189 0.309071 0
0.998032 0.310597 0
1 0.311467 0
1 0.312154 0
1 0.312657 0
1 0.312917 0
1 0.313191 0
1 0.31342 0
0 0.406226 0
0 0.406226 0
0 0.406226 0
0 0.406043 0
0 0.406043 0
0 0.405661 0
0 0.40238 0
0 0.396048 0
0.00407416 0.382727 0
0.0406348 0.37908 0
0.0976425 0.378836 0
0.151934 0.380331 0
0.192508 0.388266 0
0.252735 0.388678 0
0.359976 0.374853 0
0.472999 0.359518 0
0.552941 0.353155 0
0.621271 0.348821 0
0.681117 0.346365 0
0.732494 0.347066 0
0.775265 0.350622 0
0.813092 0.355688 0
0.850248 0.361288 0
0.887221 0.366232 0
0.925124 0.370306 0
0.964202 0.373861 0
0.994492 0.376867 0
1 0.37937 0
1 0.381598 0
1 0.383093 0
1 0.38436 0
1 0.384787 0
1 0.385016 0
0 0.470939 0
0 0.470939 0
0 0.470939 0
0 0.470939 0
0 0.470939 0
0 0.470741 0
0 0.467689 0
0 0.461387 0
0 0.447288 0
0.0323033 0.442664 1.5259e-05
0.0866407 0.443565 3.0518e-05
0.147723 0.443015 4.57771e-05
0.199222 0.447074 3.0518e-05
0.238987 0.456535 1.5259e-05
0.310979 0.454643 0
0.424674 0.437888 0
0.534188 0.420584 0
0.606012 0.414664 0
0.669078 0.410544 0
0.727611 0.407492 0
0.781537 0.406821 0
0.828031 0.409491 0
0.8663 0.413642 0
0.899809 0.41944 0
0.931517 0.425528 0
0.96527 0.430915 0
0.99379 0.435508 0
1 0.439567 0
1 0.443336 0
1 0.446494 0
1 0.4495 0
1 0.450141 0
1 0.45034 0
0 0.535317 0
0 0.535317 0
0 0.535515 0
0 0.535515 0
0 0.535317 0
0 0.535317 0
0 0.532723 0
0 0.527153 0
0 0.513527 0
0.0284886 0.507332 0
0.0793011 0.509316 0
0.139925 0.508888 0
0.202152 0.508095 0
0.247837 0.514794 0
0.296559 0.521385 0
0.373053 0.517968 0
0.485237 0.501839 0
0.586069 0.484993 0
0.654994 0.478279 0
0.714107 0.474571 0
0.769558 0.471992 0
0.821759 0.47126 0
0.869368 0.472267 0
0.911925 0.474861 0
0.948226 0.478691 0
0.98114 0.484337 0
0.998459 0.490318 0
1 0.496635 0
1 0.502037 0
1 0.506706 0
1 0.510964 0
1 0.511986 0
1 0.512169 0
0 0.597955 0
0 0.598154 0
0 0.598154 0
0 0.598154 0
0 0.598154 0
0 0.597955 0
0 0.595712 0
0 0.590249 0
0 0.576913 0
0.0272221 0.568917 0
0.0745556 0.57142 0
0.133165 0.571511 0
0.197375 0.569894 0
0.257237 0.569665 0
0.300847 0.578088 0
0.355062 0.582116 0
0.434806 0.577707 0
0.539025 0.562066 0
0.633829 0.545312 0
0.700923 0.538094 0
0.757107 0.535149 0
0.809964 0.533654 0
0.859251 0.53344 0
0.905623 0.534127 0
0.948318 0.536049 0
0.986206 0.538979 0
1 0.542885 0
1 0.547753 0
1 0.553491 0
1 0.559487 0
1 0.565194 0
1 0.566705 0
1 0.566705 0
0 0.656046 0
0 0.656229 0
0 0.656229 0
0 0.656229 0
0 0.656229 0
0 0.656229 0
0 0.654231 0
0 0.64918 0
0 0.636606 0
0.0258793 0.627176 0
0.0716869 0.629511 0
0.12784 0.629908 0
0.190585 0.628519 0
0.256413 0.626001 0
0.311849 0.628565 0
0.354177 0.636103 0
0.412329 0.637675 0
0.49424 0.632273 0
0.588663 0.617945 0
0.680034 0.601984 0
0.745708 0.595117 0
0.799069 0.593286 0
0.848829 0.592432 0
0.895216 0.592844 0
0.939269 0.593378 0
0.980163 0.59472 0
1 0.596719 0
1 0.599283 0
1 0.602396 0
1 0.60647 0
1 0.611536 0
1 0.613382 0
1 0.613382 0
0 0.709514 0
0 0.709682 0
0 0.709682 0
0 0.70985 0
0 0.70985 0
0 0.70985 0
0 0.707622 0
0 0.702724 0
0 0.690394 0
0.0246586 0.680262 0
0.0703136 0.681529 0
0.12398 0.682292 0
0.184955 0.681208 0
0.250263 0.678828 0
0.31812 0.676524 0
0.365133 0.681987 0
0.407782 0.688457 0
0.472618 0.688426 0
0.548318 0.682445 0
0.636866 0.668513 0
0.727596 0.652293 0
0.789288 0.647272 0
0.838972 0.646448 0
0.885481 0.646326 0
0.929442 0.646799 0
0.971557 0.647395 0
0.998413 0.648142 0
1 0.649256 0
1 0.651026 0
1 0.65304 0
1 0.655329 0
1 0.656321 0
1 0.656321 0
0 0.7608 0
0 0.760952 0
0 0.760952 0
0 0.76112 0
0 0.76112 0
0 0.76112 0
0 0.758968 0
0 0.753918 0
0 0.741695 0
0.0245518 0.730556 0
0.071458 0.731075 0
0.122637 0.732311 0
0.18233 0.731533 0
0.246174 0.729412 0
0.317678 0.725887 0
0.377264 0.72639 0
0.418952 0.733059 0
0.467369 0.737682 0
0.53019 0.735866 0
0.599832 0.729671 0
0.684321 0.71606 0
0.769802 0.701473 0
0.829419 0.696193 0
0.877058 0.695384 0
0.920684 0.695308 0
0.962264 0.695613 0
0.993912 0.695842 0
1 0.696071 0
1 0.696376 0
1 0.697154 0
1 0.698283 0
1 0.698878 0
1 0.698878 0
0 0.811322 0
0 0.811475 0
0 0.811475 0
0 0.811643 0
0 0.811643 0
0 0.811795 0
0 0.809552 0
0 0.804211 0
0 0.792126 0
0.0261845 0.780362 0
0.0764935 0.779904 0
0.124636 0.781735 0
0.182879 0.78114 0
0.245426 0.779171 0
0.315587 0.775784 0
0.384665 0.772732 0
0.435767 0.775799 0
0.476249 0.782528 0
0.524224 0.784726 0
0.582895 0.782193 0
0.648844 0.775799 0
0.729885 0.762722 0
0.809201 0.749416 0
0.867811 0.743664 0
0.913191 0.742367 0
0.953933 0.742184 0
0.989349 0.742092 0
1 0.741741 0
1 0.741421 0
1 0.741009 0
1 0.740826 0
1 0.740826 0
1 0.740963 0
0 0.861097 0
0 0.861265 0
0 0.861265 0
0 0.861418 0
0 0.861418 0
0 0.86157 0
0 0.859281 0
0 0.854047 0
0 0.841718 0
0.0297246 0.82916 0
0.0840925 0.828046 0
0.129854 0.830213 0
0.186252 0.82974 0
0.247196 0.827939 0
0.315709 0.824598 0
0.387915 0.820172 0
0.450263 0.818708 0
0.492988 0.823896 0
0.529519 0.829343 0
0.576303 0.829892 0
0.632456 0.826703 0
0.69633 0.820188 0
0.772641 0.807782 0
0.847868 0.794888 0
0.904585 0.788342 0
0.946685 0.786847 0
0.984863 0.786267 0
1 0.785504 0
1 0.784726 0
1 0.783825 0
1 0.782864 0
1 0.782483 0
1 0.782483 0
0 0.909392 0
0 0.909545 0
0 0.909697 0
0 0.90985 0
0 0.90985 0
0 0.910002 0
0 0.907591 0
0 0.902144 0
0 0.889448 0
0.0343786 0.876371 0
0.093019 0.874632 0
0.137728 0.876631 0
0.191989 0.876417 0
0.251438 0.874403 0
0.317815 0.871 0
0.389685 0.866148 0
0.45951 0.861692 0
0.51014 0.862882 0
0.542779 0.869184 0
0.578714 0.87274 0
0.625101 0.871931 0
0.680583 0.868162 0
0.741878 0.861402 0
0.813489 0.849332 0
0.885924 0.836316 0
0.939254 0.829664 0
0.980423 0.827802 0
0.999863 0.826627 0
1 0.825437 0
1 0.824109 0
1 0.822736 0
1 0.822156 0
1 0.822156 0
0 0.955566 0
0 0.955703 0
0 0.95584 0
0 0.955993 0
0 0.955993 0
0 0.95613 0
0 0.953567 0
0 0.947829 0
0.00263981 0.935027 0
0.0423438 0.921218 0
0.10277 0.918883 0
0.147051 0.920653 0
0.199115 0.920409 0
0.256977 0.918212 0
0.321309 0.914626 0
0.39147 0.909789 0
0.463645 0.904021 0
0.522362 0.901137 0
0.559045 0.904967 0
0.588815 0.910369 0
0.625422 0.912077 0
0.672862 0.910124 0
0.727001 0.905821 0
0.784985 0.898924 0
0.852537 0.887312 0
0.919966 0.875029 0
0.971206 0.867979 0
0.997772 0.865095 0
1 0.863401 0
1 0.861723 0
1 0.859983 0
1 0.859205 0
1 0.859205 0
0 0.991333 0
0 0.991394 0
0 0.991455 0
0 0.991516 0
0 0.991516 0
0 0.991577 0
0 0.990112 0
0 0.986908 0
0.00614939 0.977493 0
0.0518349 0.963867 0
0.112444 0.960983 0
0.156619 0.96202 0
0.206378 0.961532 0
0.262501 0.959213 0
0.325154 0.95552 0
0.393317 0.950713 0
0.465064 0.944396 0
0.529397 0.939055 0
0.573098 0.939025 0
0.602045 0.944015 0
0.631693 0.947723 0
0.670588 0.948043 0
0.718395 0.94522 0
0.769574 0.940871 0
0.824552 0.933883 0
0.88806 0.92282 0
0.951141 0.910918 0
0.992447 0.903151 0
1 0.899336 0
1 0.897139 0
1 0.895003 0
1 0.894041 0
1 0.894041 0
0 1 0
0 1 0
0 1 0
0 1 0
0 1 0
0 1 0
0 1 0
0 1 0
0.00910964 0.998459 0
0.060853 0.994369 0
0.121309 0.993378 0
0.165713 0.993545 0
0.213199 0.993408 0
0.267613 0.992645 0
0.328618 0.991409 0
0.39472 0.988968 0
0.465126 0.982361 0
0.532052 0.975677 0
0.582834 0.972168 0
0.615076 0.974929 0
0.64152 0.979583 0
0.672831 0.982116 0
0.713573 0.981003 0
0.759838 0.977768 0
0.807996 0.973419 0
0.859892 0.966491 0
0.921141 0.955383 0
0.97969 0.943679 0
0.999756 0.935332 0
1 0.930999 0
1 0.928588 0
1 0.927474 0
1 0.927474 0
0 1 0
0 1 0
0 1 0
0 1 0
0 1 0
0 1 0
0 1 0
0 1 0
0.0112459 1 0
0.0680705 1 0
0.128618 1 0
0.173907 1 0
0.218967 1 0
0.271763 1 0
0.33109 1 0
0.395743 0.999893 0
0.46453 0.999283 0
0.531518 0.998642 0
0.587823 0.998138 0
0.625483 0.998337 0
0.652705 0.998764 0
0.679164 0.999084 0
0.712444 0.999008 0
0.753109 0.998718 0
0.797314 0.998291 0
0.842725 0.997604 0
0.893385 0.995483 0
0.952544 0.98613 0
0.994781 0.973678 0
1 0.964721 0
1 0.960616 0
1 0.959152 0
1 0.959152 0
0 1 0
0 1 0
0 1 0
0 1 0
0 1 0
0 1 0
0 1 0
0 1 0
0.0125582 1 0
