src/colors/cinematic_&_blockbuster/teal_cinema.cube
LUT_3D_SIZE 16
0.000000 0.000000 0.011249
0.013992 0.000000 0.009659
0.067320 0.000000 0.007637
0.151121 0.000780 0.008410
0.231494 0.009394 0.007187
0.306729 0.020955 0.006974
0.383007 0.035190 0.007580
0.465292 0.052922 0.008105
0.545526 0.071431 0.008475
0.613787 0.086953 0.008773
0.668834 0.099213 0.008967
0.714817 0.109177 0.009025
0.756372 0.119251 0.009217
0.794156 0.128595 0.009418
0.829219 0.137716 0.010068
0.861941 0.148291 0.012610
0.000000 0.012895 0.012323
0.013214 0.012895 0.010642
0.051543 0.012895 0.008202
0.127114 0.013746 0.008124
0.209482 0.023022 0.007396
0.291301 0.036467 0.006770
0.373513 0.052023 0.006926
0.461790 0.072112 0.007502
0.547525 0.092724 0.007999
0.618802 0.109443 0.008373
0.675235 0.122089 0.008569
0.721156 0.131958 0.008667
0.762869 0.141460 0.008709
0.800837 0.150079 0.008704
0.835222 0.157918 0.008811
0.865433 0.167030 0.010931
0.000000 0.026076 0.018442
0.012902 0.026185 0.017710
0.035194 0.026454 0.012653
0.098773 0.029081 0.008265
0.186047 0.039832 0.007100
0.275710 0.053282 0.006768
0.364011 0.069062 0.006768
0.457923 0.090541 0.006858
0.548440 0.112911 0.007364
0.623732 0.131347 0.007840
0.681085 0.144382 0.008119
0.727576 0.154436 0.008240
0.769008 0.163525 0.008210
0.806712 0.171979 0.008196
0.840594 0.179444 0.008279
0.869172 0.186683 0.009261
0.000000 0.051115 0.027039
0.012895 0.052220 0.027711
0.028642 0.056219 0.027965
0.079101 0.054831 0.016193
0.161890 0.064588 0.009174
0.260175 0.077068 0.006861
0.354846 0.091331 0.006768
0.454540 0.112292 0.006768
0.549677 0.134641 0.006883
0.627930 0.153710 0.007348
0.686687 0.167291 0.007652
0.733375 0.177431 0.007809
0.774400 0.186389 0.007830
0.812017 0.194823 0.007767
0.845992 0.201908 0.007687
0.873027 0.208200 0.008063
0.000000 0.092186 0.038793
0.012895 0.092627 0.039226
0.026633 0.095596 0.042065
0.067875 0.103352 0.037782
0.139809 0.099980 0.020048
0.240164 0.110637 0.010069
0.343776 0.125732 0.007089
0.452004 0.143095 0.006768
0.552818 0.164244 0.006768
0.634227 0.181949 0.006872
0.693720 0.194273 0.007172
0.740183 0.203510 0.007373
0.780757 0.212138 0.007420
0.818200 0.220268 0.007371
0.852025 0.227275 0.007310
0.877664 0.233225 0.007548
0.000000 0.142315 0.054615
0.012895 0.141287 0.053899
0.026296 0.142770 0.056000
0.055619 0.149281 0.058081
0.121184 0.162843 0.049669
0.220374 0.158459 0.026155
0.329710 0.169691 0.013048
0.447216 0.190149 0.007797
0.557109 0.206332 0.006771
0.643326 0.221656 0.006768
0.704082 0.232006 0.006787
0.750289 0.239794 0.006873
0.789857 0.247028 0.006943
0.826159 0.254353 0.006962
0.859599 0.261120 0.006964
0.883959 0.266029 0.006993
0.000000 0.203807 0.073328
0.012896 0.201875 0.072209
0.027842 0.201676 0.072869
0.053720 0.205677 0.075926
0.101020 0.218326 0.076117
0.202696 0.238478 0.061368
0.315858 0.229746 0.034457
0.439143 0.242435 0.017118
0.558138 0.266880 0.009641
0.652765 0.280846 0.007187
0.716549 0.287461 0.006775
0.762854 0.291825 0.006779
0.801725 0.296634 0.006807
0.836781 0.302229 0.006859
0.868366 0.307911 0.006931
0.891375 0.311607 0.006985
0.000000 0.277324 0.097847
0.014001 0.274892 0.096461
0.035561 0.272986 0.095796
0.061478 0.275597 0.097718
0.095420 0.284816 0.101237
0.176418 0.306971 0.098453
0.311941 0.330352 0.078164
0.430949 0.311226 0.042843
0.556418 0.326581 0.023895
0.658041 0.355450 0.017479
0.727173 0.369360 0.014324
0.775314 0.373147 0.012841
0.813575 0.373993 0.011786
0.847700 0.375181 0.011423
0.876346 0.377322 0.011340
0.899206 0.378107 0.011126
0.005241 0.361189 0.127338
0.024332 0.358570 0.125832
0.048784 0.356451 0.124708
0.074790 0.357738 0.124802
0.102895 0.364324 0.127135
0.157486 0.381788 0.132490
0.292393 0.416387 0.121235
0.445277 0.434577 0.098140
0.554806 0.403076 0.053707
0.662213 0.417450 0.036235
0.735242 0.440270 0.033184
0.785679 0.458685 0.035054
0.825472 0.468854 0.035958
0.858868 0.472862 0.035730
0.885656 0.474375 0.035175
0.907908 0.472672 0.033441
0.020417 0.448443 0.156808
0.039546 0.446464 0.155921
0.065164 0.444570 0.154904
0.091977 0.445795 0.154169
0.119623 0.451522 0.155031
0.159540 0.465581 0.161886
0.281108 0.500560 0.162731
0.450468 0.541938 0.150259
0.579947 0.532994 0.115132
0.667270 0.499761 0.072295
0.744083 0.509340 0.061224
0.796168 0.522844 0.060605
0.836434 0.535728 0.062583
0.869976 0.546406 0.065023
0.895456 0.555719 0.068011
0.917569 0.560463 0.068638
0.036175 0.523454 0.179494
0.054439 0.523261 0.180306
0.081070 0.522861 0.180520
0.109616 0.524390 0.179914
0.137771 0.529278 0.178961
0.176725 0.542226 0.184790
0.293398 0.576697 0.189800
0.460219 0.616506 0.179930
0.600614 0.644483 0.168712
0.684840 0.602444 0.123598
0.749860 0.581931 0.095984
0.803707 0.584491 0.087706
0.843767 0.590008 0.085675
0.877771 0.597182 0.086154
0.902450 0.605750 0.088903
0.924290 0.612459 0.090733
0.047386 0.580524 0.192250
0.064913 0.581411 0.193835
0.092145 0.583026 0.196102
0.122566 0.585803 0.196654
0.151407 0.590379 0.194488
0.191303 0.602896 0.199309
0.311571 0.637673 0.204770
0.471132 0.673692 0.198392
0.603015 0.703622 0.191818
0.704783 0.695217 0.164663
0.756902 0.652678 0.130129
0.806938 0.642361 0.114780
0.848630 0.641483 0.107766
0.882939 0.644930 0.106331
0.907513 0.650305 0.107419
0.928933 0.655417 0.108745
0.056016 0.627935 0.202132
0.073216 0.628785 0.202347
0.099119 0.631332 0.205057
0.131687 0.634786 0.206511
0.160924 0.638776 0.203382
0.201987 0.651629 0.208113
0.320628 0.684353 0.213987
0.472937 0.716298 0.209668
0.600630 0.744386 0.203731
0.707546 0.754018 0.186049
0.768001 0.722238 0.158689
0.808149 0.693966 0.136722
0.850635 0.688145 0.126578
0.886132 0.688115 0.122714
0.911053 0.690680 0.122037
0.932327 0.694559 0.122822
0.062105 0.667991 0.210606
0.079220 0.668824 0.209867
0.103253 0.670935 0.209696
0.137678 0.674808 0.211574
0.167841 0.679442 0.208834
0.208065 0.690948 0.212905
0.318428 0.720092 0.220832
0.466014 0.749490 0.217168
0.591194 0.775883 0.211348
0.696225 0.792328 0.199985
0.772063 0.779269 0.178179
0.815613 0.749247 0.156576
0.850494 0.730672 0.142336
0.887006 0.727983 0.136893
0.913011 0.728811 0.135196
0.934666 0.730402 0.134421
0.067337 0.705142 0.218671
0.084452 0.705910 0.217698
0.106611 0.707492 0.216020
0.142188 0.710735 0.215007
0.173127 0.715465 0.213367
0.212413 0.725753 0.218358
0.311298 0.751462 0.226688
0.450670 0.777722 0.223257
0.573076 0.801267 0.217128
0.679256 0.821401 0.209530
0.767133 0.825566 0.192609
0.818125 0.800879 0.173672
0.854184 0.777824 0.158125
0.886338 0.765109 0.148631
0.914460 0.764207 0.145756
0.936737 0.764370 0.144310
0.073720 0.748948 0.231814
0.090641 0.748874 0.229792
0.109403 0.749772 0.227824
0.143853 0.753328 0.227830
0.179254 0.757571 0.228019
0.224631 0.767222 0.232662
0.314126 0.787202 0.237109
0.434256 0.807314 0.232099
0.545805 0.825859 0.224961
0.650203 0.846224 0.218693
0.734338 0.856891 0.208225
0.809149 0.855384 0.192197
0.853805 0.830338 0.175027
0.887153 0.811337 0.164104
0.914573 0.800457 0.156984
0.938354 0.798513 0.153910
0.000000 0.000000 0.038610
0.016037 0.000000 0.036282
0.067785 0.000000 0.029967
0.151012 0.000558 0.027170
0.236145 0.008269 0.025919
0.311534 0.019070 0.024521
0.385979 0.033021 0.024828
0.467013 0.050260 0.025250
0.546322 0.068574 0.025631
0.613775 0.083863 0.025972
0.668505 0.096851 0.026238
0.713335 0.106667 0.026520
0.755776 0.120084 0.027533
0.794127 0.132718 0.028760
0.829006 0.142578 0.029884
0.861683 0.152495 0.031911
0.000000 0.012895 0.038588
0.013361 0.012895 0.036041
0.053238 0.012896 0.032141
0.127869 0.015126 0.029977
0.218203 0.027442 0.027518
0.300555 0.039643 0.023614
0.381562 0.054955 0.023801
0.468058 0.073940 0.024274
0.551637 0.093326 0.024675
0.621121 0.109463 0.025034
0.676826 0.122122 0.025210
0.722347 0.132510 0.025435
0.764335 0.143189 0.025768
0.801549 0.152628 0.026351
0.836110 0.161187 0.027060
0.866062 0.171598 0.030044
0.000000 0.026318 0.044617
0.012900 0.026538 0.043335
0.036249 0.027181 0.036985
0.105585 0.031016 0.029980
0.196857 0.043204 0.027140
0.285762 0.055961 0.023094
0.372878 0.072634 0.022984
0.465732 0.094154 0.023364
0.554696 0.116120 0.023982
0.627812 0.133470 0.024413
0.684174 0.146062 0.024663
0.730330 0.156073 0.024747
0.771713 0.165550 0.024807
0.808884 0.173943 0.024827
0.842476 0.181854 0.025292
0.869771 0.191366 0.028143
0.000000 0.053245 0.051815
0.012895 0.055270 0.049942
0.028179 0.058993 0.049311
0.084064 0.059697 0.037215
0.174218 0.067861 0.025668
0.271230 0.078504 0.023016
0.364582 0.093326 0.022929
0.462938 0.114838 0.022942
0.556761 0.137992 0.023329
0.633158 0.156603 0.023836
0.690671 0.169730 0.024155
0.736870 0.179571 0.024255
0.777629 0.188786 0.024325
0.814928 0.197097 0.024292
0.848230 0.204554 0.024519
0.873763 0.212805 0.026722
0.000000 0.095205 0.062667
0.012895 0.097135 0.060140
0.026118 0.099268 0.061007
0.066378 0.107835 0.059417
0.148078 0.105998 0.038656
0.251344 0.114736 0.026091
0.354536 0.126268 0.023111
0.460640 0.143652 0.022917
0.559747 0.165052 0.022935
0.639144 0.182773 0.023251
0.697839 0.195332 0.023611
0.744024 0.205041 0.023774
0.784327 0.213804 0.023795
0.821376 0.222063 0.023743
0.854284 0.228840 0.023707
0.878201 0.236004 0.025295
0.000000 0.146319 0.077195
0.012895 0.146969 0.074345
0.025940 0.147028 0.074218
0.053076 0.153215 0.078543
0.121473 0.167612 0.070004
0.229097 0.164391 0.043000
0.339743 0.174103 0.028969
0.456748 0.189823 0.023607
0.564740 0.205402 0.022917
0.648410 0.220316 0.022924
0.708148 0.230579 0.023068
0.753948 0.238726 0.023238
0.793541 0.246479 0.023307
0.829493 0.254070 0.023271
0.861785 0.260514 0.023316
0.883973 0.266020 0.024546
0.000000 0.208221 0.094670
0.012895 0.208400 0.092191
0.026434 0.206799 0.091441
0.052338 0.209651 0.095163
0.098541 0.221734 0.095829
0.204247 0.243058 0.080280
0.324108 0.234948 0.050876
0.448233 0.246114 0.032604
0.566902 0.266658 0.025025
0.659040 0.277642 0.023080
0.721106 0.283835 0.022917
0.766695 0.288562 0.022928
0.805248 0.294058 0.022980
0.840377 0.300157 0.023038
0.870056 0.305503 0.023086
0.891207 0.308473 0.023980
0.000000 0.282328 0.118708
0.013444 0.282718 0.117140
0.032329 0.279931 0.115722
0.060435 0.280766 0.117750
0.093588 0.288533 0.120369
0.173354 0.310496 0.118724
0.313741 0.335076 0.096307
0.438828 0.315696 0.058856
0.565017 0.330479 0.039051
0.665031 0.356621 0.032298
0.732743 0.366414 0.028831
0.779905 0.367970 0.027331
0.817819 0.368846 0.026613
0.852016 0.371135 0.026457
0.879050 0.372931 0.026320
0.900132 0.372256 0.026703
0.006321 0.367270 0.148322
0.022734 0.367923 0.147129
0.045181 0.364494 0.145100
0.074050 0.364159 0.145506
0.102484 0.369073 0.146230
0.153662 0.385376 0.151772
0.289241 0.419881 0.141273
0.447738 0.439478 0.116064
0.562640 0.407467 0.069193
0.669425 0.420930 0.051207
0.741176 0.443834 0.048732
0.790899 0.460671 0.050358
0.830090 0.468578 0.050620
0.863471 0.471328 0.050110
0.888669 0.471838 0.049260
0.909496 0.466368 0.046799
0.022304 0.454890 0.177445
0.038843 0.456437 0.177099
0.061662 0.453555 0.175734
0.091673 0.453125 0.175662
0.119967 0.456946 0.174559
0.157896 0.469500 0.180491
0.273460 0.503259 0.183014
0.449178 0.545541 0.168538
0.584220 0.538900 0.133130
0.674305 0.504535 0.088282
0.750513 0.513632 0.077140
0.801884 0.527342 0.076960
0.841459 0.540113 0.079181
0.874491 0.550684 0.081721
0.899123 0.559537 0.084657
0.919973 0.561191 0.084448
0.037948 0.528612 0.198594
0.054545 0.530791 0.198992
0.076558 0.530669 0.200055
0.108541 0.531278 0.200846
0.138088 0.534419 0.198758
0.174933 0.545522 0.202866
0.283221 0.578358 0.209323
0.456274 0.619168 0.198118
0.601599 0.648987 0.186975
0.689966 0.608111 0.141257
0.756311 0.586932 0.112736
0.809481 0.589274 0.104543
0.849385 0.595077 0.102932
0.882221 0.602549 0.103790
0.906370 0.611363 0.106809
0.927414 0.616654 0.108571
0.048917 0.584616 0.210927
0.065570 0.586988 0.211067
0.086471 0.588754 0.213612
0.120474 0.591430 0.216733
0.151446 0.594984 0.214557
0.188441 0.604982 0.216834
0.298104 0.637832 0.223609
0.464343 0.675274 0.216464
0.601665 0.706453 0.209476
0.707795 0.700245 0.182620
0.761802 0.657497 0.147472
0.812447 0.647073 0.131764
0.854015 0.646619 0.125355
0.887397 0.650191 0.124227
0.911168 0.655521 0.125389
0.931757 0.659404 0.126700
0.057700 0.631869 0.222407
0.074098 0.633975 0.221081
0.093653 0.635214 0.221431
0.128419 0.639167 0.225483
0.160510 0.642666 0.223314
0.198290 0.652843 0.225218
0.305810 0.683625 0.231789
0.463946 0.717192 0.227504
0.597390 0.746368 0.221320
0.707948 0.758133 0.204086
0.771675 0.726960 0.176105
0.812905 0.698686 0.154052
0.855907 0.693298 0.144291
0.890441 0.693394 0.140697
0.914422 0.695797 0.140006
0.934931 0.698073 0.140865
0.063495 0.671298 0.230590
0.079936 0.673352 0.229144
0.098771 0.674595 0.227788
0.133441 0.678267 0.229955
0.166875 0.682204 0.228080
0.204725 0.691886 0.229570
0.304457 0.719507 0.238056
0.455967 0.750000 0.235054
0.586109 0.777094 0.228855
0.694904 0.795103 0.217838
0.774580 0.783953 0.195802
0.819574 0.753451 0.173728
0.854980 0.735232 0.159790
0.891605 0.732869 0.154658
0.915924 0.733401 0.152956
0.937039 0.733380 0.152212
0.068545 0.708037 0.238454
0.084998 0.710203 0.236815
0.103283 0.710924 0.234594
0.137453 0.713773 0.233206
0.171846 0.718139 0.231398
0.210169 0.727381 0.234708
0.301927 0.751806 0.243810
0.441989 0.778304 0.240940
0.566886 0.802135 0.234631
0.675774 0.823339 0.227182
0.766551 0.829324 0.210575
0.820747 0.805505 0.191181
0.857946 0.781833 0.175330
0.890117 0.769568 0.166183
0.917268 0.768539 0.163371
0.938691 0.766951 0.162038
0.074590 0.751210 0.251081
0.091386 0.750730 0.248635
0.109324 0.751100 0.246325
0.137262 0.753788 0.245727
0.178503 0.758179 0.246512
0.222772 0.766700 0.249977
0.307234 0.785673 0.254487
0.429542 0.806421 0.249796
0.541712 0.825173 0.242994
0.646446 0.846015 0.236936
0.731407 0.857648 0.226953
0.807733 0.857471 0.210617
0.854088 0.833028 0.193000
0.888301 0.813922 0.181890
0.915795 0.802798 0.174989
0.939699 0.800551 0.171614
0.000000 0.000000 0.071230
0.014907 0.000000 0.068810
0.067249 0.000000 0.064383
0.157371 0.000370 0.060979
0.241371 0.005965 0.054195
0.318876 0.013763 0.047365
0.391693 0.026049 0.046105
0.468504 0.043089 0.045267
0.544476 0.060888 0.044722
0.611275 0.076229 0.044545
0.665706 0.088166 0.044640
0.710463 0.097016 0.045041
0.751311 0.107695 0.045952
0.789673 0.122651 0.047643
0.825387 0.137679 0.049955
0.859577 0.152461 0.052649
0.000000 0.012911 0.073833
0.013092 0.012922 0.073684
0.052257 0.013018 0.065472
0.136445 0.013948 0.057139
0.225395 0.023681 0.050325
0.306436 0.036557 0.044716
0.385163 0.050775 0.043430
0.469526 0.069141 0.042947
0.551361 0.087763 0.042847
0.619955 0.103812 0.043072
0.674490 0.116433 0.043399
0.720067 0.128067 0.044096
0.762832 0.144065 0.046009
0.800794 0.157018 0.047604
0.835096 0.166860 0.048743
0.865533 0.177146 0.050937
0.000000 0.027847 0.076757
0.012895 0.028860 0.077879
0.032608 0.034869 0.080203
0.102720 0.035810 0.061872
0.188476 0.050852 0.058269
0.286344 0.064011 0.049250
0.380536 0.078450 0.042210
0.474072 0.097830 0.041352
0.560639 0.117565 0.041425
0.631255 0.133529 0.041613
0.686804 0.146472 0.041950
0.732381 0.157334 0.042373
0.773994 0.168366 0.043154
0.810535 0.177493 0.043818
0.844120 0.185716 0.044736
0.870435 0.197485 0.048823
0.000000 0.059104 0.085558
0.012895 0.060339 0.084043
0.026519 0.062438 0.082749
0.081598 0.067636 0.070944
0.174389 0.075177 0.059926
0.275151 0.084769 0.048482
0.373523 0.098340 0.041168
0.473362 0.119713 0.040168
0.565996 0.142147 0.040335
0.639516 0.159178 0.040687
0.695604 0.171388 0.040894
0.741036 0.181149 0.041039
0.781709 0.190980 0.041355
0.818374 0.199748 0.041738
0.850697 0.207499 0.042616
0.874394 0.219018 0.047193
0.000000 0.102572 0.095994
0.012895 0.103589 0.092336
0.025833 0.103397 0.089135
0.059917 0.110336 0.087812
0.151199 0.112589 0.066988
0.260332 0.118833 0.046442
0.366432 0.127838 0.040438
0.472355 0.145459 0.039437
0.569773 0.167190 0.039459
0.646427 0.184877 0.039972
0.703592 0.197116 0.040219
0.748970 0.206979 0.040434
0.788965 0.216032 0.040538
0.825809 0.224743 0.040780
0.857041 0.231677 0.041236
0.878833 0.241942 0.045488
0.000000 0.155245 0.109121
0.012895 0.154661 0.104054
0.025798 0.153810 0.098783
0.047209 0.156815 0.101068
0.117366 0.172058 0.096247
0.236893 0.171230 0.062593
0.353254 0.178998 0.045267
0.470159 0.189745 0.039647
0.575245 0.204943 0.039115
0.655789 0.219191 0.039193
0.713771 0.229364 0.039508
0.758935 0.237858 0.039683
0.798089 0.246215 0.039768
0.834152 0.254014 0.039721
0.864000 0.260130 0.040031
0.884191 0.267905 0.043537
0.000000 0.217320 0.124330
0.012895 0.216249 0.119431
0.025860 0.216679 0.114021
0.047157 0.216555 0.115362
0.092518 0.226592 0.119079
0.202570 0.249535 0.102958
0.335423 0.243176 0.068174
0.461908 0.251068 0.047855
0.579382 0.266352 0.040417
0.667705 0.274211 0.039103
0.727331 0.279886 0.039084
0.771859 0.284944 0.039161
0.810002 0.291144 0.039229
0.845171 0.297868 0.039282
0.872173 0.302493 0.039401
0.891266 0.306565 0.042445
0.000094 0.291522 0.146139
0.013903 0.291148 0.142547
0.029456 0.292313 0.139110
0.055601 0.290400 0.139205
0.090694 0.295718 0.142598
0.164690 0.315978 0.141737
0.315113 0.343397 0.117002
0.450680 0.323484 0.075437
0.577871 0.336171 0.053948
0.675221 0.357434 0.046785
0.740411 0.362272 0.043391
0.786106 0.361818 0.041989
0.823649 0.363150 0.041535
0.857661 0.366338 0.041518
0.881794 0.367639 0.041444
0.900568 0.365942 0.043399
0.008095 0.376222 0.173456
0.024136 0.376874 0.171123
0.041406 0.378944 0.168978
0.069523 0.376232 0.168259
0.101875 0.378501 0.168750
0.147536 0.391810 0.172531
0.281479 0.426266 0.164619
0.451825 0.449554 0.136566
0.574710 0.415529 0.085406
0.680132 0.426977 0.066344
0.749969 0.448747 0.064253
0.798260 0.462406 0.065260
0.836489 0.467118 0.064776
0.868704 0.468913 0.064034
0.892501 0.467595 0.062691
0.910758 0.457605 0.060139
0.024708 0.463498 0.200556
0.041141 0.465262 0.199546
0.058742 0.468444 0.199084
0.087667 0.466576 0.199154
0.120537 0.467771 0.197987
0.156711 0.477598 0.200840
0.261786 0.508669 0.205785
0.447089 0.552438 0.188634
0.591321 0.549817 0.153509
0.685041 0.513535 0.106015
0.759808 0.520890 0.094172
0.810069 0.534030 0.094018
0.848750 0.546264 0.096271
0.880357 0.556413 0.098913
0.904136 0.563949 0.101371
0.922630 0.559439 0.099015
0.040216 0.535618 0.219939
0.056630 0.537474 0.219024
0.074027 0.541422 0.219626
0.102984 0.542409 0.222432
0.138305 0.544350 0.222120
0.173676 0.552495 0.222594
0.269480 0.582280 0.230569
0.450913 0.624617 0.217850
0.603402 0.656862 0.206912
0.697932 0.618122 0.160753
0.765524 0.595661 0.131216
0.817763 0.597169 0.122933
0.856893 0.602515 0.121312
0.888035 0.610367 0.122785
0.911612 0.618874 0.125823
0.930760 0.620593 0.126666
0.051447 0.591329 0.234271
0.067634 0.592763 0.232217
0.084747 0.596641 0.231196
0.112796 0.599582 0.235757
0.150986 0.603529 0.237787
0.186380 0.610516 0.236173
0.281391 0.639730 0.243484
0.455069 0.678891 0.235632
0.600211 0.711506 0.228232
0.712235 0.708445 0.201664
0.769064 0.665528 0.166231
0.820451 0.654662 0.149950
0.861649 0.654408 0.144377
0.892883 0.657743 0.143305
0.915703 0.662868 0.144380
0.934860 0.663667 0.145290
0.059731 0.637374 0.245130
0.075906 0.638776 0.243044
0.092622 0.642084 0.240589
0.119182 0.644966 0.242561
0.159178 0.649700 0.245583
0.195189 0.656751 0.243777
0.287522 0.684104 0.250290
0.451815 0.719251 0.246172
0.592887 0.749867 0.239612
0.708752 0.764255 0.223031
0.777035 0.734059 0.194380
0.819799 0.705888 0.172270
0.863083 0.700910 0.163063
0.895470 0.700788 0.159791
0.918483 0.702934 0.159200
0.937713 0.702339 0.159933
0.065251 0.675880 0.252804
0.081541 0.677484 0.250824
0.098379 0.680919 0.248286
0.123708 0.683027 0.247056
0.164842 0.687826 0.249370
0.201596 0.695224 0.247572
0.288952 0.720024 0.255474
0.442922 0.751845 0.253633
0.578600 0.779346 0.247066
0.692785 0.799413 0.236330
0.777713 0.790920 0.214228
0.825239 0.760171 0.191780
0.861338 0.741940 0.178079
0.896462 0.739779 0.173281
0.919873 0.739849 0.171563
0.939502 0.737337 0.171205
0.069977 0.711813 0.260004
0.086292 0.713698 0.258123
0.103181 0.717242 0.255272
0.127516 0.718690 0.252207
0.169215 0.723114 0.251801
0.207167 0.730581 0.251792
0.290064 0.752944 0.261041
0.431277 0.780320 0.259144
0.559289 0.804014 0.252566
0.671803 0.826799 0.245565
0.764471 0.834339 0.229327
0.824095 0.812910 0.209582
0.863023 0.788649 0.193624
0.894901 0.776041 0.184806
0.920842 0.774872 0.182072
0.940791 0.770344 0.180840
0.075350 0.753513 0.271729
0.092251 0.753026 0.269267
0.109855 0.753045 0.266584
0.130761 0.754380 0.264919
0.173694 0.759223 0.267930
0.220063 0.766778 0.271706
0.297691 0.783860 0.273271
0.422541 0.805431 0.268470
0.536984 0.824381 0.261462
0.642460 0.845272 0.255499
0.727375 0.857937 0.246508
0.805097 0.860654 0.230979
0.854086 0.836863 0.212379
0.889780 0.817407 0.200690
0.917140 0.805874 0.193705
0.941167 0.803708 0.190694
0.000000 0.000010 0.110258
0.014070 0.000000 0.106532
0.061522 0.000000 0.099939
0.153251 0.000581 0.098097
0.250131 0.007513 0.094347
0.327383 0.015854 0.085147
0.398640 0.025528 0.072242
0.473051 0.035579 0.069162
0.543458 0.045763 0.068062
0.605465 0.059775 0.067255
0.658391 0.072597 0.067078
0.703172 0.082747 0.067425
0.745328 0.095683 0.068331
0.784923 0.111804 0.069258
0.820242 0.125728 0.070144
0.854596 0.142054 0.071614
0.000000 0.016159 0.113932
0.012931 0.015153 0.114812
0.044224 0.013825 0.105821
0.133215 0.014875 0.096741
0.236306 0.023555 0.091120
0.316982 0.030840 0.077306
0.392667 0.041043 0.068231
0.470248 0.055568 0.066390
0.547988 0.075053 0.065303
0.616118 0.093147 0.064530
0.670892 0.106410 0.064365
0.715832 0.116887 0.064764
0.757881 0.131513 0.065997
0.795810 0.146174 0.067575
0.830702 0.159986 0.069486
0.862795 0.175519 0.072324
0.000000 0.038889 0.117463
0.012895 0.038816 0.118265
0.028401 0.040755 0.117522
0.097518 0.037497 0.099992
0.199193 0.044532 0.086781
0.290830 0.057521 0.075273
0.383051 0.073154 0.065368
0.474655 0.091553 0.063035
0.559876 0.109868 0.061986
0.628947 0.125896 0.061594
0.683726 0.139549 0.061857
0.729790 0.153818 0.063090
0.772201 0.169562 0.065208
0.809310 0.182379 0.066870
0.843283 0.191715 0.067842
0.870217 0.203699 0.070729
0.000000 0.066944 0.122704
0.012895 0.067697 0.123066
0.026018 0.068170 0.122295
0.069434 0.077829 0.118832
0.167863 0.081192 0.095924
0.262182 0.096985 0.087721
0.368428 0.111909 0.073927
0.475386 0.129172 0.063471
0.571709 0.147817 0.061097
0.645140 0.161279 0.059629
0.700118 0.172855 0.059449
0.745169 0.183810 0.060125
0.785970 0.194634 0.061051
0.821820 0.203620 0.061862
0.852598 0.213249 0.063976
0.875058 0.226660 0.068959
0.000000 0.112113 0.136194
0.012895 0.112932 0.134194
0.025791 0.110977 0.130052
0.048478 0.113393 0.126792
0.143138 0.122551 0.108467
0.252914 0.129946 0.091553
0.363544 0.138121 0.073395
0.475058 0.153896 0.062928
0.577379 0.174547 0.060033
0.654498 0.189097 0.058451
0.710325 0.199572 0.057893
0.755071 0.209178 0.058038
0.794950 0.219044 0.058659
0.830956 0.227755 0.059295
0.859216 0.237296 0.061902
0.879746 0.249991 0.067229
0.000000 0.166837 0.150094
0.012895 0.166750 0.145746
0.025791 0.164815 0.139106
0.042408 0.161887 0.133775
0.106620 0.173448 0.131719
0.234770 0.178435 0.099091
0.356076 0.182688 0.070896
0.476060 0.190678 0.061479
0.583639 0.206621 0.058610
0.664523 0.219999 0.057088
0.721181 0.229586 0.056696
0.765622 0.238302 0.056690
0.804332 0.247347 0.057037
0.839906 0.255321 0.057304
0.865619 0.263497 0.059690
0.884825 0.274390 0.065136
0.000000 0.230351 0.165408
0.012897 0.229373 0.159751
0.025943 0.228665 0.151274
0.042937 0.224013 0.144006
0.083654 0.228000 0.148272
0.191277 0.250060 0.136069
0.336866 0.247925 0.090583
0.470624 0.254488 0.066617
0.591771 0.265143 0.057799
0.678215 0.270990 0.055872
0.735334 0.276128 0.055702
0.778985 0.281664 0.055675
0.816711 0.288582 0.055801
0.850675 0.295459 0.056047
0.873523 0.300676 0.058223
0.891718 0.308129 0.063626
0.001009 0.304160 0.184809
0.015554 0.303703 0.179604
0.030935 0.304300 0.172018
0.049020 0.302995 0.165111
0.084095 0.302738 0.168334
0.151080 0.318956 0.169930
0.309235 0.348936 0.142723
0.459236 0.330947 0.094056
