src/colors/cinematic_&_blockbuster/teal_&_orange_cinema.cube
LUT_3D_SIZE 6
-0.054618 -0.025151 -0.015712
0.069187 -0.011406 -0.010348
0.234845 0.024513 -0.038864
0.487117 0.065842 -0.076653
0.761687 0.109119 0.078751
0.998160 0.147132 0.105997
-0.050520 0.099468 -0.010152
0.067020 0.103461 -0.009528
0.262556 0.124784 -0.087950
0.526267 0.183782 -0.087950
0.819587 0.227694 0.042543
0.999989 0.276683 0.066551
-0.008630 0.201800 -0.019371
0.116043 0.224790 -0.035421
0.298322 0.200598 -0.087950
0.655044 0.232951 -0.080888
0.938113 0.318826 0.002804
0.999989 0.411481 -0.019595
0.028674 0.325565 -0.038561
0.210347 0.364033 -0.078305
0.467595 0.396057 -0.040932
0.720748 0.390791 -0.044787
0.998964 0.426356 -0.051236
0.999989 0.499047 -0.051153
0.091599 0.465542 -0.076590
0.308834 0.496355 -0.084227
0.573021 0.550390 -0.019472
0.821184 0.656568 -0.038929
0.999389 0.695972 -0.038192
0.999989 0.643191 -0.036360
0.220603 0.765958 -0.087950
0.373784 0.802667 -0.087183
0.642982 0.833692 -0.039330
0.854177 0.853123 -0.037961
0.999841 0.873852 -0.038406
0.999849 0.878606 -0.038210
-0.073753 -0.003547 0.094076
0.072095 0.001044 0.103284
0.258751 0.022911 0.102554
0.518955 0.055349 0.062334
0.777792 0.109553 0.161145
0.995223 0.141258 0.186870
-0.082651 0.097366 0.114350
0.042815 0.102721 0.113686
0.245457 0.132192 0.087759
0.515192 0.155226 0.009340
0.780662 0.188656 0.146938
0.999948 0.225483 0.170706
-0.033648 0.210491 0.112051
0.072285 0.226667 0.083613
0.304604 0.208633 0.010567
0.655602 0.238045 0.005006
0.921161 0.319015 0.078044
0.999989 0.411905 0.056645
0.013723 0.318620 0.095794
0.121915 0.360963 0.007926
0.441557 0.396236 0.078674
0.726286 0.405777 0.041805
0.999735 0.433324 0.033581
0.999989 0.508111 0.034219
0.003884 0.404486 0.162935
0.204355 0.480096 0.015819
0.539731 0.540538 0.105087
0.817769 0.660550 0.045069
0.999323 0.695383 0.045744
0.999989 0.640970 0.046958
0.230761 0.783926 0.000000
0.296102 0.789989 0.000000
0.600219 0.836553 0.044645
0.843432 0.859789 0.045945
0.999831 0.878296 0.045525
0.999860 0.883033 0.045715
-0.087950 0.048021 0.166924
0.000220 0.054366 0.181339
0.298223 0.073315 0.177641
0.620322 0.108417 0.153702
0.872966 0.154109 0.202404
0.999989 0.184101 0.206693
-0.087950 0.130484 0.171020
0.000000 0.143360 0.189380
0.290859 0.163197 0.191786
0.620373 0.185968 0.157334
0.870520 0.222215 0.201955
0.999989 0.247790 0.201347
-0.087950 0.197635 0.227301
0.000000 0.213670 0.241909
0.163256 0.249606 0.270311
0.590750 0.243755 0.148712
0.857272 0.245036 0.178239
0.999989 0.297765 0.152699
-0.087950 0.424466 0.362366
0.000000 0.408184 0.316176
0.243437 0.427979 0.133016
0.696034 0.448542 0.128192
0.981392 0.451505 0.050885
0.999989 0.528903 0.037040
-0.087950 0.497199 0.392331
0.000000 0.466346 0.349328
0.348470 0.535572 0.118970
0.766271 0.656923 0.165883
0.999378 0.697568 0.045749
0.999989 0.636198 0.046473
0.108798 0.811516 0.274669
0.238322 0.806519 0.188056
0.424429 0.835557 0.023635
0.786203 0.876697 0.044549
0.998847 0.893160 0.101583
0.999875 0.894882 0.155335
-0.087950 0.133457 0.265111
0.000000 0.134660 0.270671
0.320021 0.166469 0.288080
0.686299 0.168526 0.198465
0.905458 0.206978 0.231499
0.999989 0.284591 0.312213
-0.087950 0.210131 0.272426
0.000000 0.212779 0.277476
0.246344 0.231752 0.321132
0.683950 0.242873 0.206958
0.901621 0.279741 0.244355
0.999989 0.352722 0.328244
-0.087950 0.252750 0.315509
0.000000 0.270026 0.335728
0.000000 0.288174 0.375241
0.656425 0.302402 0.276612
0.880872 0.326784 0.309418
0.999989 0.382302 0.362503
-0.087950 0.361461 0.415234
0.000000 0.384296 0.436022
0.000000 0.429260 0.485161
0.508424 0.507272 0.508982
0.871702 0.528716 0.437494
0.999989 0.540798 0.417021
-0.087950 0.601944 0.618740
0.000000 0.624685 0.630836
0.000000 0.600760 0.537494
0.580128 0.652631 0.416883
0.959086 0.727764 0.361155
0.999989 0.701877 0.379865
-0.087950 0.838209 0.691904
0.000000 0.849105 0.579069
0.002480 0.866777 0.406876
0.617869 0.954348 0.275225
0.934852 0.914003 0.411235
0.999888 0.911783 0.401939
-0.087950 0.217933 0.363095
0.000000 0.214897 0.357549
0.194872 0.251338 0.400886
0.688439 0.270187 0.261292
0.915342 0.288774 0.338151
0.986712 0.369316 0.455259
-0.087950 0.288984 0.373309
0.000000 0.288756 0.373161
0.014942 0.311519 0.427748
0.660227 0.339747 0.308808
0.909148 0.361827 0.368712
0.983272 0.428906 0.474517
-0.087950 0.329116 0.415335
0.000000 0.342652 0.431610
0.000000 0.329147 0.425908
0.552847 0.377634 0.450624
0.876162 0.405230 0.470064
0.977147 0.467211 0.543383
-0.087950 0.407871 0.501520
0.000000 0.430885 0.526579
0.000000 0.453874 0.556121
0.016797 0.518422 0.723574
0.847201 0.535977 0.648570
0.969697 0.595695 0.668043
-0.087950 0.544685 0.636352
0.000000 0.559194 0.647466
0.000000 0.592887 0.676863
0.000000 0.671398 0.774020
0.801505 0.764372 0.752837
0.999815 0.769842 0.727065
-0.087950 0.738790 0.795433
0.000000 0.764913 0.815366
0.000000 0.820006 0.854823
0.000000 0.879347 0.760690
0.825336 0.953975 0.629761
0.999989 0.930400 0.647970
-0.087950 0.313817 0.468618
0.000000 0.310193 0.457174
0.000000 0.331973 0.491985
0.599311 0.380555 0.522380
0.848008 0.408219 0.586038
0.979977 0.460494 0.704938
-0.087950 0.379110 0.486880
0.000000 0.376893 0.481018
0.000000 0.383878 0.490808
0.562210 0.418912 0.561785
0.844083 0.452364 0.608575
0.979609 0.506109 0.722148
-0.087950 0.406591 0.517393
0.000000 0.414483 0.527554
0.000000 0.408852 0.529482
0.005685 0.408346 0.655888
0.803906 0.448777 0.696285
0.976389 0.521315 0.774718
-0.087950 0.482566 0.602463
0.000000 0.501862 0.622024
0.000000 0.509249 0.632034
0.000000 0.532115 0.708931
0.636766 0.542281 0.808711
0.964604 0.598950 0.844841
-0.087950 0.567936 0.683157
0.000000 0.585923 0.699441
0.000000 0.601051 0.714310
0.000000 0.626852 0.762137
0.645925 0.745376 0.887479
0.959059 0.750944 0.885652
-0.087950 0.683934 0.779218
0.000000 0.703260 0.793133
0.000000 0.727289 0.810013
0.000000 0.762332 0.834755
0.552401 0.877218 0.966000
0.968442 0.948264 0.908335
