src/colors/cinematic_&_blockbuster/teal_&_orange_cinema.cube
LUT_3D_SIZE 16
-0.054618 -0.025151 -0.015712
-0.032393 -0.025151 -0.015712
0.040187 -0.017369 -0.012331
0.069187 -0.011406 -0.010348
0.109744 -0.001796 -0.008163
0.163404 0.012822 -0.007813
0.234845 0.024513 -0.038864
0.318137 0.033345 -0.087712
0.394257 0.053208 -0.087950
0.487117 0.065842 -0.076653
0.582002 0.080872 -0.010966
0.674825 0.096219 0.042934
0.761687 0.109119 0.078751
0.849456 0.122381 0.091380
0.928496 0.134844 0.100539
0.998160 0.147132 0.105997
-0.054618 -0.003547 -0.015712
-0.032393 -0.003547 -0.015712
0.040187 -0.006922 -0.012331
0.069187 -0.004933 -0.010348
0.109744 0.004451 -0.008163
0.163404 0.020037 -0.007813
0.234845 0.033249 -0.038864
0.318137 0.043844 -0.087712
0.394257 0.065372 -0.087950
0.487117 0.079649 -0.076653
0.582002 0.096097 -0.010966
0.674825 0.112607 0.042934
0.761687 0.126414 0.078751
0.849456 0.140244 0.091380
0.928496 0.152950 0.100539
0.998160 0.165104 0.105997
-0.050716 0.079825 -0.015106
-0.039926 0.079825 -0.015106
0.040208 0.080179 -0.010065
0.069187 0.046581 -0.010348
0.109744 0.051750 -0.008163
0.163987 0.090799 -0.007419
0.239078 0.103764 -0.041367
0.325378 0.113133 -0.087941
0.406530 0.129338 -0.087950
0.500536 0.145501 -0.071878
0.596364 0.163202 -0.013052
0.691767 0.179411 0.033931
0.780840 0.193678 0.065101
0.867355 0.206223 0.077071
0.945997 0.219270 0.085376
0.999980 0.236180 0.092629
-0.050520 0.099468 -0.010152
-0.043797 0.099468 -0.010152
0.009710 0.099468 -0.010152
0.067020 0.103461 -0.009528
0.124835 0.095823 -0.015581
0.186712 0.108304 -0.040283
0.262556 0.124784 -0.087950
0.338046 0.148673 -0.087950
0.422548 0.170455 -0.087950
0.526267 0.183782 -0.087950
0.632013 0.192634 -0.046957
0.729176 0.210121 0.006858
0.819587 0.227694 0.042543
0.905363 0.242244 0.052742
0.977822 0.258720 0.060805
0.999989 0.276683 0.066551
-0.037322 0.126620 -0.015698
-0.030853 0.126620 -0.015698
0.018123 0.126620 -0.015698
0.075693 0.135447 -0.017184
0.118753 0.130007 -0.014906
0.199894 0.124715 -0.066217
0.277797 0.141000 -0.087950
0.362736 0.166139 -0.087950
0.459524 0.188372 -0.087950
0.572885 0.197277 -0.087950
0.676237 0.214867 -0.056848
0.772807 0.238188 -0.008186
0.861462 0.263249 0.023257
0.943052 0.293942 0.024504
0.999969 0.321960 0.024816
0.999989 0.341478 0.025552
-0.023740 0.161838 -0.019129
-0.016257 0.161838 -0.019129
0.062571 0.167959 -0.022583
0.094602 0.176467 -0.026275
0.142359 0.169674 -0.007441
0.202387 0.163392 -0.067279
0.287127 0.162124 -0.087950
0.378287 0.182020 -0.087950
0.497442 0.201449 -0.087950
0.624168 0.212716 -0.086148
0.728045 0.236854 -0.041668
0.819528 0.261905 0.001273
0.903837 0.290152 0.015284
0.981939 0.323273 0.013605
0.999969 0.360062 0.005941
0.999989 0.379805 0.000597
-0.008630 0.201800 -0.019371
0.000401 0.201800 -0.019371
0.078977 0.212324 -0.028548
0.116043 0.224790 -0.035421
0.171011 0.216410 -0.012473
0.232335 0.209430 -0.024552
0.298322 0.200598 -0.087950
0.394216 0.206202 -0.087950
0.516519 0.218178 -0.087950
0.655044 0.232951 -0.080888
0.766242 0.259834 -0.026383
0.860918 0.288217 0.003187
0.938113 0.318826 0.002804
0.999845 0.355353 -0.003409
0.999969 0.394077 -0.013772
0.999989 0.411481 -0.019595
0.006357 0.242369 -0.021252
0.017149 0.242369 -0.021252
0.094932 0.255034 -0.035755
0.139813 0.270023 -0.042818
0.205310 0.268038 -0.024034
0.271200 0.258318 -0.010313
0.354194 0.267023 -0.087950
0.411321 0.247020 -0.087950
0.542197 0.255449 -0.087950
0.680092 0.262673 -0.078450
0.789829 0.287814 -0.021726
0.883969 0.315838 -0.012973
0.968097 0.350125 -0.014632
0.999969 0.388153 -0.022980
0.999969 0.428881 -0.039686
0.999989 0.445778 -0.046565
0.020833 0.286392 -0.033099
0.033413 0.286392 -0.033099
0.106195 0.298628 -0.060869
0.168796 0.313671 -0.061689
0.248638 0.324532 -0.039174
0.317783 0.316138 -0.007447
0.418096 0.332045 -0.087767
0.493263 0.345943 -0.087950
0.568489 0.311638 -0.087950
0.704210 0.317656 -0.061835
0.810950 0.329967 -0.048514
0.903722 0.354061 -0.045351
0.985323 0.383133 -0.043251
0.999969 0.420707 -0.049386
0.999969 0.463365 -0.049776
0.999989 0.474453 -0.049192
0.028674 0.325565 -0.038561
0.043030 0.325565 -0.038561
0.130221 0.347821 -0.087950
0.210347 0.364033 -0.078305
0.296579 0.374910 -0.040774
0.370389 0.372464 -0.010079
0.467595 0.396057 -0.040932
0.553733 0.409292 -0.079360
0.636022 0.430200 -0.041036
0.720748 0.390791 -0.044787
0.830566 0.398545 -0.050827
0.919889 0.409833 -0.050998
0.998964 0.426356 -0.051236
0.999969 0.458570 -0.048195
0.999969 0.493441 -0.050147
0.999989 0.499047 -0.051153
0.047838 0.378732 -0.084172
0.063609 0.378732 -0.084172
0.170891 0.395499 -0.087950
0.252464 0.414022 -0.087950
0.340209 0.420760 -0.040123
0.415688 0.423865 -0.012120
0.505572 0.449407 -0.039417
0.607187 0.478832 -0.040994
0.678683 0.500524 -0.040594
0.756209 0.527067 -0.040156
0.834231 0.488329 -0.040705
0.933227 0.489988 -0.051571
0.999936 0.493667 -0.050508
0.999969 0.503078 -0.049552
0.999969 0.530369 -0.050245
0.999989 0.530771 -0.053418
0.069154 0.436278 -0.087950
0.086033 0.436278 -0.087950
0.195555 0.451557 -0.087950
0.281740 0.462067 -0.087950
0.371274 0.467043 -0.036532
0.451139 0.474752 -0.004476
0.537582 0.500927 -0.027586
0.635920 0.537929 -0.040707
0.724823 0.568983 -0.040047
0.781364 0.593411 -0.039650
0.854673 0.628979 -0.038926
0.927676 0.595652 -0.040347
0.999925 0.580927 -0.043917
0.999969 0.574968 -0.051093
0.999969 0.576667 -0.053319
0.999989 0.575969 -0.053167
0.091599 0.465542 -0.076590
0.109235 0.465542 -0.076590
0.220433 0.481604 -0.087950
0.308834 0.496355 -0.084227
0.400404 0.507285 -0.025125
0.485154 0.521227 0.010828
0.573021 0.550390 -0.019472
0.659772 0.584642 -0.040310
0.746748 0.623243 -0.039629
0.821184 0.656568 -0.038929
0.868430 0.681081 -0.038370
0.938979 0.725717 -0.038083
0.999389 0.695972 -0.038192
0.999834 0.667550 -0.032623
0.999969 0.651552 -0.033770
0.999989 0.643191 -0.036360
0.118884 0.509609 -0.070628
0.136818 0.509609 -0.070628
0.246523 0.542323 -0.087037
0.334019 0.576543 -0.087950
0.426758 0.603513 -0.087950
0.508667 0.610444 -0.087950
0.601273 0.647540 -0.073766
0.686473 0.676159 -0.039310
0.759587 0.700678 -0.038844
0.826772 0.723280 -0.038242
0.896782 0.751796 -0.038200
0.942365 0.768049 -0.038158
0.999969 0.807207 -0.038195
0.999969 0.774802 -0.037914
0.999946 0.737016 -0.037926
0.999937 0.725212 -0.037118
0.155037 0.618326 -0.087950
0.172720 0.618326 -0.087950
0.280261 0.637452 -0.087950
0.352651 0.667008 -0.087950
0.434688 0.699012 -0.087950
0.528364 0.732453 -0.087950
0.624219 0.761886 -0.072332
0.709447 0.783992 -0.043377
0.780595 0.798197 -0.037897
0.845229 0.811269 -0.038028
0.904315 0.822812 -0.038195
0.960944 0.832157 -0.038265
0.999915 0.843532 -0.038303
0.999844 0.874220 -0.038251
0.999939 0.829757 -0.038049
0.999989 0.800864 -0.037966
0.220603 0.765958 -0.087950
0.237027 0.765958 -0.087950
0.292744 0.783374 -0.087950
0.373784 0.802667 -0.087183
0.458372 0.816910 -0.069467
0.549964 0.825196 -0.050049
0.642982 0.833692 -0.039330
0.724237 0.841551 -0.039402
0.793369 0.847522 -0.038753
0.854177 0.853123 -0.037961
0.911699 0.859347 -0.038120
0.967256 0.865980 -0.038304
0.999841 0.873852 -0.038406
0.999892 0.901258 -0.038283
0.999918 0.909506 -0.038248
0.999849 0.878606 -0.038210
-0.054618 -0.025151 0.005693
-0.032393 -0.025151 0.005693
0.040187 -0.017369 -0.001935
0.069187 -0.011406 -0.003882
0.109744 -0.001796 -0.001875
0.163404 0.012822 -0.000447
0.234845 0.024513 -0.029562
0.318137 0.033345 -0.075899
0.394257 0.053208 -0.073973
0.487117 0.065842 -0.060740
0.582002 0.080872 0.005780
0.674825 0.096219 0.060289
0.761687 0.109119 0.096636
0.849456 0.122381 0.109874
0.928496 0.134844 0.119362
0.998160 0.147132 0.124836
-0.054618 -0.003547 0.005693
-0.032393 -0.003547 0.005693
0.040187 0.004070 0.009003
0.069187 0.009908 0.010944
0.109744 0.019315 0.013083
0.163404 0.033625 0.013425
0.234845 0.045070 -0.016972
0.318137 0.053716 -0.064791
0.394257 0.073160 -0.065024
0.487117 0.085528 -0.053964
0.582002 0.100242 0.010338
0.674825 0.115265 0.063103
0.761687 0.127892 0.098165
0.849456 0.140875 0.110528
0.928496 0.153076 0.119494
0.998160 0.165105 0.124837
-0.050716 0.079825 -0.004681
-0.028574 0.079825 0.006286
0.040208 0.080179 0.011221
0.071578 0.077074 0.009697
0.110832 0.085863 0.012942
0.166782 0.097950 0.010062
0.241823 0.107517 -0.025078
0.326544 0.115722 -0.065023
0.408209 0.131907 -0.065024
0.502055 0.146638 -0.050178
0.597518 0.164223 0.007393
0.692485 0.179889 0.053894
0.781154 0.193900 0.084645
0.867472 0.206319 0.096445
0.946018 0.219289 0.104635
0.999980 0.236180 0.111751
-0.050520 0.099468 -0.003687
-0.028382 0.099468 0.011136
0.032614 0.102981 0.014751
0.067020 0.103461 0.011746
0.125324 0.097315 0.005545
0.189139 0.109331 -0.022217
0.263658 0.126211 -0.065024
0.339591 0.149870 -0.065024
0.423125 0.171838 -0.065024
0.526999 0.184598 -0.065024
0.632654 0.193160 -0.025545
0.729601 0.210595 0.027283
0.819843 0.227980 0.062547
0.905467 0.242361 0.072630
0.977831 0.258735 0.080589
0.999989 0.276683 0.086222
-0.037322 0.126620 -0.009364
-0.015462 0.126620 0.005706
0.050483 0.134859 0.003041
0.079241 0.135110 0.004813
0.118753 0.130007 0.006481
0.200232 0.125863 -0.044718
0.278132 0.141590 -0.065024
0.363452 0.166629 -0.065024
0.460461 0.188830 -0.065024
0.573919 0.197404 -0.065024
0.676833 0.215097 -0.034512
0.773169 0.238339 0.013100
0.861624 0.263342 0.043807
0.943122 0.293988 0.045047
0.999969 0.321970 0.045360
0.999989 0.341478 0.046087
-0.023740 0.161838 -0.011680
-0.002166 0.161838 0.002348
0.067396 0.175051 -0.005810
0.099236 0.176422 -0.003547
0.143956 0.169259 0.014703
0.202387 0.163392 -0.044788
0.287312 0.162655 -0.065024
0.378505 0.182354 -0.065024
0.497819 0.201611 -0.065024
0.624753 0.212933 -0.063155
0.728405 0.237034 -0.019572
0.819745 0.262034 0.022397
0.903934 0.290226 0.036008
0.981986 0.323317 0.034371
0.999969 0.360069 0.026885
0.999989 0.379805 0.021658
-0.008630 0.201800 -0.010243
0.012625 0.201800 0.002110
0.082016 0.216899 -0.011483
0.120410 0.224824 -0.012630
0.173269 0.215883 0.010029
0.233604 0.209568 -0.004260
0.298322 0.200598 -0.065024
0.394360 0.206471 -0.065024
0.516709 0.218424 -0.065024
0.655205 0.233108 -0.058089
0.766380 0.259965 -0.004712
0.861051 0.288304 0.024164
0.938198 0.318898 0.023786
0.999847 0.355398 0.017711
0.999969 0.394085 0.007586
0.999989 0.411481 0.001891
0.006357 0.242369 -0.010161
0.027297 0.242369 0.000269
0.096859 0.258756 -0.020514
0.143284 0.270755 -0.020526
0.207567 0.267525 -0.001388
0.273329 0.258606 0.007723
0.354832 0.267161 -0.065024
0.411321 0.247020 -0.065024
0.542327 0.255661 -0.065024
0.680205 0.262824 -0.055712
0.789908 0.287928 -0.000205
0.884012 0.315899 0.008335
0.968122 0.350165 0.006720
0.999969 0.388168 -0.001431
0.999969 0.428886 -0.017778
0.999989 0.445778 -0.024511
0.020833 0.286392 -0.019827
0.041468 0.286392 -0.011328
0.109095 0.300285 -0.040604
0.172017 0.314301 -0.038991
0.250615 0.324282 -0.015868
0.319021 0.316326 0.013812
0.418905 0.332111 -0.064882
0.493523 0.345932 -0.065024
0.568489 0.311638 -0.065024
0.704256 0.317779 -0.039401
0.810992 0.330079 -0.026441
0.903744 0.354111 -0.023374
0.985343 0.383190 -0.021329
0.999969 0.420727 -0.027269
0.999969 0.463369 -0.027653
0.999989 0.474453 -0.027082
0.028674 0.325565 -0.023211
0.049143 0.325565 -0.016675
0.134175 0.348484 -0.065024
0.212751 0.364560 -0.055086
0.298047 0.374834 -0.017691
0.371307 0.372632 0.011218
0.468338 0.396220 -0.019591
0.553966 0.409327 -0.056516
0.636109 0.430161 -0.019098
0.720748 0.390791 -0.022770
0.830592 0.398640 -0.028684
0.919905 0.409902 -0.028852
0.998972 0.426396 -0.029084
0.999969 0.458583 -0.026108
0.999969 0.493443 -0.028017
0.999989 0.499047 -0.029002
0.047838 0.378732 -0.066213
0.067903 0.378732 -0.061324
0.173536 0.396076 -0.065024
0.254047 0.414373 -0.065024
0.341162 0.420767 -0.017411
0.416259 0.423925 0.009269
0.506159 0.449603 -0.017892
0.607498 0.478908 -0.019055
0.678826 0.500590 -0.018664
0.756265 0.527047 -0.018236
0.834231 0.488329 -0.018773
0.933228 0.490027 -0.029409
0.999936 0.493702 -0.028365
0.999969 0.503089 -0.027434
0.999969 0.530371 -0.028112
0.999989 0.530771 -0.031219
0.069154 0.436278 -0.068223
0.088771 0.436278 -0.065024
0.197111 0.451978 -0.065024
0.282819 0.462105 -0.065024
0.371887 0.467090 -0.014266
0.451495 0.474789 0.016707
0.537867 0.501019 -0.006026
0.636138 0.538015 -0.018775
0.724932 0.569022 -0.018128
0.781432 0.593449 -0.017740
0.854697 0.628980 -0.017032
0.927676 0.595652 -0.018423
0.999925 0.580956 -0.021911
0.999969 0.574989 -0.028937
0.999969 0.576670 -0.031121
0.999989 0.575969 -0.030973
0.091599 0.465542 -0.055689
0.110742 0.465542 -0.053902
0.221286 0.481867 -0.065024
0.309408 0.496395 -0.061163
0.400742 0.507324 -0.003285
0.485361 0.521267 0.031657
0.573220 0.550467 0.001912
0.659894 0.584694 -0.018387
0.746857 0.623292 -0.017719
0.821249 0.656597 -0.017034
0.868452 0.681096 -0.016488
0.938994 0.725717 -0.016207
0.999389 0.695972 -0.016314
0.999834 0.667558 -0.010862
0.999969 0.651554 -0.011984
0.999989 0.643192 -0.014520
0.118884 0.509609 -0.048837
0.137452 0.509609 -0.048066
0.246845 0.542506 -0.064142
0.334229 0.576612 -0.065024
0.426918 0.603550 -0.065024
0.508798 0.610503 -0.065024
0.601391 0.647583 -0.051060
0.686509 0.676171 -0.017408
0.759628 0.700692 -0.016952
0.826792 0.723287 -0.016363
0.896798 0.751802 -0.016321
0.942372 0.768051 -0.016281
0.999969 0.807207 -0.016317
0.999969 0.774802 -0.016042
0.999946 0.737017 -0.016053
0.999937 0.725212 -0.015262
0.155037 0.618326 -0.065182
0.172843 0.618326 -0.065024
0.280331 0.637479 -0.065024
0.352672 0.667016 -0.065024
0.434707 0.699018 -0.065024
0.528384 0.732460 -0.065024
0.624243 0.761893 -0.049727
0.709459 0.783994 -0.021388
0.780604 0.798199 -0.016025
0.845234 0.811270 -0.016154
0.904318 0.822813 -0.016316
0.960948 0.832158 -0.016385
0.999915 0.843532 -0.016422
0.999844 0.874220 -0.016371
0.999939 0.829757 -0.016173
0.999989 0.800864 -0.016093
0.220603 0.765958 -0.065024
0.237028 0.765958 -0.065024
0.292744 0.783374 -0.065024
0.373785 0.802667 -0.064273
0.458372 0.816910 -0.046929
0.549964 0.825196 -0.027921
0.642982 0.833692 -0.017428
0.724237 0.841551 -0.017498
0.793369 0.847522 -0.016863
0.854177 0.853123 -0.016088
0.911699 0.859347 -0.016243
0.967256 0.865980 -0.016423
0.999841 0.873852 -0.016523
0.999892 0.901258 -0.016403
0.999918 0.909506 -0.016369
0.999849 0.878606 -0.016332
-0.064311 -0.013624 0.080323
-0.053381 -0.013624 0.080323
0.038853 -0.009514 0.086972
0.069187 -0.011406 0.047578
0.109744 -0.001796 0.045724
0.163033 0.002492 0.076302
0.234176 0.011423 0.060861
0.318396 0.024129 0.012873
0.394624 0.034576 0.012665
0.482716 0.046373 0.047899
0.575758 0.065566 0.097086
0.668783 0.088954 0.136952
0.756246 0.105946 0.163156
0.841744 0.117970 0.175060
0.920343 0.129155 0.183312
0.990040 0.139756 0.188227
-0.064311 -0.003215 0.080323
-0.041882 0.007736 0.080323
0.038853 0.011760 0.086972
0.075460 0.008636 0.081130
0.116701 0.013639 0.080502
0.170703 0.020067 0.083439
0.237281 0.026021 0.069017
0.319179 0.039115 0.023351
0.392853 0.050712 0.019521
0.481388 0.064411 0.052022
0.577031 0.085632 0.097390
0.669184 0.108275 0.137022
0.756363 0.124811 0.163178
0.841723 0.136548 0.175098
0.920333 0.147503 0.183322
0.990040 0.157884 0.188227
-0.068682 0.080135 0.089366
-0.046161 0.080135 0.089366
0.025267 0.081190 0.090086
0.057844 0.087094 0.091404
0.104091 0.096274 0.093044
0.162752 0.107813 0.093464
0.239575 0.117840 0.069602
0.328513 0.125194 0.000788
0.412859 0.140873 0.000000
0.499234 0.148809 0.006665
0.592528 0.160485 0.070241
0.683704 0.172429 0.120126
0.771025 0.184531 0.149853
0.857191 0.196454 0.161445
0.935892 0.208422 0.169502
0.999880 0.220249 0.174541
-0.050520 0.099468 0.047763
-0.035460 0.101003 0.080159
0.032337 0.101201 0.091149
0.059108 0.100944 0.092658
0.114807 0.105667 0.088166
0.173162 0.119902 0.088122
0.254156 0.132146 0.052089
0.344647 0.143938 0.000011
0.434359 0.164066 0.000000
0.527085 0.176127 0.000357
0.626694 0.185326 0.049587
0.719731 0.199557 0.097784
0.807199 0.214404 0.127909
0.891705 0.227454 0.137802
0.966024 0.241330 0.145393
0.999989 0.261115 0.151676
-0.037322 0.126620 0.038591
-0.019682 0.127128 0.072158
0.036826 0.136433 0.089160
0.063573 0.136557 0.094137
0.105845 0.133800 0.091478
0.196967 0.131069 0.060068
0.282305 0.144379 0.002225
0.364332 0.168382 0.000000
0.452403 0.193484 0.000000
0.563774 0.201681 0.000000
0.666695 0.216435 0.017680
0.759933 0.238118 0.061573
0.849012 0.259777 0.100714
0.931690 0.284576 0.106677
0.997423 0.307958 0.110104
0.999989 0.326310 0.114140
-0.025746 0.160888 0.066129
-0.005941 0.160901 0.069065
0.055505 0.175951 0.078717
0.083292 0.179110 0.078560
0.134157 0.175886 0.088384
0.198240 0.167948 0.055251
0.297104 0.164693 0.000000
0.390916 0.186402 0.000000
0.495351 0.205419 0.000000
0.618815 0.215901 0.000409
0.720969 0.238792 0.038038
0.811141 0.263287 0.077873
0.894156 0.290592 0.091725
0.971438 0.323341 0.090328
0.999969 0.358122 0.084258
0.999989 0.380604 0.078786
-0.010491 0.200313 0.068109
0.010636 0.200178 0.068568
0.072693 0.213285 0.071991
0.103712 0.227300 0.060247
0.164350 0.223153 0.077600
0.231275 0.213536 0.075268
0.305703 0.204761 0.000000
0.406387 0.209377 0.000000
0.536379 0.221544 0.000000
0.667858 0.237392 0.010827
0.768455 0.263462 0.056886
0.854824 0.290684 0.080163
0.933344 0.321496 0.079919
0.999637 0.357653 0.074006
0.999969 0.396631 0.063796
0.999989 0.414616 0.057554
0.004418 0.242905 0.066336
0.025108 0.242781 0.066893
0.088143 0.251120 0.065585
0.125820 0.278477 0.035095
0.198006 0.274232 0.062746
0.265763 0.261198 0.088043
0.355264 0.270131 0.000000
0.423198 0.254564 0.000000
0.559293 0.259747 0.000000
0.697752 0.268414 0.016010
0.807880 0.293101 0.063379
0.893836 0.322079 0.066772
0.967498 0.353840 0.063782
0.999969 0.391189 0.054719
0.999969 0.432323 0.040896
0.999989 0.448712 0.039569
0.017838 0.285955 0.063203
0.038087 0.285679 0.064768
0.099657 0.290570 0.055617
0.151748 0.319623 0.017246
0.238409 0.330119 0.043521
0.313586 0.320740 0.081607
0.416703 0.336005 0.003589
0.492964 0.348473 0.000000
0.583444 0.319819 0.000000
0.718135 0.324791 0.031077
0.822564 0.336046 0.035899
0.914401 0.360514 0.037943
0.995957 0.389844 0.039013
0.999969 0.427130 0.036970
0.999969 0.466599 0.034412
0.999989 0.478498 0.035507
0.023698 0.324749 0.068161
0.043871 0.324538 0.069651
0.111786 0.338623 0.027562
0.189745 0.368236 0.001411
0.282508 0.379984 0.038812
0.363299 0.375448 0.080250
0.463211 0.398174 0.047329
0.556616 0.413964 0.010966
0.636804 0.434288 0.043133
0.728698 0.399838 0.040575
0.839863 0.406994 0.033973
0.926761 0.415662 0.033830
0.999785 0.433217 0.033591
0.999969 0.465196 0.035016
0.999969 0.499785 0.033382
0.999989 0.504861 0.034290
0.033709 0.363690 0.061874
0.053034 0.362410 0.064902
0.138222 0.396642 0.000000
0.228097 0.416933 0.000000
0.323099 0.424108 0.038778
0.407356 0.426832 0.079633
0.499487 0.450623 0.061601
0.606460 0.482829 0.043156
0.678469 0.502664 0.043537
0.757707 0.532208 0.043961
0.837199 0.495397 0.043929
0.937902 0.498466 0.034772
0.999969 0.499248 0.034102
0.999969 0.509337 0.034322
0.999969 0.534186 0.033563
0.999989 0.533352 0.034888
0.051069 0.421653 0.051422
0.069990 0.420479 0.054119
0.158817 0.444235 0.000000
0.254122 0.462621 0.000000
0.352008 0.467887 0.041233
0.441637 0.476951 0.086603
0.531583 0.502250 0.072962
0.632738 0.539710 0.043421
0.724525 0.572576 0.044035
0.780226 0.594671 0.044401
0.854549 0.631584 0.045093
0.928288 0.600107 0.042861
0.999969 0.588140 0.041281
0.999969 0.580566 0.034209
0.999969 0.580973 0.032105
0.999989 0.577988 0.031980
0.075649 0.465923 0.060419
0.094664 0.465859 0.061215
0.181876 0.471908 0.009058
0.281882 0.495341 0.000023
0.379887 0.505285 0.052878
0.473394 0.520650 0.097010
0.564338 0.549052 0.083671
0.657351 0.585934 0.043999
0.746475 0.625993 0.044430
0.821716 0.659339 0.045080
0.867526 0.681606 0.045571
0.937835 0.726454 0.045838
0.999336 0.696844 0.045744
0.999832 0.675208 0.050766
0.999956 0.653938 0.050549
0.999989 0.642789 0.047757
0.104555 0.525564 0.050619
0.123271 0.525584 0.050916
0.208579 0.528405 0.003186
0.306625 0.569860 0.000001
0.404853 0.592723 0.000006
0.501087 0.618707 0.000626
0.590367 0.641954 0.008454
0.681046 0.677864 0.044711
0.758115 0.704803 0.045172
0.826794 0.727023 0.045715
0.895824 0.752880 0.045727
0.941987 0.768458 0.045766
0.999621 0.804320 0.045741
0.999969 0.774524 0.045991
0.999953 0.740897 0.045983
0.999937 0.725113 0.046776
0.149615 0.630227 0.000000
0.167530 0.630232 0.000000
0.243204 0.630965 0.000000
0.332191 0.659313 0.000000
0.416289 0.686837 0.000000
0.509163 0.717900 0.000000
0.609070 0.751912 0.007769
0.701414 0.781801 0.039058
0.777488 0.800532 0.046007
0.843140 0.813321 0.045893
0.902625 0.822967 0.045737
0.959445 0.831238 0.045671
0.999910 0.841932 0.045638
0.999844 0.872619 0.045683
0.999941 0.829670 0.045869
0.999989 0.801424 0.045943
0.229006 0.780827 0.000000
0.245254 0.780827 0.000000
0.289699 0.777682 0.000000
0.351632 0.798633 0.000000
0.440438 0.814730 0.013632
0.532383 0.827174 0.033231
0.626251 0.836092 0.044695
0.713511 0.844465 0.044626
0.787934 0.851595 0.044933
0.851857 0.856921 0.045943
0.909908 0.862799 0.045805
0.965731 0.869337 0.045636
0.999836 0.875948 0.045532
0.999888 0.900015 0.045652
0.999924 0.911640 0.045683
0.999854 0.880835 0.045717
-0.073753 -0.003547 0.094076
-0.066882 -0.003547 0.094076
-0.012192 -0.003547 0.094076
0.072095 0.001044 0.103284
0.127030 0.004954 0.100151
0.183934 0.015611 0.106396
0.258751 0.022911 0.102554
0.350318 0.024692 0.066404
0.442981 0.034799 0.037309
0.518955 0.055349 0.062334
0.610087 0.076132 0.104734
0.694986 0.096160 0.141577
0.777792 0.109553 0.161145
0.857151 0.120975 0.172421
0.929929 0.131528 0.180982
0.995223 0.141258 0.186870
-0.073753 0.002875 0.094076
-0.051126 0.017601 0.094076
0.018405 0.017691 0.093525
0.072095 0.022096 0.103284
0.127874 0.026896 0.101815
0.184835 0.037573 0.108149
0.260173 0.045206 0.105452
0.351534 0.046262 0.068006
0.445313 0.055548 0.037798
0.519963 0.075590 0.062538
0.610684 0.095786 0.104856
0.695359 0.115290 0.141620
0.777947 0.128349 0.161126
0.857195 0.139509 0.172412
0.929932 0.149831 0.180981
0.995223 0.159355 0.186869
-0.073753 0.053989 0.094076
-0.051696 0.080225 0.096151
0.017021 0.089285 0.106119
0.054656 0.092758 0.107492
0.115737 0.096959 0.111373
0.175442 0.105102 0.113017
0.255372 0.106434 0.102917
0.350149 0.104962 0.059452
0.444563 0.114937 0.032915
0.520252 0.133200 0.060009
0.608066 0.150899 0.102484
0.692150 0.168893 0.139326
0.774276 0.181170 0.160558
0.854518 0.191692 0.172219
0.928349 0.201344 0.181120
0.994586 0.210484 0.187271
-0.082651 0.097366 0.114350
-0.059836 0.097366 0.114350
0.009826 0.101189 0.117209
0.042815 0.102721 0.113686
0.096680 0.110311 0.112381
0.161612 0.120363 0.110819
0.245457 0.132192 0.087759
0.340617 0.138150 0.015204
0.433092 0.145647 0.000000
0.515192 0.155226 0.009340
0.605894 0.165639 0.072497
0.694231 0.175855 0.120950
0.780662 0.188656 0.146938
0.865258 0.200445 0.158175
0.942714 0.212818 0.165842
0.999948 0.225483 0.170706
-0.086617 0.132602 0.127032
-0.064494 0.130794 0.132849
0.002210 0.135037 0.121098
0.040017 0.133960 0.115124
0.094005 0.134392 0.113624
0.178573 0.137328 0.104444
0.265524 0.150512 0.066119
0.359682 0.162949 0.005347
0.450933 0.182472 0.000000
0.545590 0.195128 0.000000
0.648907 0.204456 0.025812
0.741363 0.222196 0.075784
0.826635 0.237894 0.113607
0.909140 0.251557 0.123233
0.980817 0.268638 0.130906
0.999989 0.287554 0.136029
-0.063281 0.171222 0.112011
-0.048517 0.173134 0.119993
0.027140 0.169235 0.106535
0.054462 0.180555 0.098719
0.110966 0.180011 0.102806
0.188736 0.171968 0.088765
0.295787 0.164962 0.013931
0.386389 0.184374 0.000000
0.484058 0.207117 0.000000
0.599762 0.216806 0.000000
0.701605 0.237138 0.027923
0.791193 0.259835 0.069131
0.873237 0.284943 0.089831
0.950417 0.314250 0.090672
0.999969 0.342903 0.089782
0.999989 0.367058 0.087454
-0.033648 0.210491 0.112051
-0.015365 0.211896 0.116096
0.058479 0.207534 0.099215
0.072285 0.226667 0.083613
0.135550 0.230744 0.082090
0.218812 0.218614 0.097774
