src/colors/cinematic_&_blockbuster/teal_cinema.cube
LUT_3D_SIZE 6
0.000000 0.000000 0.011249
0.151121 0.000780 0.008410
0.383007 0.035190 0.007580
0.613787 0.086953 0.008773
0.756372 0.119251 0.009217
0.861941 0.148291 0.012610
0.000000 0.051115 0.027039
0.079101 0.054831 0.016193
0.354846 0.091331 0.006768
0.627930 0.153710 0.007348
0.774400 0.186389 0.007830
0.873027 0.208200 0.008063
0.000000 0.203807 0.073328
0.053720 0.205677 0.075926
0.315858 0.229746 0.034457
0.652765 0.280846 0.007187
0.801725 0.296634 0.006807
0.891375 0.311607 0.006985
0.020417 0.448443 0.156808
0.091977 0.445795 0.154169
0.281108 0.500560 0.162731
0.667270 0.499761 0.072295
0.836434 0.535728 0.062583
0.917569 0.560463 0.068638
0.056016 0.627935 0.202132
0.131687 0.634786 0.206511
0.320628 0.684353 0.213987
0.707546 0.754018 0.186049
0.850635 0.688145 0.126578
0.932327 0.694559 0.122822
0.073720 0.748948 0.231814
0.143853 0.753328 0.227830
0.314126 0.787202 0.237109
0.650203 0.846224 0.218693
0.853805 0.830338 0.175027
0.938354 0.798513 0.153910
0.000000 0.000010 0.110258
0.153251 0.000581 0.098097
0.398640 0.025528 0.072242
0.605465 0.059775 0.067255
0.745328 0.095683 0.068331
0.854596 0.142054 0.071614
0.000000 0.066944 0.122704
0.069434 0.077829 0.118832
0.368428 0.111909 0.073927
0.645140 0.161279 0.059629
0.785970 0.194634 0.061051
0.875058 0.226660 0.068959
0.000000 0.230351 0.165408
0.042937 0.224013 0.144006
0.336866 0.247925 0.090583
0.678215 0.270990 0.055872
0.816711 0.288582 0.055801
0.891718 0.308129 0.063626
0.027145 0.471781 0.230897
0.080504 0.485700 0.223377
0.246481 0.518330 0.231137
0.700972 0.529197 0.126627
0.859329 0.555590 0.114915
0.924999 0.555650 0.113637
0.061479 0.642262 0.268792
0.112235 0.653406 0.260942
0.267853 0.686694 0.269286
0.709589 0.773274 0.243002
0.873084 0.712111 0.183248
0.940563 0.707123 0.180298
0.076308 0.756218 0.293773
0.129855 0.755994 0.286331
0.287298 0.782416 0.300307
0.638275 0.844576 0.275316
0.854346 0.841893 0.233690
0.942985 0.807222 0.211219
0.000000 0.065426 0.272595
0.086493 0.001249 0.218420
0.393837 0.035859 0.214070
0.616799 0.055522 0.196189
0.738098 0.065167 0.167177
0.831243 0.087763 0.147656
0.000000 0.157778 0.287423
0.041392 0.126967 0.278130
0.369561 0.100663 0.214251
0.630244 0.108337 0.166541
0.758923 0.137858 0.140467
0.859221 0.205920 0.141671
0.002483 0.273664 0.314519
0.052860 0.277777 0.318915
0.255167 0.275275 0.277779
0.652887 0.313638 0.197518
0.811361 0.325399 0.164982
0.891901 0.354664 0.173217
0.038499 0.503345 0.373044
0.093331 0.528947 0.372242
0.184436 0.516368 0.342884
0.686994 0.541470 0.216295
0.872235 0.562012 0.180873
0.929057 0.530953 0.172711
0.070156 0.666569 0.397446
0.121094 0.679439 0.382489
0.216453 0.687792 0.364724
0.681732 0.779232 0.321837
0.888025 0.735376 0.256563
0.948548 0.729995 0.260284
0.081853 0.772582 0.412781
0.135139 0.770859 0.396270
0.234950 0.778726 0.398329
0.608420 0.841483 0.382187
0.851427 0.862437 0.313511
0.947441 0.822914 0.285006
0.007933 0.151832 0.461310
0.075389 0.054977 0.405050
0.287348 0.033494 0.364510
0.618160 0.086430 0.362652
0.751416 0.106687 0.354722
0.849296 0.129702 0.349108
0.008921 0.255468 0.482780
0.060265 0.212527 0.482369
0.238284 0.088608 0.385746
0.639802 0.147052 0.375764
0.774694 0.172724 0.358905
0.853859 0.195826 0.339589
0.019026 0.355521 0.500938
0.069510 0.366204 0.520596
0.147349 0.339463 0.513298
0.639953 0.284045 0.380882
0.794916 0.289762 0.354365
0.863843 0.309092 0.321942
0.043815 0.511820 0.540600
0.101545 0.544666 0.568756
0.173531 0.558859 0.576920
0.573953 0.593153 0.530843
0.835665 0.591428 0.442596
0.921110 0.593882 0.426292
0.082064 0.696337 0.591180
0.134627 0.715671 0.599460
0.199856 0.724848 0.589976
0.515652 0.756717 0.574233
0.870379 0.780069 0.504385
0.950889 0.787019 0.504413
0.091819 0.797647 0.601538
0.144687 0.798572 0.594647
0.210271 0.797909 0.574386
0.525988 0.838707 0.572199
0.822901 0.891487 0.542814
0.950542 0.864099 0.491437
0.020763 0.201955 0.590435
0.087012 0.086963 0.527182
0.293109 0.043388 0.474403
0.546481 0.088305 0.476240
0.752965 0.116090 0.476310
0.857034 0.144948 0.471657
0.020333 0.310780 0.612566
0.073405 0.254043 0.608315
0.236603 0.110991 0.501418
0.535252 0.140539 0.488550
0.775653 0.180536 0.488942
0.867750 0.217558 0.472436
0.031863 0.413642 0.631539
0.080682 0.415800 0.644064
0.145597 0.377683 0.643588
0.486299 0.260950 0.512506
0.800318 0.293689 0.494647
0.883777 0.336369 0.475224
0.052825 0.542962 0.664706
0.105569 0.558917 0.682199
0.173017 0.572196 0.694969
0.434077 0.576912 0.677855
0.817310 0.549765 0.553596
0.904585 0.569636 0.547147
0.084297 0.692906 0.706840
0.138853 0.716148 0.726769
0.208241 0.736011 0.741644
0.391787 0.762200 0.755468
0.814605 0.830583 0.718964
0.946164 0.827871 0.686120
0.102622 0.818575 0.736926
0.156978 0.823226 0.739039
0.222750 0.827885 0.737795
0.370436 0.838227 0.731501
0.767187 0.896065 0.696402
0.950870 0.909520 0.665229
0.022655 0.246299 0.683433
0.089688 0.111102 0.617012
0.311013 0.054562 0.553447
0.512616 0.088160 0.553086
0.739813 0.127601 0.560284
0.860694 0.158628 0.562001
0.027522 0.341711 0.700946
0.076965 0.306582 0.697433
0.217622 0.160468 0.599394
0.490618 0.152234 0.556308
0.747020 0.199753 0.562006
0.868879 0.228807 0.563812
0.040008 0.446088 0.720335
0.091700 0.442851 0.720597
0.157828 0.406926 0.716790
0.456904 0.279568 0.590522
0.753594 0.310336 0.564126
0.882098 0.341830 0.566150
0.061625 0.573175 0.753694
0.114167 0.573918 0.754669
0.180621 0.580548 0.759766
0.406889 0.572758 0.748242
0.749623 0.535401 0.631402
0.907295 0.565671 0.628946
0.085445 0.696949 0.787458
0.138885 0.700035 0.789797
0.206676 0.710552 0.797197
0.360564 0.741346 0.820538
0.764216 0.814333 0.805295
0.938292 0.817688 0.774684
0.101672 0.804429 0.811234
0.155783 0.808879 0.814342
0.222884 0.817955 0.820135
0.361327 0.840513 0.836257
0.560183 0.881937 0.857909
0.939158 0.950707 0.819829
