src/colors/cinematic_&_blockbuster/warm_cinema.cube
LUT_3D_SIZE 16
0.041382 0.045502 0.046692
0.053762 0.047386 0.046333
0.073643 0.052622 0.047778
0.107656 0.059211 0.046056
0.148057 0.067078 0.039550
0.191750 0.074591 0.038429
0.251616 0.086416 0.039926
0.321249 0.104818 0.046677
0.387493 0.122645 0.054214
0.444701 0.150539 0.064786
0.492372 0.178748 0.074615
0.534696 0.201637 0.082265
0.574293 0.226927 0.091310
0.601197 0.245878 0.095709
0.631180 0.268387 0.101818
0.648196 0.273653 0.103119
0.042259 0.052802 0.048340
0.052618 0.054461 0.047437
0.073156 0.057843 0.047132
0.106944 0.064578 0.046256
0.149159 0.072147 0.039643
0.193346 0.079727 0.037988
0.254645 0.092679 0.039583
0.324622 0.110620 0.046683
0.391887 0.129194 0.054349
0.450093 0.157729 0.065486
0.497836 0.185580 0.075111
0.542396 0.211241 0.083724
0.581201 0.235400 0.092675
0.608219 0.254945 0.097159
0.638978 0.277774 0.103230
0.655154 0.282341 0.104394
0.042626 0.065930 0.050596
0.052453 0.067177 0.050191
0.070182 0.069785 0.049201
0.107582 0.074403 0.046448
0.151766 0.084264 0.041012
0.198330 0.091374 0.037843
0.260302 0.100967 0.039538
0.329697 0.117468 0.046891
0.397119 0.135627 0.054747
0.455662 0.164353 0.066330
0.503663 0.192437 0.075892
0.549618 0.220446 0.085634
0.588721 0.244792 0.094160
0.615694 0.264276 0.099048
0.646618 0.286844 0.104748
0.661417 0.290249 0.105582
0.043878 0.085512 0.053895
0.050980 0.085591 0.053455
0.064051 0.087705 0.053078
0.106959 0.094140 0.050642
0.153960 0.097976 0.041835
0.207324 0.108891 0.037548
0.273241 0.121326 0.039710
0.342790 0.134888 0.047884
0.406488 0.146758 0.056329
0.460830 0.168752 0.067160
0.508473 0.196783 0.076628
0.554848 0.226021 0.086770
0.594661 0.251275 0.095101
0.621480 0.271521 0.100503
0.652001 0.293747 0.105734
0.666381 0.296690 0.106403
0.042126 0.105844 0.056574
0.049821 0.106223 0.056305
0.060669 0.107483 0.055584
0.092655 0.115173 0.055110
0.156482 0.123165 0.049186
0.216444 0.127367 0.039626
0.293933 0.146921 0.042543
0.372665 0.171948 0.052525
0.437261 0.186898 0.063658
0.477047 0.187447 0.070475
0.516017 0.203628 0.078177
0.560871 0.231101 0.088116
0.600017 0.256094 0.095993
0.626082 0.277346 0.101479
0.656442 0.299362 0.106394
0.668856 0.299960 0.106557
0.040311 0.130408 0.059756
0.046322 0.132311 0.059726
0.054926 0.133887 0.058984
0.074863 0.137809 0.057795
0.133104 0.157598 0.058154
0.231030 0.167557 0.049823
0.312767 0.174851 0.045761
0.404249 0.207343 0.057778
0.477754 0.235588 0.073997
0.520164 0.244888 0.083542
0.544167 0.238897 0.085960
0.577271 0.249894 0.092695
0.610963 0.268876 0.098856
0.634001 0.287296 0.103182
0.659215 0.303176 0.106694
0.673099 0.305028 0.107193
0.039886 0.159793 0.068966
0.045324 0.161549 0.067712
0.052067 0.163260 0.066420
0.066565 0.167427 0.065086
0.100490 0.181481 0.062648
0.214637 0.224228 0.066929
0.336971 0.230210 0.058950
0.427627 0.241956 0.064034
0.509615 0.276376 0.084457
0.561024 0.299507 0.098083
0.598973 0.309925 0.104489
0.618527 0.298064 0.104623
0.633491 0.297219 0.104746
0.658782 0.316478 0.109572
0.682799 0.330015 0.113074
0.697446 0.332599 0.113656
0.040829 0.198308 0.079254
0.046207 0.200575 0.077537
0.054439 0.203672 0.075930
0.064791 0.207432 0.074559
0.084164 0.214565 0.072378
0.158232 0.252011 0.071085
0.338510 0.320117 0.091184
0.456813 0.307272 0.081433
0.538182 0.322762 0.097515
0.596535 0.349101 0.111856
0.647208 0.368895 0.120757
0.684899 0.378480 0.123630
0.680177 0.355604 0.118549
0.687056 0.350052 0.117331
0.709444 0.361425 0.119782
0.726319 0.365531 0.120598
0.045991 0.248083 0.085496
0.052230 0.251376 0.083281
0.061675 0.255451 0.081124
0.072061 0.259820 0.079815
0.086698 0.265771 0.078016
0.116897 0.279401 0.075963
0.262014 0.348578 0.086982
0.479706 0.426820 0.134772
0.565279 0.386031 0.116621
0.629680 0.400271 0.125731
0.688087 0.420815 0.134018
0.723531 0.433270 0.136608
0.738608 0.435459 0.136832
0.728735 0.405327 0.130029
0.731490 0.389191 0.126482
0.750072 0.394997 0.127459
0.053608 0.297308 0.092515
0.061030 0.300682 0.089076
0.069099 0.304708 0.085538
0.077695 0.309444 0.081450
0.091294 0.316312 0.077737
0.118444 0.327592 0.076359
0.167523 0.351638 0.077283
0.384636 0.446709 0.119149
0.591852 0.509487 0.171036
0.660579 0.466287 0.145099
0.719544 0.469390 0.145025
0.752882 0.478693 0.145438
0.772659 0.487857 0.146911
0.778156 0.478488 0.144399
0.762438 0.432380 0.134625
0.766249 0.416868 0.131108
0.063212 0.341673 0.098418
0.069068 0.344084 0.096097
0.075583 0.347507 0.093797
0.083473 0.352344 0.089809
0.095328 0.359463 0.084878
0.120368 0.370079 0.082407
0.155319 0.386831 0.080412
0.228088 0.420482 0.088381
0.499323 0.530267 0.155719
0.674960 0.563960 0.186905
0.742169 0.526985 0.159567
0.777359 0.525640 0.155698
0.795866 0.532181 0.156145
0.807026 0.531153 0.154342
0.814355 0.519826 0.150011
0.789917 0.454581 0.137152
0.065111 0.378075 0.105740
0.070518 0.380259 0.103862
0.076057 0.383480 0.102424
0.082970 0.388242 0.099535
0.094916 0.395656 0.095045
0.120978 0.406835 0.092052
0.158202 0.422624 0.088692
0.205323 0.444487 0.089403
0.295275 0.483052 0.099799
0.602652 0.600778 0.191121
0.744893 0.612005 0.195881
0.791157 0.575127 0.166922
0.810221 0.575036 0.163949
0.821743 0.574344 0.162595
0.835565 0.573165 0.160419
0.840697 0.559389 0.156470
0.065740 0.408590 0.112230
0.069809 0.410601 0.111496
0.074247 0.414045 0.111411
0.080242 0.419119 0.109701
0.092908 0.426739 0.105855
0.118802 0.438905 0.101685
0.154957 0.454590 0.098262
0.201185 0.475925 0.098277
0.260151 0.500848 0.097624
0.367494 0.542764 0.117569
0.696858 0.664934 0.223909
0.806991 0.654680 0.204315
0.816196 0.616514 0.175138
0.828905 0.615693 0.173099
0.842852 0.618205 0.172164
0.852986 0.620267 0.171709
0.070319 0.440379 0.125920
0.074762 0.442051 0.124922
0.080268 0.445490 0.124279
0.087026 0.450213 0.122191
0.099484 0.457631 0.117632
0.118515 0.467768 0.110502
0.154249 0.482478 0.105916
0.203761 0.503919 0.103197
0.265926 0.529991 0.102580
0.333262 0.556835 0.111107
0.461924 0.608577 0.150650
0.763047 0.704883 0.237882
0.828106 0.670418 0.203426
0.832184 0.644100 0.181781
0.845115 0.646912 0.181111
0.855345 0.653730 0.182281
0.079371 0.474333 0.145027
0.084529 0.476636 0.143659
0.090816 0.481551 0.142878
0.099088 0.488219 0.142377
0.115432 0.497208 0.137075
0.137316 0.507335 0.127195
0.171864 0.521182 0.118043
0.216151 0.542457 0.113679
0.275741 0.569355 0.112725
0.340470 0.595984 0.117110
0.418147 0.623434 0.138877
0.518716 0.654762 0.169468
0.824703 0.728760 0.251097
0.854195 0.710524 0.233341
0.850542 0.686282 0.203441
0.866969 0.704899 0.224312
0.091329 0.516569 0.167967
0.096635 0.519968 0.168057
0.104659 0.526542 0.169912
0.115509 0.533499 0.169508
0.132699 0.539269 0.160638
0.158881 0.547574 0.148349
0.190893 0.558822 0.139006
0.234047 0.572880 0.127108
0.285058 0.588083 0.118516
0.351596 0.608304 0.121272
0.425243 0.632265 0.140806
0.499786 0.656942 0.162600
0.572608 0.681145 0.189242
0.853503 0.744738 0.259776
0.871414 0.748044 0.264747
0.878420 0.749046 0.266171
0.040600 0.048132 0.056074
0.049699 0.047362 0.058204
0.069469 0.052551 0.057957
0.106377 0.059451 0.053977
0.148356 0.065356 0.045604
0.191370 0.071402 0.042684
0.251431 0.084825 0.044340
0.319826 0.100949 0.049983
0.388305 0.124398 0.058591
0.446356 0.152994 0.069961
0.492510 0.178038 0.079792
0.535434 0.202048 0.086880
0.574973 0.226803 0.095671
0.601689 0.245070 0.100382
0.632217 0.268021 0.105887
0.649402 0.272480 0.107852
0.041557 0.053662 0.056319
0.050004 0.053911 0.055209
0.069571 0.057438 0.054847
0.104602 0.064987 0.053559
0.147844 0.073652 0.046721
0.193318 0.082161 0.042867
0.254987 0.095429 0.044002
0.325612 0.113550 0.050307
0.392457 0.130166 0.059119
0.448768 0.155006 0.070643
0.497362 0.183905 0.080529
0.542943 0.211418 0.088571
0.582210 0.235619 0.097701
0.609558 0.255196 0.102034
0.640653 0.278095 0.107598
0.657363 0.282195 0.109197
0.041884 0.066319 0.059205
0.050960 0.066233 0.058185
0.066553 0.068014 0.056864
0.104189 0.073223 0.053572
0.149462 0.082508 0.047099
0.197335 0.090703 0.042724
0.259654 0.102963 0.044049
0.329906 0.119466 0.050462
0.397095 0.135891 0.059397
0.454338 0.161988 0.071704
0.503163 0.190774 0.081018
0.550014 0.220248 0.090480
0.589246 0.244083 0.099030
0.617060 0.264726 0.103541
0.648347 0.286840 0.109438
0.664627 0.291297 0.110615
0.043200 0.085810 0.061758
0.050166 0.085230 0.060462
0.061749 0.086057 0.059647
0.102581 0.092004 0.056795
0.150931 0.096879 0.048290
0.205181 0.108159 0.042692
0.270789 0.119431 0.044243
0.340583 0.132461 0.051336
0.405153 0.145702 0.060496
0.460140 0.167941 0.072679
0.508505 0.196217 0.081775
0.555330 0.225732 0.091711
0.595239 0.250811 0.099979
0.622567 0.271575 0.104803
0.654042 0.294038 0.110523
0.669743 0.297960 0.111449
0.041325 0.106132 0.064783
0.049433 0.106110 0.063802
0.058480 0.107026 0.063424
0.089402 0.113017 0.062014
0.152860 0.121256 0.055584
0.214141 0.126627 0.044609
0.290875 0.145573 0.046421
0.369657 0.169927 0.056133
0.433387 0.183158 0.068177
0.474498 0.184483 0.075493
0.515099 0.202093 0.082919
0.560555 0.229972 0.092826
0.600273 0.255309 0.100573
0.626858 0.276855 0.105716
0.658042 0.299179 0.111064
0.672278 0.301530 0.111618
0.039690 0.130431 0.068876
0.046277 0.132117 0.067822
0.053368 0.133470 0.067461
0.071592 0.136430 0.066894
0.126451 0.153710 0.067000
0.226563 0.165698 0.055886
0.309691 0.174114 0.049901
0.400981 0.205945 0.062474
0.476040 0.235351 0.080227
0.518132 0.243069 0.088860
0.541457 0.235620 0.090325
0.575146 0.246881 0.096734
0.609684 0.266082 0.102722
0.633575 0.285053 0.107278
0.661766 0.303688 0.111442
0.675197 0.305397 0.111902
0.039322 0.159384 0.077662
0.045356 0.161573 0.075944
0.051719 0.163457 0.074672
0.062784 0.166083 0.074232
0.094064 0.177767 0.071808
0.205668 0.219412 0.074527
0.332236 0.228561 0.064889
0.424535 0.240770 0.069584
0.508081 0.276345 0.090582
0.560376 0.299144 0.103716
0.597402 0.308515 0.109046
0.615447 0.294510 0.108455
0.632294 0.293809 0.108880
0.657263 0.312196 0.113161
0.683486 0.327685 0.117519
0.697150 0.330026 0.118062
0.040542 0.197582 0.087091
0.046455 0.199829 0.085066
0.054309 0.202805 0.083434
0.064260 0.206423 0.082113
0.077970 0.211833 0.080483
0.149416 0.246680 0.078508
0.328486 0.314985 0.097555
0.453282 0.306147 0.088383
0.536928 0.322513 0.103747
0.595498 0.348293 0.116711
0.646475 0.368041 0.125850
0.685744 0.377445 0.128928
0.679581 0.352417 0.122904
0.686674 0.346559 0.121744
0.709466 0.358500 0.124673
0.725944 0.362014 0.124912
0.045983 0.247965 0.093378
0.052641 0.251286 0.090728
0.061702 0.255057 0.088436
0.072024 0.259284 0.087069
0.083655 0.264425 0.085710
0.109876 0.275734 0.083349
0.250349 0.341582 0.092373
0.471209 0.422567 0.140634
0.563020 0.385657 0.122913
0.628971 0.399843 0.131108
0.687950 0.420593 0.139980
0.725448 0.433451 0.142504
0.740976 0.436258 0.142802
0.730881 0.405537 0.135590
0.733431 0.389278 0.131886
0.752352 0.394691 0.132342
0.053606 0.296668 0.099759
0.061603 0.300151 0.096894
0.069202 0.303929 0.093425
0.077717 0.308470 0.089779
0.089012 0.314556 0.085471
0.111291 0.324337 0.082910
0.159312 0.346646 0.082908
0.373569 0.440314 0.123585
0.586868 0.508238 0.177528
0.659598 0.466601 0.151392
0.720026 0.469920 0.151931
0.755047 0.479934 0.152540
0.775410 0.489101 0.153878
0.781449 0.480565 0.151462
0.764708 0.433144 0.140575
0.769319 0.418105 0.136677
0.063513 0.341267 0.105565
0.069901 0.343611 0.103634
0.076027 0.346652 0.101423
0.083748 0.351407 0.097542
0.093413 0.357869 0.091818
0.112773 0.366927 0.087540
0.146446 0.381644 0.085106
0.217439 0.414518 0.092089
0.490907 0.526728 0.160669
0.672472 0.564449 0.194304
0.741864 0.527979 0.166506
0.779120 0.526548 0.162320
0.797967 0.533972 0.162646
0.809175 0.533259 0.161065
0.816848 0.521996 0.156700
0.793097 0.456044 0.143199
0.065368 0.377950 0.113302
0.071143 0.380138 0.111490
0.076438 0.383035 0.109991
0.083278 0.387304 0.107122
0.092328 0.393724 0.101702
0.112646 0.403356 0.097574
0.148507 0.418073 0.093910
0.194903 0.438822 0.093588
0.284444 0.477536 0.104054
0.596314 0.599282 0.196402
0.743245 0.613133 0.202878
0.792321 0.576024 0.172738
0.811611 0.576178 0.170055
0.823229 0.575709 0.168655
0.837120 0.574893 0.166707
0.842735 0.561724 0.162635
0.067098 0.410136 0.121692
0.071458 0.411781 0.120920
0.075762 0.414921 0.120972
0.081384 0.419401 0.119682
0.090341 0.425301 0.114467
0.113833 0.436226 0.109024
0.148047 0.450473 0.104474
0.193379 0.470626 0.104236
0.251890 0.496084 0.103337
0.357529 0.538573 0.121473
0.692528 0.664339 0.228022
0.807988 0.657273 0.211749
0.817986 0.617776 0.180397
0.830741 0.617112 0.178479
0.844701 0.619597 0.177519
0.854936 0.622004 0.177164
0.071920 0.442204 0.134856
0.076318 0.443307 0.133047
0.081415 0.446210 0.132415
0.088067 0.450633 0.130952
0.096524 0.456213 0.126735
0.114586 0.466352 0.119459
0.147831 0.479647 0.113711
0.196242 0.499708 0.111437
0.256521 0.525762 0.109622
0.323784 0.553020 0.115808
0.452842 0.605110 0.153421
0.760874 0.706783 0.243034
0.830077 0.672318 0.208771
0.834040 0.645670 0.187157
0.846954 0.648363 0.186401
0.857164 0.655313 0.187671
0.081427 0.476549 0.154938
0.086054 0.477931 0.152887
0.091913 0.481985 0.151842
0.099649 0.488326 0.151432
0.112166 0.496036 0.148029
0.132981 0.505836 0.138356
0.166910 0.519270 0.128280
0.207655 0.537287 0.122011
0.266031 0.564553 0.119006
0.332525 0.592846 0.121549
0.408385 0.621728 0.140264
0.509720 0.653650 0.171400
0.825281 0.731528 0.256809
0.855380 0.712250 0.238455
0.851649 0.688197 0.209451
0.867882 0.705580 0.227750
0.093218 0.518797 0.177159
0.097595 0.520488 0.176000
0.105290 0.526844 0.177763
0.114582 0.533899 0.178702
0.129224 0.540052 0.172509
0.154135 0.548028 0.160127
0.186452 0.558984 0.149807
0.227526 0.572149 0.137466
0.277646 0.587313 0.125985
0.342725 0.607283 0.125037
0.416462 0.631205 0.142777
0.489962 0.655435 0.164112
0.564509 0.680483 0.191308
0.854661 0.747834 0.266288
0.872615 0.750763 0.271376
0.879588 0.751947 0.273532
0.040149 0.054434 0.073499
0.048686 0.054290 0.072368
0.062796 0.052079 0.075838
0.092427 0.059465 0.077231
0.139366 0.068362 0.069091
0.191054 0.073645 0.050671
0.249123 0.083743 0.049366
0.320112 0.104296 0.054876
0.389391 0.128567 0.064662
0.447659 0.154613 0.075727
0.493261 0.177899 0.084968
0.536487 0.202379 0.091712
0.576532 0.227108 0.100352
0.603241 0.244542 0.105291
0.634436 0.267626 0.110919
0.650832 0.270777 0.112866
0.040636 0.058752 0.071580
0.048964 0.059350 0.071682
0.062464 0.057918 0.072050
0.093936 0.064819 0.072337
0.142270 0.073920 0.063870
0.192863 0.077562 0.048497
0.252744 0.090106 0.048878
0.323398 0.107503 0.054758
0.391327 0.129426 0.064667
0.451328 0.159370 0.076365
0.498581 0.185034 0.085571
0.543552 0.211323 0.093038
0.583285 0.235197 0.102071
0.611131 0.254700 0.106941
0.642190 0.276604 0.112605
0.658855 0.280493 0.114312
0.040688 0.065193 0.070130
0.048845 0.066069 0.069660
0.062063 0.066348 0.067946
0.097646 0.072770 0.065864
0.146121 0.082429 0.058111
0.197908 0.091952 0.048698
0.259126 0.105017 0.049379
0.330626 0.121639 0.055480
0.397704 0.138021 0.065756
0.453071 0.159585 0.076864
0.502300 0.188652 0.086255
0.550318 0.219993 0.095091
0.590695 0.244278 0.104015
0.618392 0.263935 0.108587
0.649235 0.284639 0.114148
0.666427 0.290014 0.115599
0.040421 0.086738 0.076273
0.047921 0.086266 0.074170
0.059806 0.085491 0.071608
0.095943 0.090007 0.067782
0.146441 0.096445 0.060249
0.203833 0.107291 0.048769
0.268278 0.118230 0.049459
0.339198 0.132629 0.056276
0.405140 0.147819 0.066438
0.458867 0.166250 0.077658
0.507955 0.194867 0.086848
0.555672 0.225934 0.096367
0.596180 0.250351 0.104903
0.623618 0.270727 0.109812
0.656232 0.292863 0.115569
0.672996 0.298005 0.116804
0.038591 0.107280 0.078807
0.046969 0.106855 0.076331
0.057409 0.106991 0.074704
0.084071 0.111496 0.075834
0.146524 0.119761 0.067813
0.211761 0.126067 0.051078
0.286814 0.144343 0.051407
0.366121 0.167536 0.061162
0.429666 0.179875 0.072660
0.471826 0.181857 0.079873
0.513798 0.200429 0.087566
0.559753 0.229025 0.097179
0.600334 0.254056 0.105297
0.627090 0.275188 0.110466
0.660240 0.297985 0.116105
0.675766 0.301891 0.117029
0.037784 0.130659 0.082717
0.044371 0.132160 0.080370
0.052911 0.133437 0.078748
0.069410 0.135587 0.079477
0.120111 0.150096 0.078335
0.219902 0.163106 0.064317
0.305101 0.172915 0.054855
0.397396 0.204909 0.068313
0.473062 0.234816 0.085322
0.515187 0.240927 0.093456
0.538151 0.232145 0.094312
0.572373 0.243490 0.100642
0.608010 0.262477 0.106760
0.631531 0.280583 0.111392
0.663197 0.301782 0.116325
0.677646 0.304674 0.117023
0.037693 0.158760 0.087149
0.043903 0.160812 0.085483
0.051619 0.162993 0.083239
0.062398 0.165487 0.082730
0.088366 0.174629 0.081241
0.196381 0.214153 0.081902
0.325482 0.226429 0.071861
0.420450 0.239394 0.075446
0.505959 0.276024 0.096099
0.558938 0.299007 0.109129
0.594923 0.306788 0.113270
0.610968 0.290088 0.111985
0.629582 0.288500 0.113001
0.653728 0.305922 0.116927
0.683289 0.324065 0.121802
0.696716 0.326277 0.122381
0.039309 0.196902 0.095638
0.045279 0.198892 0.093680
0.054225 0.202052 0.091388
0.064027 0.205549 0.090036
0.075556 0.210127 0.088406
0.140854 0.241091 0.086143
0.317192 0.309057 0.103746
0.448317 0.304713 0.094801
0.534424 0.321922 0.109445
0.594422 0.348043 0.122008
0.645385 0.367166 0.131030
0.685435 0.375831 0.134043
0.677533 0.347587 0.127133
0.683032 0.339353 0.125162
0.708398 0.354445 0.128914
0.724090 0.357303 0.129302
0.045264 0.247232 0.104084
0.051187 0.250226 0.100438
0.061745 0.254226 0.097555
0.071883 0.258677 0.095710
0.083094 0.263890 0.093874
0.103221 0.272299 0.091633
0.239131 0.334528 0.098992
0.461183 0.417768 0.146087
0.560584 0.385856 0.128975
0.628667 0.400071 0.136824
0.686961 0.420422 0.145571
0.727181 0.433338 0.148368
0.742824 0.436030 0.148204
0.731843 0.403990 0.140462
0.734367 0.387929 0.136810
0.752490 0.392504 0.137025
0.053402 0.296267 0.108632
0.060783 0.299150 0.105402
0.069510 0.303263 0.101922
0.077716 0.307603 0.098444
0.088818 0.313444 0.094398
0.105909 0.321539 0.090490
0.150660 0.341155 0.089449
0.361916 0.433097 0.127858
0.581521 0.507421 0.184283
0.658236 0.467760 0.157948
0.720016 0.470692 0.158392
0.757046 0.481147 0.159455
0.777429 0.490209 0.160177
0.784565 0.482825 0.158037
0.767214 0.433885 0.146167
0.771499 0.418503 0.142004
0.063920 0.341212 0.113544
0.070179 0.343280 0.110929
0.076678 0.346115 0.109147
0.084060 0.350480 0.105451
0.093607 0.356601 0.099960
0.107214 0.364105 0.093524
0.136999 0.376337 0.090121
0.206521 0.407909 0.096070
0.481187 0.522528 0.165845
0.669497 0.565334 0.201859
0.740843 0.529673 0.173490
0.781146 0.527865 0.169064
0.800162 0.535610 0.168962
0.811565 0.535582 0.167564
0.819636 0.524011 0.163068
0.795715 0.457405 0.149212
0.066222 0.378989 0.122770
0.071940 0.381059 0.120137
0.078187 0.384393 0.119569
0.084560 0.388026 0.117109
0.093246 0.393505 0.110769
0.106540 0.400630 0.103868
0.138614 0.413294 0.099452
0.181927 0.431844 0.098187
0.271901 0.471265 0.109374
0.589916 0.597313 0.201851
0.741801 0.615318 0.210578
0.793399 0.577474 0.179045
0.812983 0.577057 0.176295
0.824688 0.577321 0.174788
0.838591 0.576894 0.173066
0.844339 0.563493 0.169037
0.069093 0.413318 0.133277
0.073268 0.414163 0.131328
0.077806 0.416519 0.131190
0.082889 0.420217 0.130186
0.091134 0.425469 0.124949
0.107760 0.433691 0.117868
0.141168 0.446741 0.112041
0.184408 0.464716 0.110695
0.239786 0.489296 0.110494
0.345574 0.532975 0.125230
0.687265 0.663101 0.231497
0.807978 0.659841 0.218732
0.819788 0.619199 0.185479
0.832197 0.619135 0.184527
0.846173 0.621633 0.183566
0.856350 0.623709 0.183167
0.073805 0.444487 0.145320
0.077966 0.445097 0.142576
0.082799 0.447198 0.141064
0.089053 0.450949 0.139618
0.096102 0.455517 0.135948
0.109847 0.463632 0.129464
0.139706 0.475863 0.121965
0.185695 0.493414 0.119785
0.243719 0.518781 0.117473
0.310359 0.546592 0.120168
0.440501 0.599700 0.154619
0.757547 0.708071 0.247991
0.832121 0.674856 0.214604
0.835401 0.648104 0.193653
0.848201 0.650800 0.193088
0.858354 0.657708 0.194437
0.082901 0.478548 0.165978
0.087462 0.479508 0.162986
0.092756 0.482335 0.160229
0.099940 0.487796 0.159492
0.109639 0.494813 0.157854
0.127495 0.503342 0.149624
0.160110 0.516193 0.138114
0.198204 0.531188 0.129920
0.255592 0.557885 0.125279
0.320899 0.587293 0.126318
0.394992 0.617813 0.140134
0.498435 0.651727 0.172736
0.824969 0.734318 0.262788
0.856224 0.713379 0.242717
0.852695 0.690052 0.215500
0.868223 0.705962 0.231021
0.094942 0.521867 0.188562
0.098951 0.522681 0.185840
0.105237 0.527174 0.185286
0.114308 0.533926 0.186165
0.124621 0.539971 0.183364
0.148339 0.547234 0.170502
0.179892 0.557967 0.159273
0.218983 0.571261 0.148007
0.269183 0.586924 0.135562
0.331296 0.605693 0.130118
0.403925 0.628983 0.143055
0.478673 0.653620 0.165711
0.553301 0.678859 0.192413
0.855532 0.751150 0.273034
0.873908 0.752928 0.277213
0.880859 0.754069 0.279576
0.038556 0.063798 0.098098
0.046419 0.063795 0.096842
0.059989 0.062829 0.096146
0.082215 0.059322 0.101479
0.118953 0.067599 0.100952
0.174017 0.079549 0.092689
0.242324 0.092752 0.069339
0.321660 0.112471 0.064823
0.393081 0.130813 0.072945
0.450051 0.155218 0.083481
0.494929 0.177953 0.091577
0.537422 0.201985 0.097142
0.577859 0.225880 0.105130
0.604559 0.242750 0.110141
0.636080 0.266370 0.116094
0.652285 0.269400 0.117486
0.038342 0.068595 0.096858
0.046100 0.068882 0.096764
0.059176 0.068548 0.094549
0.082268 0.065121 0.097603
0.121453 0.074332 0.098176
0.177409 0.087041 0.089711
0.246982 0.099223 0.067739
0.325261 0.118153 0.064374
0.396596 0.136919 0.072909
0.454895 0.162483 0.084141
0.500512 0.185468 0.092284
0.544610 0.211155 0.098361
0.584535 0.233934 0.106545
0.612956 0.253666 0.112103
0.643845 0.275388 0.117930
0.660441 0.278941 0.119446
0.038462 0.074598 0.095650
0.045213 0.075163 0.095185
0.058467 0.075453 0.094043
0.083300 0.073341 0.093873
0.126047 0.083895 0.095423
0.184678 0.094382 0.083132
0.252487 0.105616 0.065702
0.329137 0.122809 0.064494
0.400228 0.141966 0.073306
0.459063 0.168258 0.084775
0.506218 0.192955 0.092985
0.551806 0.220653 0.099995
0.591241 0.242121 0.108110
0.620178 0.262981 0.113769
0.650948 0.283761 0.119618
0.668070 0.288420 0.120909
0.039881 0.084137 0.094377
0.045892 0.084517 0.093335
0.055911 0.085067 0.092041
0.084471 0.087616 0.091757
0.134917 0.097084 0.088510
0.199804 0.105927 0.067564
0.264957 0.115987 0.058898
0.336941 0.129987 0.065499
0.403734 0.145485 0.073833
0.460219 0.168582 0.084937
0.508601 0.195366 0.093355
0.556311 0.226198 0.101169
0.597147 0.249462 0.109703
0.625158 0.269622 0.114973
0.656972 0.290848 0.120373
0.675160 0.297136 0.121840
0.036160 0.109649 0.101181
0.042113 0.110230 0.099206
0.050110 0.109974 0.097412
0.077038 0.110736 0.096845
0.132678 0.117096 0.091490
0.204777 0.126920 0.073775
0.280047 0.143800 0.062182
0.360162 0.163228 0.069178
0.425503 0.176040 0.079055
0.469921 0.180461 0.085961
0.512037 0.198137 0.093197
0.559183 0.228261 0.101489
0.600733 0.252709 0.110207
0.627888 0.273502 0.115499
0.661146 0.295858 0.120832
0.679322 0.302310 0.122362
0.035457 0.135197 0.103562
0.040303 0.134961 0.100529
0.046646 0.135094 0.098499
0.063196 0.136354 0.096998
0.109389 0.145757 0.098118
0.208088 0.160986 0.083369
0.296074 0.171951 0.066817
0.390382 0.203060 0.076080
0.467535 0.231912 0.090477
0.510563 0.236780 0.098470
0.534018 0.227515 0.098499
0.569190 0.239615 0.104242
0.606968 0.258800 0.111243
0.630105 0.276557 0.115770
0.663440 0.298962 0.120851
0.680782 0.304632 0.122215
0.035250 0.161730 0.103333
0.040484 0.161319 0.100721
0.047093 0.162639 0.099025
0.059609 0.165123 0.097382
0.083330 0.172084 0.095117
0.178441 0.205958 0.093426
0.314237 0.223584 0.082830
0.413991 0.237583 0.081665
0.501712 0.274543 0.101492
0.557044 0.298849 0.114912
0.591282 0.303886 0.117411
0.605731 0.285021 0.115505
0.626055 0.282228 0.116864
0.649751 0.299654 0.120859
0.680564 0.318228 0.125318
0.696012 0.322009 0.126427
0.038593 0.198655 0.108140
0.043364 0.198819 0.105131
0.050707 0.200644 0.102879
0.062937 0.204529 0.100541
0.074808 0.209050 0.098017
0.130196 0.234505 0.095205
0.301821 0.301365 0.111032
0.441437 0.302879 0.101180
