src/colors/cinematic_&_blockbuster/warm_cinema.cube
LUT_3D_SIZE 6
0.041382 0.045502 0.046692
0.107656 0.059211 0.046056
0.251616 0.086416 0.039926
0.444701 0.150539 0.064786
0.574293 0.226927 0.091310
0.648196 0.273653 0.103119
0.043878 0.085512 0.053895
0.106959 0.094140 0.050642
0.273241 0.121326 0.039710
0.460830 0.168752 0.067160
0.594661 0.251275 0.095101
0.666381 0.296690 0.106403
0.039886 0.159793 0.068966
0.066565 0.167427 0.065086
0.336971 0.230210 0.058950
0.561024 0.299507 0.098083
0.633491 0.297219 0.104746
0.697446 0.332599 0.113656
0.053608 0.297308 0.092515
0.077695 0.309444 0.081450
0.167523 0.351638 0.077283
0.660579 0.466287 0.145099
0.772659 0.487857 0.146911
0.766249 0.416868 0.131108
0.065740 0.408590 0.112230
0.080242 0.419119 0.109701
0.154957 0.454590 0.098262
0.367494 0.542764 0.117569
0.816196 0.616514 0.175138
0.852986 0.620267 0.171709
0.091329 0.516569 0.167967
0.115509 0.533499 0.169508
0.190893 0.558822 0.139006
0.351596 0.608304 0.121272
0.572608 0.681145 0.189242
0.878420 0.749046 0.266171
0.038556 0.063798 0.098098
0.082215 0.059322 0.101479
0.242324 0.092752 0.069339
0.450051 0.155218 0.083481
0.577859 0.225880 0.105130
0.652285 0.269400 0.117486
0.039881 0.084137 0.094377
0.084471 0.087616 0.091757
0.264957 0.115987 0.058898
0.460219 0.168582 0.084937
0.597147 0.249462 0.109703
0.675160 0.297136 0.121840
0.035250 0.161730 0.103333
0.059609 0.165123 0.097382
0.314237 0.223584 0.082830
0.557044 0.298849 0.114912
0.626055 0.282228 0.116864
0.696012 0.322009 0.126427
0.053935 0.296901 0.119001
0.077785 0.306928 0.107210
0.142401 0.336426 0.096949
0.656451 0.469619 0.164770
0.779330 0.491564 0.166509
0.772819 0.417757 0.147220
0.071512 0.416959 0.147353
0.084527 0.421439 0.141297
0.132614 0.443924 0.120856
0.332024 0.527021 0.130589
0.821844 0.621139 0.191256
0.857808 0.626084 0.190471
0.096281 0.526063 0.206510
0.113691 0.534171 0.194528
0.170599 0.557569 0.171787
0.319085 0.603938 0.137067
0.538821 0.676114 0.192562
0.881759 0.756380 0.285918
0.035860 0.106983 0.192946
0.053763 0.105307 0.188181
0.162528 0.110895 0.187208
0.456030 0.196079 0.161684
0.604606 0.248369 0.149180
0.655268 0.264255 0.133095
0.035411 0.124290 0.193379
0.051967 0.125428 0.198296
0.171122 0.138633 0.191301
0.486009 0.238190 0.178143
0.627559 0.275141 0.152560
0.680092 0.293216 0.138554
0.035695 0.168786 0.200138
0.050989 0.176081 0.202563
0.184966 0.220031 0.228114
0.544296 0.292141 0.171083
0.638588 0.291010 0.145780
0.692627 0.309829 0.138233
0.073374 0.352518 0.278075
0.083327 0.335827 0.237176
0.104614 0.330290 0.204906
0.640407 0.484011 0.212083
0.787324 0.495953 0.188855
0.769624 0.403396 0.159912
0.085403 0.437790 0.221180
0.093073 0.432542 0.192035
0.119201 0.445011 0.162772
0.277162 0.507051 0.154770
0.828153 0.628248 0.210800
0.862377 0.629898 0.211137
0.109734 0.549174 0.293939
0.113866 0.544578 0.263661
0.141510 0.557230 0.221717
0.272710 0.599454 0.179789
0.488889 0.669782 0.198843
0.887177 0.767945 0.309675
0.052380 0.208116 0.347163
0.068281 0.208438 0.337224
0.103407 0.208040 0.309058
0.410461 0.251911 0.243719
0.617612 0.271392 0.250620
0.793795 0.332488 0.440801
0.052220 0.225000 0.352957
0.068099 0.230755 0.355441
0.102438 0.228240 0.320223
0.426321 0.289742 0.262498
0.657602 0.322091 0.280939
0.822208 0.372982 0.446236
0.053411 0.255128 0.361721
0.069503 0.261221 0.364347
0.100966 0.271160 0.369992
0.454515 0.335317 0.310009
0.696989 0.364581 0.321450
0.842147 0.405154 0.419820
0.064280 0.321465 0.387111
0.082592 0.331996 0.390334
0.103100 0.345388 0.397545
0.521827 0.548883 0.528862
0.840383 0.540758 0.455256
0.797949 0.388453 0.234393
0.189910 0.560274 0.536856
0.201845 0.562827 0.522557
0.206896 0.558531 0.497297
0.197886 0.537185 0.431446
0.855196 0.673448 0.301253
0.865993 0.626045 0.228336
0.156250 0.598839 0.434136
0.151445 0.587163 0.393342
0.143577 0.572716 0.341284
0.194310 0.594067 0.259703
0.419589 0.662363 0.221458
0.893704 0.781444 0.338840
0.078071 0.305815 0.466012
0.092119 0.309403 0.465885
0.120911 0.313978 0.455278
0.240604 0.356799 0.484785
0.654308 0.390816 0.565418
0.784740 0.351663 0.593078
0.082201 0.326978 0.478511
0.096855 0.331274 0.481408
0.121792 0.332977 0.470999
0.248169 0.378908 0.498392
0.675753 0.423489 0.581110
0.810868 0.398079 0.613001
0.086446 0.344223 0.487389
0.099453 0.344955 0.488697
0.116662 0.347222 0.490402
0.244547 0.394517 0.511601
0.699037 0.453326 0.601779
0.830724 0.440353 0.630443
0.104319 0.397907 0.515105
0.119785 0.401765 0.518500
0.135372 0.406916 0.522678
0.217610 0.438292 0.559254
0.730907 0.492077 0.639391
0.849876 0.483685 0.642729
0.149595 0.484480 0.556907
0.173781 0.499039 0.566706
0.196611 0.514685 0.576156
0.223602 0.533764 0.591418
0.842543 0.833155 0.797997
0.899022 0.738963 0.755615
0.232562 0.629240 0.662953
0.255565 0.646927 0.673380
0.280653 0.673971 0.685877
0.302337 0.706366 0.692918
0.288540 0.690142 0.559597
0.908477 0.817239 0.419716
0.102619 0.370464 0.554180
0.118385 0.375003 0.557880
0.135467 0.380124 0.561112
0.180973 0.391200 0.576185
0.695890 0.454986 0.771993
0.808977 0.413717 0.732791
0.112073 0.394256 0.570221
0.127479 0.400152 0.576905
0.143625 0.404249 0.580011
0.186450 0.413105 0.590529
0.715269 0.500555 0.791689
0.829255 0.461961 0.757535
0.121905 0.419094 0.587340
0.133859 0.419880 0.592492
0.148636 0.421921 0.596245
0.186022 0.431227 0.605016
0.724319 0.539378 0.808464
0.847666 0.507539 0.780353
0.130992 0.441967 0.602714
0.142386 0.441647 0.604222
0.155886 0.443068 0.607608
0.168870 0.441493 0.610006
0.718665 0.584168 0.824820
0.860570 0.551722 0.802467
0.181807 0.543496 0.652505
0.200915 0.553466 0.660055
0.219473 0.560437 0.668412
0.234188 0.560031 0.674427
0.630216 0.652638 0.836638
0.872901 0.615180 0.826617
0.210611 0.598226 0.677263
0.230771 0.611318 0.687243
0.255284 0.628296 0.699955
0.279060 0.644613 0.712940
0.306661 0.666006 0.730017
0.928003 0.927608 0.908014
