src/colors/film_stock_&_vintage/classic_film.cube
TITLE "Generated by Resolve"
LUT_3D_SIZE 5
0 0 0
0.275166 0 0
0.486809 0 0
0.750057 0 0
0.966476 0 0
0 0.217319 0
0.24329 0.198413 0
0.453773 0.195438 0
0.715953 0.178561 0
0.934005 0.177752 0
0 0.43328 0
0.213184 0.418311 0
0.437736 0.429389 0
0.722866 0.435462 0
0.966567 0.460319 0
0 0.69958 0
0.254246 0.709392 0
0.49369 0.735363 0
0.787152 0.749752 0
1 0.777462 0.0274662
0.0155947 1 0.0155947
0.320424 1 0.0255741
0.550286 1 0.0419623
0.819516 1 0.0321202
1 1 0.026627
0 0 0.25713
0.271061 0 0.237812
0.482734 0 0.236011
0.74612 0 0.220325
0.962325 0 0.21767
0 0.213413 0.225025
0.238941 0.194064 0.205676
0.449042 0.190707 0.202319
0.712062 0.174655 0.186267
0.93196 0.175708 0.18732
0 0.429801 0.191409
0.212421 0.417548 0.179156
0.439994 0.431647 0.193256
0.727947 0.440558 0.202167
0.972473 0.466224 0.227832
0 0.705013 0.216617
0.26009 0.715221 0.226825
0.499382 0.741039 0.252644
0.793759 0.756374 0.267979
1 0.782498 0.294102
0.0221866 1 0.283787
0.32372 1 0.290471
0.549737 1 0.303014
0.814984 1 0.289189
1 1 0.282551
0 0 0.51632
0.26685 0 0.496971
0.478386 0 0.495018
0.742092 0 0.479667
0.957794 0 0.476524
0 0.209201 0.484199
0.234318 0.189441 0.464424
0.444434 0.186084 0.461082
0.708629 0.171237 0.44622
0.930953 0.174701 0.449683
0 0.427008 0.451987
0.212589 0.417716 0.442695
0.443458 0.435111 0.46009
0.732998 0.445594 0.470573
0.978195 0.471946 0.496925
0 0.710796 0.485771
0.264988 0.720134 0.495109
0.505318 0.74699 0.521965
0.800076 0.762676 0.537667
1 0.786038 0.561013
0.0278477 1 0.552819
0.325948 1 0.556069
0.547189 1 0.563836
0.809949 1 0.547524
1 1 0.539788
0 0 0.691127
0.269184 0 0.672007
0.480812 0 0.670146
0.744595 0 0.654871
0.959731 0 0.651164
0 0.211566 0.659251
0.236042 0.191165 0.638849
0.446693 0.188357 0.636042
0.712093 0.174685 0.62237
0.937636 0.181384 0.629068
0 0.431617 0.629297
0.220325 0.425467 0.623148
0.454108 0.445762 0.643442
0.745281 0.457877 0.655558
0.990021 0.483772 0.681453
0 0.72311 0.670787
0.276616 0.731762 0.679438
0.518486 0.760159 0.707835
0.81239 0.77499 0.722667
1 0.794659 0.742336
0.0391089 1 0.736782
0.332906 1 0.735714
0.550088 1 0.739422
0.810925 1 0.721218
1 1 0.713146
0 0 0.921324
0.267079 0 0.902052
0.478996 0 0.900511
0.742519 0 0.884962
0.957259 0 0.880858
0 0.209339 0.889189
0.233509 0.188632 0.868498
0.444953 0.186618 0.866468
0.712367 0.17496 0.854826
0.941176 0.184924 0.864775
0 0.433066 0.862928
0.224903 0.43003 0.859876
0.461204 0.452857 0.882704
0.753307 0.465919 0.895766
0.997009 0.490745 0.920607
0 0.730831 0.910674
0.284459 0.73959 0.919432
0.527077 0.76875 0.948592
0.819516 0.782116 0.961959
1 0.797436 0.977279
0.04448 1 0.974319
0.334386 1 0.969375
0.547814 1 0.969329
0.807355 1 0.949798
1 1 0.941329
