src/colors/film_stock_&_vintage/classic_film.cube
TITLE "Generated by Resolve"
LUT_3D_SIZE 33
0 0 0
0.0357671 0 0
0.0733501 0 0
0.11133 0 0
0.148501 0 0
0.1841 0 0
0.217441 0 0
0.248081 0 0
0.275166 0 0
0.299809 0 0
0.322942 0 0
0.345861 0 0
0.369665 0 0
0.395514 0 0
0.424018 0 0
0.454765 0 0
0.486809 0 0
0.519875 0 0
0.55346 0 0
0.586969 0 0
0.620188 0 0
0.652735 0 0
0.685328 0 0
0.717952 0 0
0.750057 0 0
0.781262 0 0
0.811124 0 0
0.839246 0 0
0.866011 0 0
0.891768 0 0
0.916854 0 0
0.941833 0 0
0.966476 0 0
0 0.0267338 0
0.0316777 0.0238193 0
0.0694591 0.020737 0
0.107225 0.0173953 0
0.144366 0.0142061 0
0.179965 0.0114443 0
0.213306 0.00929274 0
0.244144 0.00807202 0
0.271229 0.00759899 0
0.295674 0.0078584 0
0.318807 0.0084535 0
0.341726 0.00910964 0
0.36553 0.00955215 0
0.391592 0.00962844 0
0.420066 0.00880446 0
0.45066 0.00740063 0
0.482704 0.00561532 0
0.515785 0.00355535 0
0.549432 0.00140383 0
0.583124 0 0
0.616159 0 0
0.648707 0 0
0.681346 0 0
0.713985 0 0
0.746197 0 0
0.777462 0 0
0.807202 0 0
0.835355 0 0
0.862135 0 0
0.887907 0 0
0.913085 0 0
0.937942 0 0
0.962371 0 0
0 0.0540169 0
0.0277409 0.0511482 0
0.0653239 0.0478523 0
0.103075 0.0444953 0
0.14023 0.0413214 0
0.17583 0.0385595 0
0.209354 0.0365911 0
0.240009 0.0351873 0
0.267094 0.0347295 0
0.291539 0.0349737 0
0.314687 0.035584 0
0.337621 0.0362554 0
0.361639 0.0368963 0
0.387503 0.0367742 0
0.415976 0.0359655 0
0.446601 0.0345922 0
0.47866 0.0328222 0
0.511788 0.0307927 0
0.545586 0.028809 0
0.579141 0.0266728 0
0.612207 0.0246738 0
0.644785 0.0228122 0
0.677424 0.0209354 0
0.710292 0.0192569 0
0.742443 0.0175326 0
0.773587 0.0160678 0
0.803342 0.0149844 0
0.831449 0.0142977 0
0.858167 0.013962 0
0.88394 0.013962 0
0.908858 0.013962 0
0.933516 0.0140078 0
0.957885 0.0141299 0
0 0.081178 0
0.0236057 0.0782635 0
0.0611887 0.0749676 0
0.0989395 0.0716106 0
0.136095 0.0684367 0
0.171908 0.0658885 0
0.205249 0.0637369 0
0.235904 0.0623178 0
0.262989 0.0618601 0
0.287449 0.0621195 0
0.310765 0.0629129 0
0.333745 0.0636454 0
0.35758 0.0640879 0
0.383474 0.0639963 0
0.411963 0.0632029 0
0.442603 0.0618448 0
0.474907 0.0603037 0
0.508034 0.0582895 0
0.541665 0.0561379 0
0.575235 0.0540169 0
0.608301 0.052018 0
0.640894 0.0501717 0
0.673762 0.0485237 0
0.706416 0.0466316 0
0.738506 0.0448463 0
0.769528 0.0432593 0
0.799115 0.0420081 0
0.827115 0.0412146 0
0.85388 0.0409094 0
0.879423 0.0406958 0
0.90428 0.0406195 0
0.928847 0.040589 0
0.953155 0.0406348 0
0 0.108293 0
0.0194705 0.105379 0
0.0570535 0.102083 0
0.0949416 0.0988632 0
0.132189 0.0957809 0
0.167788 0.0930343 0
0.201144 0.0908827 0
0.231815 0.0894789 0
0.258915 0.0890516 0
0.283543 0.0894789 0
0.306783 0.0901656 0
0.329732 0.0908675 0
0.353582 0.0913558 0
0.379507 0.0912795 0
0.408026 0.0905165 0
0.438865 0.0893568 0
0.471 0.0876478 0
0.504128 0.0856489 0
0.537789 0.0835126 0
0.571359 0.0813916 0
0.60441 0.0793774 0
0.637125 0.0776532 0
0.669642 0.0756542 0
0.702129 0.0736095 0
0.734096 0.0716869 0
0.765042 0.0700389 0
0.794781 0.068925 0
0.822675 0.0680247 0
0.84918 0.0674754 0
0.874678 0.0671855 0
0.899504 0.0671092 0
0.924117 0.0671092 0
0.948638 0.0673686 0
0 0.135424 0
0.0153658 0.132525 0
0.0530556 0.129335 0
0.0909285 0.126101 0
0.128115 0.122957 0
0.163729 0.120226 0
0.197116 0.11809 0
0.227787 0.116716 0
0.255116 0.116503 0
0.279622 0.116808 0
0.302831 0.117479 0
0.325811 0.118196 0
0.349676 0.118685 0
0.375738 0.118761 0
0.404349 0.118074 0
0.435004 0.116747 0
0.467124 0.115023 0
0.500221 0.112978 0
0.533761 0.110735 0
0.567346 0.108629 0
0.60029 0.106508 0
0.632685 0.104479 0
0.665141 0.102403 0
0.697566 0.100298 0
0.729458 0.0982986 0
0.760525 0.0967727 0
0.790021 0.0954147 0
0.817914 0.0945144 0
0.844434 0.0939803 0
0.869978 0.0937362 0
0.894835 0.0936751 0
0.919661 0.093904 0
0.94406 0.0940566 0
0 0.162631 0
0.0115053 0.159899 0
0.0491035 0.156634 0
0.0869001 0.153323 0
0.124086 0.150179 0
0.159731 0.147478 0
0.193225 0.145449 0
0.224048 0.144228 0
0.251194 0.143832 0
0.275715 0.144152 0
0.298924 0.144823 0
0.32192 0.145556 0
0.345922 0.146181 0
0.371923 0.146212 0
0.400397 0.145388 0
0.43093 0.143923 0
0.462882 0.142031 0
0.495842 0.139864 0
0.529458 0.137682 0
0.56286 0.135393 0
0.595697 0.133165 0
0.628016 0.131044 0
0.66041 0.128908 0
0.692805 0.126772 0
0.724895 0.125002 0
0.755795 0.123293 0
0.785321 0.121965 0
0.813245 0.121096 0
0.839811 0.120607 0
0.865629 0.120638 0
0.890639 0.120745 0
0.915404 0.120912 0
0.939925 0.121172 0
0 0.190021 0
0.00749218 0.187137 0
0.0451209 0.183902 0
0.0829328 0.180621 0
0.12015 0.177493 0
0.155871 0.174868 0
0.189441 0.17293 0
0.220157 0.171588 0
0.247318 0.171206 0
0.271839 0.171527 0
0.295033 0.172168 0
0.318135 0.173037 0
0.341878 0.173388 0
0.367636 0.173159 0
0.395987 0.172229 0
0.426444 0.170687 0
0.458427 0.168841 0
0.491417 0.16669 0
0.524804 0.164279 0
0.558114 0.161898 0
0.590936 0.159655 0
0.62327 0.157549 0
0.655818 0.155581 0
0.688319 0.153536 0
0.720241 0.151598 0
0.751202 0.14995 0
0.780835 0.14873 0
0.808896 0.147997 0
0.835782 0.147814 0
0.861555 0.147814 0
0.886687 0.148043 0
0.911681 0.148425 0
0.936477 0.148974 0
0 0.217319 0
0.00355535 0.214466 0
0.0411994 0.211231 0
0.0790417 0.207965 0
0.116472 0.205066 0
0.152148 0.202396 0
0.185565 0.200305 0
0.216236 0.198901 0
0.24329 0.198413 0
0.267689 0.198627 0
0.290883 0.199283 0
0.313695 0.199832 0
0.337362 0.200137 0
0.363058 0.199847 0
0.391333 0.198825 0
0.421805 0.197299 0
0.453773 0.195438 0
0.486656 0.193179 0
0.520073 0.190799 0
0.553414 0.188449 0
0.586252 0.186221 0
0.618738 0.184283 0
0.651331 0.182345 0
0.683879 0.180362 0
0.715953 0.178561 0
0.747036 0.177035 0
0.776776 0.175937 0
0.805234 0.175586 0
0.832197 0.175479 0
0.858198 0.175708 0
0.883558 0.17615 0
0.908751 0.176745 0
0.934005 0.177752 0
0 0.244663 0
0 0.241825 0
0.0373388 0.238621 0
0.0753643 0.235538 0
0.11252 0.232364 0
0.148058 0.229541 0
0.181308 0.227298 0
0.211856 0.225772 0
0.238834 0.225223 0
0.263325 0.225513 0
0.28629 0.22594 0
0.30901 0.226413 0
0.332631 0.226642 0
0.358297 0.226322 0
0.386786 0.225513 0
0.417197 0.223941 0
0.449088 0.221988 0
0.482002 0.21976 0
0.51545 0.217426 0
0.548943 0.215228 0
0.582086 0.213306 0
0.614603 0.211383 0
0.647196 0.209461 0
0.679881 0.207614 0
0.712154 0.206012 0
0.743603 0.204852 0
0.773724 0.204135 0
0.802167 0.203769 0
0.829358 0.203906 0
0.855711 0.204471 0
0.881514 0.205356 0
0.907256 0.2065 0
0.932754 0.207736 0
0 0.272023 0
0 0.269261 0
0.0333867 0.265919 0
0.071046 0.26247 0
0.108095 0.25919 0
0.143572 0.256306 0
0.176761 0.254002 0
0.207431 0.252598 0
0.234318 0.251942 0
0.258564 0.252003 0
0.281529 0.25243 0
0.30428 0.252918 0
0.327916 0.253178 0
0.353811 0.253101 0
0.382132 0.252125 0
0.412619 0.250614 0
0.444617 0.248768 0
0.477668 0.246693 0
0.511299 0.244526 0
0.545007 0.242542 0
0.578149 0.24062 0
0.610895 0.238926 0
0.643778 0.237293 0
0.676692 0.235676 0
0.709239 0.234348 0
0.741009 0.233509 0
0.771405 0.233051 0
0.80029 0.233143 0
0.827832 0.233631 0
0.85449 0.234516 0
0.880964 0.236057 0
0.907164 0.237659 0
0.933211 0.23946 0
0 0.299077 0
0 0.296086 0
0.0288853 0.292668 0
0.0664683 0.289143 0
0.103441 0.285786 0
0.138842 0.282826 0
0.172183 0.280674 0
0.20267 0.279088 0
0.229587 0.278462 0
0.253864 0.278553 0
0.27686 0.278996 0
0.299641 0.27953 0
0.323568 0.280079 0
0.349401 0.279927 0
0.377859 0.279088 0
0.408453 0.277699 0
0.440574 0.275975 0
0.474022 0.274281 0
0.507866 0.272343 0
0.54168 0.270466 0
0.575036 0.268757 0
0.60798 0.267277 0
0.641199 0.265965 0
0.674754 0.264988 0
0.707652 0.264012 0
0.739605 0.26334 0
0.770321 0.263233 0
0.79968 0.263798 0
0.827955 0.264988 0
0.855406 0.266667 0
0.882063 0.268406 0
0.908644 0.27039 0
0.935195 0.272694 0
0 0.325765 0
0 0.322652 0
0.0241398 0.319173 0
0.0617075 0.315633 0
0.0988174 0.312413 0
0.134325 0.30956 0
0.167514 0.307256 0
0.198001 0.305684 0
0.224979 0.305104 0
0.249363 0.305287 0
0.272663 0.30605 0
0.295613 0.306752 0
0.319448 0.30721 0
0.345403 0.307195 0
0.374075 0.306569 0
0.404959 0.305455 0
0.437537 0.304204 0
0.470985 0.302495 0
0.505058 0.300786 0
0.539239 0.299275 0
0.573022 0.297993 0
0.606378 0.29691 0
0.640116 0.296132 0
0.673838 0.295323 0
0.707286 0.294896 0
0.739895 0.294896 0
0.771145 0.295308 0
0.800961 0.296315 0
0.829786 0.298085 0
0.857633 0.300145 0
0.884916 0.302525 0
0.912001 0.304997 0
0.938918 0.307652 0
0 0.352255 0
0 0.349157 0
0.0194247 0.345708 0
0.057145 0.342321 0
0.0942397 0.339086 0
0.129747 0.336233 0
0.163043 0.334035 0
0.193698 0.332616 0
0.220783 0.332174 0
0.245441 0.332631 0
0.268772 0.333425 0
0.291936 0.33434 0
0.316045 0.335073 0
0.342245 0.335271 0
0.371099 0.334844 0
0.402487 0.334234 0
0.435264 0.333165 0
0.469139 0.331899 0
0.503563 0.330541 0
0.538048 0.329335 0
0.572503 0.328725 0
0.6065 0.328283 0
0.640635 0.327901 0
0.67483 0.32755 0
0.708659 0.327504 0
0.741711 0.327962 0
0.773892 0.32929 0
0.804257 0.330861 0
0.833295 0.332845 0
0.861479 0.335241 0
0.889189 0.338048 0
0.916854 0.3411 0
0.944564 0.344564 0
0 0.378836 0
0 0.375784 0
0.0150912 0.372625 0
0.0528267 0.369253 0
0.0899825 0.366079 0
0.125597 0.363333 0
0.159014 0.361257 0
0.189944 0.360128 0
0.217426 0.360052 0
0.242191 0.360616 0
0.265675 0.361578 0
0.289052 0.362707 0
0.313481 0.36376 0
0.340261 0.364553 0
0.369635 0.36463 0
0.401114 0.364111 0
0.434211 0.363378 0
0.468589 0.362615 0
0.50367 0.361898 0
0.538964 0.361501 0
0.573663 0.361135 0
0.608011 0.361044 0
0.64268 0.361196 0
0.677516 0.361486 0
0.711894 0.36199 0
0.745647 0.363134 0
0.777874 0.364538 0
0.808728 0.366583 0
0.838331 0.369116 0
0.866957 0.371969 0
0.894987 0.375082 0
0.923217 0.378714 0
0.951019 0.382269 0
0 0.405768 0
0 0.403021 0
0.0109865 0.399771 0
0.0488594 0.396536 0
0.0862287 0.393576 0
0.122118 0.391119 0
0.155886 0.389364 0
0.187045 0.388464 0
0.214649 0.388525 0
0.23978 0.389471 0
0.263722 0.390875 0
0.28748 0.39237 0
0.312352 0.393866 0
0.339467 0.39501 0
0.369329 0.395575 0
0.401465 0.395712 0
0.43508 0.395499 0
0.469856 0.395117 0
0.505638 0.395117 0
0.541299 0.395087 0
0.576577 0.3953 0
0.611414 0.395697 0
0.646433 0.396201 0
0.68188 0.397116 0
0.716869 0.398215 0
0.750866 0.399603 0
0.78349 0.401389 0
0.814618 0.403723 0
0.844526 0.406577 0
0.873869 0.410132 0
0.902312 0.413672 0
0.930495 0.417243 0
0.95848 0.420966 0
0 0.43328 0
0 0.430625 0
0.00761425 0.427649 0
0.0457008 0.424628 0
0.0832837 0.421881 0
0.119692 0.419928 0
0.153765 0.418509 0
0.185245 0.417914 0
0.213184 0.418311 0
0.238621 0.419562 0
0.263096 0.421485 0
0.287663 0.423804 0
0.313024 0.425788 0
0.34049 0.427283 0
0.370733 0.428214 0
0.403342 0.42884 0
0.437736 0.429389 0
0.473243 0.42977 0
0.509163 0.429908 0
0.545174 0.430213 0
0.580896 0.430869 0
0.616281 0.43183 0
0.652003 0.433021 0
0.687678 0.434165 0
0.722866 0.435462 0
0.757198 0.437201 0
0.790249 0.439414 0
0.821729 0.442084 0
0.852155 0.445441 0
0.881407 0.448936 0
0.910018 0.452613 0
0.938415 0.456428 0
0.966567 0.460319 0
0 0.461463 0
0 0.459022 0
0.00508125 0.456367 0
0.0436255 0.453803 0
0.0818341 0.451682 0
0.118334 0.449821 0
0.152773 0.448768 0
0.184756 0.448676 0
0.213352 0.449729 0
0.239429 0.451621 0
0.264439 0.454093 0
0.289219 0.456626 0
0.315129 0.459144 0
0.343252 0.46128 0
0.374014 0.462745 0
0.407111 0.463859 0
0.441917 0.464836 0
0.477775 0.465537 0
0.514244 0.466239 0
0.550698 0.466987 0
0.586709 0.467933 0
0.622721 0.469505 0
0.65861 0.470878 0
0.694591 0.472328 0
0.730083 0.47393 0
0.764614 0.475853 0
0.798016 0.478416 0
0.829847 0.481468 0
0.860212 0.484749 0
0.889555 0.488319 0
0.918212 0.492058 0
0.946609 0.495857 0
0.97499 0.499977 0
0 0.490791 0
0 0.488716 0
0.00383001 0.486366 0
0.0430304 0.484459 0
0.08159 0.482689 0
0.118746 0.481483 0
0.153674 0.480919 0
0.186038 0.481224 0
0.215366 0.482994 0
0.241978 0.48542 0
0.267414 0.488319 0
0.292653 0.49131 0
0.318914 0.494179 0
0.347463 0.496742 0
0.379034 0.499031 0
0.412558 0.500557 0
0.447547 0.501717 0
0.48368 0.502708 0
0.520485 0.503716 0
0.557443 0.504982 0
0.594079 0.506554 0
0.630014 0.508049 0
0.666087 0.509606 0
0.702235 0.511223 0
0.737942 0.513039 0
0.772824 0.515328 0
0.806332 0.517983 0
0.838041 0.520912 0
0.868391 0.524178 0
0.897704 0.527718 0
0.926345 0.531456 0
0.954925 0.535424 0
0.983047 0.539284 0
0 0.521385 0
0 0.52018 0
0.00469978 0.518486 0
0.0440833 0.516762 0
0.0830396 0.515389 0
0.120668 0.514672 0
0.156252 0.514748 0
0.189487 0.515908 0
0.218936 0.517815 0
0.245899 0.520592 0
0.271778 0.523934 0
0.297581 0.527489 0
0.324331 0.530846 0
0.353491 0.53402 0
0.385061 0.536309 0
0.418936 0.538186 0
0.454353 0.539773 0
0.490822 0.5411 0
0.527916 0.542397 0
0.565209 0.543999 0
0.601801 0.545525 0
0.637964 0.54725 0
0.674189 0.548959 0
0.710414 0.550652 0
0.746471 0.552834 0
0.781186 0.554925 0
0.814481 0.557397 0
0.846174 0.560281 0
0.876448 0.563485 0
0.90573 0.566995 0
0.934356 0.570703 0
0.962463 0.574228 0
0.990326 0.577829 0
0 0.55404 0
0 0.553063 0
0.00686656 0.551904 0
0.046891 0.55082 0
0.0863508 0.54995 0
0.124361 0.549599 0
0.160616 0.550362 0
0.194064 0.551736 0
0.224063 0.554192 0
0.251453 0.557382 0
0.277623 0.561028 0
0.304036 0.565179 0
0.331182 0.568948 0
0.360433 0.572213 0
0.392309 0.574792 0
0.426368 0.576852 0
0.461952 0.578607 0
0.49897 0.580499 0
0.536202 0.581933 0
0.573343 0.583383 0
0.609995 0.58497 0
0.646143 0.586679 0
0.682383 0.588403 0
0.718914 0.590387 0
0.754589 0.592187 0
0.789181 0.594186 0
0.822309 0.59646 0
0.853742 0.599115 0
0.883909 0.602197 0
0.913222 0.605737 0
0.941695 0.609293 0
0.970001 0.613016 0
0.998108 0.616861 0
0 0.588373 0
0 0.587793 0
0.0106813 0.586969 0
0.0511177 0.586297 0
0.0913405 0.586191 0
0.129976 0.586465 0
0.166278 0.587274 0
0.200015 0.588937 0
0.230335 0.591714 0
0.258137 0.595331 0
0.284962 0.599619 0
0.31136 0.603769 0
0.338659 0.607675 0
0.368093 0.611139 0
0.400183 0.613931 0
0.434424 0.616175 0
0.470466 0.618372 0
0.507164 0.619928 0
0.544381 0.621363 0
0.581506 0.622797 0
0.618128 0.624353 0
0.654231 0.626032 0
0.690639 0.627909 0
0.726635 0.629374 0
0.762081 0.63093 0
0.796506 0.632746 0
0.829587 0.634989 0
0.861494 0.638102 0
0.891768 0.641321 0
0.92108 0.644846 0
0.949737 0.648585 0
0.97821 0.652461 0
1 0.656611 0.000366217
0 0.624048 0
0 0.624018 0
0.0161288 0.623667 0
0.0570687 0.623514 0
0.0975052 0.623606 0
0.136385 0.62414 0
0.173114 0.62536 0
0.207172 0.627359 0
0.237705 0.63035 0
0.266011 0.634455 0
0.29276 0.638666 0
0.319326 0.642985 0
0.346777 0.647044 0
0.376287 0.650568 0
0.408637 0.653635 0
0.442939 0.65594 0
0.478614 0.657771 0
0.515282 0.659312 0
0.552422 0.660655 0
0.58938 0.661921 0
0.626093 0.663569 0
0.661982 0.665019 0
0.697932 0.666453 0
0.733944 0.667933 0
0.769543 0.669657 0
0.804211 0.671717 0
0.837858 0.67451 0
0.869581 0.677455 0
0.900053 0.680858 0
0.929625 0.684642 0
0.958618 0.688716 0.00122072
0.987411 0.692912 0.00541695
1 0.697459 0.00996414
0 0.661158 0
0 0.66154 0
0.0230259 0.661814 0
0.0641794 0.661875 0
0.104753 0.662104 0
0.143832 0.662821 0
0.180728 0.664225 0
0.215167 0.66659 0
0.246082 0.669963 0
0.274174 0.673854 0
0.300954 0.678111 0
0.327504 0.682414 0
0.35494 0.686458 0
0.384649 0.690196 0
0.416815 0.693065 0
0.450935 0.695186 0
0.486412 0.696818 0
0.522835 0.698116 0
0.559777 0.69926 0
0.596948 0.70074 0
0.633463 0.70219 0
0.669535 0.703822 0
0.70573 0.705501 0
0.741939 0.707179 0
0.777707 0.709056 0
0.812924 0.711681 0
0.846525 0.714427 0
0.878584 0.717693 0
0.909285 0.72134 0.00259403
0.938964 0.725231 0.00648508
0.968277 0.729625 0.0108797
0.996948 0.7337 0.0149538
1 0.737835 0.019089
0 0.69958 0
0 0.700359 0
0.0305333 0.700572 0
0.07187 0.700801 0
0.112657 0.701259 0
0.151919 0.702159 0
0.189044 0.703792 0
0.223529 0.706218 0
0.254246 0.709392 0
0.282322 0.713268 0
0.309087 0.717494 0
0.335592 0.721736 0
0.36321 0.725994 0
0.392477 0.729259 0
0.424292 0.731792 0
0.458244 0.733745 0
0.49369 0.735363 0
0.530449 0.73698 0
0.567758 0.738491 0
0.604883 0.739925 0
0.64152 0.741497 0
0.67776 0.743297 0
0.714183 0.745205 0
0.751003 0.747478 0
0.787152 0.749752 0
0.822217 0.752209 0.00221256
0.855863 0.755016 0.00502022
0.887861 0.758221 0.00822461
0.918471 0.761776 0.01178
0.948379 0.765911 0.0159152
0.977264 0.769863 0.0198672
1 0.773724 0.0237278
1 0.777462 0.0274662
0 0.738857 0
0 0.73959 0
0.0386511 0.73994 0
0.0800641 0.740246 0
0.120897 0.740749 0
0.160418 0.741924 0
0.197391 0.743389 0
0.231647 0.745586 0
0.262287 0.748669 0
0.290181 0.752377 0
0.316808 0.756466 0
0.343313 0.760723 0
0.370489 0.764523 0
0.399802 0.767834 0
0.431785 0.770535 0
0.46598 0.772732 0
0.501808 0.774731 0
0.53872 0.776486 0
0.576059 0.778042 0
0.613458 0.779751 0
0.650431 0.781659 0.000411994
0.686946 0.783734 0.00248722
0.723751 0.786023 0.00477607
0.760403 0.788144 0.00689708
0.796399 0.790249 0.00900282
0.831357 0.792615 0.011368
0.864927 0.795331 0.0140841
0.896788 0.798398 0.0171511
0.927459 0.802014 0.0207675
0.956588 0.805371 0.0241245
0.984955 0.80882 0.0275731
1 0.812284 0.0310369
1 0.815671 0.0344244
0 0.778302 0
0.00560006 0.779019 0
0.0468147 0.779355 0
0.0882124 0.779644 0
0.12929 0.780392 0
0.168399 0.781155 0
0.205173 0.782422 0
0.239185 0.78436 0
0.269627 0.787259 0
0.297536 0.790982 0
0.324422 0.795331 0
0.350896 0.799558 0
0.378317 0.803586 0
0.407797 0.807095 0
0.439963 0.809964 0
0.474708 0.812711 0.000213626
0.510689 0.814847 0.00234989
0.547738 0.81677 0.00427253
0.585306 0.81854 0.00604257
0.622782 0.820325 0.00782788
0.659876 0.822354 0.00985733
0.696498 0.824552 0.0120546
0.732982 0.826505 0.0140078
0.769421 0.828412 0.0159152
0.805234 0.83035 0.0178531
0.839857 0.832364 0.0198672
0.873137 0.834791 0.0222934
0.904677 0.837537 0.0250401
0.934661 0.840452 0.0279545
0.963409 0.843427 0.03093
0.99118 0.846296 0.0337987
1 0.849012 0.0365148
1 0.851957 0.0394598
0 0.817685 0
0.0136721 0.818326 0
0.0550546 0.818845 0
0.0962234 0.818906 0
0.136736 0.819089 0
0.175708 0.819699 0
0.212467 0.820966 0
0.246616 0.823056 0
0.277638 0.82652 0
