src/colors/film_stock_&_vintage/classic_film.cube
TITLE "Generated by Resolve"
LUT_3D_SIZE 9
0 0 0
0.148501 0 0
0.275166 0 0
0.369665 0 0
0.486809 0 0
0.620188 0 0
0.750057 0 0
0.866011 0 0
0.966476 0 0
0 0.108293 0
0.132189 0.0957809 0
0.258915 0.0890516 0
0.353582 0.0913558 0
0.471 0.0876478 0
0.60441 0.0793774 0
0.734096 0.0716869 0
0.84918 0.0674754 0
0.948638 0.0673686 0
0 0.217319 0
0.116472 0.205066 0
0.24329 0.198413 0
0.337362 0.200137 0
0.453773 0.195438 0
0.586252 0.186221 0
0.715953 0.178561 0
0.832197 0.175479 0
0.934005 0.177752 0
0 0.325765 0
0.0988174 0.312413 0
0.224979 0.305104 0
0.319448 0.30721 0
0.437537 0.304204 0
0.573022 0.297993 0
0.707286 0.294896 0
0.829786 0.298085 0
0.938918 0.307652 0
0 0.43328 0
0.0832837 0.421881 0
0.213184 0.418311 0
0.313024 0.425788 0
0.437736 0.429389 0
0.580896 0.430869 0
0.722866 0.435462 0
0.852155 0.445441 0
0.966567 0.460319 0
0 0.55404 0
0.0863508 0.54995 0
0.224063 0.554192 0
0.331182 0.568948 0
0.461952 0.578607 0
0.609995 0.58497 0
0.754589 0.592187 0
0.883909 0.602197 0
0.998108 0.616861 0
0 0.69958 0
0.112657 0.701259 0
0.254246 0.709392 0
0.36321 0.725994 0
0.49369 0.735363 0
0.64152 0.741497 0
0.787152 0.749752 0
0.918471 0.761776 0.01178
1 0.777462 0.0274662
0 0.856535 0
0.144259 0.857862 0
0.285954 0.866087 0
0.396139 0.883925 0.00892653
0.529061 0.895735 0.020737
0.676722 0.901701 0.0267033
0.818647 0.906249 0.0312505
0.94313 0.911421 0.0364233
1 0.917708 0.04271
0.0155947 1 0.0155947
0.17995 1 0.018555
0.320424 1 0.0255741
0.425452 1 0.0382239
0.550286 1 0.0419623
0.688106 1 0.0380865
0.819516 1 0.0321202
0.934508 1 0.0278019
1 1 0.026627
0 0 0.123522
0.146838 0 0.111025
0.273487 0 0.104204
0.367987 0 0.106355
0.485145 0 0.102403
0.618402 0 0.0939651
0.748455 0 0.086656
0.864439 0 0.0833295
0.964797 0 0.0841382
0 0.10663 0.107225
0.130434 0.0940261 0.0946212
0.257298 0.0874189 0.088014
0.35201 0.0897688 0.0903639
0.469429 0.0860914 0.0866865
0.602731 0.0776989 0.078294
0.732265 0.0698558 0.0704509
0.847257 0.0655375 0.0661479
0.946563 0.0652934 0.0658885
0 0.215732 0.0913405
0.114717 0.203296 0.0789044
0.241505 0.196628 0.072221
0.33547 0.198245 0.0738384
0.451865 0.19353 0.0691234
0.584421 0.18439 0.0599832
0.714321 0.176913 0.0525063
0.830961 0.174258 0.0498512
0.933227 0.176974 0.0525673
0 0.323827 0.0744335
0.0968032 0.310399 0.0609903
0.223239 0.303365 0.0539559
0.317952 0.30573 0.0563211
0.436194 0.302846 0.0534371
0.572519 0.29749 0.0480964
0.707744 0.295338 0.0459297
0.831113 0.299397 0.0500038
0.940902 0.309636 0.0602274
0 0.431983 0.0575875
0.0824445 0.421042 0.0466468
0.212955 0.418082 0.0436713
0.313603 0.426383 0.0519722
0.439078 0.430747 0.0563363
0.5832 0.433173 0.0587625
0.725719 0.438315 0.0639048
0.855238 0.448539 0.0741283
0.969909 0.463661 0.08925
0 0.554955 0.0555428
0.0880446 0.551644 0.0522316
0.226444 0.556588 0.0571756
0.334142 0.571908 0.0725109
0.465248 0.581918 0.0825055
0.613321 0.588296 0.0888838
0.757748 0.595346 0.0959335
0.886793 0.605097 0.105684
1 0.620188 0.120775
0 0.702556 0.0781567
0.116014 0.704601 0.0802014
0.257557 0.712703 0.0882887
0.365988 0.728756 0.104356
0.496849 0.738521 0.114107
0.644999 0.744976 0.120562
0.79086 0.75346 0.129046
0.922133 0.765438 0.141024
1 0.780407 0.155993
0 0.859464 0.110063
0.147539 0.861143 0.111727
0.289662 0.86981 0.120394
0.399878 0.887648 0.138231
0.53254 0.899214 0.149798
0.679545 0.904524 0.155108
0.820127 0.907744 0.158328
0.943587 0.911894 0.162478
1 0.917082 0.167666
0.0192874 1 0.144869
0.183078 1 0.147265
0.322805 1 0.153536
0.426932 1 0.165286
0.550591 1 0.167834
0.687129 1 0.162692
0.817594 1 0.155779
0.932326 1 0.151217
1 1 0.149783
0 0 0.25713
0.144366 0 0.244572
0.271061 0 0.237812
0.365576 0 0.239948
0.482734 0 0.236011
0.615976 0 0.227558
0.74612 0 0.220325
0.862119 0 0.217029
0.962325 0 0.21767
0 0.104219 0.240833
0.127993 0.0915847 0.228199
0.254932 0.0850538 0.221668
0.349676 0.0874342 0.224048
0.467048 0.0836957 0.22031
0.600198 0.0751659 0.21178
0.72961 0.067216 0.20383
0.844587 0.0628824 0.199496
0.943954 0.0626993 0.199313
0 0.213413 0.225025
0.112352 0.200946 0.212558
0.238941 0.194064 0.205676
0.332799 0.19556 0.207172
0.449042 0.190707 0.202319
0.581918 0.181888 0.1935
0.712062 0.174655 0.186267
0.828946 0.172244 0.183856
0.93196 0.175708 0.18732
0 0.321035 0.207645
0.0941634 0.307759 0.194369
0.220813 0.300954 0.187564
0.315892 0.30367 0.19028
0.434592 0.301244 0.187854
0.571511 0.296483 0.183093
0.707561 0.295155 0.181765
0.831556 0.29984 0.18645
0.942428 0.311177 0.197787
0 0.429801 0.191409
0.081117 0.419715 0.181323
0.212421 0.417548 0.179156
0.313817 0.426581 0.18819
0.439994 0.431647 0.193256
0.584833 0.434806 0.196414
0.727947 0.440558 0.202167
0.857588 0.450889 0.212497
0.972473 0.466224 0.227832
0 0.555413 0.19202
0.0893416 0.552941 0.189548
0.228305 0.558434 0.195041
0.336141 0.573907 0.210513
0.467842 0.584512 0.221118
0.615885 0.59086 0.227466
0.759991 0.597589 0.234195
0.889189 0.607492 0.244099
1 0.622889 0.259495
0 0.705013 0.216617
0.118593 0.707195 0.218799
0.26009 0.715221 0.226825
0.368063 0.730831 0.242435
0.499382 0.741039 0.252644
0.647944 0.747921 0.259525
0.793759 0.756374 0.267979
0.92488 0.768185 0.279789
1 0.782498 0.294102
0 0.861738 0.248341
0.150134 0.863722 0.250324
0.292653 0.872786 0.259388
0.402808 0.890593 0.277195
0.534936 0.90161 0.288212
0.681208 0.906188 0.29279
0.820844 0.908446 0.295048
0.94316 0.911467 0.29807
1 0.915358 0.301961
0.0221866 1 0.283787
0.18526 1 0.285466
0.32372 1 0.290471
0.42707 1 0.301442
0.549737 1 0.303014
0.685191 1 0.296773
0.814984 1 0.289189
0.929259 1 0.284169
1 1 0.282551
0 0 0.419104
0.139574 0 0.406363
0.266438 0 0.399756
0.360952 0 0.401907
0.478126 0 0.397971
0.611399 0 0.389563
0.741588 0 0.382376
0.857618 0 0.379095
0.957519 0 0.379461
0 0.0995956 0.402792
0.123339 0.0869306 0.390127
0.25037 0.0805066 0.383688
0.345144 0.0829023 0.386099
0.462364 0.0790112 0.382208
0.595422 0.0703899 0.373587
0.724727 0.0623178 0.365515
0.839689 0.0579843 0.361166
0.939239 0.0579843 0.361181
0 0.208835 0.38703
0.107698 0.196292 0.374472
0.234134 0.189258 0.367453
0.327901 0.190677 0.368856
0.44419 0.18584 0.364034
0.577295 0.177264 0.355459
0.707774 0.170382 0.348562
0.825071 0.168353 0.346548
0.92871 0.172457 0.350637
0 0.316121 0.369314
0.0893873 0.302968 0.356161
0.216236 0.296361 0.349554
0.311604 0.299367 0.35256
0.431037 0.297688 0.350881
0.56875 0.293721 0.346899
0.705516 0.293111 0.346303
0.830228 0.298528 0.35172
0.941848 0.310582 0.363775
0 0.425742 0.353918
0.0776684 0.416266 0.344442
0.209934 0.415061 0.343252
0.31191 0.424689 0.352865
0.439063 0.430716 0.358907
0.584451 0.434424 0.362615
0.72781 0.440421 0.368597
0.857969 0.45127 0.379461
0.972824 0.466575 0.394766
0 0.553964 0.357153
0.0887007 0.5523 0.355489
0.228214 0.558358 0.361532
0.33637 0.574151 0.377325
0.468223 0.584878 0.388067
0.616205 0.59118 0.394369
0.75964 0.597238 0.400427
0.889509 0.607813 0.411002
1 0.623606 0.426795
0 0.705379 0.383551
0.118944 0.707546 0.385733
0.260258 0.715404 0.393576
0.368109 0.730892 0.409064
0.499748 0.741421 0.419593
0.648814 0.748791 0.426963
0.794339 0.756939 0.435126
0.925093 0.768399 0.446571
1 0.781994 0.460182
0 0.861967 0.415137
0.150668 0.864271 0.417456
0.293217 0.87335 0.426535
0.40351 0.891295 0.444465
0.53492 0.901579 0.454765
0.680156 0.905135 0.458305
0.818814 0.906416 0.459602
0.940139 0.908446 0.461631
1 0.91133 0.4645
0.0226596 1 0.450843
0.185092 1 0.451865
0.322423 1 0.455741
0.424552 1 0.465507
0.54609 1 0.465934
0.680751 1 0.458915
0.81004 1 0.450828
0.923949 1 0.445426
1 1 0.44358
0 0 0.51632
0.139986 0 0.503563
0.26685 0 0.496971
0.361379 0 0.499123
0.478386 0 0.495018
0.611887 0 0.486839
0.742092 0 0.479667
0.857893 0 0.476173
0.957794 0 0.476524
0 0.0998245 0.499809
0.123796 0.0873884 0.487373
0.250874 0.0809949 0.48098
0.345663 0.0834211 0.483406
0.462745 0.0793927 0.479393
0.595666 0.070634 0.470619
0.72488 0.0624857 0.46247
0.839734 0.0580301 0.458015
0.939651 0.0583963 0.458381
0 0.209201 0.484199
0.107988 0.196582 0.471565
0.234318 0.189441 0.464424
0.328038 0.190814 0.465797
0.444434 0.186084 0.461082
0.577752 0.177722 0.452705
0.708629 0.171237 0.44622
0.82649 0.169787 0.44477
0.930953 0.174701 0.449683
0 0.316289 0.46627
0.0897383 0.303319 0.453315
0.216831 0.296956 0.446952
0.312459 0.300221 0.450202
0.432609 0.299275 0.449256
0.571283 0.296254 0.446235
0.708827 0.296422 0.446403
0.834318 0.302617 0.452598
0.946487 0.315236 0.465217
0 0.427008 0.451987
0.0795453 0.418143 0.443122
0.212589 0.417716 0.442695
0.315496 0.42826 0.453239
0.443458 0.435111 0.46009
0.589395 0.439368 0.464347
0.732998 0.445594 0.470573
0.863386 0.456687 0.481666
0.978195 0.471946 0.496925
0 0.557748 0.457725
0.0931868 0.556786 0.456764
0.233097 0.563226 0.463218
0.341756 0.579538 0.479515
0.473625 0.59028 0.490272
0.621439 0.596414 0.496391
0.764721 0.602319 0.502297
0.894911 0.613214 0.513191
1 0.629511 0.529488
0 0.710796 0.485771
0.124346 0.712947 0.487922
0.264988 0.720134 0.495109
0.373358 0.736126 0.511101
0.505318 0.74699 0.521965
0.654398 0.754376 0.529366
0.800076 0.762676 0.537667
0.930114 0.773419 0.548394
1 0.786038 0.561013
0 0.867338 0.517311
0.156466 0.870069 0.520058
0.299031 0.879179 0.529152
0.409064 0.896834 0.546807
0.539818 0.906477 0.556451
0.683696 0.908675 0.558648
0.821347 0.908965 0.558938
0.941573 0.90988 0.559853
1 0.912001 0.561975
0.0278477 1 0.552819
0.189502 1 0.553079
0.325948 1 0.556069
0.426917 1 0.564675
0.547189 1 0.563836
0.680995 1 0.555962
0.809949 1 0.547524
0.923598 1 0.541878
1 1 0.539788
0 0 0.578134
0.14313 0 0.56553
0.270008 0 0.558938
0.364462 0 0.561044
0.481575 0 0.557046
0.615122 0 0.548898
0.745357 0 0.541756
0.861021 0 0.538125
0.960784 0 0.538323
0 0.102998 0.561807
0.127001 0.0905928 0.549401
0.254108 0.0842451 0.543053
0.348745 0.0865034 0.545312
0.465782 0.0824445 0.541253
0.598596 0.0735637 0.532372
0.727794 0.0653849 0.524193
0.842725 0.0610056 0.519829
0.94284 0.0615854 0.520394
0 0.212421 0.546227
0.110994 0.199588 0.533394
0.237201 0.19234 0.526146
0.330816 0.193576 0.527382
0.447517 0.189181 0.522988
0.581064 0.181033 0.514839
0.712108 0.174701 0.508507
0.830808 0.17409 0.507897
0.936217 0.179965 0.513771
0 0.319219 0.528023
0.0928817 0.306477 0.515282
0.220356 0.300481 0.509285
0.316442 0.304204 0.513008
0.437201 0.303853 0.512673
0.576684 0.301656 0.51046
0.714946 0.302556 0.51136
0.841428 0.309728 0.518532
0.954147 0.322896 0.531701
0 0.43125 0.515053
0.0846113 0.423194 0.507012
0.218311 0.423453 0.507256
0.321981 0.43476 0.518563
0.45066 0.442329 0.526131
0.597208 0.447181 0.530983
0.741085 0.453696 0.537499
0.871534 0.464836 0.548638
0.986175 0.479927 0.563729
0 0.564645 0.523445
0.100618 0.564218 0.523018
0.240848 0.570977 0.529778
0.34992 0.587701 0.546502
0.481758 0.598428 0.557229
0.629084 0.604059 0.56286
0.772686 0.6103 0.5691
0.903212 0.621515 0.580316
1 0.638086 0.596887
0 0.718944 0.552743
0.132372 0.720974 0.554772
0.272755 0.727886 0.561685
0.38146 0.744228 0.578042
0.513863 0.75552 0.589319
0.662898 0.762875 0.596674
0.808392 0.770993 0.604791
0.937774 0.781079 0.614878
1 0.792386 0.626184
0.000488289 0.875486 0.584283
0.164843 0.878447 0.587243
0.307546 0.887694 0.59649
0.416999 0.904784 0.613581
0.547021 0.913695 0.622492
0.689998 0.914977 0.623774
0.826474 0.914092 0.622889
0.945418 0.913725 0.622522
1 0.91487 0.623667
0.0355993 1 0.619394
0.195926 1 0.618326
0.331624 1 0.620569
0.431601 1 0.628183
0.550698 1 0.626169
0.683955 1 0.617731
0.812436 1 0.60885
0.925917 1 0.603021
1 1 0.600916
0 0 0.691127
0.142306 0 0.678584
0.269184 0 0.672007
0.363622 0 0.674067
0.480812 0 0.670146
0.614389 0 0.662043
0.744595 0 0.654871
0.86009 0 0.651072
0.959731 0 0.651164
0 0.10222 0.674907
0.126253 0.0898451 0.662531
0.253391 0.0835126 0.656199
0.347967 0.0857252 0.658412
0.46482 0.0814679 0.654169
0.597513 0.0724804 0.645167
0.726604 0.0641947 0.636881
0.841825 0.0601053 0.632792
0.942168 0.060914 0.6336
0 0.211566 0.659251
0.110002 0.198596 0.646281
0.236042 0.191165 0.638849
0.329778 0.192538 0.640223
0.446693 0.188357 0.636042
0.580606 0.180575 0.62826
0.712093 0.174685 0.62237
0.831388 0.17467 0.622354
0.937636 0.181384 0.629068
0 0.318242 0.640925
0.0921187 0.305715 0.628397
0.21976 0.299886 0.622568
0.316701 0.304463 0.627161
0.438254 0.304921 0.627604
0.57847 0.303441 0.626123
0.717449 0.305058 0.627741
0.844663 0.312963 0.635645
0.957992 0.326741 0.649424
0 0.431617 0.629297
0.0859236 0.424521 0.622202
0.220325 0.425467 0.623148
0.32488 0.437659 0.63534
0.454108 0.445762 0.643442
0.600778 0.450752 0.648432
0.745281 0.457877 0.655558
0.8757 0.468986 0.666667
0.990021 0.483772 0.681453
0 0.567819 0.640497
0.104356 0.567956 0.640635
0.244892 0.575021 0.6477
0.354101 0.591882 0.664561
0.485878 0.602548 0.675227
0.6327 0.607675 0.680354
0.776822 0.61442 0.687099
0.907759 0.626062 0.698741
1 0.642603 0.715282
0 0.72311 0.670787
0.136263 0.724865 0.672541
0.276616 0.731762 0.679438
0.385641 0.748409 0.696086
0.518486 0.760159 0.707835
0.66743 0.767407 0.715084
0.81239 0.77499 0.722667
0.941054 0.784344 0.732021
1 0.794659 0.742336
0.00485237 0.87985 0.702525
0.169406 0.883009 0.705684
0.312047 0.892195 0.71487
0.420783 0.908553 0.731228
0.549599 0.916259 0.738933
0.691737 0.916716 0.739391
0.827237 0.914855 0.73753
0.945113 0.91342 0.736095
1 0.913848 0.736522
0.0391089 1 0.736782
0.198489 1 0.734768
0.332906 1 0.735714
0.431739 1 0.742184
0.550088 1 0.739422
0.682811 1 0.73048
0.810925 1 0.721218
0.924086 1 0.715053
1 1 0.713146
0 0 0.813123
0.140795 0 0.80058
0.267674 0 0.794003
0.362051 0 0.796017
0.479362 0 0.792218
0.61297 0 0.784131
0.742992 0 0.776791
0.858442 0 0.772931
0.957961 0 0.7729
0 0.10074 0.796948
0.124819 0.0884108 0.784619
0.251942 0.082063 0.778271
0.34641 0.084184 0.780377
0.463127 0.0797894 0.775982
0.595743 0.0707103 0.766903
0.724819 0.0624247 0.758618
0.840299 0.0585946 0.754803
0.940993 0.0597391 0.755947
0 0.209918 0.781125
0.108248 0.196841 0.768032
0.234226 0.189364 0.760571
0.328099 0.19086 0.762066
0.445212 0.186877 0.758083
0.579461 0.179431 0.750622
0.71165 0.174243 0.745449
0.831708 0.175006 0.746212
0.938689 0.182437 0.753643
0 0.31667 0.762875
0.0907912 0.304387 0.750591
0.218799 0.298924 0.745129
0.316365 0.304128 0.750332
0.43888 0.305531 0.751736
0.579721 0.304692 0.750881
0.719631 0.307225 0.753429
0.847379 0.315679 0.761883
0.961013 0.329763 0.775952
0 0.431586 0.752789
0.0865339 0.425132 0.746319
0.221973 0.427115 0.748302
0.327352 0.440116 0.761318
0.45713 0.448798 0.769985
0.604105 0.454078 0.77528
0.748775 0.461372 0.782559
0.879118 0.472419 0.793622
0.992782 0.486534 0.807721
0 0.570367 0.766567
0.107179 0.570779 0.766964
0.248356 0.5785 0.774685
0.35758 0.595346 0.791547
0.489174 0.605829 0.802029
0.635859 0.610834 0.807019
0.780301 0.617899 0.814099
0.911711 0.630014 0.826215
1 0.64622 0.84242
0 0.726574 0.797772
0.139193 0.727794 0.798993
0.279942 0.735088 0.806271
0.389288 0.752071 0.823255
0.522118 0.763775 0.834974
0.671244 0.771221 0.84242
0.815473 0.778073 0.849271
0.94313 0.786435 0.857618
1 0.795758 0.866941
0.00874342 0.883741 0.829923
0.173297 0.886885 0.833082
0.315648 0.895781 0.841978
0.423728 0.911513 0.857694
0.551354 0.918013 0.86421
0.692332 0.917311 0.863508
0.826719 0.914321 0.860517
0.943786 0.912093 0.858289
1 0.912032 0.858228
0.0415198 1 0.862699
0.200061 1 0.859846
0.333333 1 0.859663
0.430854 1 0.86482
0.548455 1 0.861326
0.680781 1 0.851942
0.808652 1 0.842451
0.92166 1 0.836149
1 1 0.834318
0 0 0.921324
0.140352 0 0.908797
0.267079 0 0.902052
0.361654 0 0.904265
0.478996 0 0.900511
0.612634 0 0.892454
0.742519 0 0.884962
0.857816 0 0.880964
0.957259 0 0.880858
0 0.100343 0.905196
0.124468 0.0880598 0.892912
0.251423 0.0815595 0.886412
0.345846 0.0836194 0.888472
0.462455 0.0791028 0.883955
0.595041 0.0700084 0.874861
0.724208 0.061799 0.866667
0.839887 0.0581826 0.863035
0.940993 0.0597391 0.864591
0 0.209339 0.889189
0.107546 0.196139 0.87599
0.233509 0.188632 0.868498
0.327596 0.190356 0.870207
0.444953 0.186618 0.866468
0.579416 0.179385 0.859236
0.712367 0.17496 0.854826
0.833402 0.176684 0.856535
0.941176 0.184924 0.864775
0 0.316243 0.871092
0.0906691 0.304265 0.859113
0.219211 0.299336 0.854185
0.317372 0.305135 0.859983
0.440696 0.307347 0.862211
0.582406 0.307378 0.862226
0.723156 0.31075 0.865614
0.851469 0.319753 0.874617
0.965331 0.334081 0.88893
0 0.433066 0.862928
0.0886854 0.427283 0.85713
0.224903 0.43003 0.859876
0.330968 0.443748 0.873594
0.461204 0.452857 0.882704
0.608652 0.458625 0.888472
0.753307 0.465919 0.895766
0.883497 0.476799 0.906645
0.997009 0.490745 0.920607
0 0.574228 0.879072
0.111467 0.575067 0.879911
0.252918 0.583062 0.887907
0.362112 0.599893 0.904738
0.49305 0.609705 0.914549
0.640238 0.615213 0.920058
0.785 0.622614 0.927459
0.916518 0.634806 0.939666
1 0.651102 0.955947
0 0.730831 0.910674
0.143359 0.73196 0.911818
0.284459 0.73959 0.919432
0.394247 0.757015 0.936858
0.527077 0.76875 0.948592
0.675944 0.775921 0.955764
0.819516 0.782116 0.961959
0.945785 0.78909 0.968933
1 0.797436 0.977279
0.0134279 0.888426 0.943267
0.178195 0.891798 0.946639
0.319982 0.900114 0.954955
0.427314 0.915084 0.969924
0.55404 0.920699 0.97554
0.693858 0.918837 0.973678
0.826963 0.914565 0.969406
0.94316 0.911452 0.966293
1 0.91107 0.965911
0.04448 1 0.974319
0.202106 1 0.97055
0.334386 1 0.969375
0.430777 1 0.973404
0.547814 1 0.969329
0.679667 1 0.959487
0.807355 1 0.949798
0.920363 1 0.943511
1 1 0.941329
