src/colors/film_stock_&_vintage/dark_orange_film.cube
TITLE "Generated by Resolve"
LUT_3D_SIZE 9
0 0 0
0.000793469 0 0
0.017792 0 0
0.0485542 0.00576791 0.00646983
0.0909285 0.0119173 0.0135805
0.146014 0.0170596 0.0198825
0.216342 0.0200046 0.0242771
0.304402 0.0197452 0.0258183
0.413062 0.015198 0.0235142
0.010956 0.022858 0.015671
0.0363622 0.03505 0.0255436
0.0808423 0.0440681 0.0325475
0.142901 0.049836 0.036347
0.21735 0.0541238 0.0380407
0.305959 0.0560464 0.0368353
0.410361 0.0546273 0.0322881
0.532189 0.0496071 0.0241245
0.672877 0.0404974 0.0121614
0.0344244 0.0903792 0.0485389
0.0746929 0.104845 0.0527962
0.14844 0.111803 0.0500496
0.245365 0.113344 0.0420691
0.34992 0.114 0.0325017
0.464088 0.1131 0.0211948
0.589456 0.11014 0.00814832
0.725841 0.104982 0
0.874739 0.0969711 0
0.0230564 0.188846 0.0552987
0.0813611 0.203372 0.0488441
0.186938 0.205783 0.0330968
0.316106 0.202564 0.0135958
0.441352 0.201236 0
0.567346 0.200427 0
0.697078 0.199191 0
0.832074 0.19707 0
0.974289 0.193103 0
0 0.312993 0.0313878
0.0609445 0.324407 0.0190433
0.197086 0.321416 0
0.351751 0.313848 0
0.489281 0.311528 0
0.618128 0.311727 0
0.744823 0.313252 0
0.871397 0.314855 0
1 0.315908 0
0 0.445502 0.0037232
0.0510109 0.451438 0
0.209567 0.443976 0
0.381369 0.433173 0
0.524681 0.430304 0
0.653223 0.431998 0
0.77705 0.435935 0
0.901457 0.440009 0
1 0.443137 0
0 0.572702 0
0.0730297 0.574685 0
0.241199 0.565484 0
0.41973 0.554345 0
0.567056 0.552193 0
0.6972 0.555383 0
0.821805 0.560632 0
0.946807 0.566461 0
1 0.571176 0
0 0.694926 0.0155489
0.114961 0.697383 0.0176547
0.284413 0.689677 0.0113832
0.466484 0.678981 0.00254826
0.617502 0.677455 0.000198367
0.749233 0.681788 0.00222782
0.874647 0.688334 0.00598154
0.999649 0.69546 0.0104677
1 0.701625 0.0142824
0.0291447 0.820859 0.0389563
0.161852 0.824323 0.0437476
0.331746 0.818051 0.0401007
0.517494 0.807889 0.0331273
0.671931 0.806882 0.0331121
0.804974 0.812268 0.0377966
0.931014 0.82005 0.0441596
1 0.828519 0.0507515
1 0.835874 0.0563211
0 0 0
0.00325017 0 9.15541e-05
0.0227207 0.00299077 0.00520333
0.0571908 0.00933852 0.0132601
0.103075 0.0154116 0.0214084
0.161807 0.0201419 0.0286412
0.235828 0.0224002 0.0338598
0.327626 0.0212863 0.0362554
0.44097 0.0158541 0.0349279
0.0149844 0.0280308 0.0231174
0.0420996 0.0403449 0.0339055
0.089601 0.049073 0.0417945
0.155734 0.0544289 0.0467079
0.23328 0.0579385 0.0492866
0.325444 0.0591745 0.0492409
0.432944 0.057145 0.0456397
0.557397 0.0516213 0.0386511
0.700267 0.0420996 0.0278782
0.0378119 0.097612 0.0594644
0.0804761 0.111788 0.0645151
0.157977 0.117998 0.0627146
0.25861 0.11873 0.0559854
0.365667 0.118883 0.0477455
0.481971 0.117571 0.0376745
0.608301 0.114458 0.0258793
0.745571 0.109163 0.012726
0.894606 0.101396 0
0.0249027 0.197635 0.0703899
0.0862135 0.211551 0.064744
0.195682 0.213001 0.0504768
0.327184 0.209247 0.0325933
0.453651 0.207691 0.0171969
0.580255 0.206851 0.00325017
0.710079 0.205768 0
0.84477 0.203845 0
0.985779 0.200351 0
0 0.322072 0.0517281
0.0671397 0.332738 0.0403296
0.2065 0.328939 0.0206912
0.361929 0.321187 0.000640879
0.499077 0.31873 0
0.62797 0.319417 0
0.753918 0.321294 0
0.879499 0.323278 0
1 0.324514 0
0 0.453483 0.0289616
0.0610208 0.459083 0.0205844
0.221958 0.451041 0.00517281
0.392416 0.44036 0
0.534997 0.438117 0
0.662898 0.440177 0
0.786572 0.444358 0
0.910872 0.448554 0
1 0.451667 0
0 0.579553 0.0276341
0.0869001 0.581445 0.0283055
0.25597 0.572244 0.0200809
0.432471 0.561532 0.0103304
0.578103 0.560296 0.00732433
0.70779 0.563729 0.00764477
0.83209 0.569162 0.00961318
0.956847 0.57496 0.0120089
1 0.579721 0.0135348
0 0.701579 0.0482795
0.129366 0.704128 0.0513466
0.299718 0.696437 0.0453498
0.480613 0.686458 0.0368505
0.629389 0.685679 0.0354314
0.760449 0.690333 0.0381018
0.885466 0.697093 0.0426032
1 0.704356 0.0476234
1 0.710658 0.0517281
0.0451209 0.827497 0.0733806
0.177615 0.831128 0.0788891
0.347845 0.824948 0.0755474
0.532021 0.815457 0.0692149
0.684169 0.815198 0.0699626
0.816281 0.820874 0.0750591
0.941924 0.828901 0.0817884
1 0.837507 0.0885939
1 0.845121 0.0944381
0 0 0
0.00477607 0.00047303 0.00517281
0.0287022 0.00663767 0.0134432
0.0662089 0.0129244 0.022858
0.115465 0.0186618 0.0325475
0.17789 0.0228428 0.041474
0.256229 0.0243839 0.0485695
0.351873 0.0223239 0.0528572
0.46952 0.0158694 0.0537728
0.0187839 0.0332952 0.0345464
0.0476844 0.0456703 0.0473487
0.0983291 0.0539712 0.0569314
0.168276 0.0586099 0.0634318
0.249485 0.061326 0.0679332
0.345144 0.0617685 0.0700084
0.455787 0.0589914 0.0687724
0.58265 0.0528572 0.0644999
0.727443 0.0428321 0.0565652
0.0405127 0.104692 0.0782788
0.0854505 0.118486 0.0858167
0.166888 0.123705 0.0859846
0.271153 0.123568 0.0811322
0.380972 0.123033 0.0753338
0.499275 0.121202 0.068101
0.626902 0.117693 0.0594034
0.764324 0.112352 0.0493477
0.913451 0.10454 0.0378119
0.0255436 0.205997 0.0971542
0.0896315 0.219135 0.0945449
0.203037 0.219562 0.0823072
0.337407 0.21503 0.0667124
0.465019 0.213184 0.0539254
0.592157 0.212177 0.0427405
0.721889 0.211078 0.033051
0.855756 0.209277 0.0245365
0.996201 0.206104 0.0166476
0 0.33048 0.0872053
0.0714427 0.34023 0.0790723
0.213794 0.335592 0.0615854
0.370764 0.327474 0.0433967
0.50779 0.325078 0.0317693
0.636576 0.325765 0.0246433
0.761547 0.327642 0.0209049
0.886641 0.330159 0.0199741
1 0.33138 0.0187381
0 0.460624 0.0733654
0.0685283 0.465629 0.0681163
0.231174 0.45713 0.0545663
0.401419 0.446586 0.0420844
0.543252 0.444694 0.0381628
0.670878 0.447013 0.0372778
0.794247 0.451072 0.0378882
0.918883 0.455695 0.0387274
1 0.45893 0.0384985
0 0.585367 0.0789349
0.0971847 0.587152 0.0809033
0.267033 0.57818 0.0731365
0.442527 0.567926 0.063798
0.587015 0.566842 0.0611887
0.716533 0.570794 0.0623026
0.840696 0.57644 0.0644846
0.965484 0.582391 0.0671702
1 0.587289 0.0690013
0.0112001 0.707378 0.101289
0.140963 0.710277 0.105287
0.311757 0.702495 0.0994583
0.49131 0.692851 0.0914931
0.638819 0.692653 0.0907607
0.769787 0.697673 0.0940261
0.894621 0.704677 0.0990005
1 0.712047 0.104097
1 0.718441 0.108415
0.0580911 0.833646 0.127749
0.189822 0.837613 0.133989
0.360815 0.831327 0.130785
0.543862 0.822202 0.124971
0.694331 0.822583 0.126192
0.826032 0.828626 0.131701
0.951537 0.836835 0.138628
1 0.845594 0.145754
1 0.853315 0.151614
0 0 0.00767529
0.00814832 0.00355535 0.013901
0.0347601 0.0102693 0.0245823
0.0756237 0.016434 0.0363012
0.128466 0.0216831 0.0483864
0.194644 0.0251621 0.059968
0.276936 0.025803 0.0699474
0.376944 0.0227359 0.0773022
0.498451 0.0151675 0.0812543
0.0226596 0.0388952 0.0502785
0.0533608 0.0512093 0.0659495
0.10692 0.0586557 0.0780957
0.180865 0.0623636 0.087541
0.266178 0.0642557 0.0954299
0.364782 0.0636606 0.100969
0.478111 0.0601053 0.103487
0.60737 0.053254 0.102968
0.754284 0.0427863 0.0987869
0.0425727 0.111528 0.104677
0.0899062 0.124987 0.115984
0.17499 0.128939 0.119387
0.283085 0.127703 0.117937
0.39559 0.12636 0.115892
0.515526 0.123964 0.112505
0.644266 0.120089 0.107546
0.782101 0.114549 0.101122
0.930678 0.106889 0.0926833
0.0251316 0.213718 0.13611
0.0920272 0.225986 0.137331
0.20914 0.225299 0.128389
0.346151 0.219989 0.116091
0.475212 0.21767 0.106569
0.602884 0.216464 0.0985885
0.732479 0.215366 0.0917525
0.865461 0.213626 0.0855726
1 0.210956 0.0800183
0 0.337942 0.138354
0.0745708 0.346731 0.133547
0.219562 0.341329 0.118654
0.377844 0.332753 0.102876
0.515267 0.330327 0.0936294
0.643549 0.331197 0.0886244
0.767834 0.333303 0.0865797
0.892576 0.336095 0.0865339
1 0.337469 0.0855421
0 0.466865 0.134249
0.0745098 0.471305 0.131167
0.238651 0.462287 0.11928
0.408957 0.451957 0.108248
0.54995 0.450126 0.104723
0.67776 0.452903 0.10454
0.800992 0.457191 0.105455
0.92549 0.461692 0.106279
1 0.465324 0.106523
0 0.590417 0.145373
0.105989 0.592371 0.147829
0.276188 0.583413 0.140322
0.451026 0.573587 0.131319
0.594705 0.5729 0.129244
0.723812 0.576791 0.130495
0.847868 0.582589 0.133318
0.972992 0.588952 0.136233
1 0.593988 0.138415
0.0211032 0.712474 0.168551
0.150759 0.715755 0.173526
0.322011 0.708003 0.167865
0.500862 0.698711 0.160357
0.647364 0.698878 0.160098
0.777646 0.704005 0.163653
0.902388 0.711162 0.168688
1 0.718746 0.174136
1 0.725322 0.178454
0.0691081 0.83917 0.196292
0.200458 0.843366 0.203265
0.372198 0.837018 0.200168
0.554131 0.828382 0.194598
0.703532 0.82919 0.196338
0.834821 0.835492 0.202075
0.960021 0.843946 0.209171
1 0.852567 0.216007
1 0.860487 0.221836
0 0.00146487 0.0158541
0.0118563 0.00691234 0.0249638
0.0413977 0.0141146 0.038819
0.0859236 0.0200351 0.0535897
0.14255 0.0245975 0.0689097
0.21207 0.0271 0.0838636
0.298146 0.0267033 0.0977188
0.402853 0.0225528 0.109422
0.527535 0.0137942 0.117617
0.0261692 0.0442512 0.0693828
0.0585641 0.0564126 0.0886091
0.115785 0.0633402 0.104677
0.193439 0.0657664 0.117617
0.282658 0.0666514 0.129809
0.384314 0.0650187 0.139727
0.500252 0.0606088 0.146975
0.631479 0.0530709 0.151064
0.779339 0.0420996 0.151446
0.0441444 0.11812 0.13727
0.0937057 0.130953 0.152895
0.182574 0.133761 0.160296
0.294514 0.13135 0.163027
0.409659 0.129137 0.165255
0.531243 0.126146 0.166323
0.660761 0.12192 0.165698
0.798718 0.116258 0.163134
0.946654 0.108705 0.158267
0.024155 0.220951 0.183581
0.0937972 0.232334 0.18883
0.214496 0.230549 0.183536
0.354284 0.224338 0.174731
0.484581 0.221592 0.168795
0.612985 0.220096 0.16434
0.742428 0.219013 0.16054
0.874495 0.217548 0.156832
1 0.21529 0.153262
0 0.344778 0.199283
0.0767987 0.352712 0.197528
0.22446 0.346532 0.185061
0.383703 0.337438 0.171527
0.521828 0.335088 0.164645
0.649943 0.336065 0.161425
0.773526 0.33846 0.160952
0.898116 0.341192 0.161486
1 0.342947 0.161074
0 0.472526 0.204913
0.0798199 0.476387 0.203601
0.245075 0.466972 0.192523
0.415625 0.456916 0.182467
0.556268 0.455375 0.179339
0.684077 0.45832 0.179583
0.807309 0.46276 0.180972
0.932006 0.467338 0.182513
1 0.470893 0.182879
0 0.594919 0.2206
0.113436 0.597269 0.223392
0.28368 0.588251 0.215564
0.458503 0.578897 0.206882
0.601938 0.578439 0.205097
0.730755 0.582559 0.206897
0.854765 0.58854 0.209903
0.979706 0.594751 0.213184
1 0.6 0.21561
0.0296483 0.717327 0.245167
0.15903 0.720653 0.249912
0.330739 0.713298 0.244419
0.509041 0.704341 0.237018
0.655131 0.704768 0.237018
0.785168 0.71014 0.240864
0.909697 0.717494 0.24622
1 0.725185 0.251865
1 0.731914 0.256397
0.0783551 0.844114 0.273747
0.20972 0.848493 0.280644
0.381582 0.842298 0.277424
0.563027 0.833967 0.27187
0.711406 0.835233 0.273777
0.842542 0.841733 0.279591
0.967605 0.850385 0.286778
1 0.859419 0.293965
1 0.867414 0.299962
0 0.00309758 0.0241855
0.0161288 0.0107881 0.0386053
0.0482185 0.0180056 0.0556497
0.0960861 0.023331 0.0736706
0.156466 0.0271305 0.0928054
0.230365 0.0287633 0.112215
0.319829 0.0271611 0.13051
0.428397 0.0218357 0.147265
0.55671 0.011902 0.160662
0.0295262 0.0496223 0.0914931
0.0636912 0.0615244 0.114687
0.1243 0.0676127 0.134768
0.206027 0.0689097 0.151934
0.299001 0.0686656 0.16878
0.4038 0.0660105 0.183719
0.522148 0.0607614 0.196048
0.65507 0.0525673 0.205234
0.803525 0.0411536 0.210513
0.0453803 0.124544 0.174136
0.0971695 0.13669 0.194171
0.189715 0.138399 0.205737
0.305699 0.134722 0.212802
0.423423 0.13164 0.219593
0.546517 0.128084 0.225071
0.676692 0.123552 0.228672
0.814557 0.1178 0.230167
0.961776 0.110369 0.229007
0.0229496 0.227863 0.236057
0.0953689 0.238392 0.244892
0.219547 0.235538 0.242985
0.362127 0.228489 0.237522
0.493767 0.225284 0.234882
0.622568 0.223621 0.233585
0.7514 0.222416 0.232471
0.883177 0.221332 0.231464
1 0.219532 0.229953
0 0.351263 0.264622
0.0789197 0.35845 0.265126
0.228962 0.351461 0.254688
0.389807 0.342107 0.243153
0.528298 0.339712 0.238102
0.655833 0.340612 0.236378
0.7794 0.343435 0.237385
0.903868 0.346288 0.238514
1 0.348196 0.238926
0 0.477943 0.278965
0.0846113 0.481376 0.27837
0.251362 0.471778 0.267903
0.422126 0.46183 0.258183
0.562524 0.460563 0.25539
0.690089 0.463401 0.255924
0.813809 0.468193 0.258106
0.938277 0.472999 0.260044
1 0.476646 0.261173
0 0.599557 0.298329
0.120699 0.602136 0.300542
0.291249 0.593256 0.292454
0.465476 0.583947 0.283574
0.608835 0.583886 0.282155
0.737697 0.588281 0.284337
0.861646 0.594415 0.287816
0.986465 0.600809 0.291539
1 0.606165 0.294499
0.0378424 0.72221 0.324407
0.167025 0.725841 0.328511
0.339055 0.718288 0.322347
0.516823 0.709682 0.314824
0.662394 0.710521 0.315053
0.792508 0.716121 0.319127
0.916915 0.723629 0.324727
1 0.731395 0.330465
1 0.738216 0.335348
0.0873732 0.849271 0.354223
0.218845 0.853864 0.360281
0.391165 0.847745 0.356512
0.571923 0.839811 0.350698
0.719768 0.841413 0.352621
0.850538 0.848188 0.358358
0.975494 0.857008 0.365698
1 0.866178 0.372992
1 0.874067 0.379004
0.00120546 0.00621042 0.0358129
0.0204013 0.0146181 0.0538338
0.0551003 0.0218051 0.074403
0.106523 0.0265354 0.0961318
0.170825 0.0294347 0.11928
0.248569 0.030045 0.143313
0.341939 0.0273136 0.166506
0.454246 0.020798 0.188556
0.585916 0.00975052 0.207446
0.0328527 0.0551919 0.116381
0.0688182 0.0665446 0.143374
0.132616 0.0717937 0.167651
0.218753 0.071931 0.189151
0.315404 0.0704814 0.210575
0.423072 0.0668956 0.23035
0.543862 0.0608225 0.247532
0.678477 0.0520485 0.261677
0.82739 0.0402838 0.271519
0.0464179 0.131029 0.214069
0.100465 0.142306 0.238331
0.196872 0.142855 0.253971
0.316777 0.137987 0.264866
0.437064 0.134066 0.275654
0.561715 0.129992 0.285054
0.692332 0.125246 0.292424
0.829984 0.119493 0.297429
0.976394 0.112261 0.299519
0.0218814 0.234623 0.290532
0.0970321 0.244327 0.302785
0.224567 0.240482 0.303761
0.36994 0.232609 0.301137
0.503029 0.228992 0.301122
0.632197 0.227237 0.302388
0.760662 0.226123 0.303532
0.891661 0.22536 0.30457
1 0.22388 0.304601
0 0.357656 0.330373
0.0813306 0.364157 0.332692
0.2336 0.356512 0.323903
0.396017 0.346883 0.313863
0.534936 0.344472 0.310094
0.662196 0.345571 0.309514
0.785565 0.348608 0.311254
0.910094 0.351598 0.312978
1 0.353429 0.313909
0 0.483406 0.351629
0.0897383 0.486351 0.351232
0.257755 0.476799 0.341207
0.428519 0.466743 0.331426
0.569192 0.465904 0.329015
0.696788 0.46891 0.329885
0.820188 0.473625 0.332341
0.945037 0.478798 0.334981
1 0.482582 0.336675
0 0.604517 0.373495
0.127687 0.607126 0.374945
0.298802 0.59855 0.366735
0.472892 0.589487 0.357824
0.61593 0.589487 0.356481
0.74464 0.593973 0.358801
0.868788 0.600336 0.362844
0.993683 0.60705 0.366979
1 0.612558 0.370352
0.0458991 0.727428 0.400793
0.175204 0.731289 0.404135
0.347539 0.723873 0.397482
0.525032 0.715526 0.389944
0.670329 0.716518 0.390249
0.800061 0.722286 0.39443
0.924483 0.729992 0.400137
1 0.738003 0.406165
1 0.744961 0.411337
0.0964065 0.854734 0.4318
0.227863 0.859571 0.436988
0.400656 0.853544 0.432471
0.580972 0.845945 0.426444
0.728267 0.847868 0.428153
0.858656 0.854719 0.43386
0.983429 0.863615 0.441108
1 0.872908 0.448661
1 0.881193 0.454963
0.00390631 0.00967422 0.0494087
0.0248875 0.0186465 0.0713817
0.0624857 0.0257877 0.0960861
0.1178 0.0297398 0.12163
0.185595 0.0314946 0.148562
0.267262 0.0310369 0.177172
0.365148 0.0272068 0.205615
0.480385 0.019501 0.232486
0.614847 0.00753796 0.256428
0.0359503 0.0605783 0.143984
0.0738994 0.0717021 0.175662
0.140948 0.0758068 0.203891
0.231937 0.0747539 0.23003
0.331914 0.0720531 0.255695
0.442267 0.067628 0.279789
0.565347 0.0607614 0.30164
0.701091 0.0515145 0.319905
0.850675 0.0395666 0.333837
0.0473335 0.137285 0.257572
0.103838 0.147662 0.285939
0.203845 0.147127 0.305486
0.32755 0.141115 0.319982
0.450553 0.136385 0.334295
0.576501 0.131884 0.347112
0.707576 0.126986 0.35761
0.844739 0.121386 0.365377
0.990509 0.114366 0.369909
0.0207065 0.241215 0.347753
0.0987869 0.250065 0.363104
0.229465 0.245319 0.366934
0.377798 0.236622 0.366461
0.5122 0.23267 0.368673
0.641489 0.23093 0.371817
0.769787 0.229969 0.374762
0.899809 0.229603 0.377096
1 0.228565 0.378134
0 0.363882 0.397543
0.0838941 0.369772 0.401373
0.238239 0.361547 0.39382
0.402213 0.351705 0.384878
0.541512 0.349248 0.381994
0.668589 0.350622 0.382239
0.791714 0.353597 0.384054
0.916655 0.356985 0.386374
1 0.358953 0.387717
0 0.488838 0.424063
0.0954147 0.491478 0.423743
0.264195 0.481941 0.413855
0.435172 0.472023 0.40412
0.575998 0.471336 0.401907
0.70367 0.47451 0.403021
0.82707 0.479377 0.405783
0.951705 0.484443 0.408667
1 0.488426 0.410636
0.00691234 0.609674 0.447318
0.134752 0.612406 0.448371
0.30602 0.603937 0.439979
0.480308 0.595163 0.431174
0.623255 0.595376 0.429984
0.752056 0.6 0.432502
0.87599 0.606439 0.436667
1 0.613138 0.440925
1 0.618799 0.444587
0.0535592 0.732662 0.475166
0.183276 0.736889 0.478279
0.355901 0.729641 0.471519
0.533257 0.721538 0.463874
0.678386 0.722744 0.464256
0.808057 0.728695 0.468513
0.932448 0.736553 0.474327
1 0.744747 0.480415
1 0.751842 0.485725
0.105226 0.860151 0.506966
0.236713 0.865217 0.511559
0.409674 0.859358 0.506645
0.589593 0.852033 0.500542
0.736584 0.854231 0.502159
0.867033 0.861418 0.507927
0.991882 0.870588 0.515267
1 0.880034 0.522866
1 0.888273 0.529229
0.00694286 0.0136263 0.0658427
0.029633 0.0228428 0.0917983
0.0696727 0.0295262 0.120226
0.128771 0.032639 0.14995
0.201343 0.0334325 0.181796
0.286305 0.0317388 0.21471
0.388144 0.0267491 0.248234
0.506645 0.0179446 0.279957
0.643778 0.00509651 0.308644
0.0387274 0.0658732 0.174945
0.0787518 0.0764782 0.211429
0.149157 0.0796063 0.24416
0.244572 0.0772259 0.274876
0.34847 0.0733196 0.305013
0.461448 0.0680705 0.33344
0.586511 0.0605631 0.35935
0.723278 0.0509499 0.381506
0.873137 0.03888 0.398718
0.0479133 0.143221 0.305272
0.106844 0.152834 0.337957
0.210681 0.151141 0.361395
0.338109 0.14403 0.379217
0.4636 0.138552 0.39675
0.590784 0.133684 0.412604
0.722225 0.128695 0.425727
0.859098 0.123262 0.435645
1 0.116594 0.441993
0.0196536 0.247486 0.409155
0.100328 0.255573 0.427375
0.234073 0.249989 0.433539
0.385061 0.240604 0.434928
0.521004 0.236255 0.439155
0.650233 0.234348 0.44358
0.778378 0.233875 0.447684
0.907576 0.233906 0.45095
1 0.233402 0.452583
0 0.369894 0.467414
0.0860609 0.375036 0.47248
0.242802 0.366567 0.466178
0.408423 0.356405 0.457893
0.547768 0.353857 0.45539
0.675029 0.355642 0.456046
0.798291 0.35877 0.458213
0.923308 0.362325 0.460655
1 0.364446 0.462242
0 0.493965 0.497612
0.101289 0.496513 0.497566
0.270253 0.486915 0.487724
0.441596 0.477333 0.478035
0.582376 0.476509 0.475776
0.710536 0.480049 0.477378
0.834043 0.485069 0.480217
0.958724 0.490303 0.483284
1 0.494408 0.485527
0.0137179 0.614862 0.521675
0.141649 0.617823 0.522759
0.312917 0.609354 0.514275
0.487221 0.60061 0.505562
0.630564 0.601205 0.504646
0.759426 0.605982 0.507256
0.883406 0.612604 0.511452
1 0.619471 0.515892
1 0.625284 0.519585
0.0613413 0.738216 0.550103
0.190906 0.742412 0.552987
0.363653 0.735256 0.54612
0.541024 0.727321 0.538491
0.686046 0.72874 0.538888
0.815671 0.734859 0.543175
0.940017 0.742901 0.549065
1 0.751232 0.555154
1 0.758495 0.560418
0.114122 0.865965 0.582269
0.245686 0.871183 0.586664
0.418738 0.865476 0.581628
0.598321 0.858427 0.575402
0.745098 0.860853 0.577066
0.875517 0.868208 0.582712
1 0.87744 0.58999
1 0.886885 0.597452
1 0.895384 0.603937
