src/colors/film_stock_&_vintage/dark_orange_film.cube
TITLE "Generated by Resolve"
LUT_3D_SIZE 33
0 0 0
0 0 0
0 0 0
0 0 0
0.000793469 0 0
0.00471504 0 0
0.00770581 0 0
0.0120546 0 0
0.017792 0 0
0.024094 0.00120546 0.00132753
0.0316014 0.00274662 0.0030518
0.0397803 0.00427253 0.00477607
0.0485542 0.00576791 0.00646983
0.0583658 0.00740063 0.00834669
0.0683604 0.00886549 0.0100252
0.0795453 0.0104982 0.011902
0.0909285 0.0119173 0.0135805
0.103685 0.0134432 0.0153658
0.116747 0.014725 0.0169223
0.131228 0.016022 0.0185245
0.146014 0.0170596 0.0198825
0.162417 0.0181125 0.0212711
0.179126 0.0188754 0.022385
0.197589 0.0195926 0.0234684
0.216342 0.0200046 0.0242771
0.236973 0.020325 0.0250248
0.257984 0.0203403 0.0254673
0.280781 0.0201877 0.0257725
0.304402 0.0197452 0.0258183
0.329076 0.019028 0.0256199
0.356054 0.0180972 0.0252079
0.383505 0.0167849 0.0244907
0.413062 0.015198 0.0235142
0 0 0
0 0 0
0 4.57771e-05 0
0.00115969 0.000259403 0
0.00517281 0.00167849 0.000228885
0.00993362 0.00314336 0.00173953
0.0157626 0.00489815 0.00350958
0.0225528 0.00674449 0.00540169
0.0299077 0.0083772 0.00712596
0.0384833 0.0102388 0.0090486
0.0478676 0.0119936 0.0109102
0.0578012 0.013611 0.0126345
0.068864 0.0153506 0.0144808
0.0801709 0.016846 0.0161135
0.0926375 0.0184939 0.0178836
0.105257 0.0199435 0.01944
0.119203 0.0214694 0.021088
0.133425 0.0227207 0.0224765
0.149157 0.0240177 0.0238956
0.165148 0.0250248 0.0250553
0.182712 0.0260014 0.0261692
0.200778 0.0267033 0.027039
0.220127 0.0272984 0.0278019
0.240497 0.0276799 0.0283513
0.26157 0.0278019 0.028687
0.284611 0.0278172 0.0288853
0.308049 0.0274968 0.0287938
0.332677 0.0269474 0.0284886
0.359396 0.0261997 0.0279698
0.386542 0.0251164 0.0271611
0.416037 0.0237888 0.0261082
0.445991 0.0220951 0.0247501
0.477455 0.0200656 0.0230716
0 0.0021973 0
0.000656138 0.00404364 0.00169375
0.0039826 0.00601205 0.00352483
0.00872816 0.00825513 0.00564584
0.0143587 0.010544 0.00779736
0.0206149 0.0125887 0.00975052
0.0280919 0.0148318 0.0118715
0.0362554 0.0167544 0.0137484
0.0457618 0.0188144 0.0157778
0.0558785 0.0205692 0.0175174
0.0672007 0.0224308 0.0193484
0.0794537 0.0242008 0.0211185
0.0920577 0.0256962 0.0226139
0.105791 0.0272984 0.0242008
0.119783 0.0287022 0.0255894
0.134508 0.0300755 0.0269322
0.150378 0.0314183 0.0282292
0.166674 0.0325017 0.0292821
0.184558 0.0336004 0.0303197
0.202716 0.0343938 0.0310674
0.222583 0.0351263 0.031754
0.242756 0.0355688 0.0321508
0.264179 0.0358282 0.0323796
0.287053 0.0359503 0.0324559
0.310491 0.0357671 0.0322423
0.335866 0.0354467 0.0318761
0.361608 0.0348058 0.03122
0.388571 0.0338903 0.0303044
0.4177 0.0327916 0.0291905
0.447211 0.0313573 0.0277714
0.47808 0.0296025 0.0260624
0.511345 0.0276036 0.024094
0.545113 0.0252079 0.0218051
0.00355535 0.0111086 0.00704967
0.0078584 0.0136721 0.00932326
0.0123445 0.0165103 0.0118105
0.0182345 0.0192874 0.0142519
0.0248875 0.0217136 0.0164034
0.0328374 0.0242771 0.0186923
0.0415961 0.0264591 0.0206302
0.0517891 0.0287327 0.0226444
0.0626841 0.0306096 0.0243076
0.0750286 0.0325628 0.0260319
0.0879835 0.0341497 0.0274357
0.10219 0.0358434 0.0288548
0.116793 0.0372168 0.0300298
0.132509 0.0387427 0.0312047
0.148486 0.0399634 0.0321813
0.165652 0.0413062 0.0331884
0.183124 0.0423438 0.0339361
0.201678 0.0432593 0.0345464
0.221485 0.0440833 0.0350042
0.241794 0.0446174 0.0352178
0.263798 0.0451209 0.0353399
0.286137 0.0452888 0.0351568
0.309636 0.0452888 0.0347906
0.334768 0.0451209 0.034226
0.360311 0.0446632 0.033402
0.387304 0.044007 0.0323644
0.415732 0.0431067 0.0310826
0.444755 0.0419318 0.0295415
0.475929 0.0405585 0.0277714
0.507485 0.0388342 0.0257115
0.540322 0.03682 0.0233921
0.574792 0.0345159 0.0207828
0.610803 0.0320134 0.0179751
0.010956 0.022858 0.015671
0.016144 0.0259556 0.0182193
0.0215152 0.0293126 0.0209506
0.0282444 0.0321355 0.0232242
0.0363622 0.03505 0.0255436
0.0454261 0.0375219 0.027512
0.0560769 0.0400092 0.0294499
0.0676738 0.0420233 0.0310216
0.0808423 0.0440681 0.0325475
0.094789 0.0456703 0.0336919
0.109926 0.0472267 0.0347448
0.126131 0.0486152 0.0356451
0.142901 0.049836 0.036347
0.160678 0.0511177 0.0370031
0.178683 0.0521553 0.0374609
0.19791 0.0532845 0.0379034
0.21735 0.0541238 0.0380407
0.237797 0.0547799 0.0380407
0.259724 0.055436 0.0378882
0.282063 0.0557565 0.0374762
0.305959 0.0560464 0.0368353
0.330297 0.0559854 0.0360113
0.355703 0.0556954 0.0349737
0.382895 0.0553292 0.0337682
0.410361 0.0546273 0.0322881
0.438987 0.0536812 0.0305791
0.469505 0.0526284 0.0286564
0.500328 0.0512245 0.0264897
0.532189 0.0496071 0.0241245
0.565576 0.0478065 0.0215457
0.600366 0.0456855 0.0186618
0.63595 0.0432441 0.0155489
0.672877 0.0404974 0.0121614
0.0184939 0.03682 0.0248264
0.024506 0.0403296 0.0274205
0.0303655 0.0438239 0.0299382
0.0382696 0.0469825 0.032166
0.0475166 0.0498817 0.034165
0.0580301 0.0523995 0.0358282
0.0703288 0.0548562 0.0373999
0.0837262 0.0568093 0.0385138
0.0988022 0.0587167 0.0395361
0.114885 0.0601358 0.040177
0.132433 0.0615854 0.0407263
0.150561 0.0626383 0.04094
0.169375 0.0635996 0.041001
0.189425 0.0646525 0.0410468
0.209491 0.0654612 0.0408942
0.230655 0.066392 0.04065
0.252186 0.0669718 0.040177
0.274556 0.0674144 0.0395209
0.298497 0.0678416 0.0386664
0.322805 0.0679179 0.037583
0.347997 0.0678111 0.0363165
0.374853 0.067689 0.0348211
0.401999 0.0672007 0.0331273
0.430137 0.0665446 0.0311894
0.459998 0.0657969 0.0290837
0.489906 0.0647746 0.0268559
0.520867 0.0635233 0.0242924
0.553567 0.0622263 0.0214542
0.586831 0.0604715 0.0185245
0.621134 0.0585031 0.0153964
0.65658 0.0562753 0.0120546
0.694072 0.0538796 0.00848402
0.731685 0.051194 0.00474556
0.0252079 0.0526436 0.0336309
0.0319982 0.0564584 0.0360571
0.038468 0.0601663 0.0383459
0.0475624 0.0635996 0.0403449
0.057969 0.0664378 0.0418708
0.0702678 0.0691997 0.0432441
0.0839857 0.0713207 0.0441291
0.0993362 0.073106 0.0446784
0.116487 0.0748302 0.0450599
0.134737 0.0760052 0.0450141
0.154467 0.0771801 0.0448463
0.174716 0.0780041 0.0443427
0.19585 0.0786755 0.0436866
0.21799 0.079469 0.0429999
0.24007 0.0800488 0.0421302
0.262547 0.0805982 0.0411078
0.286534 0.0811475 0.0399939
0.310857 0.0813458 0.0386511
0.336309 0.0815137 0.0370642
0.362615 0.0814679 0.0353552
0.389609 0.0811627 0.0334173
0.417288 0.0807507 0.0312657
0.446571 0.0802777 0.0290837
0.476112 0.0794842 0.0266423
0.506401 0.0785382 0.0239567
0.538582 0.0774853 0.021149
0.570764 0.0761578 0.0181277
0.603861 0.0746471 0.0149538
0.637995 0.0728923 0.0116274
0.673793 0.0710918 0.00802625
0.709972 0.0688945 0.00433356
0.747066 0.0665141 0.000381476
0.785489 0.0639353 0
0.0306859 0.0703746 0.0416571
0.0381781 0.0744182 0.0437629
0.045304 0.0783551 0.0457008
0.0554513 0.0818952 0.0472267
0.067216 0.0847334 0.0482338
0.0810864 0.0874342 0.0489967
0.0966201 0.0894331 0.0492103
0.113954 0.0910048 0.0490578
0.133227 0.0924849 0.0486763
0.153704 0.0933852 0.047837
0.175525 0.0941939 0.0468147
0.198123 0.0948196 0.0455329
0.221378 0.095201 0.0440833
0.245365 0.0956588 0.0425727
0.269581 0.0961013 0.041001
0.293873 0.0964523 0.0392309
0.319646 0.096788 0.0373846
0.345693 0.0968185 0.0353552
0.372213 0.0967727 0.0331579
0.399725 0.0965286 0.0308385
0.428763 0.0962539 0.0283513
0.45771 0.0957504 0.0256504
0.487602 0.0950332 0.0228733
0.51902 0.0943008 0.0199435
0.550393 0.0933089 0.016846
0.582589 0.0921645 0.0136263
0.616068 0.0908827 0.0102846
0.650248 0.0894484 0.00672923
0.685039 0.0877394 0.00314336
0.720699 0.0858473 0
0.757183 0.0837873 0
0.795605 0.0815595 0
0.833661 0.0791638 0
0.0344244 0.0903792 0.0485389
0.0425116 0.0943008 0.0500191
0.05037 0.0984054 0.0514839
0.0615091 0.102037 0.0524453
0.0746929 0.104845 0.0527962
0.0901961 0.107439 0.0528115
0.107591 0.109255 0.0522774
0.127016 0.110597 0.0513008
0.14844 0.111803 0.0500496
0.171191 0.112398 0.0483711
0.19501 0.112764 0.0464485
0.220035 0.113237 0.0443122
0.245365 0.113344 0.0420691
0.271015 0.113451 0.0397345
0.297322 0.113787 0.0374151
0.323232 0.11397 0.0350347
0.34992 0.114 0.0325017
0.377935 0.114076 0.0298772
0.405982 0.113863 0.0271153
0.434669 0.113558 0.0241703
0.464088 0.1131 0.0211948
0.494926 0.112642 0.0180819
0.525658 0.11194 0.0148623
0.557122 0.111101 0.0115206
0.589456 0.11014 0.00814832
0.622736 0.109163 0.00460822
0.656306 0.107897 0.00105287
0.690654 0.106462 0
0.725841 0.104982 0
0.762219 0.103304 0
0.798993 0.101335 0
0.83653 0.0992294 0
0.874739 0.0969711 0
0.0355383 0.11194 0.0534371
0.0445411 0.116152 0.0544442
0.0530861 0.120424 0.0553445
0.0652934 0.124086 0.0556191
0.0800946 0.126787 0.0552071
0.0970779 0.128969 0.0543221
0.116533 0.130877 0.0530556
0.138048 0.131945 0.0512245
0.161379 0.132616 0.0489967
0.186694 0.13312 0.046479
0.212757 0.133181 0.0436713
0.239597 0.133074 0.0407111
0.26714 0.133211 0.0377203
0.294575 0.133089 0.0346838
0.321965 0.133059 0.0316625
0.350027 0.133242 0.0286564
0.377997 0.133181 0.0255283
0.406607 0.132998 0.0223239
0.435752 0.132738 0.019089
0.466163 0.132509 0.0157626
0.496391 0.132067 0.0123751
0.527276 0.131487 0.00889601
0.558724 0.1308 0.00543221
0.591394 0.130175 0.00190738
0.623896 0.12932 0
0.657145 0.128283 0
0.690974 0.127138 0
0.725948 0.12607 0
0.761135 0.124636 0
0.796872 0.12311 0
0.833539 0.12137 0
0.871427 0.119493 0
0.909377 0.117647 0
0.0341039 0.135546 0.0563058
0.043946 0.139986 0.0567178
0.053254 0.144366 0.0569924
0.0664225 0.147784 0.0564584
0.0829786 0.150637 0.055314
0.101717 0.152636 0.0536049
0.122972 0.154162 0.0514382
0.146777 0.155093 0.0487373
0.172412 0.155398 0.0456855
0.199481 0.155367 0.042298
0.228031 0.155337 0.0387274
0.256901 0.154955 0.0350042
0.286046 0.154559 0.0312657
0.315526 0.154482 0.0275425
0.344289 0.154314 0.0239261
0.373114 0.154192 0.0203861
0.402319 0.154025 0.016846
0.432456 0.153994 0.0132753
0.46247 0.153704 0.00962844
0.492988 0.153338 0.00596628
0.523934 0.152895 0.00236515
0.555993 0.152529 0
0.587701 0.151995 0
0.62005 0.151308 0
0.652888 0.15053 0
0.686427 0.149813 0
0.720607 0.148882 0
0.755047 0.147799 0
0.789883 0.146639 0
0.825574 0.145281 0
0.862531 0.143923 0
0.89958 0.14229 0
0.936873 0.140612 0
0.0299687 0.161212 0.0569772
0.0406195 0.165789 0.0566567
0.0509804 0.170199 0.0562295
0.0652018 0.173602 0.055024
0.0833906 0.176226 0.0531167
0.104051 0.178058 0.0506905
0.127367 0.179141 0.0476692
0.153079 0.179797 0.0442054
0.181033 0.179904 0.0402991
0.210163 0.179568 0.0360876
0.240406 0.178988 0.031754
0.271534 0.178515 0.0273594
0.302525 0.17789 0.0230106
0.333104 0.177401 0.0187991
0.363241 0.177081 0.0147707
0.393637 0.177081 0.0108492
0.423651 0.176913 0.00689708
0.454017 0.176684 0.00306706
0.484855 0.176364 0
0.516487 0.176226 0
0.54786 0.17586 0
0.579522 0.175463 0
0.611734 0.174945 0
0.644633 0.174563 0
0.677409 0.174044 0
0.710704 0.173358 0
0.744488 0.172564 0
0.778515 0.171756 0
0.813703 0.170947 0
0.849027 0.169879 0
0.884932 0.168643 0
0.921508 0.167269 0
0.958282 0.165866 0
0.0230564 0.188846 0.0552987
0.0345769 0.193133 0.0542458
0.0461891 0.197803 0.0533913
0.0617685 0.201114 0.0515297
0.0813611 0.203372 0.0488441
0.103883 0.205051 0.0456397
0.129305 0.205982 0.041886
0.15697 0.206165 0.037705
0.186938 0.205783 0.0330968
0.218585 0.205325 0.0282902
0.250843 0.204425 0.0233616
0.283558 0.203433 0.0184176
0.316106 0.202564 0.0135958
0.348424 0.202136 0.00901808
0.379522 0.20177 0.00459297
0.410376 0.201495 0.000457771
0.441352 0.201236 0
0.472755 0.201175 0
0.50425 0.200946 0
0.535531 0.200748 0
0.567346 0.200427 0
0.599268 0.200107 0
0.632059 0.199939 0
0.664317 0.199634 0
0.697078 0.199191 0
0.730175 0.198718 0
0.763455 0.198215 0
0.797757 0.197803 0
0.832074 0.19707 0
0.866926 0.196231 0
0.902129 0.195331 0
0.938262 0.194186 0
0.974289 0.193103 0
0.0139162 0.218173 0.051545
0.0267491 0.222354 0.0500191
0.0390631 0.226764 0.0484779
0.0561227 0.23006 0.0460517
0.0775311 0.232242 0.042771
0.101946 0.233463 0.0389868
0.129259 0.233921 0.034638
0.159365 0.234012 0.0298466
0.191302 0.23331 0.0247196
0.224628 0.232258 0.0193942
0.258778 0.231037 0.013962
0.293477 0.23006 0.00860609
0.327459 0.228962 0.00349432
0.360678 0.228138 0
0.392859 0.227634 0
0.424552 0.227329 0
0.456611 0.227268 0
0.488075 0.2271 0
0.519768 0.226902 0
0.551522 0.226719 0
0.583658 0.226581 0
0.615961 0.226551 0
0.647974 0.226398 0
0.680354 0.226184 0
0.712886 0.225956 0
0.745678 0.225681 0
0.779004 0.22565 0
0.812436 0.225269 0
0.846235 0.224796 0
0.880385 0.224277 0
0.915099 0.223621 0
0.950683 0.222858 0
0.986038 0.222309 0
0.00303655 0.2486 0.0459907
0.0170138 0.252827 0.043946
0.0307317 0.257298 0.0420996
0.0493019 0.260258 0.0392004
0.0725109 0.261982 0.0353857
0.0986496 0.263249 0.0311589
0.127932 0.263401 0.0263523
0.159869 0.262837 0.0211032
0.193683 0.261814 0.01561
0.229191 0.260655 0.00994888
0.26537 0.259083 0.00424201
0.301274 0.257588 0
0.336629 0.256291 0
0.371099 0.25536 0
0.404456 0.254963 0
0.436835 0.254612 0
0.468833 0.254414 0
0.500801 0.254246 0
0.532998 0.254139 0
0.56524 0.254215 0
0.597299 0.254108 0
0.629053 0.254139 0
0.661112 0.254108 0
0.693309 0.254063 0
0.725811 0.254154 0
0.758206 0.254276 0
0.790845 0.2542 0
0.823758 0.254063 0
0.856992 0.253864 0
0.89041 0.253651 0
0.924514 0.253269 0
0.959426 0.252872 0
0.993698 0.252644 0
0 0.280568 0.0390631
0.00657664 0.284459 0.036759
0.0213626 0.288609 0.0345769
0.041825 0.291402 0.031342
0.066865 0.292988 0.0273289
0.0948806 0.293614 0.0227512
0.125795 0.293477 0.0177157
0.159686 0.292607 0.0122377
0.19559 0.291447 0.00653086
0.232898 0.289647 0.000640879
0.270466 0.287816 0
0.30782 0.286076 0
0.344686 0.284779 0
0.380194 0.283711 0
0.414069 0.283055 0
0.44683 0.282734 0
0.479454 0.282475 0
0.511925 0.282429 0
0.544442 0.28249 0
0.576455 0.28249 0
0.608454 0.282536 0
0.640162 0.282689 0
0.671992 0.282841 0
0.704036 0.283009 0
0.736248 0.283375 0
0.768032 0.283619 0
0.800168 0.283772 0
0.832517 0.283894 0
0.865125 0.28397 0
0.897856 0.284047 0
0.931472 0.284123 0
0.965377 0.284001 0
0.998688 0.283986 0
0 0.312993 0.0313878
0 0.316991 0.0288701
0.0122988 0.320897 0.0266728
0.0344244 0.323247 0.02327
0.0609445 0.324407 0.0190433
0.0907759 0.324697 0.0143587
0.124071 0.324376 0.00924697
0.159472 0.323186 0.00373846
0.197086 0.321416 0
0.235904 0.319341 0
0.274983 0.317235 0
0.314015 0.315511 0
0.351751 0.313848 0
0.387976 0.312627 0
0.422629 0.311879 0
0.455924 0.311528 0
0.489281 0.311528 0
0.52192 0.311406 0
0.554238 0.311421 0
0.586282 0.311528 0
0.618128 0.311727 0
0.64976 0.312001 0
0.681575 0.312459 0
0.713344 0.312871 0
0.744823 0.313252 0
0.77615 0.31371 0
0.807736 0.314122 0
0.839475 0.314504 0
0.871397 0.314855 0
0.903471 0.31519 0
0.936324 0.315663 0
0.969451 0.315755 0
1 0.315908 0
0 0.346212 0.0235447
0 0.349645 0.0209964
0.00389105 0.353262 0.0188602
0.0277867 0.355276 0.0154574
0.056199 0.356405 0.0112764
0.0876478 0.356374 0.00662242
0.122286 0.355489 0.00149538
0.159396 0.353948 0
0.19881 0.351812 0
0.239353 0.349706 0
0.279835 0.347341 0
0.319707 0.345174 0
0.358389 0.343343 0
0.395514 0.342 0
0.430823 0.341161 0
0.464897 0.341039 0
0.498177 0.340825 0
0.531029 0.340749 0
0.563348 0.340856 0
0.595392 0.341054 0
0.6271 0.341375 0
0.658473 0.341817 0
0.690105 0.342535 0
0.721355 0.343053 0
0.752392 0.343648 0
0.783261 0.34432 0
0.814206 0.344976 0
0.845365 0.345602 0
0.87686 0.346181 0
0.908858 0.34667 0
0.941405 0.347265 0
0.974609 0.347555 0
1 0.347845 0
0 0.379309 0.016022
0 0.382406 0.0136263
0 0.38584 0.0116121
0.0231022 0.387594 0.0083772
0.0528725 0.388128 0.00434882
0.0856184 0.387869 0
0.121782 0.386679 0
0.160647 0.384771 0
0.201465 0.382681 0
0.243137 0.380056 0
0.284855 0.377432 0
0.325811 0.375051 0
0.365408 0.373083 0
0.40325 0.371618 0
0.439429 0.370977 0
0.47364 0.370565 0
0.506966 0.370428 0
0.53991 0.370413 0
0.572213 0.370611 0
0.604257 0.370901 0
0.635798 0.371359 0
0.667094 0.372168 0
0.698116 0.372839 0
0.728908 0.373556 0
0.759579 0.37435 0
0.790311 0.375143 0
0.821042 0.375998 0
0.852186 0.376761 0
0.883665 0.377478 0
0.915694 0.378149 0
0.948287 0.378805 0
0.981353 0.379263 0
1 0.379705 0
0 0.41236 0.00926223
0 0.415412 0.00720226
0 0.418494 0.00549325
0.0198062 0.419623 0.00244144
0.0510719 0.419852 0
0.0853742 0.419257 0
0.122774 0.418051 0
0.163088 0.415961 0
0.204929 0.413336 0
0.247791 0.410468 0
0.290806 0.407584 0
0.332708 0.40502 0
0.37293 0.40296 0
0.411597 0.401679 0
0.447852 0.400778 0
0.482338 0.400366 0
0.515785 0.400275 0
0.54876 0.40032 0
0.581018 0.400595 0
0.612909 0.400992 0
0.64445 0.401755 0
0.675563 0.402518 0
0.70634 0.403326 0
0.737102 0.404181 0
0.767803 0.405081 0
0.798566 0.406012 0
0.82948 0.406928 0
0.860487 0.407874 0
0.891981 0.408713 0
0.923934 0.409476 0
0.956451 0.410239 0
0.989776 0.410819 0
1 0.411475 0
0 0.445502 0.0037232
0 0.447929 0.00196841
0 0.450721 0.00062562
0.0192264 0.45127 0
0.0510109 0.451438 0
0.0865949 0.450721 0
0.12546 0.44918 0
0.166537 0.44683 0
0.209567 0.443976 0
0.253727 0.440818 0
0.297398 0.437827 0
0.340032 0.435142 0
0.381369 0.433173 0
0.420142 0.431601 0
0.456672 0.430671 0
0.491249 0.43032 0
0.524681 0.430304 0
0.557641 0.430426 0
0.589883 0.430808 0
0.621805 0.431296 0
0.653223 0.431998 0
0.684627 0.433036 0
0.715663 0.433906 0
0.746365 0.434897 0
0.77705 0.435935 0
0.807858 0.436973 0
0.838804 0.43801 0
0.870008 0.439017 0
0.901457 0.440009 0
0.933333 0.440909 0
0.965728 0.441688 0
0.998993 0.442359 0
1 0.443137 0
0 0.47805 0
0 0.480156 0
0 0.482643 0
0.0200961 0.482841 0
0.0532235 0.48304 0
0.0897231 0.482017 0
0.129427 0.48011 0
0.171603 0.477531 0
0.215763 0.474434 0
0.260395 0.471229 0
0.304799 0.468086 0
0.348119 0.465339 0
0.389868 0.463249 0
0.42916 0.461601 0
0.465812 0.460731 0
0.500618 0.460395 0
0.534401 0.460395 0
0.56733 0.460655 0
0.599649 0.461143 0
0.631556 0.461784 0
0.663081 0.462577 0
0.694514 0.4636 0
0.725673 0.464683 0
0.756512 0.465766 0
0.787335 0.46688 0
0.818082 0.468071 0
0.849042 0.469245 0
0.880278 0.470375 0
0.911818 0.471443 0
0.943786 0.472419 0
0.976043 0.473365 0
1 0.474067 0
1 0.474891 0
0 0.51014 0
0 0.511955 0
0 0.514138 0
0.0233005 0.514138 0
0.0576944 0.51397 0
0.0949721 0.512779 0
0.135363 0.510735 0
0.1785 0.507973 0
0.223072 0.504814 0
0.268345 0.501472 0
0.313313 0.498268 0
0.357214 0.495613 0
0.399145 0.4934 0
0.438712 0.491783 0
0.475822 0.490898 0
0.510628 0.4907 0
0.544564 0.490776 0
0.57763 0.491142 0
0.610254 0.491661 0
0.642237 0.492393 0
0.673823 0.493278 0
0.705196 0.494331 0
0.736324 0.495552 0
0.767391 0.496849 0
0.798276 0.498085 0
0.829175 0.499336 0
0.860212 0.500587 0
0.891386 0.501823 0
0.922866 0.503014 0
0.954849 0.504097 0
0.987243 0.505089 0
1 0.505898 0
1 0.506874 0
0 0.541711 0
0 0.543267 0
0 0.545251 0
0.0290684 0.545083 0
0.0641642 0.544549 0
0.102266 0.543175 0
0.143221 0.541054 0
0.186831 0.538216 0
0.231785 0.535042 0
0.277378 0.531731 0
0.322621 0.528542 0
0.366918 0.525994 0
0.409064 0.523766 0
0.448936 0.522194 0
0.48632 0.521355 0
0.521324 0.521218 0
0.555413 0.521385 0
0.588617 0.521828 0
0.621363 0.522438 0
0.653468 0.523278 0
0.685145 0.524254 0
0.716655 0.525322 0
0.747768 0.526528 0
0.77879 0.52784 0
0.809888 0.529397 0
0.840787 0.530755 0
0.871855 0.532097 0
0.90312 0.53341 0
0.934691 0.534676 0
0.96669 0.535851 0
0.998947 0.536995 0
1 0.537911 0
1 0.538949 0
0 0.572702 0
0 0.573999 0
0.00204471 0.575631 0
0.0371557 0.575372 0
0.0730297 0.574685 0
0.111254 0.573388 0
0.15256 0.571283 0
0.196063 0.568597 0
0.241199 0.565484 0
0.287373 0.562127 0
0.332952 0.558984 0
0.377188 0.556237 0
0.41973 0.554345 0
0.459907 0.552804 0
0.497566 0.552026 0
0.532967 0.551904 0
0.567056 0.552193 0
0.600534 0.552682 0
0.633234 0.553414 0
0.6654 0.55433 0
0.6972 0.555383 0
0.728634 0.556573 0
0.759808 0.557855 0
0.790845 0.559228 0
0.821805 0.560632 0
0.852888 0.562142 0
0.884016 0.563607 0
0.915282 0.565057 0
0.946807 0.566461 0
0.978943 0.567834 0
1 0.569024 0
1 0.570031 0
1 0.571176 0
0 0.603082 0.00178531
0 0.604181 0.00254826
0.0118563 0.605814 0.00349432
0.0467384 0.605585 0.00294499
0.0829633 0.604944 0.00195315
0.121065 0.603815 0.000701915
0.16231 0.601846 0
0.206012 0.599222 0
0.251606 0.596109 0
0.297642 0.592905 0
0.343404 0.589822 0
0.387976 0.587106 0
0.430716 0.584939 0
0.471275 0.583749 0
0.509209 0.582986 0
0.544823 0.58291 0
0.579049 0.583261 0
0.612665 0.58381 0
0.645472 0.584619 0
0.677791 0.585595 0
0.709758 0.586694 0
0.741253 0.587961 0
0.772488 0.589334 0
0.803571 0.590784 0
0.834546 0.592294 0
0.865461 0.593851 0
0.896574 0.595376 0
0.927871 0.596887 0
0.959472 0.598337 0
0.99147 0.59971 0
1 0.600977 0
1 0.602152 0
1 0.603387 0
0 0.633402 0.00630198
0 0.634623 0.00689708
0.022034 0.636225 0.00775158
0.0566873 0.636133 0.00741588
0.09308 0.635554 0.00671397
0.131456 0.63444 0.00569161
0.172595 0.632624 0.00404364
0.216587 0.63003 0.00181582
0.262028 0.62707 0
0.308263 0.623941 0
0.354284 0.62089 0
0.399176 0.618204 0
0.442283 0.616037 0
0.483085 0.614557 0
0.521294 0.614038 0
0.557198 0.614069 0
0.591745 0.614466 0
0.62536 0.615122 0
0.658228 0.616007 0
0.6907 0.617044 0
0.722591 0.618265 0
0.754162 0.619608 0
0.785473 0.621073 0
0.816602 0.622599 0
0.847623 0.624186 0
0.878676 0.625788 0
0.909804 0.627405 0
0.941115 0.629007 0
0.972702 0.630549 0
1 0.632059 0
1 0.633417 0
1 0.634668 0
1 0.635981 0
0 0.664042 0.0106355
0.00323491 0.665171 0.0113222
0.0323033 0.66688 0.0126192
0.0670787 0.666911 0.0125582
0.103792 0.666346 0.0120394
0.142046 0.6654 0.0111391
0.183505 0.663584 0.00956741
0.227268 0.661173 0.00753796
0.272953 0.658259 0.00518807
