src/colors/film_stock_&_vintage/dark_orange_film.cube
TITLE "Generated by Resolve"
LUT_3D_SIZE 5
0 0 0
0.017792 0 0
0.0909285 0.0119173 0.0135805
0.216342 0.0200046 0.0242771
0.413062 0.015198 0.0235142
0.0344244 0.0903792 0.0485389
0.14844 0.111803 0.0500496
0.34992 0.114 0.0325017
0.589456 0.11014 0.00814832
0.874739 0.0969711 0
0 0.312993 0.0313878
0.197086 0.321416 0
0.489281 0.311528 0
0.744823 0.313252 0
1 0.315908 0
0 0.572702 0
0.241199 0.565484 0
0.567056 0.552193 0
0.821805 0.560632 0
1 0.571176 0
0.0291447 0.820859 0.0389563
0.331746 0.818051 0.0401007
0.671931 0.806882 0.0331121
0.931014 0.82005 0.0441596
1 0.835874 0.0563211
0 0 0
0.0287022 0.00663767 0.0134432
0.115465 0.0186618 0.0325475
0.256229 0.0243839 0.0485695
0.46952 0.0158694 0.0537728
0.0405127 0.104692 0.0782788
0.166888 0.123705 0.0859846
0.380972 0.123033 0.0753338
0.626902 0.117693 0.0594034
0.913451 0.10454 0.0378119
0 0.33048 0.0872053
0.213794 0.335592 0.0615854
0.50779 0.325078 0.0317693
0.761547 0.327642 0.0209049
1 0.33138 0.0187381
0 0.585367 0.0789349
0.267033 0.57818 0.0731365
0.587015 0.566842 0.0611887
0.840696 0.57644 0.0644846
1 0.587289 0.0690013
0.0580911 0.833646 0.127749
0.360815 0.831327 0.130785
0.694331 0.822583 0.126192
0.951537 0.836835 0.138628
1 0.853315 0.151614
0 0.00146487 0.0158541
0.0413977 0.0141146 0.038819
0.14255 0.0245975 0.0689097
0.298146 0.0267033 0.0977188
0.527535 0.0137942 0.117617
0.0441444 0.11812 0.13727
0.182574 0.133761 0.160296
0.409659 0.129137 0.165255
0.660761 0.12192 0.165698
0.946654 0.108705 0.158267
0 0.344778 0.199283
0.22446 0.346532 0.185061
0.521828 0.335088 0.164645
0.773526 0.33846 0.160952
1 0.342947 0.161074
0 0.594919 0.2206
0.28368 0.588251 0.215564
0.601938 0.578439 0.205097
0.854765 0.58854 0.209903
1 0.6 0.21561
0.0783551 0.844114 0.273747
0.381582 0.842298 0.277424
0.711406 0.835233 0.273777
0.967605 0.850385 0.286778
1 0.867414 0.299962
0.00120546 0.00621042 0.0358129
0.0551003 0.0218051 0.074403
0.170825 0.0294347 0.11928
0.341939 0.0273136 0.166506
0.585916 0.00975052 0.207446
0.0464179 0.131029 0.214069
0.196872 0.142855 0.253971
0.437064 0.134066 0.275654
0.692332 0.125246 0.292424
0.976394 0.112261 0.299519
0 0.357656 0.330373
0.2336 0.356512 0.323903
0.534936 0.344472 0.310094
0.785565 0.348608 0.311254
1 0.353429 0.313909
0 0.604517 0.373495
0.298802 0.59855 0.366735
0.61593 0.589487 0.356481
0.868788 0.600336 0.362844
1 0.612558 0.370352
0.0964065 0.854734 0.4318
0.400656 0.853544 0.432471
0.728267 0.847868 0.428153
0.983429 0.863615 0.441108
1 0.881193 0.454963
0.00694286 0.0136263 0.0658427
0.0696727 0.0295262 0.120226
0.201343 0.0334325 0.181796
0.388144 0.0267491 0.248234
0.643778 0.00509651 0.308644
0.0479133 0.143221 0.305272
0.210681 0.151141 0.361395
0.4636 0.138552 0.39675
0.722225 0.128695 0.425727
1 0.116594 0.441993
0 0.369894 0.467414
0.242802 0.366567 0.466178
0.547768 0.353857 0.45539
0.798291 0.35877 0.458213
1 0.364446 0.462242
0.0137179 0.614862 0.521675
0.312917 0.609354 0.514275
0.630564 0.601205 0.504646
0.883406 0.612604 0.511452
1 0.625284 0.519585
0.114122 0.865965 0.582269
0.418738 0.865476 0.581628
0.745098 0.860853 0.577066
1 0.87744 0.58999
1 0.895384 0.603937
