src/colors/film_stock_&_vintage/emerald_film.cube
TITLE "Generated by Resolve"
LUT_3D_SIZE 33
0 0 0
0 0 0
0 0 0
0.00389105 0 0
0.0363775 0 0
0.0699168 0 0
0.103914 0 0
0.138216 0 0
0.172732 0 0
0.207416 0 0
0.242206 0 0
0.277134 0 0
0.312139 0 0
0.347219 0 0
0.382376 0 0
0.417594 0 0
0.452873 0 0
0.488212 0 0
0.523583 0 0
0.559014 0 0
0.594476 0 0
0.629984 0 0
0.665522 0 0
0.701091 0 0
0.73669 0 0
0.772335 0 0
0.807996 0 0
0.843687 0 0
0.879408 0 0
0.915145 0 0
0.950912 0 0
0.986709 0 0
1 0 0
0 0 0
0 0 0
0 0 0
0.00317388 0 0
0.0354772 0 0
0.0689403 0 0
0.102892 0 0
0.137163 0 0
0.171649 0 0
0.206302 0 0
0.241077 0 0
0.275975 0 0
0.310964 0 0
0.346044 0 0
0.381186 0 0
0.416388 0 0
0.451652 0 0
0.486976 0 0
0.522347 0 0
0.557763 0 0
0.59321 0 0
0.628717 0 0
0.66424 0 0
0.699809 0 0
0.735409 0 0
0.771038 0 0
0.806683 0 0
0.842374 0 0
0.87808 0 0
0.913832 0 0
0.949584 0 0
0.985367 0 0
1 0 0
0 0 0
0 0 0
0 0 0
0.00254826 0 0
0.0346532 0 0
0.0680247 0 0
0.10193 0 0
0.136172 0 0
0.170626 0 0
0.205249 0 0
0.240009 0 0
0.274891 0 0
0.309865 0 0
0.34493 0 0
0.380056 0 0
0.415259 0 0
0.450507 0 0
0.485817 0 0
0.521172 0 0
0.556588 0 0
0.592035 0 0
0.627512 0 0
0.663035 0 0
0.698604 0 0
0.734188 0 0
0.769818 0 0
0.805463 0 0
0.841138 0 0
0.876844 0 0
0.912581 0 0
0.948333 0 0
0.984115 0 0
1 0 0
0 0.002121 0
0 0.0019379 0
0 0.00201419 0
0.00198367 0.00277714 0
0.0338293 0.00329595 0
0.0671397 0.00334173 0
0.100999 0.00315862 0
0.135195 0.00283818 0
0.169619 0.00241093 0
0.204227 0.00189212 0
0.238972 0.00131228 0
0.273838 0.000656138 0
0.308797 0 0
0.343832 0 0
0.378958 0 0
0.414145 0 0
0.449378 0 0
0.484688 0 0
0.520043 0 0
0.555428 0 0
0.590875 0 0
0.626352 0 0
0.66186 0 0
0.697414 0 0
0.732998 0 0
0.768612 0 0
0.804257 0 0
0.839933 0 0
0.875639 0 0
0.91136 0 0
0.947112 0 0
0.982879 0 0
1 0 0
0 0.0361334 0
0 0.035935 0
0 0.035996 0
0.00151064 0.0366674 0
0.0330358 0.0372778 0
0.0662699 0.0373388 0
0.100084 0.037171 0
0.134234 0.0368658 0
0.168643 0.0364385 0
0.20322 0.035935 0
0.237949 0.0353552 0
0.272786 0.034699 0
0.307729 0.0339971 0
0.342763 0.0332494 0
0.377874 0.0324559 0
0.413046 0.0316167 0
0.44828 0.0307469 0
0.483574 0.0298466 0
0.518914 0.0289006 0
0.554299 0.0279393 0
0.589731 0.0269474 0
0.625193 0.0259251 0
0.6607 0.0248722 0
0.696254 0.0238041 0
0.731823 0.0227207 0
0.767437 0.0216068 0
0.803082 0.0204776 0
0.838743 0.0193332 0
0.874434 0.0181582 0
0.910155 0.0169833 0
0.945907 0.0157778 0
0.981674 0.0145571 0
1 0.0133211 0
0 0.0698253 0
0 0.0696117 0
0 0.0696574 0
0.00114443 0.0702068 0
0.0322576 0.0709239 0
0.0654002 0.0710155 0
0.0991684 0.0708629 0
0.133288 0.070573 0
0.167666 0.0701457 0
0.202228 0.0696422 0
0.236927 0.0690776 0
0.271763 0.0684215 0
0.306691 0.0677348 0
0.341695 0.0669871 0
0.376791 0.0661936 0
0.411963 0.0653544 0
0.447181 0.0644846 0
0.48246 0.0635843 0
0.5178 0.0626535 0
0.55317 0.0616922 0
0.588602 0.0607004 0
0.624063 0.059678 0
0.659556 0.0586404 0
0.695094 0.0575723 0
0.730663 0.0564889 0
0.766262 0.055375 0
0.801907 0.0542458 0
0.837568 0.0531014 0
0.873259 0.0519265 0
0.908965 0.0507515 0
0.944701 0.049546 0
0.980468 0.0483253 0
1 0.0471046 0
0 0.103273 0
0 0.103044 0
0 0.103059 0
0.00062562 0.103548 0
0.0314946 0.104341 0
0.0645609 0.104448 0
0.0982681 0.104311 0
0.132357 0.104021 0
0.166705 0.103609 0
0.201236 0.10312 0
0.23592 0.102541 0
0.270726 0.1019 0
0.305638 0.101213 0
0.340642 0.100465 0
0.375723 0.0996719 0
0.41088 0.0988479 0
0.446097 0.0979782 0
0.481361 0.0970779 0
0.516686 0.0961471 0
0.552056 0.0951858 0
0.587472 0.0941939 0
0.622934 0.0931868 0
0.658427 0.092134 0
0.69395 0.0910811 0
0.729519 0.0899977 0
0.765118 0.0888838 0
0.800732 0.0877546 0
0.836393 0.0866102 0
0.872084 0.0854505 0
0.90779 0.0842603 0
0.943526 0.0830701 0
0.979278 0.0818494 0
1 0.0806287 0
0 0.136507 0
0 0.136278 0
0 0.136278 0
4.57771e-05 0.136706 0
0.0307469 0.13753 0
0.0637217 0.137667 0
0.0973831 0.137545 0
0.131426 0.13727 0
0.165743 0.136873 0
0.200259 0.13637 0
0.234928 0.135805 0
0.269718 0.13518 0
0.304616 0.134493 0
0.339605 0.133745 0
0.37467 0.132967 0
0.409812 0.132128 0
0.445014 0.131273 0
0.480278 0.130373 0
0.515587 0.129442 0
0.550942 0.128481 0
0.586358 0.127489 0
0.621805 0.126482 0
0.657298 0.125444 0
0.692821 0.124376 0
0.728374 0.123293 0
0.763958 0.122194 0
0.799588 0.121065 0
0.835233 0.119921 0
0.870909 0.118761 0
0.906615 0.117586 0
0.942336 0.116381 0
0.978103 0.115175 0
1 0.113939 0
0 0.169589 0
0 0.169329 0
0 0.169314 0
0 0.169696 0
0.0300145 0.170565 0
0.0628824 0.170718 0
0.0964981 0.170611 0
0.13051 0.170336 0
0.164797 0.169955 0
0.199283 0.169467 0
0.233936 0.168902 0
0.268711 0.168276 0
0.303593 0.16759 0
0.338567 0.166857 0
0.373617 0.166079 0
0.408743 0.165255 0
0.443946 0.164385 0
0.479194 0.163485 0
0.514488 0.16257 0
0.549844 0.161608 0
0.585245 0.160616 0
0.620691 0.159609 0
0.656168 0.158572 0
0.691676 0.157519 0
0.72723 0.156435 0
0.762814 0.155322 0
0.798428 0.154208 0
0.834073 0.153063 0
0.869749 0.151904 0
0.90544 0.150729 0
0.941176 0.149523 0
0.976913 0.148318 0
1 0.147082 0
0 0.202502 0
0 0.202243 0
0 0.202213 0
0 0.202548 0
0.0292973 0.203433 0
0.0620737 0.203616 0
0.095613 0.203525 0
0.129595 0.203265 0
0.163851 0.202884 0
0.198322 0.202411 0
0.232944 0.201846 0
0.267704 0.201221 0
0.302571 0.200549 0
0.33753 0.199817 0
0.37258 0.199039 0
0.407691 0.198215 0
0.442878 0.19736 0
0.478111 0.19646 0
0.513405 0.195544 0
0.548745 0.194583 0
0.584146 0.193606 0
0.619577 0.192584 0
0.655039 0.191562 0
0.690562 0.190494 0
0.726101 0.189425 0
0.761685 0.188312 0
0.797284 0.187198 0
0.832929 0.186053 0
0.868589 0.184894 0
0.90428 0.183719 0
0.940002 0.182528 0
0.975753 0.181308 0
1 0.180087 0
0 0.235309 0
0 0.235035 0
0 0.234974 0
0 0.235279 0
0.0285954 0.236179 0
0.0612497 0.236393 0
0.0947585 0.236316 0
0.128695 0.236072 0
0.162921 0.235691 0
0.19736 0.235218 0
0.231968 0.234668 0
0.266697 0.234043 0
0.301549 0.233371 0
0.336507 0.232639 0
0.371527 0.231861 0
0.406638 0.231052 0
0.44181 0.230198 0
0.477043 0.229313 0
0.512322 0.228382 0
0.547662 0.227436 0
0.583047 0.226444 0
0.618463 0.225437 0
0.653941 0.224414 0
0.689433 0.223346 0
0.724971 0.222278 0
0.76054 0.22118 0
0.796155 0.22005 0
0.831785 0.218921 0
0.867445 0.217762 0
0.903136 0.216587 0
0.938842 0.215381 0
0.974578 0.214176 0
1 0.212955 0
0 0.267979 0
0 0.267704 0
0 0.267628 0
0 0.267887 0
0.0279088 0.268803 0
0.0604562 0.269047 0
0.0938888 0.268986 0
0.127794 0.268742 0
0.16199 0.268376 0
0.196399 0.267918 0
0.230991 0.267369 0
0.265705 0.266758 0
0.300542 0.266087 0
0.335485 0.265354 0
0.370489 0.264576 0
0.405585 0.263767 0
0.440757 0.262913 0
0.475975 0.262028 0
0.511254 0.261112 0
0.546578 0.260166 0
0.581949 0.259174 0
0.617365 0.258167 0
0.652827 0.257145 0
0.688319 0.256092 0
0.723857 0.255009 0
0.759411 0.25391 0
0.79501 0.252796 0
0.83064 0.251652 0
0.8663 0.250507 0
0.901976 0.249332 0
0.937682 0.248142 0
0.973419 0.246921 0
1 0.245701 0
0 0.300557 0
0 0.300267 0
0 0.300175 0
0 0.300404 0
0.0272221 0.30132 0
0.0596475 0.301595 0
0.0930343 0.301549 0
0.126894 0.30132 0
0.161059 0.300954 0
0.195453 0.300496 0
0.230015 0.299962 0
0.264714 0.299351 0
0.299535 0.29868 0
0.334462 0.297963 0
0.369467 0.2972 0
0.404547 0.296376 0
0.439689 0.295537 0
0.474907 0.294652 0
0.51017 0.293736 0
0.545495 0.29279 0
0.580865 0.291814 0
0.616266 0.290806 0
0.651713 0.289769 0
0.687205 0.288716 0
0.722728 0.287648 0
0.758297 0.286549 0
0.793881 0.285435 0
0.829496 0.284291 0
0.865156 0.283146 0
0.900832 0.281971 0
0.936538 0.280781 0
0.972259 0.279576 0
1 0.278355 0
0 0.333043 0
0 0.332738 0
0 0.332631 0
0 0.33283 0
0.026566 0.33373 0
0.0588693 0.334035 0
0.0921798 0.33402 0
0.125994 0.333791 0
0.160143 0.33344 0
0.194507 0.332998 0
0.229053 0.332464 0
0.263737 0.331853 0
0.298543 0.331197 0
0.33344 0.33048 0
0.368429 0.329702 0
0.40351 0.328893 0
0.438651 0.328054 0
0.473854 0.327169 0
0.509102 0.326253 0
0.544411 0.325307 0
0.579767 0.324331 0
0.615167 0.323339 0
0.650614 0.322316 0
0.686091 0.321263 0
0.721614 0.32018 0
0.757168 0.319097 0
0.792752 0.317983 0
0.828367 0.316838 0
0.864012 0.315694 0
0.899687 0.314519 0
0.935378 0.313329 0
0.971115 0.312123 0
1 0.310903 0
0 0.365438 0
0 0.365118 0
0 0.364996 0
0 0.365164 0
0.0259403 0.366049 0
0.0580758 0.3664 0
0.0913405 0.366384 0
0.125109 0.366186 0
0.159213 0.36585 0
0.193561 0.365393 0
0.228077 0.364874 0
0.262745 0.364263 0
0.297536 0.363607 0
0.332433 0.36289 0
0.367407 0.362127 0
0.402472 0.361334 0
0.437598 0.360479 0
0.472786 0.359609 0
0.508034 0.358694 0
0.543343 0.357748 0
0.578683 0.356786 0
0.614084 0.355779 0
0.649516 0.354757 0
0.684993 0.353704 0
0.7205 0.352636 0
0.756054 0.351537 0
0.791623 0.350423 0
0.827237 0.349294 0
0.862882 0.34815 0
0.898543 0.346975 0
0.934234 0.345785 0
0.969955 0.344579 0
1 0.343359 0
0 0.397757 0
0 0.397421 0
0 0.397284 0
0 0.397436 0
0.02533 0.398276 0
0.0573129 0.398688 0
0.0905013 0.398688 0
0.124224 0.398489 0
0.158312 0.398154 0
0.192615 0.397726 0
0.227115 0.397192 0
0.261769 0.396597 0
0.296544 0.395941 0
0.331426 0.395239 0
0.366384 0.394476 0
0.401434 0.393683 0
0.436561 0.392844 0
0.471733 0.391959 0
0.506981 0.391058 0
0.542275 0.390112 0
0.577615 0.389136 0
0.613001 0.388144 0
0.648417 0.387121 0
0.683894 0.386069 0
0.719402 0.385 0
0.75494 0.383917 0
0.790509 0.382803 0
0.826108 0.381674 0
0.861753 0.380514 0
0.897414 0.379355 0
0.933089 0.378164 0
0.968811 0.376959 0
1 0.375738 0
0 0.429984 0
0 0.429648 0
0 0.429496 0
0 0.429618 0
0.0247501 0.430426 0
0.0565499 0.430884 0
0.089662 0.430915 0
0.123354 0.430716 0
0.157397 0.430396 0
0.191684 0.429969 0
0.226169 0.42945 0
0.260792 0.428855 0
0.295552 0.428214 0
0.330419 0.427497 0
0.365377 0.426749 0
0.400412 0.425956 0
0.435508 0.425116 0
0.47068 0.424247 0
0.505913 0.423331 0
0.541192 0.4224 0
0.576532 0.421424 0
0.611917 0.420432 0
0.647334 0.419409 0
0.682795 0.418372 0
0.718288 0.417304 0
0.753826 0.416205 0
0.789395 0.415091 0
0.824994 0.413962 0
0.860624 0.412818 0
0.896269 0.411643 0
0.93196 0.410468 0
0.967666 0.409262 0
1 0.408042 0
0 0.462165 0
0 0.461799 0
0 0.461646 0
0 0.461738 0
0.0242313 0.462501 0
0.055787 0.463004 0
0.088838 0.46305 0
0.122484 0.462882 0
0.156497 0.462562 0
0.190753 0.46215 0
0.225208 0.461631 0
0.259831 0.461051 0
0.29456 0.460395 0
0.329412 0.459693 0
0.364355 0.458946 0
0.399374 0.458152 0
0.43447 0.457313 0
0.469642 0.456443 0
0.50486 0.455543 0
0.540139 0.454612 0
0.575463 0.453635 0
0.610834 0.452644 0
0.64625 0.451621 0
0.681697 0.450584 0
0.717189 0.449516 0
0.752712 0.448432 0
0.788281 0.447318 0
0.823865 0.446189 0
0.859495 0.445045 0
0.89514 0.443885 0
0.930816 0.442695 0
0.966522 0.441489 0
1 0.440284 0
0 0.494255 0
0 0.493904 0
0 0.493721 0
0 0.493797 0
0.0237736 0.494484 0
0.0550393 0.495079 0
0.088014 0.49514 0
0.121614 0.494972 0
0.155596 0.494667 0
0.189822 0.494255 0
0.224262 0.493751 0
0.258854 0.493172 0
0.293584 0.492531 0
0.32842 0.491829 0
0.363348 0.491081 0
0.398352 0.490288 0
0.433448 0.489464 0
0.468589 0.488594 0
0.503807 0.487678 0
0.539071 0.486748 0
0.574395 0.485786 0
0.609751 0.484794 0
0.645151 0.483787 0
0.680598 0.482734 0
0.716091 0.481682 0
0.751614 0.480583 0
0.787167 0.479484 0
0.822751 0.478355 0
0.858366 0.477211 0
0.894011 0.476051 0
0.929686 0.474861 0
0.965393 0.473671 0
1 0.47245 0
0 0.526299 0
0 0.525933 0
0 0.52575 0
0 0.525795 0
0.0234379 0.52636 0
0.0543069 0.527062 0
0.0871901 0.527153 0
0.120745 0.527001 0
0.154696 0.526711 0
0.188907 0.526299 0
0.223316 0.525795 0
0.257893 0.525231 0
0.292607 0.52459 0
0.327428 0.523888 0
0.362341 0.523156 0
0.39733 0.522362 0
0.43241 0.521538 0
0.467552 0.520668 0
0.502754 0.519768 0
0.538018 0.518837 0
0.573327 0.517876 0
0.608682 0.516884 0
0.644068 0.515877 0
0.679515 0.514824 0
0.714992 0.513771 0
0.7505 0.512688 0
0.786053 0.511574 0
0.821637 0.51046 0
0.857252 0.509316 0
0.892882 0.508141 0
0.928557 0.506966 0
0.964248 0.50576 0
0.999969 0.504555 0
0 0.558282 0
0 0.5579 0
0 0.557702 0
0 0.557733 0
0.0229648 0.558236 0
0.0535744 0.558999 0
0.0863813 0.559106 0
0.11989 0.558984 0
0.153796 0.558694 0
0.187976 0.558282 0
0.22237 0.557794 0
0.256931 0.557229 0
0.29163 0.556588 0
0.326421 0.555901 0
0.361334 0.555154 0
0.396323 0.554376 0
0.431388 0.553552 0
0.466514 0.552682 0
0.501701 0.551797 0
0.53695 0.550866 0
0.572259 0.549905 0
0.607599 0.548913 0
0.643 0.547906 0
0.678431 0.546868 0
0.713893 0.5458 0
0.749401 0.544717 0
0.784955 0.543618 0
0.820523 0.542489 0
0.856123 0.541344 0
0.891768 0.540185 0
0.927428 0.53901 0
0.963119 0.53782 0
0.998825 0.536599 0
0 0.590219 0
0 0.589822 0
0 0.589609 0
0 0.589624 0
0.0224155 0.590066 0
0.0528573 0.59089 0
0.0855726 0.591012 0
0.119036 0.59089 0
0.152911 0.590616 0
0.18706 0.590219 0
0.221439 0.589731 0
0.25597 0.589166 0
0.290654 0.58854 0
0.325444 0.587854 0
0.360327 0.587121 0
0.3953 0.586328 0
0.43035 0.585504 0
0.465476 0.584649 0
0.500664 0.583749 0
0.535897 0.582834 0
0.571191 0.581872 0
0.606531 0.580896 0
0.641917 0.579873 0
0.677348 0.578836 0
0.71281 0.577783 0
0.748302 0.576699 0
0.783841 0.575601 0
0.819409 0.574472 0
0.855009 0.573343 0
0.890639 0.572168 0
0.926299 0.570993 0
0.96199 0.569802 0
0.997696 0.568597 0
0 0.622095 0
0 0.621683 0
0 0.621469 0
0 0.621469 0
0.0218357 0.621851 0
0.0521401 0.622705 0
0.0847791 0.622858 0
0.118181 0.622751 0
0.152026 0.622492 0
0.186145 0.622095 0
0.220493 0.621622 0
0.255024 0.621057 0
0.289677 0.620432 0
0.324453 0.619745 0
0.359319 0.619013 0
0.394293 0.618235 0
0.429328 0.617426 0
0.464439 0.616556 0
0.499611 0.615671 0
0.534844 0.61474 0
0.570123 0.613794 0
0.605463 0.612802 0
0.640833 0.611795 0
0.676265 0.610773 0
0.711711 0.609705 0
0.747219 0.608637 0
0.782742 0.607523 0
0.818311 0.606409 0
0.853895 0.605264 0
0.889525 0.604105 0
0.92517 0.60293 0
0.960861 0.60174 0
0.996567 0.600534 0
0 0.653925 0
0 0.653513 0
0 0.653269 0
0 0.653254 0
0.0212406 0.653605 0
0.0514382 0.654475 0
0.0839857 0.654658 0
0.117342 0.654566 0
0.151141 0.654307 0
0.185245 0.653925 0
0.219562 0.653452 0
0.254063 0.652903 0
0.288701 0.652277 0
0.323461 0.651591 0
0.358328 0.650874 0
0.393286 0.650095 0
0.428305 0.649271 0
0.463416 0.648417 0
0.498573 0.647532 0
0.533791 0.646616 0
0.56907 0.645655 0
0.604395 0.644678 0
0.639765 0.643671 0
0.675181 0.642634 0
0.710628 0.641581 0
0.74612 0.640513 0
0.781643 0.639414 0
0.817197 0.638285 0
0.852781 0.637156 0
0.888411 0.635996 0
0.924056 0.634821 0
0.959731 0.633631 0
0.995422 0.63241 0
0 0.685695 0
0 0.685283 0
0 0.685039 0
0 0.684993 0
0.0206149 0.685298 0
0.0507515 0.686198 0
0.0831922 0.686412 0
0.116503 0.68632 0
0.150256 0.686076 0
0.184329 0.68571 0
0.218631 0.685237 0
0.253117 0.684688 0
0.287739 0.684077 0
0.322484 0.683391 0
0.357336 0.682673 0
0.392264 0.681895 0
0.427283 0.681086 0
0.462379 0.680232 0
0.497536 0.679347 0
0.532753 0.678431 0
0.568017 0.67747 0
0.603326 0.676493 0
0.638697 0.675502 0
0.674098 0.674464 0
0.709545 0.673411 0
0.745022 0.672343 0
0.780545 0.671244 0
0.816098 0.670115 0
0.851682 0.668986 0
0.887297 0.667826 0
0.922927 0.666651 0
0.958602 0.665461 0
0.994293 0.664256 0
0 0.717433 0
0 0.717006 0
0 0.716747 0
0 0.716686 0
0.0199588 0.71696 0
0.0500801 0.717861 0
0.082414 0.718105 0
0.115663 0.718044 0
0.149386 0.7178 0
0.183429 0.717433 0
0.2177 0.716976 0
0.252171 0.716426 0
0.286778 0.715816 0
0.321508 0.715145 0
0.356344 0.714427 0
0.391272 0.713664 0
0.426276 0.712856 0
0.461357 0.712001 0
0.496498 0.711116 0
0.531701 0.710201 0
0.566964 0.709255 0
0.602274 0.708278 0
0.637629 0.707271 0
0.673014 0.706249 0
0.708461 0.705196 0
0.743938 0.704112 0
0.779446 0.703029 0
0.815 0.7019 0
0.850568 0.700771 0
0.886183 0.699611 0
0.921813 0.698451 0
0.957473 0.697261 0
0.993164 0.696056 0
0 0.749126 0
0 0.748684 0
0 0.748409 0
0 0.748348 0
0.0193027 0.748592 0
0.049424 0.749493 0
0.0816358 0.749752 0
0.114824 0.749706 0
0.148516 0.749477 0
0.182528 0.749126 0
0.216785 0.748669 0
0.251225 0.748135 0
0.285817 0.747524 0
0.320531 0.746853 0
0.355352 0.746136 0
0.390265 0.745373 0
0.425254 0.744564 0
0.460334 0.743725 0
0.49546 0.74284 0
0.530663 0.741924 0
0.565911 0.740978 0
0.601205 0.740001 0
0.636561 0.73901 0
0.671946 0.737972 0
0.707378 0.736934 0
0.742855 0.735851 0
0.778347 0.734768 0
0.813901 0.733654 0
0.84947 0.732509 0
0.885069 0.731365 0
0.920699 0.73019 0
0.956359 0.729 0
0.99205 0.727794 0
0 0.780774 0
0 0.780316 0
0 0.780041 0
0 0.779965 0
0.0186313 0.780163 0
0.0487831 0.781064 0
0.0808728 0.781369 0
0.114 0.781338 0
0.147646 0.781125 0
