src/colors/film_stock_&_vintage/emerald_film.cube
TITLE "Generated by Resolve"
LUT_3D_SIZE 9
0 0 0
0.0363775 0 0
0.172732 0 0
0.312139 0 0
0.452873 0 0
0.594476 0 0
0.73669 0 0
0.879408 0 0
1 0 0
0 0.0361334 0
0.0330358 0.0372778 0
0.168643 0.0364385 0
0.307729 0.0339971 0
0.44828 0.0307469 0
0.589731 0.0269474 0
0.731823 0.0227207 0
0.874434 0.0181582 0
1 0.0133211 0
0 0.169589 0
0.0300145 0.170565 0
0.164797 0.169955 0
0.303593 0.16759 0
0.443946 0.164385 0
0.585245 0.160616 0
0.72723 0.156435 0
0.869749 0.151904 0
1 0.147082 0
0 0.300557 0
0.0272221 0.30132 0
0.161059 0.300954 0
0.299535 0.29868 0
0.439689 0.295537 0
0.580865 0.291814 0
0.722728 0.287648 0
0.865156 0.283146 0
1 0.278355 0
0 0.429984 0
0.0247501 0.430426 0
0.157397 0.430396 0
0.295552 0.428214 0
0.435508 0.425116 0
0.576532 0.421424 0
0.718288 0.417304 0
0.860624 0.412818 0
1 0.408042 0
0 0.558282 0
0.0229648 0.558236 0
0.153796 0.558694 0
0.29163 0.556588 0
0.431388 0.553552 0
0.572259 0.549905 0
0.713893 0.5458 0
0.856123 0.541344 0
0.998825 0.536599 0
0 0.685695 0
0.0206149 0.685298 0
0.150256 0.686076 0
0.287739 0.684077 0
0.427283 0.681086 0
0.568017 0.67747 0
0.709545 0.673411 0
0.851682 0.668986 0
0.994293 0.664256 0
0 0.812375 0
0.0179599 0.811719 0
0.146777 0.812711 0
0.283894 0.810803 0
0.423239 0.807874 0
0.563806 0.804318 0
0.705226 0.800275 0
0.847257 0.79588 0
0.989807 0.791165 0
0 0.93843 0
0.0151369 0.93756 0
0.143359 0.93872 0
0.280079 0.936919 0
0.419211 0.934051 0
0.55964 0.93051 0
0.700923 0.926513 0
0.842878 0.922133 0
0.985321 0.917449 0
0 0 0.0380102
0.0353094 0 0.039353
0.171527 0 0.0384375
0.310872 0 0.035996
0.451575 0 0.0327764
0.593149 0 0.0290074
0.735348 0 0.0248417
0.878035 0 0.020325
1 0 0.0155489
0 0.0348974 0.0339818
0.0319829 0.0360266 0.035172
0.167437 0.0352331 0.0344549
0.306462 0.0328069 0.032105
0.446983 0.0295567 0.0289464
0.588403 0.0257572 0.0252232
0.73048 0.0215457 0.0210727
0.873075 0.0169985 0.0166018
1 0.0121614 0.011841
0 0.168368 0.0301671
0.0289921 0.169299 0.0311894
0.163592 0.168734 0.0307012
0.302327 0.1664 0.0284276
0.442649 0.163195 0.0253147
0.583917 0.159442 0.0216373
0.725887 0.155261 0.0175174
0.868376 0.150729 0.013077
1 0.145922 0.00833143
0 0.299336 0.0264439
0.0262455 0.300038 0.0272221
0.159869 0.299748 0.0270085
0.298283 0.29749 0.0248112
0.438407 0.294347 0.0217594
0.579538 0.290623 0.0181125
0.721386 0.286473 0.0140383
0.863783 0.281971 0.00959792
1 0.27718 0.00488289
0 0.428779 0.0227665
0.0238651 0.429129 0.023209
0.156207 0.429175 0.0233463
0.294301 0.427008 0.0212406
0.434226 0.423926 0.0182345
0.575204 0.420249 0.0146334
0.716945 0.416129 0.0105745
0.859251 0.411643 0.0061799
1 0.406882 0.00148013
0 0.557076 0.0191348
0.0220645 0.556939 0.019089
0.152621 0.557473 0.0196994
0.290379 0.555398 0.0177005
0.430091 0.552361 0.0147402
0.570932 0.548714 0.0111696
0.712551 0.544625 0.00715648
0.854765 0.540185 0.00277714
0.997452 0.535439 0
0 0.684489 0.0155337
0.0196231 0.684031 0.0151675
0.149096 0.684855 0.0160678
0.286488 0.682872 0.0141604
0.426001 0.679896 0.0112612
0.56669 0.676295 0.00773632
0.708202 0.672236 0.00375372
0.850324 0.667811 0
0.99292 0.663096 0
0 0.81117 0.0119783
0.0169375 0.810452 0.0113375
0.145617 0.81149 0.0124666
0.282658 0.809613 0.0106508
0.421942 0.806683 0.00781262
0.562493 0.803128 0.0043183
0.703883 0.7991 0.000366217
0.845899 0.794705 0
0.988418 0.790005 0
0 0.937224 0.00842298
0.0140841 0.936294 0.00758373
0.142199 0.937499 0.00885023
0.278843 0.935714 0.00715648
0.417929 0.932845 0.00436408
0.558328 0.929335 0.000915541
0.699596 0.925338 0
0.841505 0.920974 0
0.983948 0.916289 0
0 0 0.170871
0.034287 0 0.172198
0.170382 0 0.171313
0.309667 0 0.168887
0.45034 0 0.165667
0.591897 0 0.161913
0.734066 0 0.157748
0.876738 0 0.153246
1 0 0.14847
0 0.033753 0.166842
0.0310063 0.0348363 0.168002
0.166293 0.0340887 0.16733
0.305272 0.0316777 0.164996
0.445747 0.0284428 0.161837
0.587137 0.0246433 0.158129
0.729198 0.0204471 0.153994
0.871778 0.0158999 0.149523
1 0.0110628 0.144762
0 0.167208 0.163027
0.0280308 0.168109 0.164004
0.162463 0.16759 0.163577
0.301137 0.165255 0.161318
0.441413 0.162081 0.158221
0.582666 0.158328 0.154543
0.724605 0.154147 0.150439
0.867094 0.14963 0.145983
1 0.144823 0.141253
0 0.298192 0.159304
0.0253452 0.298833 0.160037
0.15874 0.298589 0.159869
0.297093 0.296345 0.157702
0.437171 0.293217 0.15465
0.578286 0.289509 0.151019
0.720119 0.285359 0.146944
0.862501 0.280873 0.142519
1 0.276081 0.137804
0 0.427619 0.155642
0.0230716 0.427893 0.155993
0.155093 0.428031 0.156207
0.293126 0.425879 0.154131
0.433005 0.422797 0.151125
0.573968 0.419135 0.147539
0.715679 0.415015 0.143496
0.857969 0.410544 0.139101
1 0.405783 0.134401
0 0.555917 0.15201
0.02121 0.555718 0.151888
0.151507 0.556313 0.15256
0.289189 0.554253 0.150576
0.42887 0.551232 0.147631
0.56968 0.547601 0.144076
0.711284 0.543511 0.140063
0.853483 0.539071 0.135698
0.996139 0.53434 0.131029
0 0.68333 0.148409
0.0186923 0.682826 0.147982
0.147982 0.683696 0.148943
0.285313 0.681727 0.147051
0.424781 0.678767 0.144167
0.565454 0.675181 0.140642
0.706935 0.671122 0.13666
0.849027 0.666712 0.132326
0.991623 0.661982 0.127672
0 0.81001 0.144854
0.0159609 0.809262 0.144167
0.144518 0.81033 0.145327
0.281483 0.808469 0.143526
0.420737 0.80557 0.140703
0.561242 0.802014 0.137224
0.702617 0.797986 0.133272
0.844617 0.793591 0.128954
0.987121 0.788907 0.124331
0 0.93608 0.141299
0.0130922 0.935119 0.140414
0.141115 0.936339 0.141711
0.277684 0.934569 0.140032
0.416724 0.931731 0.137255
0.557076 0.928222 0.133822
0.698329 0.924224 0.129915
0.840223 0.91986 0.125612
0.982651 0.91519 0.121019
0 0 0.301259
0.0332952 0 0.302556
0.169253 0 0.301701
0.308492 0 0.29929
0.449134 0 0.296086
0.590661 0 0.292348
0.732815 0 0.288182
0.875471 0 0.28368
1 0 0.27892
0 0.0326085 0.29723
0.0300298 0.0336614 0.29836
0.165179 0.0329595 0.297734
0.304112 0.0305638 0.295415
0.444541 0.0273442 0.292256
0.585916 0.0235599 0.288548
0.727947 0.0193484 0.284428
0.870512 0.0148165 0.279957
1 0.0099794 0.275196
0 0.166079 0.293416
0.0271 0.166934 0.294362
0.161364 0.166461 0.293965
0.299977 0.164141 0.291737
0.440208 0.160983 0.28864
0.58143 0.157229 0.284962
0.723354 0.153063 0.280873
0.865812 0.148547 0.276417
1 0.14374 0.271702
0 0.297063 0.289693
0.0244602 0.297642 0.290364
0.157641 0.297459 0.290272
0.295933 0.295232 0.288121
0.435981 0.292119 0.285069
0.57705 0.288411 0.281437
0.718868 0.284276 0.277378
0.861234 0.279789 0.272953
1 0.274998 0.268254
0 0.42649 0.28603
0.022385 0.426657 0.286275
0.153994 0.426902 0.286595
0.291966 0.424765 0.284535
0.4318 0.421698 0.281544
0.572732 0.418036 0.277958
0.714427 0.413916 0.273915
0.856703 0.409461 0.269535
0.999435 0.4047 0.264851
0 0.554788 0.282399
0.0203403 0.554528 0.282216
0.150423 0.555184 0.282948
0.288045 0.55314 0.28098
0.42768 0.550134 0.27805
0.56846 0.546502 0.27451
0.710033 0.542428 0.270497
0.852216 0.537987 0.266133
0.994873 0.533257 0.261463
0 0.682216 0.278813
0.0177768 0.681651 0.278325
0.146899 0.682567 0.279332
0.284169 0.680613 0.277455
0.42359 0.677668 0.274571
0.564233 0.674083 0.271061
0.705684 0.670039 0.267094
0.847761 0.665614 0.26276
0.990341 0.660914 0.258122
0 0.808896 0.275242
0.0149996 0.808087 0.274525
0.143435 0.809201 0.275715
0.280324 0.807355 0.273945
0.419547 0.804456 0.271122
0.560021 0.800916 0.267659
0.701366 0.796902 0.263706
0.843351 0.792508 0.259403
0.98584 0.787823 0.25478
0 0.934951 0.271702
0.0121004 0.933959 0.270787
0.140047 0.935195 0.272099
0.276539 0.933455 0.270436
0.415534 0.930617 0.267674
0.555856 0.927123 0.264256
0.697078 0.92314 0.260334
0.838972 0.918776 0.256046
0.981369 0.914107 0.251453
0 0 0.430091
0.0323186 0 0.431357
0.168154 0 0.430549
0.307347 0 0.428153
0.447944 0 0.424964
0.589441 0 0.421225
0.731579 0 0.41706
0.87422 0 0.412573
1 0 0.407797
0 0.0314946 0.426062
0.0290837 0.032517 0.427161
0.16408 0.0318456 0.426581
0.302953 0.0294652 0.424262
0.443351 0.0262455 0.421134
0.584695 0.0224765 0.417426
0.726711 0.0182803 0.413306
0.869245 0.0137331 0.408835
1 0.00891127 0.404089
0 0.16495 0.422263
0.0261845 0.165759 0.423148
0.160266 0.165347 0.422812
0.298817 0.163043 0.420584
0.439017 0.159884 0.417502
0.580224 0.156146 0.41384
0.722118 0.15198 0.409751
0.864561 0.147478 0.40531
1 0.142672 0.40058
0 0.295933 0.41854
0.0235904 0.296468 0.41915
0.156542 0.296345 0.419104
0.294789 0.294133 0.416968
0.434791 0.291035 0.413931
0.575845 0.287327 0.410315
0.717632 0.283192 0.406256
0.859983 0.278706 0.401846
1 0.27393 0.397131
0 0.425376 0.414862
0.0216983 0.425422 0.415
0.152911 0.425788 0.415442
0.290806 0.423667 0.413397
0.430625 0.4206 0.410407
0.571527 0.416953 0.406836
0.713191 0.412848 0.402808
0.855451 0.408392 0.398413
0.998169 0.403632 0.393729
0 0.553674 0.411246
0.0194705 0.553353 0.411002
0.14934 0.55407 0.411795
0.2869 0.552041 0.409842
0.42649 0.549035 0.406912
0.567254 0.545419 0.403372
0.708812 0.541344 0.399374
0.850965 0.536919 0.39501
0.993606 0.532189 0.390356
0 0.681102 0.407645
0.016846 0.680491 0.407126
0.14583 0.681453 0.408164
0.283024 0.679515 0.406302
0.422415 0.67657 0.403449
0.563027 0.672999 0.399939
0.704463 0.668956 0.395972
0.846525 0.664546 0.391638
0.989075 0.659846 0.386999
0 0.807782 0.404089
0.0140536 0.806943 0.403326
0.142382 0.808072 0.404547
0.279194 0.806256 0.402792
0.418372 0.803372 0.399985
0.558816 0.799832 0.396521
0.700145 0.795819 0.392584
0.8421 0.79144 0.388281
0.984573 0.786755 0.383658
0 0.933852 0.400549
0.0111238 0.932815 0.399588
0.138994 0.934066 0.400931
0.27541 0.932357 0.399283
0.414359 0.929534 0.396536
0.55465 0.92604 0.393118
0.695857 0.922057 0.389212
0.83772 0.917693 0.384939
0.980117 0.913039 0.380346
0 0 0.557794
0.0313573 0 0.559045
0.167056 0 0.558251
0.306188 0 0.555886
0.446769 0 0.552697
0.588235 0 0.548959
0.730343 0 0.544808
0.872969 0 0.540322
1 0 0.535561
0 0.0303807 0.553765
0.0281376 0.0313726 0.554833
0.162997 0.0307469 0.554284
0.301808 0.0283818 0.551995
0.442176 0.0251774 0.548867
0.58349 0.0214084 0.545159
0.72549 0.0172122 0.541054
0.868009 0.0126802 0.536583
1 0.0078584 0.531853
0 0.163851 0.549966
0.0252842 0.164614 0.550805
0.159182 0.164248 0.550515
0.297673 0.161959 0.548318
0.437842 0.158801 0.545235
0.579019 0.155077 0.541573
0.720897 0.150912 0.537484
0.863325 0.14641 0.533059
1 0.141619 0.528344
0 0.294835 0.546242
0.0227665 0.295293 0.546777
0.155474 0.295247 0.546807
0.293645 0.29305 0.544686
0.433616 0.289952 0.541665
0.574639 0.286259 0.538048
0.716411 0.282124 0.534005
0.858732 0.277653 0.529595
1 0.272877 0.524895
0 0.424262 0.54258
0.0209354 0.424231 0.542626
0.151843 0.424674 0.543145
0.289677 0.422568 0.541115
0.42945 0.419532 0.53814
0.570321 0.415869 0.534569
0.711971 0.41178 0.530541
0.8542 0.407324 0.526162
0.996918 0.402579 0.521492
0 0.552575 0.538949
0.0185855 0.552193 0.538643
0.148272 0.552956 0.539498
0.285771 0.550942 0.53756
0.42533 0.547967 0.534646
0.566049 0.54435 0.531106
0.707591 0.540276 0.527123
0.849729 0.535851 0.522759
0.992355 0.531121 0.518105
0 0.679988 0.535363
0.0159304 0.679332 0.534783
0.144778 0.680339 0.535866
0.281895 0.678416 0.53402
0.421241 0.675486 0.531167
0.561822 0.671931 0.527672
0.703243 0.667887 0.52372
0.845289 0.663493 0.519387
0.987823 0.658778 0.514748
0 0.806683 0.531792
0.0130922 0.805798 0.530999
0.141329 0.806958 0.532235
0.278065 0.805158 0.53051
0.417197 0.802289 0.527718
0.557626 0.798749 0.524254
0.698924 0.794751 0.520333
0.840864 0.790372 0.51603
0.983322 0.785687 0.511421
0 0.932754 0.528252
0.0101625 0.93167 0.52726
0.137942 0.932952 0.528618
0.274281 0.931258 0.527001
0.413184 0.92845 0.524269
0.55346 0.924956 0.520851
0.694636 0.920989 0.51696
0.836484 0.91664 0.512688
0.978866 0.911971 0.508095
0 0 0.684596
0.0304112 0 0.685817
0.165972 0 0.685069
0.305058 0 0.682719
0.445594 0 0.67953
0.58703 0 0.675807
0.729122 0 0.671656
0.871733 0 0.667185
1 0 0.662425
0 0.0292821 0.680568
0.0272221 0.0302281 0.681605
0.161913 0.0296483 0.681102
0.300664 0.0272984 0.678828
0.441001 0.024094 0.6757
0.5823 0.0203403 0.672007
0.724269 0.016144 0.667903
0.866773 0.0116274 0.663447
1 0.00680552 0.658701
0 0.162737 0.676768
0.0243992 0.16347 0.677577
0.158099 0.163149 0.677333
0.296544 0.160876 0.675135
0.436683 0.157733 0.672068
0.577829 0.154009 0.668421
0.719676 0.149859 0.664347
0.862089 0.145357 0.659922
1 0.140566 0.655192
0 0.293736 0.67306
0.0219577 0.294118 0.673518
0.154406 0.294148 0.673625
0.292515 0.291966 0.671519
0.432441 0.288884 0.668513
0.573449 0.285191 0.664897
0.71519 0.281071 0.660853
0.857511 0.2766 0.656443
1 0.271824 0.651759
0 0.423178 0.669398
0.0201419 0.423056 0.669367
0.150774 0.423575 0.669947
0.288548 0.421485 0.667948
0.428275 0.418448 0.664988
0.569131 0.414816 0.661418
0.710765 0.410712 0.657389
0.852979 0.406271 0.653025
0.995666 0.401526 0.648341
0 0.551476 0.665766
0.0177157 0.551034 0.665415
0.147219 0.551858 0.6663
0.284642 0.549859 0.664393
0.424155 0.546883 0.661479
0.564858 0.543282 0.657954
0.706371 0.539223 0.653971
0.848493 0.534798 0.649622
0.991104 0.530068 0.644968
0 0.678904 0.662181
0.0150149 0.678203 0.661555
0.143725 0.679225 0.662669
0.280781 0.677333 0.660853
0.420081 0.674418 0.658015
0.560632 0.670863 0.654521
0.702022 0.666835 0.650568
0.844053 0.662425 0.64625
0.986572 0.657725 0.641611
0 0.805585 0.65861
0.0121462 0.804669 0.657786
0.140291 0.805859 0.659052
0.276951 0.804074 0.657328
0.416037 0.801205 0.654551
0.556435 0.797696 0.651102
0.697719 0.793698 0.647181
0.839643 0.789319 0.642878
0.982086 0.784634 0.63827
0 0.931655 0.655085
0.00918593 0.930541 0.654047
0.136919 0.931838 0.655436
0.273167 0.930175 0.653834
0.412039 0.927367 0.651102
0.552285 0.923888 0.6477
0.693431 0.919921 0.643809
0.835264 0.915587 0.639536
0.977615 0.910918 0.634958
0 0 0.810666
0.0294652 0 0.811872
0.164889 0 0.811154
0.303914 0 0.808804
0.444419 0 0.805646
0.58584 0 0.801923
0.727916 0 0.797787
0.870512 0 0.793301
1 0 0.78854
0 0.0281834 0.806638
0.0263066 0.029099 0.807645
0.16083 0.0285649 0.807187
0.299535 0.026215 0.804913
0.439841 0.0230411 0.801801
0.581109 0.0192721 0.798123
0.723064 0.0150912 0.794018
0.865553 0.0105745 0.789563
1 0.00576791 0.784833
0 0.161654 0.802853
0.0235294 0.162325 0.803601
0.157031 0.162051 0.803418
0.295415 0.159808 0.801236
0.435523 0.156664 0.798184
0.576638 0.152956 0.794537
0.718471 0.148806 0.790463
0.860868 0.144305 0.786038
1 0.139513 0.781323
0 0.292638 0.79913
0.0211795 0.292958 0.799527
0.153338 0.29305 0.79971
0.291386 0.290883 0.79762
0.431296 0.287816 0.794614
0.572259 0.284138 0.791012
0.713985 0.280018 0.786969
0.856275 0.275547 0.782574
0.999039 0.270787 0.777874
0 0.42208 0.795468
0.0193332 0.421897 0.795377
0.149722 0.422477 0.796033
0.287434 0.420417 0.794034
0.427131 0.41738 0.791089
0.567941 0.413748 0.787533
0.70956 0.409659 0.78352
0.851759 0.405219 0.779141
0.99443 0.400473 0.774472
0 0.550393 0.791852
0.0168307 0.549905 0.79144
0.146166 0.550759 0.792386
0.283528 0.548791 0.790478
0.423011 0.545815 0.787594
0.563684 0.542229 0.78407
0.705165 0.53817 0.780087
0.847272 0.533745 0.775738
0.989868 0.52903 0.771099
0 0.677806 0.788266
0.0140841 0.677073 0.787594
0.142687 0.678126 0.788739
0.279667 0.676265 0.786954
0.418936 0.67335 0.784115
0.559457 0.669795 0.780636
0.700832 0.665766 0.776684
0.842832 0.661387 0.772366
0.985336 0.656687 0.767742
0 0.804501 0.784695
0.0112001 0.80354 0.783825
0.139254 0.804761 0.785122
0.275853 0.802991 0.783429
0.414893 0.800137 0.780652
0.555261 0.796628 0.777218
0.696513 0.79263 0.773297
0.838422 0.788266 0.769009
0.98085 0.783597 0.764401
0 0.930571 0.78117
0.00822461 0.929427 0.780102
0.135882 0.930739 0.781491
0.272068 0.929091 0.779919
0.410895 0.926299 0.777203
0.551095 0.922835 0.773816
0.692241 0.918868 0.769924
0.834043 0.914534 0.765652
0.976394 0.90988 0.761074
0 0 0.936126
0.0285344 0 0.937285
0.163821 0 0.936614
0.3028 0 0.934279
0.443259 0 0.931121
0.584649 0 0.927413
0.726711 0 0.923278
0.869291 0 0.918807
1 0 0.914046
0 0.0270848 0.932097
0.0254063 0.0279698 0.933059
0.159762 0.0274815 0.932631
0.298421 0.0251469 0.930388
0.438682 0.021973 0.927291
0.579919 0.0182193 0.923613
0.721859 0.0140536 0.919509
0.864332 0.00953689 0.915068
1 0.0047303 0.910338
0 0.160555 0.928298
0.0226749 0.161181 0.929
0.155978 0.160967 0.928862
0.294301 0.15874 0.926711
0.434363 0.155612 0.923659
0.575448 0.151904 0.920027
0.717281 0.147753 0.915953
0.859648 0.143267 0.911543
1 0.138476 0.906828
0 0.291554 0.92459
0.0204623 0.291768 0.92488
0.152285 0.291966 0.925155
0.290272 0.289815 0.923095
0.430137 0.286748 0.920089
0.571084 0.283085 0.916503
0.712779 0.278965 0.912459
0.855055 0.274495 0.908064
0.997803 0.269734 0.90338
0 0.420996 0.920928
0.0185092 0.420752 0.92076
0.148669 0.421393 0.921477
0.28632 0.419333 0.919509
0.425971 0.416327 0.916564
0.566766 0.412695 0.913008
0.708354 0.408621 0.90901
0.850538 0.404181 0.904646
0.993194 0.399435 0.899977
0 0.54931 0.917311
0.0159457 0.54876 0.916854
0.145129 0.549661 0.91783
0.282414 0.547707 0.915953
0.421866 0.544762 0.913069
0.562509 0.541161 0.90956
0.703975 0.537118 0.905577
0.846052 0.532708 0.901244
0.988632 0.527993 0.89659
0 0.676722 0.913725
0.0131685 0.675944 0.913024
0.141649 0.677043 0.914199
0.278553 0.675181 0.912413
0.417792 0.672282 0.90959
0.558282 0.668742 0.906126
0.699626 0.664729 0.902174
0.841611 0.660334 0.897856
0.984115 0.655634 0.893233
0 0.803418 0.910155
0.0102541 0.802426 0.909255
0.138231 0.803662 0.910567
0.274739 0.801907 0.908888
0.413748 0.799069 0.906126
0.554086 0.795575 0.902693
0.695323 0.791592 0.898787
0.837217 0.787228 0.894499
0.979629 0.782559 0.889906
0 0.929488 0.90663
0.00726329 0.928313 0.905531
0.134874 0.929641 0.906935
0.27097 0.928008 0.905379
0.409751 0.925231 0.902678
0.549935 0.921767 0.89929
0.691035 0.917815 0.895415
0.832837 0.913481 0.891157
0.975158 0.908827 0.88658
