src/colors/film_stock_&_vintage/emerald_film.cube
TITLE "Generated by Resolve"
LUT_3D_SIZE 5
0 0 0
0.172732 0 0
0.452873 0 0
0.73669 0 0
1 0 0
0 0.169589 0
0.164797 0.169955 0
0.443946 0.164385 0
0.72723 0.156435 0
1 0.147082 0
0 0.429984 0
0.157397 0.430396 0
0.435508 0.425116 0
0.718288 0.417304 0
1 0.408042 0
0 0.685695 0
0.150256 0.686076 0
0.427283 0.681086 0
0.709545 0.673411 0
0.994293 0.664256 0
0 0.93843 0
0.143359 0.93872 0
0.419211 0.934051 0
0.700923 0.926513 0
0.985321 0.917449 0
0 0 0.170871
0.170382 0 0.171313
0.45034 0 0.165667
0.734066 0 0.157748
1 0 0.14847
0 0.167208 0.163027
0.162463 0.16759 0.163577
0.441413 0.162081 0.158221
0.724605 0.154147 0.150439
1 0.144823 0.141253
0 0.427619 0.155642
0.155093 0.428031 0.156207
0.433005 0.422797 0.151125
0.715679 0.415015 0.143496
1 0.405783 0.134401
0 0.68333 0.148409
0.147982 0.683696 0.148943
0.424781 0.678767 0.144167
0.706935 0.671122 0.13666
0.991623 0.661982 0.127672
0 0.93608 0.141299
0.141115 0.936339 0.141711
0.416724 0.931731 0.137255
0.698329 0.924224 0.129915
0.982651 0.91519 0.121019
0 0 0.430091
0.168154 0 0.430549
0.447944 0 0.424964
0.731579 0 0.41706
1 0 0.407797
0 0.16495 0.422263
0.160266 0.165347 0.422812
0.439017 0.159884 0.417502
0.722118 0.15198 0.409751
1 0.142672 0.40058
0 0.425376 0.414862
0.152911 0.425788 0.415442
0.430625 0.4206 0.410407
0.713191 0.412848 0.402808
0.998169 0.403632 0.393729
0 0.681102 0.407645
0.14583 0.681453 0.408164
0.422415 0.67657 0.403449
0.704463 0.668956 0.395972
0.989075 0.659846 0.386999
0 0.933852 0.400549
0.138994 0.934066 0.400931
0.414359 0.929534 0.396536
0.695857 0.922057 0.389212
0.980117 0.913039 0.380346
0 0 0.684596
0.165972 0 0.685069
0.445594 0 0.67953
0.729122 0 0.671656
1 0 0.662425
0 0.162737 0.676768
0.158099 0.163149 0.677333
0.436683 0.157733 0.672068
0.719676 0.149859 0.664347
1 0.140566 0.655192
0 0.423178 0.669398
0.150774 0.423575 0.669947
0.428275 0.418448 0.664988
0.710765 0.410712 0.657389
0.995666 0.401526 0.648341
0 0.678904 0.662181
0.143725 0.679225 0.662669
0.420081 0.674418 0.658015
0.702022 0.666835 0.650568
0.986572 0.657725 0.641611
0 0.931655 0.655085
0.136919 0.931838 0.655436
0.412039 0.927367 0.651102
0.693431 0.919921 0.643809
0.977615 0.910918 0.634958
0 0 0.936126
0.163821 0 0.936614
0.443259 0 0.931121
0.726711 0 0.923278
1 0 0.914046
0 0.160555 0.928298
0.155978 0.160967 0.928862
0.434363 0.155612 0.923659
0.717281 0.147753 0.915953
1 0.138476 0.906828
0 0.420996 0.920928
0.148669 0.421393 0.921477
0.425971 0.416327 0.916564
0.708354 0.408621 0.90901
0.993194 0.399435 0.899977
0 0.676722 0.913725
0.141649 0.677043 0.914199
0.417792 0.672282 0.90959
0.699626 0.664729 0.902174
0.984115 0.655634 0.893233
0 0.929488 0.90663
0.134874 0.929641 0.906935
0.409751 0.925231 0.902678
0.691035 0.917815 0.895415
0.975158 0.908827 0.88658
