src/colors/film_stock_&_vintage/faded_memories.cube
TITLE "Generated by Resolve"
LUT_3D_SIZE 5
0.0975662 0.151293 0.182696
0.161044 0.192538 0.217853
0.224826 0.233707 0.252903
0.310552 0.268376 0.287602
0.46714 0.282765 0.314565
0.243015 0.309667 0.303578
0.323262 0.346731 0.330632
0.454322 0.370001 0.344854
0.641535 0.377966 0.345357
0.875395 0.373144 0.335149
0.237995 0.518883 0.363989
0.386954 0.539071 0.356023
0.580377 0.546471 0.343664
0.799146 0.546319 0.331548
1 0.543481 0.323018
0.185351 0.748867 0.358862
0.397711 0.749935 0.353506
0.618708 0.747967 0.35285
0.837751 0.74638 0.354208
1 0.74583 0.356909
0.226993 0.947585 0.385885
0.44889 0.944823 0.390372
0.681941 0.93608 0.421332
0.894728 0.928313 0.502251
1 0.935897 0.643626
0.114717 0.166491 0.201297
0.178286 0.207706 0.236408
0.242145 0.248859 0.271412
0.347906 0.277012 0.31165
0.516945 0.286992 0.345647
0.252476 0.326207 0.331441
0.339757 0.360418 0.366201
0.47985 0.380148 0.388815
0.674754 0.384939 0.398077
0.911452 0.378424 0.396277
0.237125 0.535515 0.421393
0.395575 0.552087 0.421195
0.594507 0.557229 0.415198
0.814649 0.556191 0.407782
1 0.553552 0.402304
0.194507 0.760464 0.436667
0.410697 0.760174 0.433509
0.632044 0.758083 0.433127
0.850431 0.756741 0.433921
1 0.756588 0.436759
0.242634 0.957092 0.465263
0.469368 0.952621 0.472496
0.70811 0.941573 0.509499
0.915755 0.935042 0.593317
1 0.947951 0.728435
0.131899 0.181689 0.219867
0.19556 0.222889 0.254932
0.26276 0.262852 0.291737
0.386404 0.284718 0.341711
0.568002 0.29015 0.383749
0.260975 0.342397 0.365805
0.355718 0.37351 0.409125
0.504768 0.389715 0.440421
0.706371 0.391684 0.457816
0.944717 0.383963 0.463111
0.236957 0.551293 0.485328
0.404501 0.564538 0.491356
0.608255 0.567758 0.490043
0.829297 0.56614 0.485817
1 0.563897 0.482124
0.205097 0.771511 0.515694
0.424414 0.770199 0.513573
0.645441 0.768231 0.512734
0.863172 0.767163 0.512917
1 0.76791 0.5178
0.258427 0.966628 0.543908
0.494713 0.958984 0.554452
0.738048 0.946334 0.593851
0.938567 0.942123 0.675715
1 0.961166 0.797803
0.149111 0.196872 0.238422
0.212848 0.238056 0.273457
0.291875 0.273503 0.320211
0.425971 0.291432 0.378408
0.619928 0.292287 0.429282
0.268467 0.35816 0.407248
0.371115 0.386007 0.459693
0.528878 0.398764 0.499443
0.736171 0.398337 0.523888
0.975158 0.389868 0.534707
0.237736 0.566217 0.55491
0.413794 0.576471 0.565515
0.621714 0.578134 0.56733
0.843198 0.576196 0.564904
1 0.574517 0.561898
0.217029 0.782116 0.595254
0.438392 0.780179 0.593133
0.65893 0.778439 0.591669
0.875959 0.77763 0.591165
1 0.77998 0.598184
0.276631 0.975494 0.622202
0.525399 0.964004 0.63415
0.771923 0.950576 0.67187
0.963088 0.949859 0.746654
1 0.97554 0.850294
0.166354 0.212055 0.256962
0.230152 0.253208 0.291966
0.321584 0.283345 0.354879
0.466468 0.297139 0.422278
0.672251 0.293538 0.482521
0.274998 0.373449 0.45623
0.385946 0.397894 0.517952
0.552026 0.407401 0.565347
0.764035 0.405005 0.595392
1 0.396185 0.610086
0.239597 0.580331 0.629191
0.423499 0.587961 0.642741
0.634943 0.588418 0.64622
0.856474 0.586404 0.644419
1 0.585275 0.641138
0.230259 0.792325 0.674769
0.452476 0.790204 0.672038
0.67248 0.788678 0.669902
0.888624 0.78819 0.668879
1 0.793027 0.675792
0.301198 0.982544 0.699641
0.561868 0.967742 0.709285
0.809796 0.954513 0.740948
0.989029 0.958541 0.803815
1 0.99089 0.886091
