src/colors/film_stock_&_vintage/faded_memories.cube
TITLE "Generated by Resolve"
LUT_3D_SIZE 33
0.0975662 0.151293 0.182696
0.105486 0.156451 0.187106
0.113405 0.161608 0.191501
0.121324 0.166766 0.195895
0.129259 0.171923 0.20029
0.137194 0.177081 0.204685
0.145144 0.182239 0.209079
0.153094 0.187381 0.213474
0.161044 0.192538 0.217853
0.168994 0.197681 0.222248
0.176959 0.202838 0.226627
0.184924 0.20798 0.231006
0.192905 0.213123 0.235386
0.20087 0.218265 0.239765
0.20885 0.223423 0.244144
0.216831 0.228565 0.248524
0.224826 0.233707 0.252903
0.232807 0.238834 0.257282
0.240803 0.243977 0.261646
0.248798 0.249119 0.266026
0.256809 0.254261 0.27039
0.266087 0.259007 0.2748
0.280125 0.262348 0.27921
0.294942 0.265476 0.283482
0.310552 0.268376 0.287602
0.32697 0.271046 0.291585
0.344244 0.273487 0.295399
0.362371 0.275685 0.299046
0.38143 0.277638 0.30251
0.401404 0.279316 0.305806
0.422324 0.280735 0.308919
0.444236 0.281895 0.311833
0.46714 0.282765 0.314565
0.117372 0.170611 0.197742
0.125292 0.175753 0.202136
0.133227 0.180911 0.206531
0.141176 0.186069 0.210925
0.149126 0.191226 0.21532
0.157076 0.196368 0.219699
0.165026 0.201526 0.224094
0.172992 0.206668 0.228473
0.180957 0.21181 0.232853
0.188922 0.216968 0.237232
0.196902 0.22211 0.241627
0.204883 0.227253 0.245991
0.212863 0.232395 0.25037
0.220844 0.237537 0.254749
0.228824 0.242679 0.259129
0.23682 0.247822 0.263493
0.244816 0.252964 0.267872
0.252811 0.258091 0.272251
0.263478 0.26244 0.276707
0.2766 0.266056 0.281117
0.29044 0.269459 0.285389
0.305058 0.272648 0.289525
0.320455 0.275639 0.293507
0.336675 0.278386 0.297322
0.35375 0.280903 0.300969
0.371695 0.283177 0.304433
0.390539 0.285191 0.307744
0.410315 0.286961 0.310842
0.431037 0.288472 0.313771
0.45272 0.289708 0.316487
0.475395 0.290669 0.319005
0.499077 0.291341 0.321309
0.523781 0.291752 0.323415
0.137224 0.189914 0.212772
0.145174 0.195071 0.217166
0.153124 0.200214 0.221561
0.161074 0.205371 0.22594
0.169024 0.210513 0.23032
0.176989 0.215656 0.234714
0.184955 0.220813 0.239094
0.192935 0.225956 0.243473
0.200916 0.231098 0.247852
0.208896 0.23624 0.252232
0.216876 0.241382 0.256611
0.224857 0.246525 0.26099
0.232853 0.251667 0.265354
0.240848 0.256809 0.269734
0.248844 0.261952 0.274098
0.260136 0.266087 0.278645
0.272297 0.269993 0.283055
0.285161 0.273686 0.287343
0.298756 0.27718 0.291478
0.31313 0.280476 0.295445
0.328283 0.283543 0.29926
0.344259 0.286381 0.302922
0.361074 0.288991 0.306386
0.378775 0.291356 0.309697
0.39736 0.293462 0.312795
0.416876 0.295338 0.315724
0.437324 0.296941 0.318441
0.458732 0.298268 0.320958
0.481117 0.299336 0.323262
0.504509 0.300145 0.325368
0.528878 0.300664 0.327245
0.554284 0.300908 0.328893
0.580682 0.300862 0.330327
0.157122 0.209216 0.227802
0.165072 0.214359 0.232181
0.173037 0.219501 0.236561
0.181003 0.224659 0.24094
0.188968 0.229801 0.245335
0.196948 0.234943 0.249714
0.204929 0.240085 0.254093
0.212909 0.245228 0.258457
0.22089 0.25037 0.262837
0.228885 0.255512 0.267216
0.236866 0.260655 0.27158
0.245502 0.265599 0.276036
0.256031 0.269963 0.280598
0.267201 0.274159 0.285023
0.279057 0.278157 0.289296
0.29163 0.281956 0.293431
0.304936 0.285557 0.297414
0.319005 0.28896 0.301228
0.333852 0.292119 0.304891
0.349538 0.295079 0.30837
0.366049 0.29778 0.311666
0.383444 0.300267 0.314778
0.401709 0.302495 0.317693
0.420905 0.304463 0.320424
0.441032 0.306188 0.322942
0.462104 0.307652 0.325246
0.484138 0.308843 0.327337
0.507149 0.309773 0.329229
0.531151 0.31043 0.330877
0.55613 0.310811 0.332311
0.582101 0.310933 0.333532
0.609049 0.31078 0.334508
0.636973 0.310353 0.335271
0.177035 0.228504 0.242802
0.185 0.233646 0.247181
0.192981 0.238788 0.25156
0.200961 0.243931 0.25594
0.208942 0.249073 0.260319
0.216922 0.254215 0.264698
0.224903 0.259358 0.269078
0.232898 0.2645 0.273442
0.241581 0.269413 0.278019
0.251133 0.274083 0.282582
0.261311 0.278569 0.287007
0.272129 0.282872 0.291279
0.28365 0.286992 0.29543
0.295872 0.290913 0.299413
0.308827 0.294636 0.303227
0.322545 0.298146 0.306874
0.337041 0.301442 0.310369
0.352377 0.304509 0.313664
0.368536 0.307347 0.316777
0.385565 0.309941 0.319692
0.403464 0.312306 0.322423
0.422278 0.314412 0.324941
0.442023 0.316274 0.327245
0.462699 0.317876 0.329351
0.484321 0.319219 0.331228
0.506905 0.320287 0.332891
0.530449 0.321111 0.334325
0.554971 0.321645 0.335531
0.580438 0.321935 0.336522
0.606867 0.321965 0.337285
0.634226 0.321736 0.337835
0.662516 0.321248 0.338155
0.691707 0.320516 0.338262
0.196994 0.247791 0.257801
0.204974 0.252934 0.262181
0.212955 0.258076 0.266545
0.220935 0.263218 0.270924
0.228916 0.26836 0.275303
0.236896 0.273472 0.280003
0.245441 0.278416 0.284566
0.254597 0.283207 0.289006
0.264378 0.287831 0.293294
0.2748 0.292271 0.297429
0.285924 0.296513 0.301411
0.297749 0.300572 0.305241
0.310292 0.304433 0.308888
0.323613 0.30808 0.312383
0.337713 0.311513 0.315679
0.352636 0.314717 0.318791
0.368383 0.317708 0.321721
0.385 0.320455 0.324437
0.402472 0.322957 0.326955
0.420859 0.325216 0.329274
0.440162 0.32723 0.331365
0.46038 0.328984 0.333257
0.481529 0.33048 0.33492
0.503624 0.331731 0.336355
0.526665 0.332708 0.337575
0.550652 0.33344 0.338567
0.57557 0.333913 0.339345
0.601419 0.334127 0.339895
0.628183 0.334096 0.340215
0.655833 0.333822 0.340337
0.684352 0.333318 0.340246
0.71371 0.33257 0.33994
0.743877 0.331624 0.339437
0.216968 0.267063 0.272786
0.22443 0.272343 0.277317
0.231418 0.277745 0.282017
0.238956 0.283009 0.28658
0.247059 0.288106 0.29102
0.255756 0.293034 0.295308
0.265095 0.29781 0.299458
0.275074 0.302388 0.303441
0.28574 0.306798 0.307271
0.297124 0.310994 0.310933
0.309224 0.315007 0.314412
0.322087 0.318807 0.317723
0.335729 0.322393 0.320836
0.350195 0.325765 0.323766
0.365469 0.328893 0.326482
0.381613 0.331807 0.329
0.398627 0.334478 0.331319
0.416526 0.336904 0.333425
0.435325 0.339071 0.335302
0.455039 0.341009 0.336965
0.47567 0.342687 0.338415
0.49723 0.344106 0.339635
0.519707 0.345281 0.340642
0.543114 0.346197 0.341421
0.567437 0.346883 0.34197
0.59266 0.347295 0.342321
0.618769 0.347478 0.342443
0.645731 0.347433 0.342367
0.673533 0.347158 0.342077
0.702144 0.346654 0.341588
0.731533 0.345953 0.340932
0.761639 0.345037 0.340078
0.792447 0.343938 0.339055
0.231647 0.287831 0.288624
0.238682 0.293248 0.293065
0.246296 0.298497 0.297353
0.254505 0.303609 0.301503
0.26334 0.308537 0.305501
0.272816 0.313283 0.309331
0.282994 0.317845 0.312993
0.293858 0.322225 0.316472
0.305455 0.32639 0.319783
0.317815 0.330373 0.322896
0.330953 0.334127 0.325826
0.3449 0.337667 0.328557
0.35967 0.340978 0.331075
0.375296 0.34406 0.333394
0.391775 0.346899 0.335485
0.40914 0.349508 0.337377
0.42739 0.351873 0.339055
0.446555 0.353979 0.340505
0.466621 0.355856 0.341726
0.487602 0.357473 0.342733
0.509483 0.358846 0.343511
0.53228 0.359976 0.344091
0.555962 0.360845 0.344442
0.580514 0.361501 0.344579
0.605936 0.361898 0.344503
0.632197 0.362081 0.344244
0.659251 0.362036 0.343786
0.687099 0.361791 0.34313
0.715694 0.361334 0.342306
0.744976 0.360678 0.341314
0.774807 0.359884 0.3402
0.80531 0.358907 0.338933
0.836378 0.357763 0.33753
0.243015 0.309667 0.303578
0.250675 0.314946 0.307576
0.258961 0.320043 0.311406
0.267903 0.324971 0.315068
0.277516 0.329732 0.318547
0.287831 0.334279 0.321859
0.298878 0.338643 0.324987
0.310689 0.342794 0.327916
0.323262 0.346731 0.330632
0.33666 0.350454 0.333165
0.350866 0.353964 0.335485
0.365911 0.357229 0.337591
0.381826 0.360265 0.339483
0.398611 0.363058 0.341146
0.416297 0.365621 0.342596
0.434852 0.367941 0.343832
0.454322 0.370001 0.344854
0.474678 0.371832 0.345647
0.495933 0.373404 0.346212
0.518074 0.374746 0.346578
0.5411 0.375845 0.346731
0.564965 0.376715 0.346685
0.589685 0.377356 0.346426
0.615213 0.377768 0.345983
0.641535 0.377966 0.345357
0.668605 0.377951 0.344564
0.696391 0.377752 0.343603
0.724727 0.377386 0.342519
0.75378 0.376837 0.341283
0.783413 0.37612 0.33991
0.813596 0.375265 0.33843
0.844266 0.374258 0.336828
0.875395 0.373144 0.335149
0.251835 0.332403 0.317159
0.260182 0.33753 0.320653
0.269184 0.342473 0.323964
0.278904 0.347219 0.327092
0.289357 0.351781 0.330022
0.300572 0.35613 0.332753
0.312551 0.360265 0.335271
0.325338 0.364187 0.337591
0.338949 0.36788 0.339696
0.353399 0.371359 0.341588
0.368704 0.374594 0.343267
0.384878 0.3776 0.344732
0.401938 0.380362 0.345968
0.419883 0.382879 0.34699
0.438712 0.385168 0.347784
0.458427 0.387198 0.348379
0.479026 0.388998 0.348745
0.500511 0.390555 0.348913
0.52285 0.391867 0.348882
0.546029 0.392966 0.348638
0.570031 0.39382 0.348226
0.594827 0.394476 0.347616
0.620401 0.394903 0.346853
0.646708 0.395148 0.345922
0.673594 0.395209 0.344869
0.701198 0.395087 0.343664
0.729427 0.394781 0.342321
0.758221 0.394324 0.340871
0.787549 0.393729 0.33933
0.817349 0.392996 0.337682
0.847578 0.392142 0.335958
0.878218 0.391165 0.334173
0.909209 0.390097 0.332326
0.257908 0.3561 0.329213
0.266987 0.361074 0.332143
0.276783 0.365835 0.334874
0.287358 0.370398 0.337407
0.298711 0.374746 0.339727
0.310857 0.378882 0.341833
0.323827 0.382788 0.34374
0.337636 0.386465 0.345418
0.352316 0.389914 0.346883
0.367849 0.393133 0.348119
0.384268 0.396109 0.349142
0.401572 0.39884 0.34995
0.41976 0.401328 0.350561
0.438819 0.403571 0.350942
0.458762 0.405585 0.351125
0.479576 0.40737 0.351095
0.501228 0.408911 0.350881
0.52372 0.410224 0.350484
0.547021 0.411307 0.349905
0.571099 0.412177 0.349157
0.59588 0.412863 0.348287
0.621408 0.413336 0.34725
0.647608 0.413626 0.346075
0.674449 0.413733 0.344778
0.701885 0.413687 0.343359
0.72987 0.413474 0.341848
0.758389 0.413108 0.340246
0.787366 0.412619 0.338567
0.816785 0.412009 0.336828
0.846586 0.411292 0.335027
0.876738 0.410483 0.333181
0.907195 0.409567 0.331304
0.937911 0.408591 0.329397
0.261067 0.38085 0.339559
0.270954 0.385626 0.341878
0.281636 0.390204 0.343984
0.293126 0.394553 0.345892
0.30544 0.398672 0.34757
0.318608 0.402579 0.34905
0.332616 0.406241 0.350286
0.347509 0.409659 0.351324
0.363287 0.412848 0.352148
0.379934 0.415793 0.352758
0.397467 0.418509 0.353155
0.415885 0.420966 0.353338
0.435172 0.423194 0.353338
0.455314 0.425177 0.35314
0.476295 0.426932 0.352758
0.498116 0.428473 0.352209
0.520729 0.42977 0.351492
0.544076 0.430884 0.350652
0.568185 0.431769 0.34963
0.592996 0.432471 0.348501
0.618479 0.432975 0.347234
0.644587 0.43331 0.345861
0.67129 0.433478 0.344396
0.698543 0.433494 0.34284
0.726299 0.433371 0.341207
0.754528 0.433097 0.339498
0.783185 0.432715 0.337743
0.812238 0.432227 0.335958
0.841611 0.431632 0.334127
0.871305 0.430945 0.332265
0.901259 0.430198 0.330404
0.931441 0.429374 0.328527
0.961822 0.428489 0.326665
0.261295 0.406653 0.348074
0.272099 0.411215 0.349752
0.283742 0.415564 0.351232
0.296239 0.419684 0.352483
0.309606 0.42356 0.353521
0.323842 0.427207 0.354345
0.338964 0.43061 0.354971
0.354971 0.433768 0.355383
0.371862 0.436683 0.355581
0.389639 0.439353 0.355596
0.408286 0.441794 0.355428
0.427787 0.443976 0.355062
0.448127 0.445945 0.354528
0.469306 0.447684 0.353841
0.491249 0.449195 0.353033
0.51397 0.450507 0.352056
0.537408 0.451606 0.350942
0.561563 0.452506 0.349722
0.586374 0.453223 0.348394
0.611811 0.453758 0.34696
0.637827 0.454139 0.345449
0.664408 0.454353 0.343847
0.691478 0.454429 0.342199
0.71902 0.454368 0.34049
0.74699 0.4542 0.33875
0.775341 0.453895 0.336965
0.804044 0.453513 0.335164
0.833051 0.453025 0.333349
0.862318 0.452476 0.331533
0.891814 0.451835 0.329717
0.921508 0.451148 0.327916
0.95137 0.450416 0.326131
0.981338 0.449638 0.324376
0.258732 0.433478 0.354681
0.270558 0.437812 0.355734
0.283253 0.441901 0.356573
0.296849 0.445762 0.357198
0.311345 0.449363 0.357626
0.326726 0.45272 0.357855
0.342992 0.455848 0.35787
0.360159 0.458717 0.357717
0.378195 0.461341 0.357382
0.397086 0.463737 0.356878
0.416846 0.465888 0.356237
0.4374 0.467811 0.355428
0.458762 0.46952 0.354482
0.480873 0.471015 0.353414
0.503716 0.472297 0.352224
0.52726 0.473396 0.350927
0.551461 0.474296 0.349538
0.576288 0.475013 0.348074
0.601694 0.475578 0.346517
0.627649 0.47599 0.344915
0.654124 0.476249 0.343267
0.681041 0.476371 0.341558
0.7084 0.476371 0.339834
0.736141 0.476249 0.338079
0.764218 0.476051 0.336309
0.792615 0.475746 0.334539
0.821286 0.475349 0.332784
0.850187 0.474891 0.331029
0.879286 0.474372 0.329305
0.908537 0.473808 0.327596
0.937942 0.473198 0.325933
0.967422 0.472557 0.3243
0.996979 0.471885 0.322713
0.253635 0.461234 0.359442
0.266606 0.465293 0.359884
0.280491 0.469093 0.360113
0.295277 0.472648 0.360159
0.310964 0.475959 0.360021
0.32755 0.479026 0.359716
0.345022 0.481834 0.359228
0.363394 0.484382 0.358618
0.382589 0.486717 0.357839
0.402594 0.488823 0.356939
0.423407 0.4907 0.355901
0.444968 0.492363 0.354742
0.467277 0.493812 0.353491
0.490272 0.495079 0.352132
0.513939 0.496147 0.350713
0.538216 0.497032 0.349203
0.563088 0.497749 0.347646
0.58851 0.498314 0.346044
0.61442 0.498741 0.344381
0.640803 0.499016 0.342702
0.667628 0.499184 0.341009
0.69482 0.499229 0.339284
0.722377 0.499168 0.337575
0.75024 0.499016 0.335866
0.778378 0.498787 0.334157
0.80676 0.498466 0.332479
0.83534 0.4981 0.330831
0.864088 0.497673 0.329213
0.892973 0.4972 0.327642
0.921965 0.496696 0.326116
0.951034 0.496162 0.324636
0.980148 0.495613 0.323232
1 0.495048 0.321874
0.246509 0.489784 0.362463
0.260731 0.493507 0.362341
0.275883 0.497002 0.362051
0.291981 0.500206 0.361608
0.308965 0.503182 0.361013
0.326818 0.505913 0.360265
0.34551 0.5084 0.35938
0.365042 0.510658 0.358389
0.385367 0.512673 0.357275
0.406455 0.514488 0.356054
0.42829 0.516091 0.354742
0.450813 0.517494 0.353353
0.474006 0.5187 0.351904
0.49781 0.519738 0.350393
0.52221 0.520592 0.348821
0.547158 0.521309 0.347219
0.57261 0.521859 0.345586
0.598535 0.522286 0.343938
0.624887 0.522576 0.342275
0.651621 0.522744 0.340612
0.678721 0.52282 0.338949
0.706127 0.522789 0.337301
0.733806 0.522683 0.335683
0.76173 0.522499 0.334081
0.789868 0.522255 0.332509
0.818189 0.52195 0.330999
0.846647 0.521599 0.329519
0.875212 0.521202 0.328099
0.903868 0.52079 0.326726
0.93257 0.520348 0.325429
0.961288 0.51989 0.324193
0.990021 0.519417 0.323033
1 0.518959 0.321935
0.237995 0.518883 0.363989
0.253605 0.522255 0.363409
0.27013 0.525368 0.362692
0.287541 0.528237 0.361852
0.305821 0.530861 0.360876
0.324926 0.533242 0.359808
0.344839 0.535409 0.358633
0.36553 0.537331 0.357366
0.386954 0.539071 0.356023
0.409079 0.540581 0.354604
0.431861 0.541924 0.35314
0.455283 0.543069 0.351629
0.479286 0.544045 0.350072
0.503838 0.544869 0.348486
0.528893 0.545541 0.346883
0.554421 0.546075 0.345266
0.580377 0.546471 0.343664
0.606729 0.546761 0.342046
0.633448 0.546944 0.340459
0.660471 0.547021 0.338872
0.687785 0.547021 0.337331
0.715343 0.546929 0.335821
0.743099 0.546792 0.33434
0.771054 0.546578 0.332921
0.799146 0.546319 0.331548
0.827359 0.546029 0.330236
0.855665 0.545693 0.328984
0.884031 0.545342 0.327794
0.912413 0.544976 0.32668
0.94081 0.544594 0.325643
0.969192 0.544213 0.324681
0.997528 0.543832 0.323812
1 0.543481 0.323018
0.228748 0.548318 0.364309
0.245777 0.551308 0.363378
0.263706 0.55404 0.362341
0.28246 0.556542 0.361196
0.302037 0.558801 0.359976
0.322377 0.560845 0.358679
0.343481 0.562661 0.357305
0.36527 0.564294 0.355886
0.387732 0.565713 0.354421
0.410834 0.566964 0.352911
0.434516 0.568032 0.351385
0.458732 0.568948 0.349828
0.483482 0.569711 0.348272
0.50869 0.570336 0.3467
0.53434 0.570825 0.345144
0.560372 0.571191 0.343603
0.58677 0.571466 0.342077
0.613489 0.571618 0.340581
0.640497 0.57171 0.339132
0.66775 0.57171 0.337713
0.695216 0.571633 0.336339
0.722866 0.571511 0.335012
0.750668 0.571328 0.333745
0.778592 0.571099 0.33254
0.806622 0.57084 0.331411
0.834699 0.570565 0.330343
0.862821 0.57026 0.329351
0.890959 0.569955 0.328435
0.919081 0.569635 0.327611
0.947158 0.569314 0.326863
0.975189 0.569009 0.326207
1 0.568719 0.325643
1 0.568444 0.32517
0.219394 0.57789 0.36376
0.237873 0.580468 0.362585
0.257176 0.582818 0.361318
0.277256 0.584939 0.360006
0.298085 0.586831 0.358633
0.319631 0.58854 0.357214
0.341848 0.590036 0.355749
0.364675 0.591363 0.354269
0.388113 0.592493 0.352773
0.4121 0.593484 0.351263
0.436591 0.594308 0.349752
0.461555 0.594995 0.348241
0.486946 0.59556 0.346746
0.512749 0.596002 0.345281
0.538903 0.596323 0.343832
0.565377 0.596551 0.342428
0.592142 0.596689 0.341054
0.61915 0.59675 0.339742
0.646387 0.59675 0.338476
0.673808 0.596674 0.337255
0.701381 0.596551 0.336095
0.729091 0.596384 0.335012
0.756893 0.596185 0.333989
0.784756 0.595941 0.333059
0.812665 0.595697 0.332189
0.840604 0.595438 0.331395
0.868528 0.595163 0.330694
0.896406 0.594888 0.330083
0.924254 0.594629 0.329564
0.95201 0.594369 0.329137
0.979675 0.594141 0.328801
1 0.593927 0.328573
1 0.593744 0.328435
0.210498 0.60737 0.362676
0.230381 0.609552 0.361349
0.251026 0.611505 0.359991
0.272374 0.61326 0.358587
0.294392 0.614816 0.357153
0.317052 0.616175 0.355703
0.340307 0.61738 0.354238
0.364111 0.618402 0.352789
0.388418 0.619287 0.351339
0.413199 0.62002 0.349889
0.438422 0.620615 0.34847
0.464042 0.621103 0.347082
0.490013 0.621485 0.345724
0.51632 0.621744 0.344411
0.542901 0.621927 0.343145
0.569741 0.622034 0.341924
0.596811 0.622065 0.340749
0.624063 0.622034 0.339651
0.651469 0.621942 0.338613
0.679011 0.62182 0.337636
0.706645 0.621653 0.336751
0.734356 0.621454 0.335927
0.762112 0.621241 0.335195
0.789899 0.620996 0.334539
0.81767 0.620752 0.333959
0.845411 0.620508 0.333486
0.873121 0.620279 0.333104
0.900755 0.62005 0.332799
0.928298 0.619837 0.332616
0.955718 0.619654 0.332509
0.983032 0.619486 0.332509
1 0.619348 0.33254
1 0.619226 0.332586
0.202502 0.636606 0.361379
0.223728 0.638392 0.360006
0.245624 0.639979 0.358602
0.268162 0.641367 0.357214
0.291295 0.642603 0.35581
0.314977 0.643656 0.354406
0.339178 0.644556 0.353017
0.363851 0.645319 0.351659
0.388952 0.64596 0.350317
0.41445 0.646464 0.34902
0.440299 0.64686 0.347753
0.466484 0.647166 0.346532
0.492958 0.647364 0.345357
0.519692 0.647486 0.344244
0.546639 0.647547 0.343191
0.57377 0.647532 0.342199
0.601068 0.647471 0.341283
0.628504 0.647364 0.340429
0.656031 0.647211 0.339666
0.683635 0.647028 0.338964
0.711299 0.64683 0.338354
0.738979 0.646616 0.337835
0.766659 0.646387 0.337407
0.794308 0.646159 0.337057
0.821927 0.64593 0.336797
0.84947 0.645716 0.336645
0.876936 0.645518 0.336599
0.904311 0.645335 0.336614
0.931624 0.645167 0.336645
0.958892 0.645014 0.336706
0.986084 0.644877 0.336782
1 0.644755 0.336889
1 0.644663 0.337011
0.195773 0.665461 0.360128
0.218235 0.666865 0.358785
0.241306 0.668101 0.357443
0.264927 0.669169 0.356115
0.289067 0.670085 0.354818
0.31368 0.670863 0.353536
0.33872 0.671504 0.352285
0.364157 0.672023 0.351064
0.38996 0.672419 0.349905
0.416083 0.672724 0.348791
0.442481 0.672938 0.347723
0.469154 0.673075 0.346716
0.49604 0.673136 0.345785
0.523125 0.673136 0.344915
0.550362 0.673075 0.344106
0.577722 0.672969 0.343389
0.605203 0.672831 0.342733
0.632746 0.672648 0.342168
0.660349 0.67245 0.341695
0.687984 0.672236 0.341299
0.715602 0.672007 0.340993
0.743221 0.671778 0.340795
0.770794 0.67155 0.340673
0.798291 0.671336 0.340658
0.825742 0.671138 0.340688
0.853132 0.670939 0.340734
0.880476 0.670771 0.340795
0.907759 0.670604 0.340887
0.934981 0.670466 0.340993
0.962142 0.670329 0.341131
0.989242 0.670222 0.341283
1 0.67013 0.341451
1 0.670039 0.341634
0.190555 0.693828 0.359182
0.21416 0.694896 0.357931
0.238285 0.695811 0.35671
0.262882 0.696574 0.35552
0.287922 0.6972 0.35436
0.313344 0.697719 0.353246
0.339132 0.698116 0.352193
0.365255 0.698405 0.351186
0.391653 0.698619 0.350225
0.418296 0.698741 0.34934
0.445182 0.698787 0.348516
0.472236 0.698787 0.347768
0.499458 0.698711 0.347097
0.526818 0.698604 0.346487
0.554284 0.698451 0.345968
0.581827 0.698268 0.345541
0.609415 0.698054 0.34519
0.637034 0.697826 0.34493
0.664652 0.697597 0.344762
0.692256 0.697353 0.344686
0.719829 0.697108 0.344701
0.747341 0.69688 0.344732
0.774807 0.696666 0.344793
0.802228 0.696468 0.344869
0.829587 0.696284 0.344976
0.856901 0.696117 0.345098
0.884138 0.695964 0.345235
0.91133 0.695811 0.345388
0.938445 0.695689 0.345571
0.965515 0.695583 0.345769
0.992508 0.695491 0.345998
1 0.69543 0.346242
1 0.695369 0.346502
0.187045 0.72166 0.358694
0.211658 0.722393 0.35761
0.236728 0.723003 0.356558
0.262196 0.723491 0.35555
0.288014 0.723873 0.354604
0.314168 0.724147 0.353704
0.340597 0.72433 0.352865
0.367285 0.724437 0.352102
0.394186 0.724468 0.3514
0.421286 0.724437 0.350774
0.448539 0.724346 0.350225
0.475929 0.724208 0.349752
0.50341 0.724041 0.349355
0.530983 0.723827 0.34905
0.558602 0.723598 0.348837
0.586252 0.723354 0.348714
0.613916 0.723095 0.348684
0.641535 0.722835 0.348714
0.669123 0.722576 0.34876
0.696666 0.722347 0.348837
0.724163 0.722118 0.348928
0.751598 0.72192 0.349035
0.778988 0.721721 0.349157
0.806317 0.721538 0.34931
0.833585 0.72137 0.349477
0.860807 0.721218 0.349676
0.887953 0.72108 0.349874
0.915038 0.720958 0.350118
0.942061 0.720867 0.350362
0.969024 0.720775 0.350637
0.995926 0.720714 0.350927
1 0.720668 0.351247
1 0.720638 0.351598
0.185351 0.748867 0.358862
0.210864 0.749325 0.357977
0.236759 0.74966 0.357137
0.262989 0.749905 0.356359
0.289479 0.750057 0.355642
0.316243 0.750134 0.355001
0.343221 0.750134 0.354421
0.370382 0.750057 0.353918
0.397711 0.749935 0.353506
0.425162 0.749767 0.353155
0.45272 0.749569 0.352895
0.480354 0.749325 0.352728
0.508049 0.74905 0.352651
0.53576 0.748775 0.352651
0.563455 0.748501 0.352697
0.591104 0.748226 0.352773
0.618708 0.747967 0.35285
0.646281 0.747723 0.352956
0.673793 0.747494 0.353063
0.701259 0.747265 0.353216
0.728664 0.747066 0.353368
0.756024 0.746868 0.353552
0.783322 0.746685 0.35375
0.810559 0.746532 0.353964
0.837751 0.74638 0.354208
0.864866 0.746258 0.354467
0.89192 0.746136 0.354757
0.918914 0.746044 0.355062
0.945846 0.745968 0.355383
0.972702 0.745907 0.355734
0.999481 0.745861 0.356115
1 0.74583 0.356497
1 0.74583 0.356909
0.18555 0.775433 0.359792
0.211856 0.775647 0.359136
0.238468 0.775753 0.358557
0.265324 0.775769 0.358038
0.292409 0.775723 0.35758
0.319677 0.775616 0.357214
0.347097 0.775448 0.356924
0.374655 0.775235 0.35671
0.402304 0.77499 0.356588
0.430045 0.774701 0.356558
0.457816 0.774395 0.356588
0.485573 0.774105 0.356649
0.513283 0.773816 0.356741
0.540963 0.773541 0.356832
0.568582 0.773266 0.356939
0.59617 0.773007 0.357076
0.623713 0.772763 0.357229
0.651209 0.772534 0.357397
0.678645 0.77232 0.357595
0.706035 0.772107 0.357794
0.733364 0.771923 0.358038
0.760632 0.771756 0.358282
0.787854 0.771588 0.358557
0.815 0.77145 0.358846
0.842084 0.771313 0.359152
0.869108 0.771206 0.359487
0.896071 0.771115 0.359854
0.922957 0.771038 0.360235
0.949783 0.770993 0.360632
0.976532 0.770947 0.361059
1 0.770932 0.361578
1 0.770962 0.362554
1 0.771069 0.36408
0.187686 0.801358 0.361578
0.214664 0.801328 0.361196
0.241871 0.801221 0.360876
0.269276 0.801068 0.360647
0.296818 0.800839 0.360479
0.324514 0.80058 0.360418
0.3523 0.800275 0.360418
0.380133 0.799954 0.360494
0.407919 0.799649 0.360571
0.435691 0.799344 0.360662
0.463416 0.799039 0.360769
0.491112 0.798749 0.360906
0.518776 0.798474 0.361059
0.54638 0.798215 0.361227
0.573953 0.797955 0.36141
0.601465 0.797711 0.361608
0.628931 0.797482 0.361822
0.656352 0.797269 0.362066
0.683711 0.797055 0.362325
0.711009 0.796872 0.362615
0.738262 0.796704 0.362921
0.765438 0.796551 0.363241
0.792569 0.796399 0.363577
0.819623 0.796277 0.363943
0.846616 0.79617 0.36434
0.873549 0.796094 0.364752
0.900404 0.796017 0.365179
0.927138 0.795956 0.365835
0.953628 0.795926 0.366995
0.979767 0.795941 0.368719
1 0.796033 0.371008
1 0.796216 0.373892
1 0.796521 0.377432
0.19176 0.826596 0.364294
0.219303 0.826368 0.364202
0.247013 0.826093 0.364187
0.274846 0.825772 0.364248
0.302693 0.825437 0.364324
0.330526 0.825116 0.364431
0.358343 0.824796 0.364553
0.38613 0.824475 0.364675
0.41387 0.82417 0.364828
