src/colors/film_stock_&_vintage/faded_memories.cube
TITLE "Generated by Resolve"
LUT_3D_SIZE 9
0.0975662 0.151293 0.182696
0.129259 0.171923 0.20029
0.161044 0.192538 0.217853
0.192905 0.213123 0.235386
0.224826 0.233707 0.252903
0.256809 0.254261 0.27039
0.310552 0.268376 0.287602
0.38143 0.277638 0.30251
0.46714 0.282765 0.314565
0.177035 0.228504 0.242802
0.208942 0.249073 0.260319
0.241581 0.269413 0.278019
0.28365 0.286992 0.29543
0.337041 0.301442 0.310369
0.403464 0.312306 0.322423
0.484321 0.319219 0.331228
0.580438 0.321935 0.336522
0.691707 0.320516 0.338262
0.243015 0.309667 0.303578
0.277516 0.329732 0.318547
0.323262 0.346731 0.330632
0.381826 0.360265 0.339483
0.454322 0.370001 0.344854
0.5411 0.375845 0.346731
0.641535 0.377966 0.345357
0.75378 0.376837 0.341283
0.875395 0.373144 0.335149
0.261295 0.406653 0.348074
0.309606 0.42356 0.353521
0.371862 0.436683 0.355581
0.448127 0.445945 0.354528
0.537408 0.451606 0.350942
0.637827 0.454139 0.345449
0.74699 0.4542 0.33875
0.862318 0.452476 0.331533
0.981338 0.449638 0.324376
0.237995 0.518883 0.363989
0.305821 0.530861 0.360876
0.386954 0.539071 0.356023
0.479286 0.544045 0.350072
0.580377 0.546471 0.343664
0.687785 0.547021 0.337331
0.799146 0.546319 0.331548
0.912413 0.544976 0.32668
1 0.543481 0.323018
0.202502 0.636606 0.361379
0.291295 0.642603 0.35581
0.388952 0.64596 0.350317
0.492958 0.647364 0.345357
0.601068 0.647471 0.341283
0.711299 0.64683 0.338354
0.821927 0.64593 0.336797
0.931624 0.645167 0.336645
1 0.644663 0.337011
0.185351 0.748867 0.358862
0.289479 0.750057 0.355642
0.397711 0.749935 0.353506
0.508049 0.74905 0.352651
0.618708 0.747967 0.35285
0.728664 0.747066 0.353368
0.837751 0.74638 0.354208
0.945846 0.745968 0.355383
1 0.74583 0.356909
0.197757 0.851164 0.367987
0.309102 0.849836 0.368536
0.420096 0.8486 0.369299
0.530465 0.847517 0.370352
0.640055 0.846632 0.371695
0.74873 0.845975 0.373465
0.856291 0.845106 0.380758
0.958373 0.844846 0.398001
1 0.846845 0.427466
0.226993 0.947585 0.385885
0.337682 0.946334 0.387518
0.44889 0.944823 0.390372
0.56495 0.941115 0.400702
0.681941 0.93608 0.421332
0.794034 0.931243 0.454536
0.894728 0.928313 0.502251
0.977188 0.929244 0.565591
1 0.935897 0.643626
0.106142 0.158892 0.192004
0.13785 0.179522 0.209583
0.169665 0.200122 0.227131
0.201541 0.220706 0.244663
0.233478 0.241276 0.262165
0.268772 0.260807 0.280049
0.329076 0.272816 0.298909
0.402884 0.281025 0.315465
0.491875 0.285023 0.329259
0.185672 0.236088 0.252064
0.217578 0.256657 0.269581
0.251682 0.276432 0.28864
0.295598 0.293294 0.307637
0.351232 0.306905 0.3243
0.420218 0.316823 0.338201
0.503807 0.322713 0.348959
0.60264 0.324422 0.356313
0.716274 0.322087 0.360204
0.247868 0.317983 0.316732
0.283909 0.337407 0.333516
0.331579 0.353643 0.347524
0.39234 0.366323 0.358389
0.467155 0.375158 0.365866
0.55613 0.380118 0.36994
0.658381 0.381476 0.370794
0.77174 0.379797 0.368933
0.893767 0.375753 0.364935
0.262592 0.41532 0.36817
0.313024 0.431388 0.375784
0.377554 0.44361 0.380041
0.455985 0.452003 0.381216
0.547066 0.456901 0.379767
0.648753 0.458854 0.376318
0.758602 0.458518 0.371542
0.874052 0.45658 0.366033
0.992706 0.453712 0.360388
0.237491 0.527306 0.391821
0.307897 0.538308 0.390814
0.391226 0.545663 0.387915
0.485252 0.54995 0.383764
0.587488 0.551888 0.378943
0.695506 0.552102 0.374014
0.807004 0.551247 0.36939
0.920027 0.549889 0.365469
1 0.548486 0.362554
0.203693 0.643854 0.395911
0.294591 0.649073 0.391806
0.393774 0.65185 0.387579
0.498772 0.652857 0.383658
0.607416 0.65272 0.380423
0.717769 0.651987 0.378134
0.828199 0.651102 0.377035
0.937636 0.650401 0.376928
1 0.649958 0.377172
0.189746 0.754742 0.397574
0.295125 0.755489 0.395071
0.404105 0.755093 0.393469
0.514809 0.75407 0.392966
0.62536 0.753017 0.393057
0.73518 0.752163 0.393454
0.844083 0.751553 0.394156
0.951995 0.751202 0.395178
1 0.751156 0.396628
0.205112 0.856001 0.40827
0.316396 0.854704 0.408682
0.427298 0.853498 0.409308
0.537545 0.852476 0.410208
0.646983 0.851652 0.411399
0.755688 0.850935 0.413764
0.862913 0.849943 0.423102
0.963302 0.850004 0.442191
1 0.852796 0.473228
0.234791 0.952331 0.425666
0.345388 0.951141 0.427131
0.458549 0.948898 0.431327
0.576669 0.944396 0.443488
0.694575 0.938933 0.465736
0.806256 0.934081 0.500221
0.905028 0.931655 0.548684
0.98407 0.933623 0.61178
1 0.941772 0.6878
0.114717 0.166491 0.201297
0.146456 0.187121 0.21886
0.178286 0.207706 0.236408
0.210178 0.22829 0.253925
0.242145 0.248859 0.271412
0.285008 0.265949 0.291142
0.347906 0.277012 0.31165
0.424704 0.284169 0.329961
0.516945 0.286992 0.345647
0.194308 0.243671 0.261341
0.226246 0.26424 0.278828
0.261753 0.283314 0.300603
0.307576 0.299428 0.32134
0.365499 0.312184 0.339849
0.437049 0.321141 0.355718
0.523369 0.326009 0.368536
0.624796 0.326741 0.378012
0.740581 0.323537 0.38407
0.252476 0.326207 0.331441
0.290135 0.344961 0.350164
0.339757 0.360418 0.366201
0.402747 0.372213 0.379171
0.47985 0.380148 0.388815
0.570947 0.384268 0.395056
0.674754 0.384939 0.398077
0.789151 0.382742 0.398291
0.911452 0.378424 0.396277
0.263691 0.423865 0.390173
0.31632 0.439063 0.399954
0.383139 0.45037 0.406378
0.463691 0.457923 0.409659
0.556481 0.462119 0.410239
0.659358 0.463523 0.408667
0.769787 0.462837 0.405585
0.885298 0.460746 0.401602
1 0.457862 0.397253
0.237125 0.535515 0.421393
0.310094 0.545556 0.422324
0.395575 0.552087 0.421195
0.491203 0.555764 0.418616
0.594507 0.557229 0.415198
0.703044 0.557168 0.411429
0.814649 0.556191 0.407782
0.927367 0.554833 0.404639
1 0.553552 0.402304
0.205249 0.650889 0.431495
0.298146 0.655375 0.428656
0.398764 0.657618 0.425498
0.504677 0.658274 0.422431
0.613779 0.657938 0.419852
0.724208 0.65713 0.418051
0.834394 0.656275 0.417258
0.943648 0.65565 0.41706
1 0.655283 0.417166
0.194507 0.760464 0.436667
0.301015 0.76083 0.43473
0.410697 0.760174 0.433509
0.521599 0.759075 0.433143
0.632044 0.758083 0.433127
0.741695 0.75729 0.433371
0.850431 0.756741 0.433921
0.958144 0.756466 0.434791
1 0.756588 0.436759
0.212512 0.860838 0.448402
0.323735 0.859571 0.448676
0.434531 0.858427 0.449149
0.544656 0.85745 0.449882
0.653925 0.856687 0.450904
0.762921 0.855756 0.454475
0.869596 0.854765 0.465446
0.968109 0.855253 0.485954
1 0.85893 0.51809
0.242634 0.957092 0.465263
0.353368 0.955856 0.466682
0.469368 0.952621 0.472496
0.589441 0.947387 0.486076
0.70811 0.941573 0.509499
0.819165 0.936828 0.544747
0.915755 0.935042 0.593317
0.991196 0.938186 0.655375
1 0.947951 0.728435
0.123308 0.17409 0.21059
0.155077 0.194705 0.228138
0.186923 0.215305 0.24567
0.21883 0.235874 0.263188
0.250813 0.256443 0.280674
0.301457 0.270893 0.303593
0.36701 0.28098 0.325887
0.446845 0.287053 0.346105
0.542336 0.288701 0.36379
0.20296 0.251255 0.270604
0.234745 0.271702 0.289708
0.271778 0.290074 0.314
0.31957 0.305409 0.336614
0.379812 0.317266 0.357107
0.453956 0.325246 0.375036
0.542947 0.329122 0.38999
0.64683 0.328893 0.401633
0.764584 0.324895 0.409827
0.256855 0.334356 0.347784
0.296162 0.352392 0.368551
0.347814 0.367041 0.386725
0.413031 0.377951 0.401862
0.492393 0.385 0.413672
0.585504 0.388312 0.422034
0.690791 0.388327 0.427115
0.806012 0.385702 0.429267
0.928435 0.381155 0.429038
0.264607 0.432273 0.414084
0.319493 0.446571 0.426032
0.388617 0.456992 0.434562
0.47126 0.463722 0.439811
0.565682 0.467247 0.442237
0.669627 0.468162 0.442344
0.780591 0.46717 0.440757
0.896071 0.464942 0.438071
1 0.462089 0.434821
0.236942 0.543511 0.452598
0.312459 0.552621 0.455268
0.4 0.558389 0.455711
0.497154 0.561456 0.45452
0.601419 0.562524 0.452262
0.71043 0.562219 0.44947
0.822065 0.561166 0.446616
0.934462 0.559838 0.444083
1 0.558694 0.442191
0.207172 0.65771 0.46804
0.301961 0.66154 0.466255
0.403922 0.663294 0.463951
0.510674 0.66363 0.46157
0.620157 0.663127 0.459495
0.730602 0.662272 0.458045
0.840589 0.661479 0.457359
0.949676 0.660914 0.457038
1 0.660624 0.456992
0.199619 0.766049 0.476066
0.307195 0.766064 0.47454
0.417472 0.765209 0.473579
0.52842 0.764096 0.473167
0.638727 0.763149 0.473014
0.748241 0.762417 0.473106
0.856794 0.761944 0.473503
0.964309 0.761746 0.474205
1 0.762173 0.477226
0.219959 0.865675 0.488365
0.331106 0.864454 0.488487
0.441794 0.86334 0.488807
0.551781 0.862425 0.489372
0.660975 0.861692 0.490333
0.770428 0.860487 0.495323
0.876402 0.859586 0.507546
0.972778 0.860594 0.529015
1 0.865309 0.5617
0.250523 0.961852 0.504677
0.362524 0.960204 0.506523
0.481407 0.955978 0.513619
0.603311 0.950103 0.528206
0.722591 0.944045 0.5523
0.832792 0.939529 0.587762
0.92694 0.938521 0.635782
0.998566 0.942992 0.695994
1 0.954421 0.765072
0.131899 0.181689 0.219867
0.163684 0.202289 0.237415
0.19556 0.222889 0.254932
0.227481 0.243458 0.272435
0.26276 0.262852 0.291737
0.31812 0.275624 0.317494
0.386404 0.284718 0.341711
0.469291 0.289662 0.363958
0.568002 0.29015 0.383749
0.211597 0.258839 0.27985
0.243076 0.278996 0.302739
0.281758 0.296696 0.328908
0.331579 0.311223 0.353521
0.394186 0.322164 0.37612
0.470909 0.329168 0.396216
0.562478 0.332036 0.413336
0.668681 0.330907 0.427146
0.788174 0.326177 0.437446
0.260975 0.342397 0.365805
0.302022 0.359701 0.388754
0.355718 0.37351 0.409125
0.423194 0.383536 0.426459
0.504768 0.389715 0.440421
0.599771 0.392248 0.450843
0.706371 0.391684 0.457816
0.822278 0.388663 0.461738
0.944717 0.383963 0.463111
0.26537 0.440513 0.439918
0.322591 0.45391 0.453986
0.394034 0.463447 0.464485
0.478691 0.469398 0.47158
0.574655 0.472297 0.475639
0.679591 0.47277 0.477241
0.790982 0.471519 0.476936
0.906401 0.4692 0.475349
1 0.466407 0.473014
0.236957 0.551293 0.485328
0.314977 0.559503 0.489555
0.404501 0.564538 0.491356
0.50309 0.567056 0.491325
0.608255 0.567758 0.490043
0.717678 0.567269 0.488045
0.829297 0.56614 0.485817
0.941314 0.564889 0.483726
1 0.563897 0.482124
0.209461 0.664347 0.505394
0.30605 0.667552 0.504479
0.409247 0.668879 0.502861
0.516747 0.66894 0.500999
0.626566 0.668299 0.49929
0.736996 0.66743 0.498039
0.846784 0.666697 0.497307
0.955688 0.666194 0.496849
1 0.66598 0.496651
0.205097 0.771511 0.515694
0.313619 0.771206 0.514427
0.424414 0.770199 0.513573
0.535271 0.769131 0.513039
0.645441 0.768231 0.512734
0.754788 0.767559 0.512688
0.863172 0.767163 0.512917
0.970428 0.76704 0.513527
1 0.76791 0.5178
0.227436 0.870527 0.528161
0.338506 0.869337 0.52813
0.449088 0.868284 0.528283
0.558938 0.867414 0.528695
0.668452 0.86656 0.530007
0.778271 0.865141 0.53608
0.88333 0.864424 0.549111
0.977356 0.866087 0.571038
1 0.871946 0.603723
0.258427 0.966628 0.543908
0.373068 0.964126 0.546517
0.494713 0.958984 0.554452
0.618341 0.952544 0.569589
0.738048 0.946334 0.593851
0.847135 0.942199 0.628931
0.938567 0.942123 0.675715
1 0.948028 0.733303
1 0.961166 0.797803
0.140505 0.189288 0.229145
0.17232 0.209888 0.246693
0.204196 0.230472 0.264195
0.236149 0.251041 0.281697
0.277241 0.268269 0.305241
0.334997 0.28014 0.332937
0.406073 0.288197 0.359197
0.492012 0.292012 0.383581
0.593896 0.291341 0.40557
0.220249 0.266423 0.289113
0.251301 0.286183 0.31722
0.291691 0.303166 0.345418
0.343587 0.316869 0.372152
0.408576 0.326879 0.396948
0.487877 0.332876 0.419272
0.581949 0.334783 0.438621
0.690303 0.332799 0.454551
0.811307 0.327428 0.466865
0.264851 0.350332 0.385611
0.307683 0.366888 0.410803
0.363485 0.379843 0.433448
0.433204 0.388968 0.452979
0.51693 0.394293 0.469032
0.613672 0.396124 0.481376
0.721508 0.39501 0.49012
0.837949 0.391684 0.495613
0.960281 0.386862 0.498375
0.266011 0.448615 0.467643
0.325612 0.461097 0.483742
0.399374 0.469764 0.496086
0.485985 0.474968 0.504829
0.583413 0.477272 0.510369
0.689265 0.477348 0.513222
0.801007 0.475883 0.514
0.916289 0.473518 0.513313
1 0.470817 0.511696
0.237217 0.558846 0.519463
0.317662 0.566201 0.525032
0.409094 0.570565 0.527993
0.509041 0.572595 0.528923
0.615015 0.572961 0.528435
0.724773 0.572305 0.527062
0.836332 0.57116 0.525277
0.947967 0.569986 0.523491
1 0.569177 0.522042
0.2121 0.670802 0.543465
0.310399 0.673442 0.543236
0.41474 0.674357 0.542138
0.522927 0.674189 0.540627
0.633005 0.673442 0.539117
0.743358 0.672587 0.537957
0.852995 0.671916 0.537087
0.961715 0.671489 0.536477
1 0.671351 0.536141
0.210895 0.776867 0.555444
0.320287 0.776287 0.554314
0.431388 0.775189 0.553429
0.542138 0.774166 0.552743
0.652171 0.773327 0.552285
0.761364 0.772732 0.552071
0.869566 0.772381 0.552132
0.976242 0.772412 0.553033
1 0.773831 0.558206
0.234943 0.87538 0.567803
0.345953 0.874235 0.567605
0.456413 0.873228 0.56759
0.56611 0.872419 0.567819
0.676463 0.87126 0.569741
0.78645 0.869703 0.576486
0.890394 0.869291 0.589853
0.981857 0.871733 0.611749
1 0.878859 0.643854
0.266804 0.971283 0.583032
0.385 0.967636 0.586374
0.509361 0.961654 0.59472
0.634577 0.954726 0.609918
0.754482 0.948501 0.633814
0.862181 0.944884 0.667903
0.950622 0.945891 0.712779
1 0.953353 0.76701
1 0.968215 0.826215
0.149111 0.196872 0.238422
0.180941 0.217472 0.255955
0.212848 0.238056 0.273457
0.244816 0.25861 0.290944
0.291875 0.273503 0.320211
0.352087 0.284428 0.349966
0.425971 0.291432 0.378408
0.514977 0.294102 0.405035
0.619928 0.292287 0.429282
0.227481 0.274067 0.301991
0.259419 0.293248 0.333242
0.301564 0.309483 0.363577
0.355581 0.322332 0.392554
0.42298 0.33138 0.419654
0.504814 0.336416 0.444266
0.601297 0.337377 0.465812
0.71162 0.3346 0.483803
0.833753 0.328695 0.497993
0.268467 0.35816 0.407248
0.313161 0.373922 0.434775
0.371115 0.386007 0.459693
0.443076 0.394263 0.481392
0.528878 0.398764 0.499443
0.627268 0.399924 0.513573
0.736171 0.398337 0.523888
0.853025 0.394736 0.530755
0.975158 0.389868 0.534707
0.266575 0.45655 0.497246
0.328588 0.468116 0.515267
0.404654 0.475929 0.529274
0.493156 0.480415 0.539467
0.591974 0.482185 0.546258
0.698634 0.481926 0.550179
0.810651 0.480278 0.551843
0.92575 0.477897 0.551873
1 0.475319 0.550805
0.237736 0.566217 0.55491
0.320531 0.572747 0.561608
0.413794 0.576471 0.565515
0.514992 0.578042 0.567208
0.621714 0.578134 0.56733
0.731746 0.57734 0.5664
0.843198 0.576196 0.564904
0.954406 0.575143 0.563287
1 0.574517 0.561898
0.215122 0.677089 0.582147
0.314992 0.67921 0.582422
0.420401 0.679774 0.581659
0.529183 0.679408 0.580362
0.639475 0.678584 0.578958
0.749737 0.677775 0.577722
0.859205 0.677165 0.576715
0.967742 0.676799 0.575952
1 0.676738 0.575448
0.217029 0.782116 0.595254
0.327214 0.781308 0.594125
0.438392 0.780179 0.593133
0.54902 0.779217 0.592294
0.65893 0.778439 0.591669
0.767941 0.777905 0.591287
0.875959 0.77763 0.591165
0.981704 0.77789 0.592538
1 0.77998 0.598184
0.242512 0.880232 0.607263
0.353414 0.879133 0.606897
0.463767 0.878187 0.606714
0.573495 0.877379 0.606821
0.684993 0.875822 0.609293
0.795026 0.874235 0.616251
0.897642 0.87422 0.62948
0.986297 0.877562 0.650797
1 0.886076 0.681743
0.276631 0.975494 0.622202
0.398413 0.970748 0.625849
0.525399 0.964004 0.63415
0.652049 0.956695 0.648905
0.771923 0.950576 0.67187
0.877928 0.947601 0.704372
0.963088 0.949859 0.746654
1 0.958999 0.79678
1 0.97554 0.850294
0.157733 0.204471 0.2477
0.189578 0.225055 0.265217
0.2215 0.24564 0.282719
0.256291 0.264973 0.304006
0.306661 0.278523 0.336736
0.36939 0.288487 0.368673
0.446113 0.294408 0.39942
0.538155 0.295949 0.428382
0.646082 0.293019 0.454932
0.234012 0.281651 0.317464
0.267399 0.300175 0.350866
0.31136 0.315648 0.383474
0.367544 0.327611 0.414816
0.437369 0.335714 0.444282
0.521691 0.339757 0.471183
0.620447 0.339834 0.494881
0.73257 0.336324 0.514855
0.855665 0.329961 0.530755
0.271855 0.365866 0.430777
0.318471 0.380819 0.46067
0.378607 0.392035 0.487861
0.452781 0.399405 0.511681
0.540597 0.403113 0.531594
0.640513 0.403662 0.547311
0.750347 0.401663 0.559014
0.867506 0.397864 0.567056
0.989349 0.392966 0.571984
0.267079 0.464317 0.528664
0.331594 0.474968 0.548409
0.409888 0.481971 0.563928
0.500221 0.485786 0.575387
0.60032 0.487068 0.583215
0.707713 0.486488 0.588006
0.819959 0.484718 0.590356
0.934829 0.482353 0.590906
1 0.479896 0.590219
0.238529 0.573373 0.591516
0.323598 0.579141 0.599161
0.418585 0.582254 0.6038
0.520958 0.583429 0.606088
0.628351 0.583276 0.606622
0.738613 0.582406 0.605982
0.849912 0.581277 0.604654
0.960662 0.580346 0.603067
1 0.579889 0.601587
0.218494 0.683223 0.621317
0.31986 0.684855 0.621927
0.42623 0.68513 0.621363
0.535546 0.684581 0.620157
0.645991 0.683726 0.618708
0.75613 0.682963 0.61735
0.865431 0.682414 0.61619
0.973785 0.682124 0.615259
1 0.682139 0.614572
0.223499 0.787259 0.63505
0.33431 0.786267 0.633829
0.445426 0.785183 0.63267
0.555932 0.784268 0.631662
0.66569 0.783551 0.630869
0.774548 0.783078 0.63032
0.882353 0.782895 0.630076
0.986831 0.78349 0.6318
1 0.786358 0.637476
0.250095 0.8851 0.646571
0.360922 0.884047 0.646021
0.471138 0.883146 0.64564
0.581552 0.882139 0.645792
0.694118 0.880247 0.648386
0.803998 0.878737 0.655116
0.905089 0.87924 0.667704
0.990707 0.883589 0.687877
1 0.893599 0.717037
0.288106 0.979248 0.661158
0.413382 0.97348 0.664652
0.542885 0.966018 0.672435
0.670787 0.95845 0.686229
0.790372 0.95256 0.707683
0.894347 0.950423 0.737987
0.975906 0.954055 0.777066
1 0.964935 0.822705
1 0.983108 0.870176
0.166354 0.212055 0.256962
0.198215 0.232639 0.274479
0.230152 0.253208 0.291966
0.269032 0.270665 0.319951
0.321584 0.283345 0.354879
0.386862 0.292317 0.389151
0.466468 0.297139 0.422278
0.561486 0.297551 0.453635
0.672251 0.293538 0.482521
0.240391 0.289128 0.334478
0.275273 0.306981 0.370184
0.321096 0.321645 0.405188
0.379492 0.332708 0.438972
0.451728 0.339849 0.470848
0.538476 0.342947 0.500038
0.639384 0.342184 0.525826
0.753124 0.338003 0.547631
0.876951 0.331258 0.565057
0.274998 0.373449 0.45623
0.323613 0.387564 0.488533
0.385946 0.397894 0.517952
0.462318 0.404425 0.543755
0.552026 0.407401 0.565347
0.653376 0.40737 0.582513
0.764035 0.405005 0.595392
0.881392 0.401053 0.604395
1 0.396185 0.610086
0.267567 0.471916 0.561837
0.334585 0.481666 0.583124
0.415091 0.487877 0.599939
0.507164 0.491066 0.612451
0.608484 0.491905 0.621118
0.716533 0.491066 0.626551
0.828931 0.489189 0.629404
0.943526 0.48687 0.63032
1 0.484596 0.629862
0.239597 0.580331 0.629191
0.326879 0.585382 0.637552
0.423499 0.587961 0.642741
0.526955 0.588769 0.645426
0.634943 0.588418 0.64622
0.745373 0.587472 0.645716
0.856474 0.586404 0.644419
0.966735 0.585626 0.642756
1 0.585275 0.641138
0.222217 0.689219 0.660883
0.324971 0.69041 0.661662
0.432227 0.69041 0.661173
0.542 0.689738 0.659907
0.652522 0.688869 0.65832
0.762524 0.688167 0.656809
0.871656 0.687678 0.655482
0.979812 0.68748 0.654383
1 0.687556 0.653529
0.230259 0.792325 0.674769
0.341466 0.791241 0.673365
0.452476 0.790204 0.672038
0.562875 0.789334 0.670878
0.67248 0.788678 0.669902
0.781155 0.788281 0.669169
0.888624 0.78819 0.668879
0.991638 0.789242 0.670558
1 0.793027 0.675792
0.25774 0.889967 0.685695
0.36846 0.88896 0.684947
0.478538 0.888121 0.684398
0.590387 0.886687 0.684504
0.703853 0.884565 0.686778
0.813413 0.883223 0.69276
0.912749 0.884367 0.704173
0.995117 0.889845 0.722652
1 0.901442 0.749447
0.301198 0.982544 0.699641
0.429953 0.975814 0.702541
0.561868 0.967742 0.709285
0.690806 0.960006 0.721553
0.809796 0.954513 0.740948
0.911376 0.953368 0.76846
0.989029 0.958541 0.803815
1 0.971206 0.844602
1 0.99089 0.886091
