src/colors/film_stock_&_vintage/golden_years_film.cube
TITLE "Gold"
# Created by Photon 3D ColorGrading
# AUTHOR #  Jack Wright
DOMAIN_MIN 0 0 0
DOMAIN_MAX 1 1 1
LUT_3D_SIZE 33
0.006309 -0.000334 0.001332
0.022655 0.003419 0.005637
0.038638 0.006958 0.009535
0.054014 0.010197 0.012777
0.068772 0.013184 0.015280
0.083170 0.015971 0.017003
0.097780 0.018655 0.017945
0.113497 0.021561 0.018325
0.130811 0.024810 0.018184
0.149654 0.028349 0.017466
0.169639 0.032202 0.016271
0.190295 0.036481 0.014835
0.211248 0.041277 0.013404
0.232229 0.046537 0.012188
0.253237 0.052199 0.011291
0.274543 0.058345 0.010732
0.296570 0.065208 0.010462
0.319570 0.072944 0.010420
0.343553 0.081499 0.010601
0.369036 0.091199 0.011098
0.395541 0.101714 0.012031
0.422754 0.112972 0.013545
0.450456 0.125000 0.015823
0.478406 0.137845 0.019028
0.506359 0.151519 0.023280
0.534026 0.165961 0.028685
0.561246 0.181086 0.035213
0.587913 0.196667 0.042673
0.614014 0.212274 0.050674
0.639936 0.227382 0.058457
0.666023 0.241447 0.065313
0.692511 0.254226 0.070845
0.719208 0.266036 0.075472
0.010848 0.019260 0.008919
0.027596 0.022803 0.009416
0.044381 0.025893 0.010240
0.060769 0.028228 0.011388
0.076364 0.029899 0.012599
0.091304 0.031281 0.013595
0.106208 0.032767 0.014200
0.121893 0.034679 0.014389
0.138873 0.037109 0.014105
0.157198 0.040015 0.013315
0.176592 0.043388 0.012136
0.196660 0.047276 0.010789
0.217082 0.051727 0.009490
0.237675 0.056716 0.008415
0.258424 0.062188 0.007673
0.279540 0.068194 0.007291
0.301418 0.074952 0.007213
0.324382 0.082670 0.007356
0.348437 0.091290 0.007711
0.374177 0.101175 0.008357
0.401035 0.111927 0.009425
0.428670 0.123467 0.011082
0.456834 0.135807 0.013523
0.485245 0.148973 0.016924
0.513642 0.162962 0.021396
0.541725 0.177707 0.027038
0.569253 0.193095 0.033847
0.596133 0.208917 0.041628
0.622365 0.224796 0.050000
0.648237 0.240278 0.058329
0.674077 0.254986 0.066046
0.700313 0.268728 0.072705
0.728794 0.280430 0.076224
0.015360 0.038733 0.016036
0.032275 0.042595 0.013658
0.049778 0.045847 0.011791
0.067496 0.047972 0.010764
0.084571 0.048883 0.010414
0.100717 0.049091 0.010384
0.116375 0.049284 0.010370
0.132287 0.049954 0.010172
0.149020 0.051286 0.009646
0.166779 0.053296 0.008758
0.185445 0.055959 0.007609
0.204752 0.059263 0.006377
0.224488 0.063217 0.005237
0.244559 0.067807 0.004325
0.264947 0.072976 0.003748
0.285806 0.078754 0.003544
0.307499 0.085344 0.003654
0.330379 0.092976 0.003979
0.354456 0.101599 0.004508
0.380374 0.111598 0.005307
0.407520 0.122546 0.006534
0.435496 0.134327 0.008364
0.464030 0.146950 0.011005
0.492810 0.160418 0.014644
0.521548 0.174711 0.019392
0.549943 0.189754 0.025328
0.577705 0.205408 0.032465
0.604737 0.221463 0.040594
0.631087 0.237575 0.049309
0.656996 0.253323 0.058040
0.682832 0.268376 0.066229
0.709141 0.282554 0.073385
0.738730 0.294954 0.076820
0.020130 0.058262 0.022781
0.036409 0.062466 0.018385
0.054087 0.066351 0.014368
0.073139 0.069208 0.011250
0.092301 0.070404 0.009094
0.110574 0.070173 0.007656
0.127861 0.069342 0.006628
0.144664 0.068693 0.005743
0.161563 0.068674 0.004801
0.178935 0.069462 0.003735
0.196879 0.071077 0.002584
0.215344 0.073492 0.001459
0.234284 0.076689 0.000475
0.253716 0.080649 -0.000275
0.273635 0.085311 -0.000691
0.294155 0.090691 -0.000727
0.315607 0.096981 -0.000439
0.338341 0.104404 0.000059
0.362373 0.112919 0.000758
0.388370 0.122936 0.001737
0.415667 0.133970 0.003149
0.443845 0.145909 0.005200
0.472597 0.158753 0.008104
0.501585 0.172480 0.012055
0.530492 0.187047 0.017169
0.559021 0.202367 0.023500
0.586880 0.218281 0.031041
0.613953 0.234556 0.039573
0.640359 0.250854 0.048632
0.666368 0.266770 0.057638
0.692385 0.282004 0.066043
0.719015 0.296462 0.073370
0.749211 0.309707 0.077154
0.024740 0.077313 0.028769
0.039699 0.081572 0.023048
0.056822 0.086168 0.017532
0.076616 0.090386 0.012717
0.097769 0.092946 0.008813
0.118663 0.093425 0.005776
0.138439 0.092428 0.003437
0.157072 0.090916 0.001575
0.174959 0.089661 -0.000009
0.192560 0.089108 -0.001432
0.210203 0.089440 -0.002723
0.228097 0.090698 -0.003850
0.246403 0.092876 -0.004764
0.265259 0.095954 -0.005413
0.284706 0.099871 -0.005710
0.304861 0.104642 -0.005611
0.326040 0.110451 -0.005175
0.348587 0.117511 -0.004523
0.372515 0.125764 -0.003668
0.398462 0.135630 -0.002499
0.425780 0.146628 -0.000853
0.453988 0.158603 0.001480
0.482770 0.171560 0.004726
0.511777 0.185468 0.009075
0.540661 0.200253 0.014654
0.569118 0.215804 0.021495
0.596895 0.231944 0.029538
0.623872 0.248409 0.038542
0.650238 0.264848 0.047974
0.676352 0.280869 0.057191
0.702627 0.296197 0.065672
0.729688 0.310850 0.072992
0.760347 0.324824 0.077130
0.028800 0.095391 0.033694
0.042185 0.099455 0.027165
0.058204 0.104571 0.020761
0.077867 0.110236 0.014814
0.100203 0.114764 0.009520
0.123411 0.116993 0.004995
0.145996 0.116974 0.001263
0.167231 0.115531 -0.001765
0.187073 0.113629 -0.004231
0.205856 0.112010 -0.006263
0.224027 0.111109 -0.007935
0.242002 0.111129 -0.009280
0.260144 0.112146 -0.010301
0.278721 0.114169 -0.010976
0.297861 0.117154 -0.011243
0.317737 0.121137 -0.011076
0.338693 0.126303 -0.010550
0.361058 0.132835 -0.009783
0.384866 0.140665 -0.008800
0.410690 0.150213 -0.007433
0.437871 0.160989 -0.005518
0.465937 0.172837 -0.002843
0.494556 0.185765 0.000825
0.523388 0.199733 0.005662
0.552062 0.214637 0.011795
0.580251 0.230334 0.019248
0.607749 0.246625 0.027900
0.634504 0.263218 0.037432
0.660742 0.279737 0.047264
0.686925 0.295799 0.056673
0.713488 0.311160 0.065154
0.741022 0.325929 0.072371
0.772220 0.340482 0.076613
0.032217 0.112385 0.037459
0.044131 0.116176 0.030499
0.058854 0.121590 0.023695
0.077700 0.128436 0.017163
0.100205 0.134955 0.010965
0.124838 0.139469 0.005275
0.149850 0.141360 0.000280
0.173914 0.141021 -0.003959
0.196403 0.139359 -0.007479
0.217300 0.137301 -0.010360
0.236954 0.135546 -0.012680
0.255856 0.134516 -0.014502
0.274503 0.134434 -0.015854
0.293274 0.135378 -0.016732
0.312422 0.137365 -0.017103
0.332241 0.140478 -0.016981
0.353130 0.144909 -0.016463
0.375397 0.150792 -0.015651
0.399112 0.158048 -0.014589
0.424769 0.167097 -0.013037
0.451710 0.177478 -0.010825
0.479493 0.189037 -0.007758
0.507788 0.201776 -0.003601
0.536263 0.215651 0.001809
0.564556 0.230536 0.008573
0.592322 0.246252 0.016707
0.619384 0.262574 0.026041
0.645788 0.279183 0.036154
0.671831 0.295685 0.046393
0.698048 0.311698 0.055985
0.724921 0.327010 0.064408
0.752956 0.341792 0.071456
0.784859 0.356857 0.075476
0.035023 0.128379 0.039899
0.045816 0.132016 0.032898
0.059360 0.137621 0.026107
0.077079 0.145307 0.019444
0.098973 0.153493 0.012807
0.124019 0.160295 0.006353
0.150613 0.164554 0.000360
0.177134 0.166109 -0.004982
0.202434 0.165568 -0.009591
0.226013 0.163856 -0.013467
0.247921 0.161845 -0.016648
0.268546 0.160179 -0.019179
0.288394 0.159257 -0.021083
0.307915 0.159280 -0.022358
0.327508 0.160360 -0.023007
0.347611 0.162654 -0.023091
0.368689 0.166358 -0.022721
0.391037 0.171552 -0.021980
0.414744 0.178148 -0.020912
0.440239 0.186578 -0.019196
0.466883 0.196426 -0.016676
0.494287 0.207552 -0.013183
0.522143 0.219957 -0.008493
0.550124 0.233582 -0.002450
0.577881 0.248284 0.005013
0.605102 0.263861 0.013868
0.631624 0.280055 0.023910
0.657579 0.296525 0.034628
0.683389 0.312873 0.045257
0.709650 0.328727 0.054983
0.736884 0.343892 0.063273
0.765502 0.358604 0.070040
0.798226 0.374110 0.073615
0.037367 0.143581 0.040930
0.047547 0.147327 0.034351
0.060216 0.153145 0.027947
0.076785 0.161393 0.021494
0.097624 0.170815 0.014788
0.122255 0.179585 0.007948
0.149467 0.186225 0.001276
0.177671 0.190067 -0.004954
0.205419 0.191295 -0.010561
0.231761 0.190651 -0.015455
0.256331 0.189038 -0.019605
0.279239 0.187259 -0.023005
0.300866 0.185891 -0.025638
0.321689 0.185293 -0.027501
0.342229 0.185710 -0.028633
0.363044 0.187371 -0.029125
0.384636 0.190459 -0.029076
0.407312 0.195021 -0.028552
0.431149 0.200959 -0.027565
0.456511 0.208734 -0.025717
0.482843 0.217981 -0.022892
0.509814 0.228584 -0.018958
0.537161 0.240547 -0.013714
0.564566 0.253793 -0.007017
0.591683 0.268158 0.001177
0.618256 0.283428 0.010784
0.644182 0.299319 0.021524
0.669649 0.315475 0.032824
0.695212 0.331511 0.043810
0.721569 0.347079 0.053587
0.749245 0.361999 0.061649
0.778582 0.376577 0.067981
0.812224 0.392429 0.070962
0.039528 0.158340 0.040924
0.049642 0.162477 0.035124
0.061819 0.168589 0.029356
0.077378 0.177210 0.023319
0.096981 0.187464 0.016793
0.120640 0.197760 0.009866
0.147621 0.206514 0.002819
0.176605 0.212689 -0.004042
0.206094 0.216032 -0.010471
0.234836 0.216979 -0.016299
0.262049 0.216333 -0.021412
0.287475 0.214961 -0.025735
0.311277 0.213594 -0.029213
0.333880 0.212765 -0.031840
0.355858 0.212858 -0.033668
0.377813 0.214149 -0.034778
0.400255 0.216807 -0.035231
0.423508 0.220867 -0.035064
0.447637 0.226236 -0.034255
0.472923 0.233411 -0.032316
0.498969 0.242084 -0.029215
0.525505 0.252152 -0.024855
0.552309 0.263620 -0.019058
0.579095 0.276401 -0.011713
0.605535 0.290312 -0.002805
0.631408 0.305124 0.007542
0.656699 0.320545 0.018959
0.681696 0.336221 0.030773
0.707051 0.351792 0.042032
0.733580 0.366954 0.051752
0.761814 0.381554 0.059458
0.792018 0.395947 0.065203
0.826635 0.412025 0.067533
0.041999 0.173088 0.040495
0.052420 0.177788 0.035631
0.064411 0.184240 0.030574
0.079174 0.193114 0.025024
0.097559 0.203890 0.018811
0.119952 0.215283 0.012003
0.146075 0.225767 0.004835
0.174998 0.234093 -0.002402
0.205378 0.239636 -0.009433
0.235847 0.242477 -0.016027
0.265321 0.243220 -0.022003
0.293200 0.242713 -0.027230
0.319374 0.241792 -0.031626
0.344114 0.241140 -0.035164
0.367927 0.241255 -0.037865
0.391373 0.242448 -0.039763
0.414952 0.244894 -0.040870
0.438968 0.248632 -0.041166
0.463516 0.253594 -0.040609
0.488815 0.260305 -0.038637
0.514628 0.268505 -0.035309
0.540775 0.278100 -0.030573
0.567056 0.289082 -0.024267
0.593216 0.301359 -0.016310
0.618971 0.314735 -0.006732
0.644152 0.328971 0.004287
0.668816 0.343778 0.016312
0.693382 0.358831 0.028554
0.718615 0.373819 0.039960
0.745414 0.388491 0.049496
0.774346 0.402740 0.056675
0.805556 0.416922 0.061685
0.841162 0.433096 0.063420
0.045696 0.188479 0.040501
0.056314 0.193593 0.036341
0.068148 0.200282 0.031859
0.082258 0.209287 0.026765
0.099541 0.220359 0.020920
0.120588 0.232494 0.014361
0.145474 0.244314 0.007260
0.173667 0.254494 -0.000131
0.204117 0.262145 -0.007539
0.235530 0.267017 -0.014702
0.266694 0.269457 -0.021405
0.296752 0.270212 -0.027486
0.325297 0.270145 -0.032828
0.352340 0.270030 -0.037357
0.378210 0.270451 -0.041031
0.403371 0.271780 -0.043820
0.428246 0.274222 -0.045655
0.453130 0.277839 -0.046467
0.478182 0.282601 -0.046217
0.503574 0.289039 -0.044282
0.529239 0.296919 -0.040799
0.555065 0.306143 -0.035761
0.580877 0.316694 -0.029028
0.606455 0.328466 -0.020543
0.631560 0.341260 -0.010376
0.656087 0.354834 0.001226
0.680196 0.368920 0.013737
0.704415 0.383242 0.026274
0.729643 0.397566 0.037669
0.756842 0.411719 0.046851
0.786594 0.425640 0.053345
0.818873 0.439644 0.057537
0.855444 0.455757 0.058770
0.051025 0.204689 0.041068
0.061600 0.210017 0.037375
0.073194 0.216810 0.033330
0.086732 0.225844 0.028653
0.103045 0.237045 0.023202
0.122788 0.249644 0.016975
0.146263 0.262442 0.010078
0.173284 0.274151 0.002706
0.203144 0.283730 -0.004893
0.234772 0.290657 -0.012454
0.266987 0.295006 -0.019754
0.298774 0.297341 -0.026608
0.329443 0.298455 -0.032855
0.358712 0.299155 -0.038360
0.386664 0.300105 -0.043010
0.413574 0.301758 -0.046682
0.439771 0.304381 -0.049236
0.465552 0.308082 -0.050577
0.491153 0.312862 -0.050671
0.516709 0.319241 -0.048833
0.542308 0.326960 -0.045304
0.567892 0.335935 -0.040071
0.593307 0.346126 -0.033012
0.618375 0.357414 -0.024110
0.642916 0.369599 -0.013485
0.666883 0.382450 -0.001434
0.690545 0.395737 0.011418
0.714562 0.409257 0.024068
0.739934 0.422870 0.035264
0.767687 0.436510 0.043897
0.798342 0.450156 0.049588
0.831672 0.464049 0.052954
0.869130 0.480004 0.053789
0.058137 0.221671 0.042036
0.068559 0.227118 0.038705
0.079885 0.233950 0.035035
0.092922 0.242951 0.030752
0.108398 0.254161 0.025704
0.126941 0.267001 0.019849
0.148975 0.280469 0.013237
0.174577 0.293382 0.006006
0.203372 0.304649 -0.001643
0.234580 0.313555 -0.009465
0.267157 0.319902 -0.017227
0.300035 0.324014 -0.024721
0.332342 0.326550 -0.031753
0.363509 0.328294 -0.038124
0.393323 0.329963 -0.043636
0.421842 0.332107 -0.048089
0.449281 0.335080 -0.051296
0.475936 0.339052 -0.053144
0.502099 0.344033 -0.053627
0.527881 0.350445 -0.052103
0.553470 0.358255 -0.048491
0.578885 0.367114 -0.043158
0.603994 0.377018 -0.035906
0.628642 0.387845 -0.026722
0.652723 0.399400 -0.015784
0.676279 0.411482 -0.003469
0.699665 0.423912 0.009521
0.723672 0.436582 0.022061
0.749380 0.449470 0.032834
0.777835 0.462618 0.040744
0.809420 0.476044 0.045582
0.843724 0.489903 0.048177
0.881950 0.505670 0.048756
0.066923 0.239245 0.043366
0.077310 0.244857 0.040346
0.088502 0.251766 0.037009
0.101191 0.260735 0.033093
0.116000 0.271886 0.028433
0.133504 0.284804 0.022954
0.154166 0.298678 0.016667
0.178229 0.312468 0.009660
0.205598 0.325114 0.002085
0.235811 0.335797 -0.005850
0.268051 0.344098 -0.013921
0.301291 0.350083 -0.021890
0.334546 0.354224 -0.029519
0.367038 0.357219 -0.036556
0.398289 0.359808 -0.042741
0.428137 0.362621 -0.047825
0.456668 0.366110 -0.051590
0.484135 0.370513 -0.053908
0.510856 0.375866 -0.054775
0.536896 0.382553 -0.053506
0.562517 0.390487 -0.050030
0.587822 0.399313 -0.044737
0.612701 0.408988 -0.037432
0.637040 0.419370 -0.028128
0.660796 0.430278 -0.017054
0.684108 0.441550 -0.004674
0.707441 0.453085 0.008200
0.731667 0.464882 0.020373
0.757930 0.477051 0.030484
0.787204 0.489739 0.037540
0.819695 0.503006 0.041533
0.854863 0.516905 0.043439
0.893821 0.532477 0.043847
0.077440 0.257287 0.045089
0.087906 0.263114 0.042352
0.099086 0.270140 0.039319
0.111572 0.279093 0.035738
0.125891 0.290152 0.031440
0.142549 0.303038 0.026331
0.161993 0.317111 0.020390
0.184551 0.331490 0.013662
0.210323 0.345203 0.006260
0.239099 0.357395 -0.001641
0.270315 0.367499 -0.009831
0.303111 0.375356 -0.018062
0.336506 0.381230 -0.026058
0.369607 0.385686 -0.033532
0.401745 0.389423 -0.040189
0.432556 0.393113 -0.045748
0.461967 0.397287 -0.049966
0.490146 0.402255 -0.052703
0.517381 0.408104 -0.053924
0.543658 0.415232 -0.052821
0.569370 0.423308 -0.049703
0.594612 0.432156 -0.044585
0.619340 0.441637 -0.037377
0.643481 0.451581 -0.028129
0.667072 0.461828 -0.017127
0.690344 0.472268 -0.004927
0.713861 0.482890 0.007564
0.738559 0.493819 0.019090
0.765570 0.505294 0.028329
0.795720 0.517558 0.034472
0.829053 0.530710 0.037690
0.865022 0.544689 0.038984
0.905196 0.560207 0.038646
0.089823 0.275715 0.047235
0.100480 0.281789 0.044757
0.111755 0.288957 0.041999
0.124155 0.297906 0.038726
0.138119 0.308850 0.034770
0.154074 0.321614 0.030030
0.172425 0.335712 0.024461
0.193530 0.350424 0.018079
0.217600 0.364895 0.010961
0.244613 0.378300 0.003249
0.274241 0.389995 -0.004863
0.305852 0.399657 -0.013128
0.338593 0.407343 -0.021264
0.371566 0.413449 -0.028961
0.403995 0.418572 -0.035905
0.435342 0.423366 -0.041793
0.465369 0.428406 -0.046363
0.494111 0.434063 -0.049460
0.521801 0.440470 -0.051057
0.548364 0.447955 -0.050419
0.574109 0.456337 -0.047452
0.599316 0.465247 -0.042571
0.623955 0.474543 -0.035598
0.648021 0.484052 -0.026598
0.671620 0.493635 -0.015906
0.695072 0.503243 -0.004159
0.719011 0.512966 0.007664
0.744404 0.523058 0.018288
0.772282 0.533879 0.026521
0.803306 0.545771 0.031751
0.837409 0.558845 0.034292
0.874268 0.572946 0.034900
0.917077 0.588752 0.032101
0.103827 0.294331 0.049836
0.114732 0.300659 0.047602
0.126170 0.307979 0.045106
0.138572 0.316937 0.042129
0.152294 0.327760 0.038511
0.167677 0.340347 0.034149
0.185072 0.354344 0.028986
0.204810 0.369185 0.023018
0.227148 0.384151 0.016292
0.252202 0.398487 0.008921
0.279859 0.411540 0.001076
0.309727 0.422880 -0.007017
0.341149 0.432392 -0.015082
0.373323 0.440280 -0.022808
0.405447 0.446997 -0.029873
0.436866 0.453117 -0.035959
0.467181 0.459206 -0.040786
0.496285 0.465673 -0.044182
0.524309 0.472711 -0.046104
0.551080 0.480624 -0.045809
0.576906 0.489231 -0.043187
0.602120 0.498178 -0.038656
0.626750 0.507280 -0.032060
0.650862 0.516354 -0.023498
0.674646 0.525287 -0.013370
0.698481 0.534090 -0.002357
0.723056 0.542960 0.008516
0.749284 0.552268 0.018053
0.778054 0.562501 0.025230
0.809920 0.574089 0.029569
0.844898 0.587150 0.031315
0.883150 0.601495 0.030658
0.929605 0.617848 0.024174
0.119153 0.312933 0.052906
0.130320 0.319508 0.050915
0.141946 0.326987 0.048682
0.154389 0.335966 0.046007
0.167926 0.346673 0.042737
0.182825 0.359064 0.038771
0.199375 0.372890 0.034053
0.217858 0.387719 0.028564
0.238528 0.402970 0.022330
0.261587 0.417993 0.015434
0.287092 0.432166 0.008019
0.314869 0.445009 0.000284
0.344483 0.456272 -0.007521
0.375292 0.465985 -0.015098
0.406549 0.474429 -0.022128
0.437556 0.482053 -0.028290
0.467790 0.489359 -0.033283
0.497008 0.496761 -0.036924
0.525218 0.504493 -0.039147
0.552157 0.512826 -0.039211
0.578075 0.521612 -0.036989
0.603351 0.530551 -0.032904
0.628061 0.539435 -0.026828
0.652354 0.548079 -0.018916
0.676479 0.556392 -0.009598
0.700873 0.564449 0.000406
0.726213 0.572535 0.010118
0.753305 0.581142 0.018482
0.782915 0.590875 0.024614
0.815669 0.602251 0.027973
0.852133 0.615470 0.028182
0.892929 0.630321 0.024882
0.941616 0.647045 0.016321
0.135436 0.331381 0.056446
0.146857 0.338194 0.054711
0.158670 0.345833 0.052757
0.171161 0.354841 0.050398
0.184545 0.365446 0.047495
0.199023 0.377646 0.043956
0.214824 0.391273 0.039721
0.232176 0.406009 0.034767
0.251308 0.421395 0.029108
0.272459 0.436896 0.022800
0.295799 0.451955 0.015954
0.321330 0.466081 0.008733
0.348826 0.478940 0.001356
0.377839 0.490416 -0.005908
0.407745 0.500623 -0.012757
0.437877 0.509857 -0.018871
0.467656 0.518512 -0.023952
0.496719 0.526959 -0.027794
0.524950 0.535454 -0.030310
0.551993 0.544199 -0.030757
0.578032 0.553117 -0.029011
0.603442 0.561999 -0.025487
0.628350 0.570642 -0.020105
0.652953 0.578867 -0.013054
0.677556 0.586610 -0.004786
0.702609 0.593995 0.004004
0.728723 0.601393 0.012457
0.756597 0.609404 0.019653
0.786968 0.618743 0.024755
0.820762 0.630026 0.026901
0.859192 0.643562 0.024964
0.902713 0.659018 0.018753
0.952457 0.676019 0.009373
0.152347 0.349562 0.060458
0.163999 0.356613 0.059001
0.175979 0.364415 0.057346
0.188510 0.373469 0.055326
0.201753 0.383998 0.052818
0.215858 0.396030 0.049738
0.230996 0.409458 0.046028
0.247347 0.424054 0.041661
0.265113 0.439472 0.036640
0.284527 0.455282 0.031006
0.305807 0.471003 0.024839
0.329084 0.486172 0.018265
0.354324 0.500410 0.011456
0.381269 0.513499 0.004646
0.409463 0.525401 -0.001891
0.438330 0.536258 -0.007856
0.467297 0.546323 -0.012954
0.495929 0.555890 -0.016967
0.523984 0.565207 -0.019759
0.551022 0.574373 -0.020526
0.577270 0.583411 -0.019483
0.602914 0.592214 -0.016690
0.628134 0.600605 -0.012190
0.653165 0.608431 -0.006209
0.678332 0.615660 0.000822
0.704043 0.622460 0.008307
0.730826 0.629279 0.015512
0.759330 0.636816 0.021599
0.790457 0.645891 0.025577
0.825647 0.657253 0.026007
0.866207 0.671224 0.021644
0.911560 0.687208 0.013463
0.962098 0.704582 0.003396
0.169612 0.367423 0.064939
0.181462 0.374708 0.063789
0.193574 0.382678 0.062464
0.206123 0.391794 0.060814
0.219228 0.402273 0.058731
0.233001 0.414168 0.056141
0.247567 0.427416 0.052989
0.263052 0.441856 0.049251
0.279626 0.457235 0.044921
0.297500 0.473217 0.040026
0.316905 0.489402 0.034617
0.338040 0.505371 0.028786
0.361023 0.520740 0.022657
0.385790 0.535222 0.016410
0.412052 0.548662 0.010284
0.439372 0.561053 0.004547
0.467239 0.572508 -0.000524
0.495194 0.583221 -0.004700
0.522909 0.593405 -0.007836
0.549976 0.603049 -0.009245
0.576359 0.612219 -0.008803
0.602304 0.620956 -0.006881
0.627939 0.629114 -0.003453
0.653485 0.636575 0.001288
0.679222 0.643344 0.006997
0.705488 0.649647 0.013195
0.732757 0.656004 0.019235
0.761749 0.663200 0.024249
0.793763 0.672184 0.026825
0.830674 0.683822 0.025033
0.872983 0.698266 0.018561
0.919338 0.714727 0.009230
0.970568 0.732601 -0.001630
0.186994 0.384923 0.069895
0.199003 0.392438 0.069081
0.211223 0.400581 0.068115
0.223778 0.409778 0.066866
0.236747 0.420238 0.065242
0.250216 0.432027 0.063174
0.264276 0.445117 0.060615
0.279018 0.459400 0.057536
0.294576 0.474695 0.053932
0.311112 0.490743 0.049816
0.328858 0.507220 0.045215
0.348056 0.523762 0.040183
0.368908 0.540003 0.034802
0.391516 0.555621 0.029195
0.415770 0.570373 0.023542
0.441383 0.584131 0.018078
0.467952 0.596878 0.013052
0.495035 0.608709 0.008695
0.522246 0.619783 0.005179
0.549233 0.629963 0.003120
0.575820 0.639340 0.002673
0.602126 0.648073 0.003525
0.628242 0.656047 0.005718
0.654317 0.663186 0.009139
0.680541 0.669556 0.013549
0.707192 0.675451 0.018552
0.734772 0.681462 0.023514
0.764252 0.688472 0.027322
0.797405 0.697574 0.028055
0.835955 0.709622 0.023977
0.879349 0.724565 0.015985
0.926256 0.741565 0.005823
0.977808 0.759946 -0.005657
0.204346 0.402048 0.075322
0.216471 0.409788 0.074876
0.228758 0.418106 0.074303
0.241294 0.427397 0.073488
0.254129 0.437861 0.072352
0.267327 0.449575 0.070835
0.280941 0.462532 0.068892
0.295037 0.476663 0.066497
0.309723 0.491842 0.063637
0.325133 0.507873 0.060314
0.341466 0.524499 0.056532
0.358973 0.541412 0.052315
0.377913 0.558275 0.047703
0.398500 0.574757 0.042763
0.420790 0.590562 0.037609
0.444656 0.605471 0.032427
0.469825 0.619364 0.027430
0.495915 0.632242 0.022838
0.522514 0.644206 0.018845
0.549348 0.654989 0.016002
0.576129 0.664673 0.014493
0.602813 0.673494 0.014121
0.629399 0.681355 0.015002
0.655923 0.688242 0.017125
0.682487 0.694287 0.020330
0.709354 0.699859 0.024254
0.737200 0.705639 0.028095
0.767437 0.712656 0.030260
0.801899 0.722059 0.028787
0.841369 0.734536 0.023054
0.885089 0.749964 0.014181
0.932134 0.767517 0.003397
0.983782 0.786519 -0.008645
0.221496 0.418780 0.081224
0.233722 0.426743 0.081174
0.246059 0.435240 0.081022
0.258561 0.444635 0.080669
0.271251 0.455119 0.080047
0.284184 0.466778 0.079102
0.297404 0.479624 0.077790
0.310953 0.493612 0.076082
0.324908 0.508652 0.073969
0.339379 0.524601 0.071430
0.354543 0.541257 0.068450
0.370638 0.558364 0.065022
0.387932 0.575623 0.061156
0.406726 0.592710 0.056857
0.427202 0.609307 0.052180
0.449383 0.625139 0.047251
0.473143 0.640009 0.042228
0.498178 0.653838 0.037322
0.524081 0.666664 0.032749
0.550705 0.678112 0.028968
0.577644 0.688202 0.026265
0.604647 0.697215 0.024603
0.631595 0.705066 0.024195
0.658419 0.711796 0.025110
0.685157 0.717603 0.027238
0.712157 0.722936 0.030124
0.740437 0.728622 0.032567
0.771636 0.735805 0.032730
0.806976 0.745562 0.029390
0.846622 0.758471 0.022653
0.890188 0.774430 0.013185
0.937036 0.792590 0.001881
0.988488 0.812220 -0.010574
0.238389 0.435117 0.087580
0.250675 0.443297 0.087957
0.263023 0.451969 0.088256
0.275464 0.461471 0.088391
0.288011 0.471987 0.088299
0.300706 0.483607 0.087933
0.313582 0.496361 0.087247
0.326666 0.510217 0.086217
0.340010 0.525092 0.084838
0.353718 0.540899 0.083057
0.367936 0.557489 0.080835
0.382885 0.574645 0.078141
0.398834 0.592106 0.074949
0.416113 0.609575 0.071219
0.434993 0.626734 0.066948
0.455639 0.643280 0.062187
0.478055 0.658957 0.057047
0.502032 0.673630 0.051724
0.527206 0.687278 0.046449
0.553559 0.699418 0.041627
0.580549 0.709994 0.037710
0.607723 0.719309 0.034805
0.634855 0.727276 0.033205
0.661794 0.733962 0.033045
0.688601 0.739619 0.034173
0.715868 0.744828 0.035818
0.744856 0.750556 0.036476
0.776815 0.757958 0.034767
0.812310 0.768043 0.030249
0.851620 0.781400 0.022898
0.894721 0.797936 0.012957
0.941049 0.816738 0.001249
0.991983 0.836957 -0.011454
0.254911 0.451051 0.094382
0.267238 0.459439 0.095208
0.279583 0.468279 0.095975
0.291953 0.477886 0.096611
0.304355 0.488437 0.097063
0.316822 0.500023 0.097284
0.329396 0.512682 0.097227
0.342094 0.526397 0.096860
0.354939 0.541094 0.096168
0.368034 0.556725 0.095080
0.381518 0.573175 0.093536
0.395581 0.590271 0.091479
0.410474 0.607794 0.088853
0.426532 0.625481 0.085571
0.444069 0.643038 0.081582
