src/colors/film_stock_&_vintage/golden_wood_film.cube
TITLE "Generated by Resolve"
LUT_3D_SIZE 9
0.0130922 0.0223239 0.0213016
0.0265812 0.0263066 0.0205844
0.0612802 0.0309758 0.0184329
0.171969 0.038468 9.15541e-05
0.314153 0.0476692 0
0.435248 0.0554513 0
0.53753 0.0619974 0
0.626154 0.0591897 0
0.682033 0.0636606 0
0.00543221 0.0541695 0.029221
0.0196841 0.0569619 0.0289158
0.0826429 0.0631571 0.0201877
0.237613 0.0718395 0
0.404471 0.0878309 0
0.539345 0.0997635 0
0.651911 0.106767 0
0.736171 0.109667 0
0.783505 0.11841 0
0 0.0960861 0.0451057
0.00267033 0.108156 0.0437324
0.1084 0.124269 0.0157473
0.31902 0.142443 0
0.514824 0.161852 0
0.658106 0.177707 0
0.772717 0.1879 0
0.844862 0.195377 0
0.885359 0.214038 0
0 0.174517 0.0731212
0 0.195071 0.0676127
0.0890211 0.239322 0
0.365652 0.264576 0
0.583566 0.290333 0
0.734783 0.31986 0
0.844892 0.33698 0
0.911955 0.353506 0
0.944091 0.37673 0
0 0.301213 0.104875
0 0.332586 0.0979782
0.0839399 0.407568 0
0.425483 0.452415 0
0.647807 0.486137 0
0.795346 0.516289 0
0.898665 0.527047 0
0.94963 0.53254 0
0.973938 0.538949 0
0 0.435416 0.150912
0 0.492439 0.120516
0.185107 0.581399 0
0.513161 0.618982 0
0.715267 0.644999 0
0.848951 0.664485 0
0.942 0.671565 0
0.993622 0.678431 0
0.999969 0.690852 0
0 0.516274 0.184833
0 0.58436 0.118563
0.207965 0.665812 0
0.54522 0.706966 0
0.74229 0.739025 0
0.882185 0.760906 0
0.970825 0.775265 0
1 0.787045 0
1 0.796033 0
0 0.555337 0.210712
0 0.641138 0.119448
0.237491 0.727337 0
0.588815 0.772427 0
0.789471 0.803952 0
0.939864 0.827329 0
0.999863 0.836927 0
1 0.846021 0
1 0.847364 0
0 0.619867 0.265522
0 0.717845 0.147921
0.283192 0.785992 0.000915541
0.625422 0.825452 0
0.831479 0.85597 0
0.984512 0.871656 0
1 0.876448 0
1 0.875792 0.0338903
1 0.876753 0.0966964
0.0112764 0.0273747 0.038529
0.0233005 0.0303349 0.0426795
0.0681926 0.0338445 0.0352636
0.188418 0.0372168 0.0101167
0.353002 0.0388342 0
0.479362 0.0475929 0
0.585824 0.0514382 0
0.670909 0.049134 0
0.730938 0.0419318 0
0.0077821 0.0567025 0.0478828
0.0228122 0.0617075 0.05243
0.0913863 0.0697795 0.0416876
0.259998 0.0753185 0.0104219
0.43978 0.0896925 0
0.575418 0.100649 0
0.70161 0.0985428 4.57771e-05
0.805341 0.0792554 0
0.859815 0.0743267 0
0 0.103288 0.0706645
0.019028 0.11371 0.0739757
0.118151 0.134844 0.0495003
0.343328 0.150912 0.00976577
0.544198 0.171313 0.00842298
0.699245 0.182696 0.0043946
0.831418 0.178103 0
0.923949 0.171527 0
0.966751 0.187228 0
0 0.189059 0.102022
0.014847 0.206104 0.105104
0.112001 0.250599 0.0433051
0.389624 0.282887 0.0123445
0.613489 0.309102 0.00602731
0.767865 0.335103 0.000274662
0.893904 0.346578 0
0.97763 0.355154 0
0.999207 0.377737 0
0 0.324712 0.144259
0.0129244 0.351965 0.148272
0.105409 0.434653 0.0466316
0.446296 0.481331 0.0102083
0.675227 0.513527 0.00843824
0.820432 0.538857 0.00827039
0.928618 0.548272 0
0.994141 0.551522 0
1 0.55877 0
0 0.462745 0.207752
0.0147402 0.512596 0.196475
0.179553 0.612818 0.0532235
0.523247 0.646174 0.0319677
0.729717 0.670085 0.0224308
0.863188 0.687877 0.013962
0.970306 0.696818 0.000183108
1 0.70547 0
1 0.719173 0
0 0.539178 0.253132
0 0.598199 0.207172
0.152224 0.704768 0.00527962
0.54992 0.740429 0.00158694
0.76054 0.767727 0.00700389
0.903563 0.788006 0.00988785
0.993973 0.803647 0
1 0.815778 0
1 0.824872 0
0 0.576745 0.289326
0 0.661326 0.238392
0.156176 0.769192 0.00910964
0.582498 0.814252 0
0.814038 0.843214 0
0.974304 0.859495 0
1 0.864759 0
1 0.865522 0.0222934
1 0.868772 0.0567636
0 0.645716 0.362081
0 0.736355 0.300603
0.22826 0.814099 0.127565
0.609033 0.853239 0.0605478
0.821912 0.87747 0.049836
0.978546 0.892958 0.0538338
1 0.897292 0.107317
1 0.894667 0.229404
1 0.899306 0.274144
0.00340276 0.0338445 0.0737469
0.0189975 0.0343481 0.0792554
0.0699016 0.0369726 0.0762951
0.198871 0.0389105 0.0551614
0.382467 0.0341192 0.0317082
0.517464 0.0400702 0.024918
0.628077 0.0376898 0.0218814
0.727184 0.0137942 0.0234379
0.798444 0 0.0255131
0.000411994 0.0644388 0.0901961
0.021149 0.0703746 0.0971847
0.0955978 0.0756542 0.0997635
0.278111 0.0827039 0.0758221
0.466865 0.0962234 0.064622
0.614603 0.0992905 0.060441
0.761822 0.0718853 0.0551614
0.87686 0.0178836 0.0492409
0.941085 0 0.0599222
0 0.116976 0.118624
0.0239109 0.127199 0.127871
0.127794 0.145663 0.126116
0.358618 0.166735 0.109392
0.576562 0.180697 0.0983902
0.761395 0.169497 0.0818189
0.90132 0.151263 0.0695048
0.985534 0.140749 0.0634928
1 0.167376 0.0816358
0 0.206424 0.154803
0.0216831 0.225559 0.168658
0.129381 0.26566 0.148226
0.406485 0.305669 0.116762
0.638758 0.32871 0.11281
0.825452 0.343526 0.087892
0.968017 0.346731 0.0495003
1 0.355261 0.0253452
1 0.380972 0.0315099
0 0.35169 0.215869
0.0231479 0.383566 0.227924
0.165225 0.449699 0.205051
0.451041 0.514382 0.142397
0.685283 0.541878 0.140566
0.843519 0.56556 0.119478
0.9823 0.56585 0.0290532
1 0.563256 0
1 0.575372 0
0 0.492622 0.301366
0.0337224 0.540383 0.304143
0.14699 0.646311 0.202274
0.513848 0.682185 0.159091
0.730892 0.701152 0.171084
0.875685 0.716915 0.153903
0.996399 0.726604 0.039704
1 0.733867 0.00366217
1 0.750393 0.0159915
0 0.565057 0.359701
0 0.623987 0.343008
0.0740215 0.743664 0.190463
0.523095 0.790249 0.0803235
0.774075 0.811933 0.0818341
0.926253 0.826551 0.111177
1 0.836316 0.116686
1 0.84448 0.112093
1 0.852018 0.1514
0 0.605814 0.410163
0 0.687449 0.392096
0.0355077 0.806546 0.24535
0.544564 0.847028 0.153674
0.792599 0.874083 0.129122
0.968032 0.88986 0.119738
1 0.892668 0.190311
1 0.893584 0.274601
1 0.897307 0.311589
0 0.677272 0.495186
0 0.760586 0.476982
0.154086 0.84712 0.372992
0.573266 0.882567 0.319051
0.79144 0.90341 0.318166
0.954635 0.919387 0.324056
1 0.922606 0.363439
1 0.922713 0.44126
1 0.924727 0.482063
0 0.0494087 0.126146
0.00819409 0.049836 0.139116
0.0635233 0.0420844 0.153979
0.20737 0.0375982 0.14641
0.399451 0.0298161 0.128618
0.537057 0.0395972 0.129961
0.650965 0.0352331 0.135119
0.757733 0.00256352 0.148425
0.813626 0 0.161608
0 0.0832837 0.160983
0.0131228 0.0899214 0.16994
0.0833295 0.0860609 0.201007
0.2822 0.0914015 0.194034
0.487663 0.100511 0.18584
0.643717 0.102693 0.198428
0.790295 0.0746166 0.210376
0.888487 0.0330968 0.229847
0.953124 0.0024567 0.258091
0 0.141588 0.206531
0.022385 0.153674 0.222797
0.132479 0.170001 0.245945
0.372564 0.184176 0.264454
0.605249 0.189853 0.258167
0.8056 0.170245 0.271565
0.931029 0.153185 0.283146
0.993484 0.152209 0.299947
1 0.185672 0.320577
0 0.238651 0.25893
0.0213931 0.260929 0.279072
0.158495 0.293599 0.297383
0.407935 0.334981 0.300801
0.697307 0.343694 0.280812
0.874266 0.354467 0.284062
0.984009 0.363409 0.293309
1 0.38027 0.305303
1 0.40209 0.312139
0 0.390204 0.337499
0.0320897 0.4262 0.36228
0.201694 0.484596 0.375204
0.433631 0.555795 0.333547
0.694881 0.581994 0.338872
0.898024 0.595544 0.275517
0.998718 0.588968 0.257389
1 0.586557 0.257755
1 0.600153 0.261418
0 0.534142 0.441321
0.0527047 0.580941 0.460319
0.169024 0.671901 0.439429
0.459876 0.737621 0.334478
0.727916 0.744762 0.350576
0.887755 0.754513 0.344091
0.999741 0.762005 0.278752
1 0.768734 0.276204
1 0.783368 0.299992
0 0.605081 0.504723
0 0.663081 0.511894
0.057023 0.77261 0.459113
0.467201 0.83212 0.360967
0.748943 0.856031 0.33431
0.924056 0.868315 0.341741
0.997971 0.872557 0.390875
1 0.879133 0.400168
1 0.886137 0.428672
0 0.652705 0.565499
0 0.724681 0.572732
0.0201267 0.841306 0.528389
0.487068 0.882368 0.451698
0.754284 0.907179 0.442359
0.933303 0.921935 0.437339
1 0.925795 0.466178
1 0.925811 0.527626
1 0.930465 0.558984
0 0.717906 0.648402
0 0.796262 0.663523
0.042298 0.885527 0.625391
0.525826 0.913115 0.578973
0.755917 0.932479 0.576165
0.920958 0.947951 0.575708
0.999023 0.952621 0.592935
1 0.952605 0.648844
1 0.954314 0.681071
0 0.0804456 0.204303
0 0.0779126 0.230243
0.0484169 0.0480354 0.281849
0.207111 0.0458686 0.281407
0.407752 0.0324102 0.273457
0.555901 0.0367132 0.276875
0.673152 0.036408 0.288746
0.777584 0.00163272 0.309895
0.837079 0 0.334096
0 0.117235 0.248478
0.0084535 0.125658 0.260914
0.0618906 0.1019 0.348379
0.284413 0.107073 0.359457
0.5037 0.110704 0.356161
0.661463 0.111803 0.373632
0.80148 0.0864881 0.40206
0.906462 0.0315862 0.437339
0.969818 0.00376898 0.477134
0 0.179538 0.314763
0.0214542 0.193332 0.335882
0.109102 0.198001 0.413245
0.370443 0.206699 0.454612
0.609064 0.215564 0.460227
0.803738 0.191897 0.49781
0.938659 0.163622 0.524269
0.995315 0.166598 0.543114
1 0.20206 0.563943
0 0.281529 0.385962
0.0204013 0.304417 0.415366
0.170535 0.341161 0.444007
0.400336 0.363684 0.533806
0.695216 0.368963 0.533165
0.871 0.377966 0.543008
0.979019 0.386221 0.551934
1 0.400046 0.555673
1 0.421637 0.561654
0 0.439124 0.478096
0.0353246 0.477424 0.512932
0.217655 0.53077 0.538705
0.446601 0.592081 0.555123
0.700404 0.61619 0.559442
0.888228 0.625589 0.536141
0.990829 0.613718 0.527611
1 0.61146 0.524178
1 0.625223 0.523186
0 0.581048 0.586419
0.0470436 0.626657 0.613672
0.196674 0.702556 0.63035
0.427131 0.768139 0.5944
0.700313 0.785046 0.558785
0.886122 0.792172 0.561044
0.999573 0.791943 0.538231
1 0.798688 0.542428
1 0.8112 0.553887
0 0.648859 0.644373
0 0.70164 0.663386
0.0563516 0.797986 0.667948
0.406027 0.866087 0.614145
0.708873 0.888609 0.595728
0.895979 0.900359 0.594034
0.988251 0.903349 0.616464
1 0.90898 0.62742
1 0.91574 0.641703
0 0.690654 0.691966
0 0.760754 0.724758
0.0108034 0.867414 0.734432
0.433906 0.91252 0.680812
0.715526 0.934905 0.673274
0.903792 0.947005 0.664683
0.996033 0.954101 0.668711
1 0.953002 0.720027
1 0.955062 0.731975
0 0.74902 0.762066
0 0.82504 0.79852
0 0.910643 0.803479
0.487617 0.93724 0.763561
0.728298 0.954482 0.758038
0.897948 0.966766 0.754849
0.989273 0.972671 0.759655
1 0.973037 0.794003
1 0.973648 0.815732
0 0.118227 0.277378
0 0.120211 0.293584
0.0236362 0.0599374 0.406607
0.208972 0.0497444 0.415839
0.411597 0.0476997 0.417166
0.571862 0.0401923 0.428214
0.693751 0.0353857 0.442115
0.797833 0.00205997 0.468788
0.853803 0 0.494179
0 0.156466 0.340505
0.000366217 0.165606 0.355978
0.0198672 0.12575 0.481849
0.283619 0.120058 0.505531
0.511376 0.128054 0.508232
0.66807 0.13489 0.530724
0.807614 0.10515 0.566018
0.923415 0.0267033 0.616754
0.97937 0.00535592 0.660594
0 0.222507 0.414923
0.0041352 0.23418 0.438911
0.0753033 0.217777 0.572015
0.377554 0.213062 0.630716
0.619821 0.23415 0.623392
0.797345 0.21944 0.664637
0.942687 0.17351 0.706966
0.997421 0.174197 0.722271
1 0.211612 0.740276
0 0.322866 0.495918
0.00656138 0.346929 0.526131
0.156649 0.3785 0.570962
0.394324 0.380514 0.720592
0.685069 0.39411 0.717891
0.865354 0.398688 0.732723
0.973587 0.405081 0.736828
1 0.418158 0.734661
1 0.437263 0.731823
0 0.480018 0.590707
0.0343786 0.516487 0.621332
0.229679 0.570199 0.656519
0.443534 0.625269 0.713252
0.688472 0.64094 0.73901
0.870954 0.643549 0.728511
0.980896 0.632303 0.714611
1 0.63035 0.706111
1 0.647211 0.703044
0 0.61648 0.685786
0.0447852 0.657938 0.71342
0.221988 0.727535 0.745235
0.442847 0.782559 0.752316
0.676127 0.807919 0.741543
0.871611 0.817288 0.7346
0.988037 0.813275 0.720195
1 0.821149 0.719844
1 0.833982 0.723522
0 0.67805 0.73109
1.5259e-05 0.728527 0.758679
0.0577859 0.820676 0.794949
0.379126 0.887098 0.780606
0.682078 0.910109 0.764599
0.872572 0.92163 0.75494
0.976715 0.923934 0.762997
1 0.928771 0.768444
1 0.936278 0.780392
0 0.714427 0.767788
0 0.784634 0.814099
0.000534066 0.887343 0.853574
0.40502 0.932647 0.825162
0.69453 0.952926 0.815808
0.883223 0.964706 0.806638
0.979629 0.969406 0.808652
0.999985 0.968994 0.83801
1 0.972442 0.844465
0 0.768368 0.827619
0 0.843671 0.878202
0 0.926177 0.907179
0.46482 0.95288 0.879637
0.709773 0.970062 0.872267
0.883696 0.980438 0.867643
0.974716 0.98529 0.866453
0.999832 0.986465 0.883803
0.999405 0.986938 0.901473
0 0.144762 0.343816
0 0.149706 0.357519
0.0180667 0.079881 0.490211
0.209812 0.051545 0.524361
0.421866 0.0542458 0.52697
0.579232 0.0560464 0.537514
0.702342 0.0539559 0.552834
0.796551 0.0341039 0.575784
0.864073 0 0.613718
0 0.18555 0.407431
0 0.195468 0.428626
0.00267033 0.137484 0.596353
0.288167 0.125734 0.618723
0.524712 0.132677 0.626551
0.682826 0.142763 0.645685
0.817746 0.116686 0.682414
0.934401 0.028809 0.746532
0.987335 0.00709544 0.7906
0 0.251637 0.490181
0 0.264668 0.520653
0.0317082 0.226947 0.708476
0.385 0.206958 0.774975
0.648051 0.216892 0.772564
0.806165 0.227039 0.786038
0.945708 0.182925 0.831922
0.998566 0.18555 0.849317
1 0.224552 0.861021
0 0.357244 0.574456
0 0.379599 0.607919
0.113527 0.405951 0.68838
0.388159 0.398123 0.848539
0.689616 0.406699 0.853193
0.863508 0.417014 0.861433
0.969055 0.421302 0.864118
1 0.429969 0.861936
1 0.45156 0.858366
0 0.512016 0.665583
0.026688 0.546319 0.696391
0.205447 0.605173 0.753933
0.373388 0.650431 0.867689
0.672419 0.658167 0.866545
0.855772 0.657359 0.863218
0.970199 0.647761 0.854002
1 0.645243 0.847807
1 0.661372 0.845533
0 0.640757 0.749798
0.0556802 0.68101 0.777707
0.234714 0.747707 0.82298
0.433936 0.801801 0.865446
0.663691 0.825391 0.874159
0.853712 0.832135 0.87129
0.972778 0.829816 0.866697
1 0.838621 0.862089
1 0.852003 0.862333
0 0.696834 0.78703
0.000900282 0.748608 0.82533
0.0840009 0.837201 0.880507
0.363714 0.904082 0.901183
0.660868 0.92639 0.890929
0.854902 0.939605 0.886305
0.967239 0.942367 0.884428
0.999496 0.946044 0.887373
1 0.952346 0.889158
0 0.734829 0.823514
0 0.803189 0.874815
0 0.906493 0.943893
0.375357 0.94815 0.933196
0.674647 0.965393 0.921233
0.866545 0.977874 0.914305
0.965942 0.982101 0.912551
0.995377 0.983337 0.919951
0.99913 0.985122 0.926848
0 0.78613 0.877317
0 0.857603 0.930327
0.00233463 0.93817 0.978393
0.449836 0.963943 0.95993
0.700496 0.978866 0.948791
0.872572 0.988708 0.942351
0.964691 0.993545 0.940978
0.995773 0.995438 0.944183
0.995346 0.995895 0.955398
0 0.168704 0.398199
0 0.17319 0.413291
0.0102846 0.115267 0.537163
0.212146 0.0653391 0.614664
0.429221 0.0588998 0.624369
0.590127 0.0638437 0.63476
0.713664 0.061677 0.651453
0.811353 0.0391852 0.679835
0.87808 0.000488289 0.720943
0 0.211536 0.464668
0 0.220264 0.490394
0.0103609 0.169955 0.633646
0.300511 0.113954 0.745373
0.547417 0.119371 0.750927
0.712886 0.123018 0.770581
0.833219 0.117388 0.787305
0.934569 0.0510414 0.840986
0.991318 0.0138857 0.890593
0 0.276646 0.547494
0 0.289921 0.592142
0.00642405 0.229816 0.818402
0.392981 0.197513 0.893538
0.666819 0.194217 0.89807
0.837598 0.19939 0.91342
0.948272 0.191989 0.930571
0.999298 0.198871 0.945617
1 0.24033 0.95317
0 0.380835 0.631815
0 0.406836 0.679103
0.0272221 0.424567 0.798398
0.384512 0.413581 0.944305
0.683665 0.418692 0.948577
0.85922 0.432364 0.95491
0.964782 0.429999 0.955581
1 0.436454 0.954055
1 0.460319 0.95317
0 0.538109 0.724315
0.0168765 0.571954 0.757809
0.0979629 0.633524 0.852369
0.338842 0.663035 0.967407
0.659632 0.667704 0.959396
0.842359 0.672435 0.957336
0.959136 0.658427 0.951782
0.999939 0.652979 0.948257
1 0.669566 0.94519
0 0.66099 0.79736
0.0230869 0.696696 0.827024
0.127199 0.770703 0.901579
0.353277 0.821241 0.968551
0.650202 0.835004 0.964034
0.843748 0.842908 0.958984
0.961059 0.843931 0.95378
0.999252 0.849546 0.952651
1 0.859861 0.9505
0 0.707195 0.821653
0.000427253 0.7626 0.867475
0.0839551 0.849485 0.935973
0.348898 0.916442 0.976913
0.651926 0.936187 0.967041
0.849149 0.94844 0.961883
0.959365 0.951049 0.959136
0.996033 0.954772 0.959792
1 0.960143 0.957778
0 0.744823 0.85362
0 0.814191 0.911223
0 0.917632 0.991287
0.361349 0.955978 0.991196
0.666133 0.973388 0.979095
0.861692 0.985611 0.971466
0.956558 0.988891 0.971283
0.991913 0.990936 0.972183
0.995621 0.992966 0.975128
0 0.794217 0.899092
0 0.866163 0.960266
0.00943008 0.947494 1
0.440208 0.969833 0.99881
0.69308 0.984558 0.990646
0.864729 0.99469 0.984222
0.956161 0.9991 0.98143
0.989441 0.999435 0.983688
0.992645 0.999878 0.989227
0 0.188434 0.437583
0 0.192477 0.46038
0.00791943 0.11426 0.61323
0.220371 0.0542611 0.705028
0.443442 0.0437018 0.717647
0.610239 0.0410773 0.732326
0.730922 0.0591745 0.738994
0.832853 0.0321813 0.768856
0.891508 0.00201419 0.798596
0 0.230671 0.510536
0 0.239933 0.536812
0.00959792 0.171695 0.714366
0.322118 0.0804761 0.856443
0.579614 0.0799878 0.86508
0.751339 0.0816052 0.876692
0.865446 0.0879835 0.884504
0.948989 0.0534066 0.916777
0.992187 0.039765 0.953445
0 0.294133 0.585397
0 0.308492 0.633753
0.0184787 0.258686 0.833906
0.400488 0.208042 0.957519
0.676387 0.196704 0.970001
0.847456 0.198718 0.982834
0.953918 0.199451 0.988357
0.999084 0.213611 0.996323
1 0.251453 0.999359
0 0.398871 0.67216
0 0.427161 0.724376
0.00143435 0.443122 0.877913
0.38172 0.426856 0.997162
0.681102 0.431617 0.999207
0.853071 0.443931 1
0.960998 0.441062 1
0.999878 0.443259 0.999893
1 0.463706 0.999664
0 0.55433 0.75671
0 0.592676 0.802869
0 0.653437 0.921279
0.327276 0.671702 1
0.648524 0.672557 1
0.833432 0.674144 0.999649
0.950988 0.663066 0.998489
1 0.658412 0.999115
1 0.677745 1
0 0.668681 0.817655
0 0.717006 0.869764
0.00631724 0.788769 0.95964
0.314946 0.828412 1
0.642267 0.839765 0.999878
0.837476 0.847547 0.999481
0.953567 0.84889 0.995819
0.996262 0.854719 0.995315
1 0.865187 0.994873
0 0.714336 0.841428
0 0.773877 0.895201
0.0112001 0.863081 0.975494
0.338949 0.922683 1
0.64712 0.94078 0.999619
0.844663 0.950896 0.997116
0.953216 0.956191 0.994217
0.992432 0.959854 0.993515
0.998871 0.965194 0.994888
0 0.751141 0.870115
0 0.821439 0.930938
0 0.923705 0.999985
0.367132 0.959716 1
0.663035 0.976059 1
0.857282 0.986297 0.998367
0.955001 0.992569 0.995789
0.988144 0.994995 0.994812
0.9944 0.994858 0.997177
0 0.802716 0.915984
0 0.874235 0.978149
0.0119478 0.949279 1
0.434852 0.972107 1
0.689097 0.987716 1
0.862745 0.996353 0.999741
0.955856 0.999847 0.998627
0.988174 1 0.998154
0.992157 1 0.999847
