src/colors/film_stock_&_vintage/golden_years_film.cube
TITLE "Gold"
# Created by Photon 3D ColorGrading
# AUTHOR #  Jack Wright
DOMAIN_MIN 0 0 0
DOMAIN_MAX 1 1 1
LUT_3D_SIZE 9
0.006309 -0.000334 0.001332
0.068772 0.013184 0.015280
0.130811 0.024810 0.018184
0.211248 0.041277 0.013404
0.296570 0.065208 0.010462
0.395541 0.101714 0.012031
0.506359 0.151519 0.023280
0.614014 0.212274 0.050674
0.719208 0.266036 0.075472
0.024740 0.077313 0.028769
0.097769 0.092946 0.008813
0.174959 0.089661 -0.000009
0.246403 0.092876 -0.004764
0.326040 0.110451 -0.005175
0.425780 0.146628 -0.000853
0.540661 0.200253 0.014654
0.650238 0.264848 0.047974
0.760347 0.324824 0.077130
0.037367 0.143581 0.040930
0.097624 0.170815 0.014788
0.205419 0.191295 -0.010561
0.300866 0.185891 -0.025638
0.384636 0.190459 -0.029076
0.482843 0.217981 -0.022892
0.591683 0.268158 0.001177
0.695212 0.331511 0.043810
0.812224 0.392429 0.070962
0.051025 0.204689 0.041068
0.103045 0.237045 0.023202
0.203144 0.283730 -0.004893
0.329443 0.298455 -0.032855
0.439771 0.304381 -0.049236
0.542308 0.326960 -0.045304
0.642916 0.369599 -0.013485
0.739934 0.422870 0.035264
0.869130 0.480004 0.053789
0.089823 0.275715 0.047235
0.138119 0.308850 0.034770
0.217600 0.364895 0.010961
0.338593 0.407343 -0.021264
0.465369 0.428406 -0.046363
0.574109 0.456337 -0.047452
0.671620 0.493635 -0.015906
0.772282 0.533879 0.026521
0.917077 0.588752 0.032101
0.152347 0.349562 0.060458
0.201753 0.383998 0.052818
0.265113 0.439472 0.036640
0.354324 0.500410 0.011456
0.467297 0.546323 -0.012954
0.577270 0.583411 -0.019483
0.678332 0.615660 0.000822
0.790457 0.645891 0.025577
0.962098 0.704582 0.003396
0.221496 0.418780 0.081224
0.271251 0.455119 0.080047
0.324908 0.508652 0.073969
0.387932 0.575623 0.061156
0.473143 0.640009 0.042228
0.577644 0.688202 0.026265
0.685157 0.717603 0.027238
0.806976 0.745562 0.029390
0.988488 0.812220 -0.010574
0.286808 0.481723 0.109209
0.335641 0.519971 0.115866
0.384035 0.571642 0.119655
0.435353 0.637291 0.115955
0.502181 0.708450 0.097600
0.596986 0.767098 0.068873
0.706098 0.800004 0.051267
0.829075 0.830399 0.034841
0.997376 0.904992 -0.008943
0.345618 0.538530 0.142568
0.392702 0.577459 0.156451
0.438716 0.627749 0.166107
0.486987 0.694887 0.160504
0.547552 0.772827 0.134755
0.635964 0.839135 0.095985
0.743833 0.877900 0.062921
0.855716 0.911035 0.040490
1.001513 0.984449 0.001961
0.024265 0.020219 0.072810
0.084596 0.025218 0.075701
0.156094 0.037851 0.082656
0.240844 0.052301 0.073581
0.345188 0.078999 0.058774
0.455018 0.120805 0.061437
0.560106 0.173640 0.078700
0.664045 0.229621 0.103713
0.790243 0.271541 0.111290
0.024294 0.078539 0.078868
0.113848 0.112450 0.092730
0.228388 0.114264 0.070747
0.331326 0.120615 0.052416
0.426279 0.141073 0.043175
0.523260 0.179106 0.050446
0.622603 0.232469 0.074629
0.728448 0.288630 0.101795
0.850160 0.339311 0.115001
0.040930 0.148929 0.087703
0.127713 0.208939 0.074950
0.267317 0.240848 0.045995
0.396874 0.229953 0.027348
0.488662 0.231054 0.024175
0.573150 0.261274 0.042858
0.667244 0.311372 0.076292
0.774679 0.366847 0.107053
0.889609 0.423687 0.140762
0.069399 0.219036 0.081176
0.150206 0.287661 0.069402
0.268923 0.338454 0.042888
0.417697 0.361171 0.010024
0.535639 0.351786 -0.000452
0.617461 0.363860 0.023680
0.704557 0.402831 0.066376
0.820191 0.455424 0.099247
0.924309 0.515981 0.158964
0.128084 0.297513 0.084946
0.188779 0.359321 0.076241
0.281054 0.412708 0.063893
0.402704 0.467093 0.036666
0.529363 0.485424 0.014732
0.625504 0.489013 0.023446
0.717112 0.507124 0.053266
0.850664 0.556113 0.077723
0.968695 0.615006 0.146480
0.184057 0.370064 0.095940
0.243544 0.428975 0.094721
0.322357 0.480774 0.095893
0.410246 0.544993 0.086695
0.513444 0.596023 0.069044
0.614219 0.614170 0.061239
0.712240 0.619086 0.061346
0.865288 0.664321 0.056174
1.000151 0.717554 0.129110
0.248448 0.440495 0.117902
0.306037 0.496702 0.125124
0.375472 0.546507 0.137163
0.443852 0.608770 0.140782
0.522675 0.675653 0.124831
0.620457 0.718026 0.100351
0.723980 0.732736 0.078339
0.879686 0.778629 0.046519
1.010857 0.815984 0.121646
0.315862 0.505278 0.151077
0.368852 0.557318 0.165275
0.430279 0.604115 0.183481
0.490029 0.666205 0.187472
0.558097 0.743208 0.164932
0.651960 0.805597 0.125906
0.762661 0.841551 0.088938
0.904643 0.893838 0.050895
1.005784 0.902725 0.127175
0.378373 0.563494 0.189721
0.429809 0.603076 0.209336
0.482821 0.651768 0.224366
0.539025 0.730031 0.215364
0.617086 0.820185 0.183354
0.704934 0.878135 0.155826
0.796624 0.909831 0.136737
0.899833 0.943710 0.127355
0.996536 0.974130 0.141487
0.039954 0.036377 0.132971
0.097928 0.033960 0.129804
0.167369 0.038277 0.131063
0.256710 0.048719 0.124098
0.369791 0.061396 0.097136
0.497034 0.098845 0.086838
0.610413 0.174817 0.120782
0.718303 0.233866 0.149367
0.866573 0.270212 0.157386
0.027910 0.086944 0.136868
0.132945 0.115528 0.164183
0.256159 0.119415 0.143414
0.372483 0.130191 0.122341
0.482037 0.159943 0.114397
0.580423 0.205084 0.125312
0.682094 0.252994 0.143595
0.807501 0.291370 0.148983
0.875641 0.372675 0.228323
0.029043 0.148885 0.137360
0.136569 0.208978 0.151024
0.277471 0.225375 0.130637
0.426008 0.241578 0.125314
0.555783 0.256763 0.118575
0.657942 0.283600 0.122981
0.767407 0.322453 0.135369
0.849983 0.387048 0.177981
0.900568 0.462085 0.268041
0.051957 0.222595 0.129011
0.171899 0.296432 0.128986
0.296231 0.335843 0.122456
0.443512 0.379830 0.113374
0.601817 0.388075 0.107930
0.708170 0.392967 0.110761
0.802275 0.423290 0.129394
0.871708 0.484963 0.200418
0.943089 0.545917 0.278644
0.103847 0.299504 0.101955
0.227305 0.379203 0.130610
0.323114 0.433375 0.131855
0.440093 0.490839 0.121935
0.576529 0.524197 0.102231
0.700716 0.511024 0.092132
0.807782 0.515084 0.091961
0.897460 0.569891 0.174322
0.987237 0.632472 0.271311
0.203272 0.390451 0.127009
0.285842 0.453124 0.149219
0.363006 0.519269 0.158805
0.455279 0.576357 0.167338
0.552615 0.633635 0.150676
0.664874 0.643458 0.117185
0.784224 0.629592 0.072847
0.906401 0.661017 0.130475
1.019400 0.728200 0.256223
0.281317 0.464120 0.159144
0.346980 0.521874 0.181680
0.410589 0.593385 0.195757
0.491449 0.648992 0.209828
0.573897 0.724201 0.189434
0.679138 0.775906 0.143471
0.795128 0.786895 0.083313
0.919151 0.787346 0.110486
1.030990 0.827682 0.247077
0.347868 0.529168 0.195059
0.404733 0.584347 0.218596
0.474131 0.632604 0.244011
0.546816 0.701641 0.249384
0.630243 0.787333 0.228931
0.717470 0.844413 0.201869
0.819208 0.883520 0.159303
0.935004 0.911983 0.141390
1.021386 0.913713 0.250846
0.401672 0.594094 0.226721
0.457759 0.641609 0.248967
0.516011 0.718270 0.252000
0.598031 0.794608 0.263843
0.680402 0.857949 0.273035
0.755319 0.907277 0.265729
0.830700 0.935271 0.253214
0.922208 0.962610 0.246641
1.008560 0.984129 0.262179
0.056542 0.049240 0.178582
0.118555 0.047939 0.179693
0.188223 0.050476 0.181262
0.279937 0.059499 0.173885
0.400073 0.073498 0.155161
0.535198 0.099820 0.140156
0.666237 0.150166 0.147334
0.790994 0.210903 0.177966
0.848688 0.319555 0.282243
0.044710 0.103563 0.192583
0.153193 0.121745 0.206525
0.277582 0.127836 0.194268
0.394407 0.137425 0.179991
0.511342 0.159296 0.168301
0.623206 0.207016 0.180020
0.741244 0.252375 0.196786
0.842039 0.306482 0.240826
0.873837 0.405585 0.334739
0.029500 0.159333 0.196820
0.153721 0.213041 0.210668
0.298871 0.221916 0.193883
0.447796 0.238740 0.196290
0.579426 0.265551 0.208747
0.701763 0.294844 0.214530
0.822959 0.328357 0.223906
0.859716 0.415360 0.300396
0.920059 0.482935 0.360571
0.041518 0.233079 0.190855
0.167587 0.298295 0.191163
0.306961 0.334946 0.196530
0.464340 0.366692 0.211808
0.620156 0.394128 0.230251
0.766482 0.412296 0.230250
0.840372 0.447778 0.254258
0.888279 0.509861 0.320634
0.963577 0.561846 0.376663
0.080643 0.312114 0.155914
0.237042 0.389206 0.185642
0.346483 0.442242 0.205980
0.473048 0.483359 0.229663
0.609957 0.528512 0.235486
0.785232 0.547256 0.221460
0.863915 0.542325 0.222748
0.916777 0.587067 0.301102
0.999964 0.645482 0.382904
0.167431 0.402281 0.139068
0.319971 0.471872 0.210743
0.399357 0.534911 0.233286
0.497872 0.585741 0.259641
0.597754 0.639461 0.252979
0.743280 0.683609 0.202636
0.863599 0.653461 0.163774
0.925688 0.659377 0.241613
1.027721 0.736882 0.379277
0.293895 0.489833 0.194180
0.381945 0.544337 0.239777
0.447773 0.618803 0.261969
0.544156 0.676032 0.282522
0.641502 0.745764 0.281012
0.737648 0.803170 0.249016
0.859938 0.821554 0.171682
0.933525 0.781945 0.208945
1.038565 0.834247 0.374038
0.371983 0.557525 0.238065
0.433005 0.614497 0.267874
0.504701 0.684851 0.285532
0.601191 0.756947 0.307820
0.693403 0.822336 0.328796
0.769497 0.876044 0.320981
0.856302 0.912590 0.280308
0.949842 0.921484 0.256650
1.029253 0.920982 0.376006
0.418357 0.635567 0.258464
0.471973 0.710437 0.273540
0.549577 0.767545 0.315139
0.641850 0.830190 0.350121
0.730855 0.894669 0.383297
0.803047 0.941185 0.397549
0.865537 0.962179 0.390268
0.941393 0.978024 0.379923
1.015400 0.991495 0.386364
0.087190 0.068912 0.214542
0.155750 0.071971 0.220928
0.231818 0.075959 0.224605
0.325283 0.084542 0.221668
0.442433 0.102275 0.214699
0.573771 0.135279 0.214807
0.704832 0.178734 0.225474
0.803560 0.249792 0.275378
0.832570 0.354615 0.371438
0.081277 0.125797 0.228979
0.189720 0.139668 0.239779
0.303102 0.145044 0.235965
0.416413 0.155866 0.232148
0.534277 0.179826 0.231782
0.661277 0.214102 0.238188
0.771823 0.269287 0.277166
0.825953 0.347736 0.353482
0.878681 0.425471 0.406599
0.054889 0.178006 0.246754
0.188425 0.218959 0.245927
0.329879 0.236172 0.255486
0.472580 0.250949 0.263037
0.601780 0.273747 0.279360
0.727585 0.307132 0.300343
0.815859 0.359728 0.348422
0.862599 0.436966 0.395057
0.930228 0.494052 0.436675
0.058691 0.250493 0.247131
0.187311 0.303463 0.247115
0.327859 0.344612 0.268430
0.489940 0.372896 0.292685
0.633835 0.393822 0.322085
0.757571 0.425305 0.352961
0.842745 0.465531 0.379969
0.902951 0.519933 0.417587
0.976330 0.569163 0.461922
0.095858 0.335019 0.224848
0.224170 0.392751 0.231924
0.358103 0.454729 0.286312
0.495876 0.494660 0.326263
0.638142 0.526733 0.354436
0.786083 0.555122 0.370937
0.882089 0.565302 0.376650
0.936295 0.599897 0.419243
1.009922 0.653577 0.481265
0.156755 0.426725 0.191185
0.323165 0.490400 0.260333
0.418053 0.554871 0.310267
0.527243 0.610989 0.343560
0.651843 0.654876 0.366444
0.795873 0.700402 0.358526
0.924196 0.687442 0.337923
0.951857 0.674106 0.378092
1.030081 0.744412 0.494311
0.279035 0.521204 0.222681
0.403713 0.570856 0.299182
0.464261 0.657241 0.323641
0.575970 0.714355 0.358865
0.685395 0.767608 0.391039
0.781111 0.817751 0.388684
0.898932 0.835142 0.331212
0.947603 0.779486 0.332883
1.038081 0.839666 0.500202
0.382135 0.593847 0.278967
0.439206 0.668022 0.306008
0.523898 0.726959 0.351836
0.629106 0.790101 0.391522
0.731910 0.858637 0.432135
0.811523 0.908220 0.449361
0.882556 0.934721 0.420922
0.955898 0.925385 0.382683
1.033642 0.929195 0.502589
0.426934 0.699910 0.293545
0.498498 0.734821 0.358987
0.577516 0.789603 0.395212
0.666875 0.857324 0.436962
0.764817 0.925327 0.490861
0.845136 0.972697 0.529996
0.901531 0.991030 0.533744
0.961884 0.998094 0.519866
1.025584 1.007425 0.515697
0.140558 0.100236 0.245462
0.214191 0.107351 0.255665
0.294507 0.113705 0.264547
0.388247 0.125067 0.272694
0.498366 0.148643 0.281560
0.614753 0.186503 0.295247
0.731158 0.228729 0.315154
0.780057 0.311211 0.381134
0.829632 0.381822 0.429802
0.136351 0.149441 0.250128
0.244835 0.172237 0.275226
0.348648 0.179635 0.282349
0.458460 0.194608 0.292019
0.569587 0.224708 0.309118
0.683290 0.264575 0.332977
0.752430 0.330743 0.390909
0.817352 0.383319 0.434309
0.877122 0.441529 0.464780
0.109105 0.200456 0.276201
0.245812 0.241046 0.279512
0.374087 0.263496 0.316910
0.507828 0.283114 0.336774
0.626733 0.311506 0.366314
0.720579 0.356260 0.414137
0.809498 0.394723 0.451272
0.865538 0.455881 0.472123
0.927426 0.504776 0.501054
0.110362 0.273634 0.290094
0.236761 0.319060 0.291779
0.378194 0.366904 0.336411
0.526312 0.394322 0.375419
0.651185 0.425435 0.421211
0.760396 0.451132 0.464065
0.852514 0.484297 0.488819
0.913523 0.530915 0.505992
0.974004 0.577241 0.537101
0.146091 0.365400 0.289526
0.258922 0.414654 0.298652
0.391376 0.474780 0.361104
0.526128 0.516234 0.411063
0.662404 0.547384 0.451062
0.783597 0.566541 0.489390
0.888308 0.580930 0.512087
0.956698 0.610367 0.529528
1.009068 0.659521 0.569954
0.208442 0.464741 0.282143
0.323782 0.521572 0.312265
0.433670 0.581479 0.391752
0.538257 0.626749 0.442940
0.670348 0.668280 0.477684
0.801799 0.694501 0.504108
0.927919 0.699723 0.514086
0.986145 0.697789 0.526559
1.024886 0.753946 0.607935
0.287486 0.564485 0.282974
0.405505 0.615590 0.354682
0.472237 0.680927 0.418553
0.582357 0.730880 0.456762
0.693843 0.781480 0.495499
0.804955 0.820106 0.526311
0.921708 0.835329 0.510409
0.982321 0.796300 0.493594
1.025325 0.856176 0.651084
0.387809 0.645147 0.331967
0.456160 0.690221 0.399765
0.543286 0.743813 0.441210
0.638341 0.807375 0.480122
0.737995 0.874655 0.528158
0.827676 0.922645 0.565053
0.897554 0.942836 0.559605
0.962626 0.928837 0.518732
1.030471 0.945410 0.654118
0.458841 0.699869 0.400934
0.527978 0.750231 0.436601
0.600491 0.810279 0.473366
0.683427 0.872657 0.519997
0.779149 0.938288 0.581659
0.864795 0.988518 0.641820
0.922901 1.009926 0.669275
0.973396 1.015669 0.660903
1.034068 1.028697 0.655060
0.208330 0.140635 0.277178
0.283069 0.151411 0.292207
0.364722 0.162803 0.309181
0.457218 0.181292 0.330676
0.557645 0.211870 0.355995
0.657988 0.246927 0.379065
0.729334 0.301227 0.413675
0.769726 0.361309 0.456047
0.829608 0.407734 0.479629
0.212339 0.190380 0.282013
0.309730 0.215990 0.317758
0.408228 0.231614 0.340326
0.512154 0.255558 0.365906
0.612792 0.287060 0.395823
0.689772 0.334809 0.436102
0.748682 0.381147 0.477799
0.821614 0.415019 0.500829
0.873917 0.461027 0.516689
0.181722 0.230445 0.303451
0.321152 0.285820 0.329385
0.429209 0.309931 0.386997
0.548149 0.336689 0.416885
0.641035 0.371521 0.456775
0.723371 0.402326 0.505520
0.817298 0.423535 0.538115
0.873308 0.477866 0.546338
0.921285 0.522157 0.559381
0.188758 0.309020 0.333545
0.311543 0.354740 0.348000
0.440004 0.403308 0.409066
0.562786 0.437282 0.445500
0.659659 0.469111 0.491618
0.765676 0.488909 0.548502
0.861697 0.505351 0.585687
0.923245 0.549954 0.593882
0.966768 0.594346 0.606041
0.229180 0.407667 0.356227
0.335614 0.453533 0.380511
0.444848 0.503895 0.442486
0.567223 0.538646 0.477529
0.684011 0.569498 0.517390
0.798438 0.590333 0.581692
0.896128 0.598330 0.624807
0.967610 0.627614 0.637345
1.003620 0.676638 0.654990
0.291612 0.505232 0.372350
0.380721 0.556336 0.406562
0.468842 0.593646 0.479780
0.573056 0.636493 0.513474
0.692485 0.680244 0.554109
0.814349 0.706793 0.607612
0.914061 0.705296 0.646693
0.995294 0.713051 0.663010
1.022447 0.771958 0.715647
0.349993 0.601112 0.384043
0.442591 0.625915 0.456103
0.495225 0.689058 0.512329
0.590087 0.737440 0.550241
0.693614 0.783963 0.593140
0.807609 0.820596 0.638305
0.914372 0.825652 0.660339
1.000036 0.810817 0.659985
1.017839 0.882535 0.798881
0.431371 0.647884 0.439918
0.488348 0.701544 0.485685
0.561632 0.760673 0.525402
0.643084 0.816780 0.568878
0.730996 0.874928 0.620098
0.819028 0.920432 0.666317
0.898365 0.937845 0.686850
0.972047 0.930853 0.669314
1.019837 0.968263 0.824980
0.490738 0.710843 0.467296
0.553586 0.769056 0.504183
0.623372 0.827395 0.547991
0.699574 0.881807 0.596560
0.784682 0.937703 0.657382
0.865443 0.987217 0.727369
0.926065 1.013919 0.780497
0.972996 1.022812 0.792837
1.027564 1.036700 0.793813
0.279623 0.187339 0.312359
0.353581 0.203295 0.333799
0.434239 0.222682 0.360396
0.521174 0.249301 0.393856
0.610074 0.279019 0.427909
0.689682 0.308734 0.459605
0.720148 0.370399 0.490373
0.779899 0.401024 0.510912
0.834005 0.434454 0.525940
0.293173 0.243491 0.325038
0.376540 0.267881 0.365158
0.468511 0.294286 0.400293
0.562256 0.323101 0.437597
0.643066 0.351974 0.473763
0.690922 0.399126 0.508643
0.767673 0.420592 0.542771
0.834631 0.445868 0.563373
0.875526 0.485859 0.566926
0.265737 0.274280 0.340009
0.396002 0.338729 0.387755
0.493812 0.369545 0.435845
0.589430 0.404389 0.477352
0.647677 0.442727 0.508591
0.729725 0.461962 0.551665
0.816998 0.482164 0.596546
0.882942 0.506308 0.616659
0.919644 0.546669 0.614928
0.281966 0.357107 0.383331
0.396363 0.404834 0.421397
0.514904 0.456166 0.476365
0.600578 0.494886 0.510149
0.684895 0.515788 0.542081
0.772968 0.537569 0.595826
0.861814 0.557297 0.651839
0.928841 0.576297 0.673951
0.961459 0.618263 0.668671
0.329521 0.455757 0.422900
0.426814 0.501791 0.472007
0.534700 0.550431 0.518367
0.635100 0.585519 0.542897
0.721352 0.607808 0.576668
0.811838 0.627495 0.637283
0.899021 0.640709 0.702669
0.967081 0.652406 0.730619
0.995532 0.699205 0.728084
0.380558 0.540508 0.448670
0.460712 0.573169 0.495981
0.545899 0.618872 0.534608
0.651829 0.679278 0.576716
0.741594 0.708181 0.612743
0.837038 0.732497 0.673470
0.921338 0.735099 0.740048
0.990564 0.734269 0.777137
1.016698 0.788569 0.796991
0.427867 0.604576 0.476948
0.490360 0.638395 0.520527
0.559898 0.697081 0.564894
0.646559 0.750543 0.610668
0.740978 0.801255 0.661581
0.835234 0.835648 0.715532
0.921097 0.840843 0.770162
0.993400 0.825399 0.804185
1.020987 0.889505 0.880304
0.474503 0.660238 0.502532
0.521887 0.722201 0.548986
0.589291 0.775354 0.594597
0.661097 0.824349 0.642414
0.738284 0.873672 0.696817
0.819335 0.917190 0.754346
0.897132 0.937794 0.800331
0.973384 0.932442 0.824068
1.019216 0.976160 0.937124
0.518530 0.729737 0.520317
0.579564 0.785476 0.563471
0.646124 0.838324 0.611402
0.715884 0.885432 0.661087
0.789252 0.930897 0.718493
0.860882 0.975826 0.790384
0.921034 1.007910 0.859618
0.972848 1.022649 0.899956
1.023986 1.033820 0.916425
0.349507 0.238601 0.352058
0.421086 0.262137 0.379646
0.495915 0.290054 0.413893
0.571509 0.318037 0.452719
0.652934 0.330956 0.492654
0.691107 0.382349 0.518716
0.751492 0.409298 0.547309
0.801934 0.435386 0.564364
0.840777 0.460499 0.570191
0.360759 0.290402 0.369591
0.440017 0.322727 0.406090
0.520350 0.357910 0.451240
0.604766 0.377258 0.500705
0.659733 0.416836 0.529276
0.716455 0.441038 0.554365
0.791791 0.464164 0.594993
0.844275 0.489105 0.614040
0.878828 0.511245 0.613955
0.359050 0.333727 0.390587
0.454108 0.382714 0.447427
0.540045 0.421555 0.508071
0.630543 0.454417 0.550143
0.705008 0.479991 0.579977
0.764130 0.502456 0.605723
0.834662 0.530616 0.648218
0.888856 0.554537 0.671287
0.917060 0.569850 0.662947
0.372218 0.407559 0.436717
0.468389 0.455753 0.501327
0.582823 0.503887 0.582123
0.681311 0.546117 0.608201
0.753560 0.568126 0.633910
0.812832 0.585953 0.660914
0.873570 0.609729 0.699920
0.928142 0.630914 0.730453
0.951710 0.637026 0.716729
0.422530 0.503619 0.491102
0.496797 0.566799 0.563986
0.626635 0.636669 0.629821
0.730306 0.670968 0.669338
0.798705 0.678993 0.686977
0.858542 0.688141 0.713740
0.905408 0.697870 0.746331
0.956400 0.714148 0.787858
0.979297 0.711841 0.776077
0.442644 0.582000 0.525342
0.529863 0.632683 0.567984
0.630634 0.703888 0.631014
0.750069 0.773045 0.699950
0.838852 0.798080 0.737414
0.896241 0.800230 0.768088
0.932834 0.794791 0.801073
0.971548 0.798747 0.842613
0.998101 0.792818 0.842981
0.483915 0.621090 0.526877
0.550071 0.681699 0.573663
0.636255 0.747522 0.631970
0.733712 0.810590 0.693935
0.836743 0.867067 0.755653
0.910654 0.890672 0.810692
0.950275 0.891225 0.862749
0.977641 0.881553 0.894259
1.010131 0.876381 0.912526
0.513427 0.691006 0.552575
0.578234 0.744135 0.597783
0.650444 0.795233 0.646784
0.726634 0.840823 0.695247
0.803415 0.880435 0.744115
0.881122 0.923139 0.813873
0.943473 0.954561 0.888891
0.976854 0.953098 0.928427
1.018728 0.955069 0.973520
0.546809 0.747238 0.566643
0.605801 0.798434 0.613367
0.668071 0.844451 0.660636
0.731652 0.884301 0.708146
0.794562 0.919853 0.759572
0.856500 0.957930 0.827888
0.910445 0.991849 0.905931
0.965953 1.015190 0.972957
1.024345 1.025915 1.025359
