src/colors/film_stock_&_vintage/golden_wood_film.cube
TITLE "Generated by Resolve"
LUT_3D_SIZE 5
0.0130922 0.0223239 0.0213016
0.0612802 0.0309758 0.0184329
0.314153 0.0476692 0
0.53753 0.0619974 0
0.682033 0.0636606 0
0 0.0960861 0.0451057
0.1084 0.124269 0.0157473
0.514824 0.161852 0
0.772717 0.1879 0
0.885359 0.214038 0
0 0.301213 0.104875
0.0839399 0.407568 0
0.647807 0.486137 0
0.898665 0.527047 0
0.973938 0.538949 0
0 0.516274 0.184833
0.207965 0.665812 0
0.74229 0.739025 0
0.970825 0.775265 0
1 0.796033 0
0 0.619867 0.265522
0.283192 0.785992 0.000915541
0.831479 0.85597 0
1 0.876448 0
1 0.876753 0.0966964
0.00340276 0.0338445 0.0737469
0.0699016 0.0369726 0.0762951
0.382467 0.0341192 0.0317082
0.628077 0.0376898 0.0218814
0.798444 0 0.0255131
0 0.116976 0.118624
0.127794 0.145663 0.126116
0.576562 0.180697 0.0983902
0.90132 0.151263 0.0695048
1 0.167376 0.0816358
0 0.35169 0.215869
0.165225 0.449699 0.205051
0.685283 0.541878 0.140566
0.9823 0.56585 0.0290532
1 0.575372 0
0 0.565057 0.359701
0.0740215 0.743664 0.190463
0.774075 0.811933 0.0818341
1 0.836316 0.116686
1 0.852018 0.1514
0 0.677272 0.495186
0.154086 0.84712 0.372992
0.79144 0.90341 0.318166
1 0.922606 0.363439
1 0.924727 0.482063
0 0.0804456 0.204303
0.0484169 0.0480354 0.281849
0.407752 0.0324102 0.273457
0.673152 0.036408 0.288746
0.837079 0 0.334096
0 0.179538 0.314763
0.109102 0.198001 0.413245
0.609064 0.215564 0.460227
0.938659 0.163622 0.524269
1 0.20206 0.563943
0 0.439124 0.478096
0.217655 0.53077 0.538705
0.700404 0.61619 0.559442
0.990829 0.613718 0.527611
1 0.625223 0.523186
0 0.648859 0.644373
0.0563516 0.797986 0.667948
0.708873 0.888609 0.595728
0.988251 0.903349 0.616464
1 0.91574 0.641703
0 0.74902 0.762066
0 0.910643 0.803479
0.728298 0.954482 0.758038
0.989273 0.972671 0.759655
1 0.973648 0.815732
0 0.144762 0.343816
0.0180667 0.079881 0.490211
0.421866 0.0542458 0.52697
0.702342 0.0539559 0.552834
0.864073 0 0.613718
0 0.251637 0.490181
0.0317082 0.226947 0.708476
0.648051 0.216892 0.772564
0.945708 0.182925 0.831922
1 0.224552 0.861021
0 0.512016 0.665583
0.205447 0.605173 0.753933
0.672419 0.658167 0.866545
0.970199 0.647761 0.854002
1 0.661372 0.845533
0 0.696834 0.78703
0.0840009 0.837201 0.880507
0.660868 0.92639 0.890929
0.967239 0.942367 0.884428
1 0.952346 0.889158
0 0.78613 0.877317
0.00233463 0.93817 0.978393
0.700496 0.978866 0.948791
0.964691 0.993545 0.940978
0.995346 0.995895 0.955398
0 0.188434 0.437583
0.00791943 0.11426 0.61323
0.443442 0.0437018 0.717647
0.730922 0.0591745 0.738994
0.891508 0.00201419 0.798596
0 0.294133 0.585397
0.0184787 0.258686 0.833906
0.676387 0.196704 0.970001
0.953918 0.199451 0.988357
1 0.251453 0.999359
0 0.55433 0.75671
0 0.653437 0.921279
0.648524 0.672557 1
0.950988 0.663066 0.998489
1 0.677745 1
0 0.714336 0.841428
0.0112001 0.863081 0.975494
0.64712 0.94078 0.999619
0.953216 0.956191 0.994217
0.998871 0.965194 0.994888
0 0.802716 0.915984
0.0119478 0.949279 1
0.689097 0.987716 1
0.955856 0.999847 0.998627
0.992157 1 0.999847
