src/colors/film_stock_&_vintage/golden_wood_film.cube
TITLE "Generated by Resolve"
LUT_3D_SIZE 33
0.0130922 0.0223239 0.0213016
0.0143435 0.0235752 0.021149
0.0175631 0.0249638 0.0210117
0.0218967 0.0259556 0.0208438
0.0265812 0.0263066 0.0205844
0.0325017 0.0268864 0.0199283
0.0388952 0.0278477 0.0200961
0.0480201 0.0292515 0.0197757
0.0612802 0.0309758 0.0184329
0.0793469 0.0320897 0.0162814
0.10753 0.0346227 0.0108644
0.138384 0.0367285 0.004654
0.171969 0.038468 9.15541e-05
0.208606 0.0400397 0
0.245441 0.0418097 0
0.279805 0.0449989 0
0.314153 0.0476692 0
0.34905 0.0490578 0
0.379507 0.0505379 0
0.407935 0.052842 0
0.435248 0.0554513 0
0.461982 0.0580758 0
0.486961 0.0597238 0
0.512459 0.0611429 0
0.53753 0.0619974 0
0.562737 0.0617227 0
0.586648 0.0600443 0
0.608743 0.0582895 0
0.626154 0.0591897 0
0.642847 0.0602274 0
0.657572 0.0612802 0
0.670512 0.0626688 0
0.682033 0.0636606 0
0.012665 0.0294499 0.0229191
0.0142977 0.0311589 0.0226139
0.0171969 0.032105 0.0227665
0.0214389 0.0324102 0.0228275
0.0268864 0.0326085 0.0225071
0.0332952 0.0335241 0.0216068
0.0402686 0.0345159 0.0211185
0.0510414 0.0358129 0.0199588
0.065919 0.0372473 0.0181277
0.0851911 0.0389105 0.0154574
0.116258 0.0413825 0.0102235
0.150057 0.0430915 0.00354009
0.186145 0.0446021 0
0.223606 0.0463569 0
0.262425 0.049424 0
0.297246 0.0533608 0
0.332876 0.0558022 0
0.367681 0.0576181 0
0.398932 0.059556 0
0.429404 0.0626841 0
0.457527 0.0652781 0
0.48426 0.067216 0
0.50985 0.0686351 0
0.536583 0.0702678 0
0.56141 0.0718395 0
0.586526 0.0714427 0
0.610483 0.0700847 0
0.632227 0.068986 0
0.650401 0.0699321 0
0.666865 0.0710155 0
0.681422 0.0720531 0
0.694347 0.0732586 0
0.705394 0.074876 0
0.0109407 0.0372168 0.0249638
0.0130312 0.0384222 0.0248112
0.0157168 0.0388952 0.024979
0.0199588 0.0390936 0.0250248
0.0259403 0.0396887 0.0246738
0.0333562 0.0407263 0.023682
0.0413519 0.0417029 0.0225223
0.0542611 0.0427405 0.0207065
0.071107 0.0443275 0.0183108
0.0930648 0.0463417 0.0150149
0.125093 0.0482338 0.0101625
0.162234 0.0499123 0.00248722
0.200992 0.0517281 0
0.241032 0.0545663 0
0.280858 0.0585489 0
0.316167 0.0620737 0
0.353536 0.0647135 0
0.389227 0.0671092 0
0.421408 0.0695811 0
0.451728 0.0727245 0
0.480171 0.0751354 0
0.508568 0.0764477 0
0.53753 0.0775769 0
0.566278 0.079118 0
0.591455 0.0808576 0
0.615244 0.0821546 0
0.637079 0.0825818 0
0.657435 0.0824292 0
0.677562 0.0820172 0
0.692988 0.0822156 0
0.706813 0.084184 0
0.719112 0.0856947 0
0.730159 0.0871443 0
0.00869764 0.045243 0.0269932
0.0105135 0.0460822 0.0271
0.0130007 0.0465858 0.0273136
0.0171054 0.047013 0.0272831
0.0234684 0.0477302 0.0267338
0.0320745 0.0488594 0.0256809
0.0418402 0.0500801 0.0242771
0.0578317 0.0509957 0.0222782
0.0765698 0.0523537 0.0196689
0.101808 0.054078 0.0155642
0.136187 0.0562905 0.00923171
0.175692 0.0585489 0.00109865
0.217853 0.0610208 0
0.260288 0.0644083 0
0.300771 0.0683452 0
0.339086 0.072221 0
0.377844 0.0755016 0
0.414023 0.0778515 0
0.447364 0.080415 0
0.478981 0.0835737 0
0.508186 0.0866407 0
0.537102 0.088014 0
0.567514 0.0898451 0
0.59646 0.0914321 0
0.622278 0.092546 0
0.645502 0.0941176 0
0.666896 0.0947585 0
0.687434 0.0950027 0
0.706416 0.0953078 0
0.721721 0.0958267 0
0.734524 0.0986954 0
0.745998 0.0999924 0
0.756054 0.101625 0
0.00543221 0.0541695 0.029221
0.0061799 0.0551461 0.0294194
0.00848402 0.0560159 0.0295872
0.0125734 0.0563668 0.0295415
0.0196841 0.0569619 0.0289158
0.029572 0.0583658 0.0276951
0.0411536 0.0603799 0.025864
0.0612497 0.0623331 0.0231327
0.0826429 0.0631571 0.0201877
0.112245 0.0650187 0.0149233
0.149477 0.0677501 0.00762951
0.192004 0.0699321 0
0.237613 0.0718395 0
0.2822 0.0760204 0
0.32398 0.0805829 0
0.364202 0.0847181 0
0.404471 0.0878309 0
0.442664 0.0903639 0
0.477455 0.0934462 0
0.5093 0.0966964 0
0.539345 0.0997635 0
0.568689 0.10193 0
0.599374 0.104341 0
0.626673 0.105745 0
0.651911 0.106767 0
0.676493 0.107805 0
0.699733 0.108263 0
0.719768 0.10869 0
0.736171 0.109667 0
0.74966 0.111604 0
0.761791 0.114885 0
0.773205 0.116121 0
0.783505 0.11841 0
0.00190738 0.0628824 0.0320439
0.00227359 0.0641947 0.0321355
0.00444038 0.0655833 0.0324559
0.0084535 0.066331 0.0323796
0.015671 0.0674144 0.0314794
0.0261234 0.0690623 0.0298314
0.0407874 0.0712902 0.0275425
0.0638132 0.0736858 0.0244602
0.0896773 0.0752117 0.0200351
0.123949 0.0772259 0.0133364
0.165255 0.0797284 0.00596628
0.211154 0.0827649 0
0.258167 0.085359 0
0.304829 0.0902266 0
0.34902 0.0944076 0
0.392111 0.0981613 0
0.434318 0.101869 0
0.473014 0.105806 0
0.508156 0.109346 0
0.541009 0.112398 0
0.572702 0.115282 0
0.602426 0.117815 0
0.630991 0.120027 0
0.657694 0.121187 0
0.684092 0.12253 0
0.708644 0.123751 0
0.730663 0.124254 0
0.750011 0.124758 0
0.76524 0.126253 0
0.778485 0.128603 0
0.791058 0.131579 0
0.802518 0.133455 0
0.811872 0.137118 0
0.00015259 0.0731365 0.0362554
0.000518807 0.0746624 0.0369268
0.00169375 0.0760357 0.0373541
0.00471504 0.0776837 0.0369421
0.0111391 0.0800336 0.0346532
0.021622 0.0822309 0.0319677
0.0391699 0.0842756 0.0290227
0.0665293 0.0879225 0.0249943
0.0971237 0.0898451 0.0194553
0.135103 0.0929122 0.0107729
0.180987 0.0957046 0.00376898
0.230762 0.0988174 0
0.279362 0.102724 0
0.328786 0.106813 0
0.376883 0.110704 0
0.421164 0.114748 0
0.462943 0.119402 0
0.502007 0.124239 0
0.538415 0.127596 0
0.571313 0.130449 0
0.603204 0.133272 0
0.633768 0.135775 0
0.663661 0.137652 0
0.690501 0.13875 0
0.715618 0.140459 0
0.738521 0.141817 0
0.759884 0.142443 0
0.779278 0.14316 0
0.793149 0.144594 0
0.806531 0.147326 0
0.819242 0.150332 0
0.831205 0.153262 0
0.839155 0.158221 0
0 0.0841688 0.0413672
0 0.0859693 0.0415808
0.00030518 0.0881666 0.0415351
0.00178531 0.090486 0.0412757
0.0065156 0.0936904 0.038468
0.0162661 0.0961624 0.034638
0.0363165 0.0990311 0.030396
0.0678874 0.102586 0.0256809
0.103227 0.105638 0.019089
0.145541 0.109636 0.00885023
0.195697 0.113268 0.00259403
0.248402 0.116915 0
0.301122 0.120958 0
0.353323 0.125109 0
0.402228 0.129381 0
0.447395 0.134203 0
0.491081 0.139116 0
0.530297 0.143221 0
0.564858 0.147097 0
0.599115 0.149889 0
0.631739 0.152834 0
0.662623 0.155245 0
0.691356 0.157046 0
0.718944 0.159289 0
0.744274 0.161242 0
0.767727 0.162661 0
0.787976 0.163775 0
0.805081 0.164965 0
0.819745 0.166522 0
0.833524 0.169986 0
0.846006 0.173281 0
0.85655 0.177508 0
0.86334 0.183536 0
0 0.0960861 0.0451057
0 0.0994278 0.0450141
0 0.102525 0.0451209
0.000228885 0.104402 0.0449683
0.00267033 0.108156 0.0437324
0.0103151 0.112154 0.0384833
0.0324254 0.116228 0.0318456
0.0670787 0.120256 0.0242161
0.1084 0.124269 0.0157473
0.15494 0.128954 0.00543221
0.209277 0.13373 0.00122072
0.264286 0.138033 0
0.31902 0.142443 0
0.372763 0.147143 0
0.424613 0.152132 0
0.471092 0.156878 0
0.514824 0.161852 0
0.554482 0.166598 0
0.590524 0.170794 0
0.625589 0.174121 0
0.658106 0.177707 0
0.689525 0.180957 0
0.719722 0.18349 0
0.748989 0.185672 0
0.772717 0.1879 0
0.792447 0.190249 0
0.811002 0.191836 0
0.828779 0.193515 0
0.844862 0.195377 0
0.858152 0.198688 0
0.869764 0.202457 0
0.878889 0.207691 0
0.885359 0.214038 0
0 0.112078 0.0547646
0 0.115709 0.0543374
0 0.118853 0.0530404
9.15541e-05 0.121874 0.0514382
0.000579843 0.126177 0.049958
0.00488289 0.13051 0.0439155
0.0267033 0.136782 0.032639
0.0635843 0.142535 0.0206302
0.111467 0.14725 0.00994888
0.162524 0.151995 0.00155642
0.220249 0.156573 0.000228885
0.276646 0.161318 0
0.333501 0.166201 0
0.388724 0.171252 0
0.441535 0.176867 0
0.490272 0.181933 0
0.535546 0.186801 0
0.57644 0.191821 0
0.613367 0.196536 0
0.648356 0.200778 0
0.682719 0.205509 0
0.714916 0.20972 0
0.745876 0.212879 0
0.774273 0.215351 0
0.797345 0.218051 0
0.815625 0.221759 0
0.832532 0.224475 0
0.849256 0.226886 0
0.865095 0.22948 0
0.878065 0.233143 0
0.889296 0.237522 0
0.898116 0.242725 0
0.904997 0.248737 0
0 0.129656 0.0581369
0 0.133791 0.0587778
0 0.137118 0.0594034
0 0.141024 0.0586404
4.57771e-05 0.146197 0.0555123
0.00030518 0.151553 0.0495613
0.0175326 0.160906 0.0334783
0.0557107 0.16849 0.016495
0.108003 0.174014 0.00456245
0.166964 0.178241 0
0.22742 0.182696 0
0.286107 0.188251 0
0.345068 0.193301 0
0.401831 0.19913 0
0.455695 0.205631 0
0.507317 0.211215 0
0.554009 0.216037 0
0.595575 0.222431 0
0.632853 0.228412 0
0.66865 0.234226 0
0.704005 0.2392 0
0.735988 0.243122 0
0.76701 0.246479 0
0.794873 0.250233 0
0.817792 0.25388 0
0.836713 0.257252 0
0.852964 0.260624 0
0.868009 0.263081 0
0.881315 0.266133 0
0.893217 0.270695 0
0.903105 0.275746 0
0.912749 0.281025 0
0.921691 0.286839 0
0 0.150851 0.0658427
0 0.155688 0.0663462
0 0.158999 0.0668803
0 0.163439 0.0650339
1.5259e-05 0.169451 0.0611276
0.000183108 0.176577 0.0543526
0.00138857 0.188693 0.028809
0.0400549 0.197925 0.00814832
0.100191 0.204852 0
0.167559 0.210422 0
0.231464 0.216297 0
0.294759 0.221073 0
0.355962 0.227344 0
0.414755 0.234012 0
0.470069 0.239353 0
0.52195 0.244846 0
0.570718 0.251438 0
0.612039 0.258671 0
0.648829 0.265507 0
0.684962 0.271824 0
0.720424 0.277531 0
0.753338 0.281971 0
0.784009 0.286076 0
0.810498 0.290089 0
0.832883 0.293782 0
0.851942 0.297337 0
0.869734 0.301518 0
0.884581 0.304662 0
0.896895 0.309361 0
0.906981 0.314611 0
0.916472 0.320226 0
0.925399 0.326665 0
0.932769 0.332815 0
0 0.174517 0.0731212
0 0.17969 0.0736095
0 0.183612 0.0738689
0 0.188769 0.0717021
0 0.195071 0.0676127
1.5259e-05 0.204089 0.0577096
0.000198367 0.219074 0.0339513
0.0201419 0.231495 0.0065156
0.0890211 0.239322 0
0.166659 0.245716 0
0.237064 0.251926 0
0.302266 0.257725 0
0.365652 0.264576 0
0.425834 0.27071 0
0.482963 0.276493 0
0.535988 0.28336 0
0.583566 0.290333 0
0.624674 0.29723 0
0.662135 0.305211 0
0.699184 0.313191 0
0.734783 0.31986 0
0.76733 0.324559 0
0.797406 0.328695 0
0.82298 0.332876 0
0.844892 0.33698 0
0.864347 0.340566 0
0.883482 0.344015 0
0.89955 0.347784 0
0.911955 0.353506 0
0.921843 0.358679 0
0.930495 0.364141 0
0.938506 0.370535 0
0.944091 0.37673 0
0 0.20145 0.0804761
0 0.20676 0.0809033
0 0.211109 0.0807202
0 0.216602 0.0784772
0 0.223682 0.0745708
0 0.235187 0.0618448
0.000839246 0.251072 0.0368963
0.00485237 0.267506 0.0056611
0.081651 0.276417 0.0009308
0.163165 0.284871 0
0.239841 0.292805 0
0.310399 0.300374 0
0.377707 0.307851 0
0.439918 0.314412 0
0.496941 0.32076 0
0.548775 0.32723 0
0.595605 0.334203 0
0.637919 0.341756 0
0.676005 0.350347 0
0.713481 0.358129 0
0.748226 0.364797 0
0.780377 0.37026 0
0.810391 0.374945 0
0.835645 0.379629 0
0.856794 0.383383 0
0.876936 0.386954 0
0.89662 0.391104 0
0.913863 0.395178 0
0.925582 0.400351 0
0.934752 0.405219 0
0.942535 0.410651 0
0.948623 0.415808 0
0.951736 0.42031 0
0 0.232456 0.087953
0 0.237827 0.0883192
0 0.242634 0.0879225
0 0.2486 0.0864118
0 0.257237 0.0823682
0 0.270222 0.066743
0 0.287175 0.0401923
0.00759899 0.306874 0.00801099
0.0749523 0.317968 0.000991836
0.164721 0.327947 0
0.246143 0.336889 0
0.32047 0.345815 0
0.391455 0.35433 0
0.454582 0.361379 0
0.510903 0.368002 0
0.562646 0.375174 0
0.609598 0.383108 0
0.65156 0.391073 0
0.691112 0.400046 0
0.72723 0.408957 0
0.76202 0.416403 0
0.794522 0.421683 0
0.824475 0.42591 0
0.850919 0.43003 0
0.871778 0.433921 0
0.891325 0.437675 0
0.909407 0.440879 0
0.925139 0.443519 0
0.936065 0.447395 0
0.94464 0.451514 0
0.951598 0.454932 0
0.956161 0.457694 0
0.958389 0.460441 0
0 0.266575 0.0959945
0 0.272084 0.0964981
0 0.277562 0.0963149
0 0.284291 0.0949721
0 0.294118 0.0898604
0 0.30985 0.0718547
0 0.328084 0.0432441
0.0158999 0.346578 0.0141604
0.0728008 0.361944 0
0.168811 0.372351 0
0.253742 0.382803 0
0.332708 0.392889 0
0.405615 0.402045 0
0.46981 0.41001 0
0.52845 0.417243 0
0.580377 0.424628 0
0.627192 0.432624 0
0.669413 0.44123 0
0.708797 0.449958 0
0.74548 0.458595 0
0.778576 0.466026 0
0.809461 0.471824 0
0.838941 0.476417 0
0.865278 0.479576 0
0.885512 0.48127 0
0.90454 0.48394 0
0.920714 0.485954 0
0.933211 0.48777 0
0.943191 0.490517 0
0.952117 0.493462 0
0.959472 0.495628 0
0.963699 0.497566 0
0.965652 0.499397 0
0 0.301213 0.104875
0 0.306676 0.10518
0 0.313771 0.10486
0 0.322728 0.102892
0 0.332586 0.0979782
0 0.351949 0.0784924
0 0.371221 0.0472572
0.0238499 0.390814 0.0174105
0.0839399 0.407568 0
0.180133 0.419608 0
0.26894 0.430594 0
0.350958 0.441749 0
0.425483 0.452415 0
0.490852 0.461036 0
0.549737 0.468101 0
0.601724 0.47715 0
0.647807 0.486137 0
0.689082 0.494301 0
0.727077 0.501976 0
0.762661 0.509636 0
0.795346 0.516289 0
0.82591 0.520745 0
0.854261 0.523751 0
0.878889 0.525719 0
0.898665 0.527047 0
0.916976 0.529519 0
0.929519 0.52987 0
0.939696 0.530877 0
0.94963 0.53254 0
0.960922 0.535027 0
0.968948 0.535561 0
0.972122 0.536828 0
0.973938 0.538949 0
0 0.337667 0.114672
0 0.344076 0.115404
0 0.352331 0.115129
0 0.361349 0.112444
0 0.373541 0.105165
0 0.395682 0.0878462
0 0.418372 0.0484474
0.033341 0.438163 0.0166934
0.103807 0.454887 0
0.20145 0.468559 0
0.293904 0.479515 0
0.37554 0.49099 0
0.448768 0.501671 0
0.514031 0.510491 0
0.572808 0.518593 0
0.623957 0.527413 0
0.668681 0.534234 0
0.708766 0.540917 0
0.745464 0.547921 0
0.779553 0.554269 0
0.810803 0.558862 0
0.84065 0.561593 0
0.868132 0.563745 0
0.891356 0.566125 0
0.910338 0.567803 0
0.928496 0.569253 0
0.939986 0.568841 0
0.950622 0.56994 0
0.961501 0.570977 0
0.972091 0.571969 0
0.97995 0.573617 0
0.982315 0.575463 0
0.984771 0.57734 0
0 0.373495 0.126741
0 0.379461 0.127153
0 0.38793 0.126864
0 0.398993 0.122194
0 0.415213 0.111604
0 0.436957 0.0920729
0 0.462989 0.0484321
0.0463417 0.484794 0.0140688
0.129473 0.501717 0
0.227604 0.513909 0
0.319524 0.525093 0
0.400977 0.535943 0
0.473457 0.54641 0
0.537087 0.554986 0
0.593484 0.562676 0
0.643366 0.569955 0
0.688701 0.575631 0
0.726528 0.582269 0
0.761669 0.588296 0
0.794553 0.593118 0
0.825254 0.596368 0
0.85478 0.598749 0
0.88159 0.600397 0
0.902739 0.602258 0
0.921431 0.603922 0
0.939345 0.605188 0
0.953704 0.604944 0
0.964492 0.605875 0
0.973114 0.606149 0
0.981125 0.607507 0
0.988693 0.609888 0
0.991501 0.611872 0
0.995117 0.614298 0
0 0.405661 0.138842
0 0.41239 0.138979
0 0.422614 0.137301
0 0.436194 0.130098
0 0.455146 0.116564
0 0.479118 0.0903182
0.00158694 0.507897 0.0429236
0.0666514 0.529915 0.00823987
0.160693 0.544625 0
0.257832 0.555611 0
0.347662 0.565545 0
0.426932 0.575204 0
0.495506 0.58439 0
0.556786 0.592203 0
0.611841 0.600015 0
0.660853 0.607004 0
0.704005 0.611917 0
0.739467 0.619135 0
0.77499 0.624674 0
0.808362 0.629099 0
0.838514 0.631968 0
0.866636 0.63389 0
0.892561 0.635477 0
0.913115 0.637552 0
0.932311 0.638849 0
0.950515 0.639765 0
0.966476 0.640696 0
0.978195 0.642023 0
0.984131 0.642512 0
0.990448 0.643732 0
0.995773 0.646113 0
0.997421 0.649256 0
0.999222 0.652979 0
0 0.435416 0.150912
0 0.444022 0.149783
0 0.454841 0.146319
0 0.470008 0.137667
0 0.492439 0.120516
0 0.518425 0.0851759
0.014374 0.545571 0.0367437
0.0826581 0.567254 0.00158694
0.185107 0.581399 0
0.280674 0.592844 0
0.365972 0.602258 0
0.44303 0.610681 0
0.513161 0.618982 0
0.573983 0.626581 0
0.627131 0.633051 0
0.673945 0.638972 0
0.715267 0.644999 0
0.750683 0.652064 0
0.786892 0.656947 0
0.81944 0.661143 0
0.848951 0.664485 0
0.876493 0.667201 0
0.90193 0.669017 0
0.922026 0.670604 0
0.942 0.671565 0
0.960983 0.673304 0
0.977493 0.675669 0
0.990494 0.677882 0
0.993622 0.678431 0
0.997436 0.680003 0
0.999374 0.683009 0
0.999786 0.686763 0
0.999969 0.690852 0
0 0.46247 0.161425
0 0.472038 0.158679
0 0.484123 0.153201
0 0.499809 0.143084
0 0.522545 0.122484
0 0.549447 0.0773175
0.0245823 0.575463 0.0298619
0.0921035 0.594766 0
0.200412 0.606714 0
0.294713 0.618128 0
0.378927 0.627634 0
0.455924 0.636439 0
0.523964 0.644892 0
0.583398 0.652766 0
0.636179 0.659129 0
0.682857 0.666468 0
0.723156 0.673014 0
0.759243 0.678447 0
0.794888 0.683833 0
0.827466 0.688975 0
0.856733 0.693034 0
0.883848 0.695949 0
0.908904 0.698238 0
0.929213 0.700496 0
0.949828 0.701549 0
0.969177 0.703746 0
0.98584 0.706538 0
0.997223 0.709224 0
0.999069 0.710369 0
0.999832 0.712764 0
0.999985 0.71574 0
1 0.719448 0
1 0.724163 0
0 0.486275 0.170581
0 0.495811 0.166461
0 0.508675 0.158221
0 0.525429 0.144671
0 0.546288 0.124224
0 0.575509 0.069337
0.0267948 0.600092 0.0249027
0.0946365 0.618082 0.000946059
0.208087 0.629602 0
0.304509 0.640253 0
0.389075 0.649805 0
0.464546 0.65864 0
0.530434 0.666911 0
0.589761 0.675105 0
0.642039 0.681285 0
0.687007 0.689586 0
0.727764 0.696315 0
0.765164 0.701839 0
0.800839 0.708202 0
0.833112 0.713619 0
0.862562 0.717617 0
0.890806 0.721263 0
0.91574 0.724926 0
0.935592 0.727489 0
0.955779 0.728954 0
0.976333 0.730922 0
0.992142 0.734401 0
0.999725 0.737606 0
1 0.739773 0
1 0.742168 0
1 0.745983 0
1 0.749966 0
1 0.753765 0
0 0.504112 0.178576
0 0.514 0.173114
0 0.52813 0.162478
0 0.545724 0.146822
0 0.56614 0.1234
0 0.59646 0.0642252
0.01738 0.620356 0.0214084
0.0916915 0.637812 0.0012665
0.208453 0.649393 0
0.310582 0.659113 0
0.396048 0.66981 0
0.471443 0.679393 0
0.537346 0.688151 0
0.59588 0.696406 0
0.647623 0.703075 0
0.693736 0.712169 0
0.734615 0.71957 0
0.772473 0.726513 0
0.808118 0.732937 0
0.841611 0.738155 0
0.871168 0.742336 0
0.899275 0.747265 0
0.923217 0.751095 0
0.94374 0.753857 0
0.96379 0.756512 0
0.983444 0.757305 0
0.995682 0.760388 0
1 0.76405 0
1 0.767071 0
1 0.768673 0
1 0.771847 0
1 0.775067 0
1 0.777783 0
0 0.516274 0.184833
0 0.526574 0.179294
0 0.54229 0.167803
0 0.561318 0.150134
0 0.58436 0.118563
0 0.613504 0.0619821
0.00320439 0.637583 0.0147097
0.0921645 0.653956 0.00047303
0.207965 0.665812 0
0.314519 0.676585 0
0.403906 0.688533 0
0.479042 0.697734 0
0.54522 0.706966 0
0.603403 0.715145 0
0.655283 0.722301 0
0.702266 0.731533 0
0.74229 0.739025 0
0.78114 0.746044 0
0.818769 0.75227 0
0.853132 0.757137 0
0.882185 0.760906 0
0.909422 0.765942 0
0.932448 0.769436 0
0.952895 0.772198 0
0.970825 0.775265 0
0.983169 0.778622 0
0.996963 0.779385 0
1 0.783169 0
1 0.787045 0
1 0.789868 0
1 0.79089 0
1 0.794339 0
1 0.796033 0
0 0.527108 0.190631
0 0.537728 0.18439
0 0.553323 0.172534
0 0.575021 0.152422
0 0.60061 0.114839
0 0.628489 0.0611124
0 0.653559 0.00462348
0.0962997 0.668894 0
0.209751 0.681163 0
0.319005 0.692988 0
0.410361 0.705669 0
0.488243 0.715404 0
0.554986 0.724392 0
0.612696 0.732097 0
0.664134 0.740185 0
0.710674 0.748775 0
0.751797 0.756085 0
0.790722 0.762921 0
0.827726 0.769253 0
0.86154 0.774823 0
0.891798 0.779889 0
0.920226 0.785016 0
0.940398 0.787961 0
0.960113 0.790967 0
0.977615 0.794385 0
0.990967 0.79765 0
0.99968 0.79939 0
1 0.802258 0
1 0.806058 0
1 0.808713 0
1 0.809964 0
1 0.812802 0
1 0.814038 0
0 0.535714 0.197177
0 0.54789 0.189578
0 0.562814 0.178851
0 0.586221 0.156909
0 0.614282 0.114244
0 0.643275 0.0579385
0.0100404 0.668666 0
0.0932326 0.68455 0
0.214801 0.696513 0
0.326024 0.709819 0
0.419471 0.723232 0
0.499107 0.733486 0
0.566186 0.740429 0
0.623667 0.749004 0
0.675822 0.757504 0
0.72253 0.764965 0
0.764172 0.771893 0
0.802838 0.779141 0
0.840543 0.786191 0
0.874937 0.792203 0
0.90692 0.797391 0
0.936263 0.802182 0
0.955978 0.804868 0
0.976547 0.807904 0
0.991135 0.809644 0
0.99855 0.811399 0
1 0.814343 0
1 0.816419 0
1 0.819562 0
1 0.82266 0
1 0.824796 0
1 0.825727 0
1 0.827146 0
0 0.545007 0.20325
0 0.557595 0.195026
0 0.573541 0.183139
0 0.597787 0.161868
0 0.62797 0.115389
0 0.65803 0.0517586
0.0203555 0.684108 0
0.0860304 0.701167 0
0.223484 0.713191 0
