src/colors/film_stock_&_vintage/golden_years_film.cube
TITLE "Gold"
# Created by Photon 3D ColorGrading
# AUTHOR #  Jack Wright
DOMAIN_MIN 0 0 0
DOMAIN_MAX 1 1 1
LUT_3D_SIZE 5
0.006309 -0.000334 0.001332
0.130811 0.024810 0.018184
0.296570 0.065208 0.010462
0.506359 0.151519 0.023280
0.719208 0.266036 0.075472
0.037367 0.143581 0.040930
0.205419 0.191295 -0.010561
0.384636 0.190459 -0.029076
0.591683 0.268158 0.001177
0.812224 0.392429 0.070962
0.089823 0.275715 0.047235
0.217600 0.364895 0.010961
0.465369 0.428406 -0.046363
0.671620 0.493635 -0.015906
0.917077 0.588752 0.032101
0.221496 0.418780 0.081224
0.324908 0.508652 0.073969
0.473143 0.640009 0.042228
0.685157 0.717603 0.027238
0.988488 0.812220 -0.010574
0.345618 0.538530 0.142568
0.438716 0.627749 0.166107
0.547552 0.772827 0.134755
0.743833 0.877900 0.062921
1.001513 0.984449 0.001961
0.039954 0.036377 0.132971
0.167369 0.038277 0.131063
0.369791 0.061396 0.097136
0.610413 0.174817 0.120782
0.866573 0.270212 0.157386
0.029043 0.148885 0.137360
0.277471 0.225375 0.130637
0.555783 0.256763 0.118575
0.767407 0.322453 0.135369
0.900568 0.462085 0.268041
0.103847 0.299504 0.101955
0.323114 0.433375 0.131855
0.576529 0.524197 0.102231
0.807782 0.515084 0.091961
0.987237 0.632472 0.271311
0.281317 0.464120 0.159144
0.410589 0.593385 0.195757
0.573897 0.724201 0.189434
0.795128 0.786895 0.083313
1.030990 0.827682 0.247077
0.401672 0.594094 0.226721
0.516011 0.718270 0.252000
0.680402 0.857949 0.273035
0.830700 0.935271 0.253214
1.008560 0.984129 0.262179
0.087190 0.068912 0.214542
0.231818 0.075959 0.224605
0.442433 0.102275 0.214699
0.704832 0.178734 0.225474
0.832570 0.354615 0.371438
0.054889 0.178006 0.246754
0.329879 0.236172 0.255486
0.601780 0.273747 0.279360
0.815859 0.359728 0.348422
0.930228 0.494052 0.436675
0.095858 0.335019 0.224848
0.358103 0.454729 0.286312
0.638142 0.526733 0.354436
0.882089 0.565302 0.376650
1.009922 0.653577 0.481265
0.279035 0.521204 0.222681
0.464261 0.657241 0.323641
0.685395 0.767608 0.391039
0.898932 0.835142 0.331212
1.038081 0.839666 0.500202
0.426934 0.699910 0.293545
0.577516 0.789603 0.395212
0.764817 0.925327 0.490861
0.901531 0.991030 0.533744
1.025584 1.007425 0.515697
0.208330 0.140635 0.277178
0.364722 0.162803 0.309181
0.557645 0.211870 0.355995
0.729334 0.301227 0.413675
0.829608 0.407734 0.479629
0.181722 0.230445 0.303451
0.429209 0.309931 0.386997
0.641035 0.371521 0.456775
0.817298 0.423535 0.538115
0.921285 0.522157 0.559381
0.229180 0.407667 0.356227
0.444848 0.503895 0.442486
0.684011 0.569498 0.517390
0.896128 0.598330 0.624807
1.003620 0.676638 0.654990
0.349993 0.601112 0.384043
0.495225 0.689058 0.512329
0.693614 0.783963 0.593140
0.914372 0.825652 0.660339
1.017839 0.882535 0.798881
0.490738 0.710843 0.467296
0.623372 0.827395 0.547991
0.784682 0.937703 0.657382
0.926065 1.013919 0.780497
1.027564 1.036700 0.793813
0.349507 0.238601 0.352058
0.495915 0.290054 0.413893
0.652934 0.330956 0.492654
0.751492 0.409298 0.547309
0.840777 0.460499 0.570191
0.359050 0.333727 0.390587
0.540045 0.421555 0.508071
0.705008 0.479991 0.579977
0.834662 0.530616 0.648218
0.917060 0.569850 0.662947
0.422530 0.503619 0.491102
0.626635 0.636669 0.629821
0.798705 0.678993 0.686977
0.905408 0.697870 0.746331
0.979297 0.711841 0.776077
0.483915 0.621090 0.526877
0.636255 0.747522 0.631970
0.836743 0.867067 0.755653
0.950275 0.891225 0.862749
1.010131 0.876381 0.912526
0.546809 0.747238 0.566643
0.668071 0.844451 0.660636
0.794562 0.919853 0.759572
0.910445 0.991849 0.905931
1.024345 1.025915 1.025359
