src/colors/film_stock_&_vintage/green_film_pop.cube
TITLE "Generated by Resolve"
LUT_3D_SIZE 33
0.00929274 0.0102998 0.00669871
0.0093843 0.0102998 0.00669871
0.00955215 0.0102998 0.00669871
0.0116426 0.0102541 0.00665293
0.0167086 0.0101472 0.00656138
0.0324102 0.00987259 0.00634775
0.0590219 0.00952163 0.00607309
0.0901961 0.00923171 0.00587472
0.122133 0.0091249 0.00578317
0.153124 0.00927749 0.00561532
0.184207 0.00936904 0.00544747
0.213016 0.00929274 0.00527962
0.240024 0.00920119 0.00515755
0.266239 0.00917067 0.005066
0.292424 0.00903334 0.00500496
0.319097 0.00868238 0.00500496
0.345449 0.00840772 0.00518807
0.372015 0.00779736 0.00555428
0.39823 0.00770581 0.00584421
0.423606 0.00827039 0.00604257
0.448295 0.00903334 0.00630198
0.472816 0.00953689 0.00663767
0.499046 0.0101472 0.00697337
0.526543 0.0105592 0.00720226
0.552895 0.0102998 0.00735485
0.571801 0.0100404 0.0074464
0.58056 0.0101472 0.00750744
0.583276 0.010193 0.00750744
0.583597 0.010193 0.00750744
0.583597 0.010193 0.00750744
0.583597 0.010193 0.00750744
0.583597 0.010193 0.00750744
0.583597 0.010193 0.00750744
0.00929274 0.0102998 0.00669871
0.00936904 0.0102998 0.00669871
0.00953689 0.0102998 0.00669871
0.0117189 0.0102541 0.00665293
0.0181125 0.0101167 0.00654612
0.0338903 0.00982681 0.00631724
0.0628977 0.00947585 0.00604257
0.0945754 0.00921645 0.00585946
0.126894 0.00915541 0.00575265
0.15845 0.009308 0.0055848
0.189899 0.0093843 0.00541695
0.218311 0.00924697 0.0052491
0.245136 0.00920119 0.00514229
0.271504 0.00915541 0.00505074
0.297932 0.00895705 0.00500496
0.324681 0.00862135 0.00505074
0.351156 0.00830091 0.00526436
0.377783 0.00770581 0.00561532
0.404089 0.00770581 0.00590524
0.429297 0.00843824 0.00608835
0.453864 0.00920119 0.00636301
0.478462 0.00962844 0.00672923
0.505394 0.0103304 0.00703441
0.532998 0.0105745 0.00724804
0.558846 0.0101625 0.00737011
0.574823 0.010071 0.00747692
0.581674 0.0101778 0.00750744
0.583429 0.010193 0.00750744
0.583597 0.010193 0.00750744
0.583597 0.010193 0.00750744
0.583597 0.010193 0.00750744
0.583597 0.010193 0.00750744
0.583597 0.010193 0.00750744
0.00929274 0.0102998 0.00669871
0.00935378 0.0102998 0.00669871
0.00947585 0.0102998 0.00669871
0.0112764 0.0102541 0.00665293
0.0172732 0.0101167 0.00653086
0.0321965 0.00982681 0.00631724
0.0614328 0.00950637 0.00607309
0.0935683 0.00924697 0.00588998
0.126299 0.00915541 0.00573739
0.158358 0.009308 0.00556954
0.190249 0.00932326 0.00541695
0.219059 0.00917067 0.00523384
0.246067 0.00918593 0.00512703
0.272709 0.00917067 0.00505074
0.299565 0.00895705 0.00500496
0.326345 0.00859083 0.005066
0.35317 0.00823987 0.00529488
0.380072 0.00773632 0.00564584
0.406409 0.0077821 0.0059205
0.431815 0.00854505 0.00611887
0.456565 0.00929274 0.00639353
0.4813 0.00967422 0.00677501
0.508721 0.0104067 0.00708019
0.536507 0.0105898 0.00727855
0.562219 0.010071 0.00738537
0.576562 0.0100862 0.00749218
0.58233 0.010193 0.00750744
0.58352 0.010193 0.00750744
0.583597 0.010193 0.00750744
0.583597 0.010193 0.00750744
0.583597 0.010193 0.00750744
0.583597 0.010193 0.00750744
0.583597 0.010193 0.00750744
0.00935378 0.0108797 0.00660716
0.00936904 0.0109102 0.0065919
0.00943008 0.0109102 0.0065919
0.0105745 0.0108186 0.00656138
0.0152895 0.0106661 0.00650034
0.0281071 0.0104067 0.00636301
0.0561837 0.00996414 0.00610361
0.0886091 0.00956741 0.00590524
0.122194 0.00935378 0.00575265
0.15523 0.0093843 0.00561532
0.187991 0.00933852 0.00540169
0.217548 0.00914015 0.00523384
0.244648 0.00917067 0.00512703
0.271733 0.00920119 0.005066
0.298924 0.0089723 0.00502022
0.326024 0.00859083 0.00508125
0.353002 0.00820935 0.0053254
0.380133 0.00776684 0.00564584
0.406851 0.00782788 0.0059205
0.432364 0.00859083 0.00613413
0.457465 0.00932326 0.00642405
0.482368 0.00972 0.00680552
0.510109 0.0104067 0.00709544
0.537926 0.0105898 0.00729381
0.56376 0.0100252 0.00740063
0.57731 0.0101015 0.00749218
0.582696 0.010193 0.00750744
0.583566 0.010193 0.00750744
0.583597 0.010193 0.00750744
0.583597 0.010193 0.00750744
0.583597 0.010193 0.00750744
0.583597 0.010193 0.00750744
0.583597 0.010193 0.00750744
0.00936904 0.0128939 0.00640879
0.00935378 0.0133059 0.00639353
0.00935378 0.0133822 0.00639353
0.00993362 0.0132906 0.00639353
0.0131838 0.0130312 0.00639353
0.0232395 0.012726 0.00634775
0.0486305 0.0120241 0.00611887
0.0807507 0.0111696 0.00590524
0.115557 0.0104372 0.00576791
0.149905 0.0099794 0.0056611
0.183444 0.00967422 0.00541695
0.214237 0.00933852 0.0052491
0.241535 0.00929274 0.00514229
0.269093 0.00926223 0.00509651
0.296529 0.00901808 0.00505074
0.323766 0.00863661 0.00508125
0.351141 0.00817884 0.00531014
0.378454 0.00773632 0.0055848
0.405341 0.0077821 0.00587472
0.431159 0.00854505 0.00614939
0.456428 0.00927749 0.00643931
0.481407 0.00976577 0.00675975
0.509316 0.0104067 0.0071107
0.537285 0.0105745 0.00723278
0.56347 0.0100099 0.00740063
0.577081 0.0101015 0.00750744
0.582803 0.010193 0.00750744
0.583597 0.010193 0.00750744
0.583597 0.010193 0.00750744
0.583597 0.010193 0.00750744
0.583597 0.010193 0.00750744
0.583597 0.010193 0.00750744
0.583597 0.010193 0.00750744
0.00921645 0.0187839 0.00605783
0.00920119 0.0192264 0.00602731
0.00920119 0.0192264 0.00607309
0.00950637 0.019028 0.00608835
0.0114595 0.018677 0.00610361
0.0182345 0.0182956 0.0061799
0.0392309 0.0171969 0.00611887
0.0703136 0.0154116 0.00595102
0.106844 0.0134279 0.00576791
0.143343 0.0118563 0.0056611
0.178027 0.0108339 0.00549325
0.210086 0.0102998 0.0053254
0.238285 0.0100099 0.00521859
0.266239 0.00975052 0.00512703
0.293507 0.00932326 0.00505074
0.320607 0.00874342 0.00505074
0.34786 0.00819409 0.00523384
0.375311 0.0077821 0.00553903
0.402747 0.00776684 0.00585946
0.428748 0.00843824 0.00608835
0.454414 0.00923171 0.00637827
0.479377 0.00979629 0.00668345
0.5075 0.0103761 0.00704967
0.5355 0.0105898 0.00721752
0.561868 0.0100099 0.00741588
0.576333 0.0101015 0.00750744
0.582696 0.010193 0.00750744
0.583597 0.010193 0.00750744
0.583597 0.010193 0.00750744
0.583597 0.010193 0.00750744
0.583597 0.010193 0.00750744
0.583597 0.010193 0.00750744
0.583597 0.010193 0.00750744
0.00860609 0.0326696 0.00560006
0.00854505 0.0339055 0.00556954
0.00851453 0.034165 0.00561532
0.00865187 0.0338445 0.00563058
0.00958267 0.0331121 0.0056611
0.0132601 0.0325475 0.00585946
0.0286107 0.0314946 0.00598154
0.0563973 0.0294041 0.00595102
0.0932021 0.0263828 0.00587472
0.132677 0.0230716 0.00582895
0.170199 0.0202487 0.00564584
0.204837 0.0181277 0.00547799
0.235462 0.0162051 0.00531014
0.264622 0.0144961 0.0052491
0.292226 0.012726 0.00514229
0.319066 0.0109407 0.00511177
0.346059 0.00952163 0.00529488
0.373022 0.00865187 0.0055848
0.4 0.00831617 0.00585946
0.425895 0.00857557 0.00607309
0.451286 0.00917067 0.00636301
0.476219 0.00975052 0.00666819
0.504265 0.0103151 0.00698863
0.532616 0.010605 0.00721752
0.559335 0.0100404 0.00737011
0.575219 0.0100862 0.00746166
0.582559 0.010193 0.00750744
0.583597 0.010193 0.00750744
0.583597 0.010193 0.00750744
0.583597 0.010193 0.00750744
0.583597 0.010193 0.00750744
0.583597 0.010193 0.00750744
0.583597 0.010193 0.00750744
0.00764477 0.0517128 0.00521859
0.0075227 0.053727 0.00520333
0.00750744 0.0542763 0.00520333
0.00755322 0.0540627 0.00523384
0.00790417 0.0532082 0.00527962
0.00952163 0.05243 0.00541695
0.0191958 0.0517281 0.00560006
0.0413519 0.0504768 0.00579843
0.0757763 0.0481575 0.0059205
0.117784 0.0442817 0.00595102
0.158785 0.0400854 0.00593576
0.197208 0.0358282 0.00575265
0.231693 0.0316625 0.00544747
0.263554 0.0278325 0.00538643
0.292775 0.0238956 0.00535592
0.320668 0.0198825 0.0053254
0.347753 0.0164492 0.00546273
0.374044 0.0138552 0.00570687
0.399802 0.0120394 0.00595102
0.424949 0.0112459 0.00614939
0.449317 0.0108797 0.00640879
0.473716 0.0106966 0.00669871
0.500923 0.0106355 0.00698863
0.529 0.0108034 0.00721752
0.555932 0.0102388 0.00732433
0.573632 0.0101015 0.00741588
0.582376 0.0102235 0.00750744
0.583597 0.010193 0.00750744
0.583597 0.010193 0.00750744
0.583597 0.010193 0.00750744
0.583597 0.010193 0.00750744
0.583597 0.010193 0.00750744
0.583597 0.010193 0.00750744
0.00665293 0.074342 0.00505074
0.00660716 0.0765393 0.005066
0.00662242 0.0773175 0.00508125
0.00665293 0.0771191 0.00509651
0.00677501 0.0763714 0.00514229
0.00733959 0.0752728 0.00518807
0.0119478 0.0746929 0.00534066
0.0268254 0.0742504 0.00560006
0.0556802 0.0732891 0.00587472
0.0979782 0.0707103 0.00607309
0.142931 0.0663005 0.00622568
0.185779 0.0611276 0.00608835
0.225193 0.0559091 0.00569161
0.26096 0.050782 0.00556954
0.293126 0.0453498 0.00560006
0.323522 0.039353 0.00563058
0.352285 0.0335546 0.00573739
0.378866 0.0283055 0.00596628
0.403693 0.023743 0.00619516
0.427893 0.0209964 0.00640879
0.45124 0.0185245 0.00662242
0.474495 0.0158236 0.0068513
0.49929 0.0134585 0.00708019
0.525948 0.0125124 0.00724804
0.552468 0.0112459 0.00733959
0.571939 0.0104982 0.00743114
0.582238 0.0103609 0.00750744
0.583658 0.0102541 0.00750744
0.583627 0.0102235 0.00750744
0.583597 0.0102083 0.00750744
0.583597 0.010193 0.00750744
0.583597 0.010193 0.00750744
0.583597 0.010193 0.00750744
0.00619516 0.0975814 0.0052491
0.0061799 0.0995499 0.00531014
0.00619516 0.100252 0.0053254
0.00622568 0.10016 0.00534066
0.00628672 0.0995956 0.00535592
0.00645457 0.098436 0.00537118
0.00784314 0.0975204 0.00540169
0.0157321 0.0973831 0.00553903
0.0362707 0.0977798 0.00579843
0.0741283 0.0975814 0.00610361
0.122179 0.0950332 0.00639353
0.169192 0.0906081 0.00639353
0.214343 0.085893 0.00607309
0.255116 0.0808423 0.00585946
0.291249 0.0753185 0.00584421
0.32517 0.068864 0.00596628
0.357229 0.0619821 0.0061799
0.38584 0.0547951 0.00643931
0.411231 0.0477607 0.00665293
0.435294 0.0426947 0.00689708
0.458259 0.0373541 0.00709544
0.480293 0.0307012 0.00717174
0.502037 0.0240787 0.00727855
0.525399 0.0195773 0.00743114
0.550027 0.0152132 0.00743114
0.571206 0.0121004 0.0075227
0.582818 0.0111696 0.00759899
0.584421 0.0109255 0.00759899
0.584207 0.0107118 0.00759899
0.584054 0.0105592 0.00759899
0.584009 0.0105287 0.00758373
0.583902 0.0104524 0.00758373
0.58381 0.0104067 0.00758373
0.00610361 0.11783 0.00584421
0.00610361 0.119814 0.00588998
0.00613413 0.120851 0.00585946
0.00614939 0.121279 0.00584421
0.00613413 0.12108 0.00585946
0.00613413 0.12018 0.00585946
0.00660716 0.119326 0.00581369
0.00988785 0.119188 0.00578317
0.02121 0.120272 0.00584421
0.0483406 0.122026 0.00605783
0.096376 0.122881 0.00639353
0.146914 0.12047 0.0065919
0.197665 0.116915 0.00653086
0.245197 0.112642 0.00630198
0.286793 0.107759 0.00621042
0.325139 0.101991 0.00639353
0.360876 0.0955825 0.00675975
0.392447 0.0890822 0.0071107
0.419867 0.082536 0.00735485
0.444236 0.0756237 0.00749218
0.466819 0.0679789 0.00750744
0.488975 0.0591592 0.00747692
0.509667 0.0489204 0.00762951
0.529778 0.0386969 0.00769055
0.55053 0.0282292 0.00769055
0.571878 0.0199893 0.00770581
0.584985 0.0163272 0.0077821
0.58703 0.0145113 0.00775158
0.58645 0.0130617 0.00769055
0.585931 0.0121462 0.00769055
0.585641 0.0118257 0.00767529
0.585367 0.0115969 0.00767529
0.585077 0.0113832 0.00764477
0.00570687 0.139773 0.00613413
0.00567636 0.141985 0.00616464
0.00564584 0.143114 0.00616464
0.00563058 0.143694 0.00621042
0.00560006 0.143618 0.00628672
0.00567636 0.142779 0.00622568
0.00584421 0.141619 0.00621042
0.0069276 0.1411 0.00621042
0.011902 0.141772 0.00619516
0.0273594 0.144015 0.00613413
0.065568 0.147066 0.00639353
0.118624 0.148623 0.00674449
0.17406 0.146685 0.00695811
0.228962 0.142855 0.00691234
0.278157 0.138827 0.00683604
0.322057 0.134661 0.00701915
0.362219 0.129473 0.00747692
0.397543 0.123613 0.00791943
0.428382 0.117113 0.00819409
0.454963 0.110079 0.00831617
0.47892 0.10222 0.00814832
0.501717 0.0927291 0.00808728
0.520821 0.0821241 0.00816358
0.539208 0.0704662 0.00814832
0.556558 0.0561227 0.00810254
0.575097 0.0413367 0.00796521
0.587961 0.0313725 0.00796521
0.591058 0.025742 0.00794995
0.590417 0.0215763 0.00790417
0.589487 0.0187991 0.0078584
0.588937 0.0175631 0.00784314
0.588495 0.0167697 0.00784314
0.588037 0.0159915 0.0077821
0.00534066 0.163134 0.00633249
0.00531014 0.165576 0.00634775
0.00527962 0.166918 0.00636301
0.00526436 0.16759 0.00636301
0.0052491 0.167651 0.00639353
0.0052491 0.167086 0.00637827
0.0052491 0.16585 0.00637827
0.00561532 0.164889 0.00639353
0.00746166 0.165301 0.00639353
0.0137484 0.167987 0.00639353
0.0349737 0.172213 0.00648508
0.0819715 0.177172 0.00682078
0.141802 0.179629 0.00724804
0.203357 0.17789 0.00749218
0.260868 0.174182 0.00766003
0.313207 0.170275 0.00788891
0.359823 0.166232 0.00828565
0.400183 0.160769 0.0087129
0.434699 0.153323 0.00892653
0.466056 0.145296 0.00903334
0.493919 0.136934 0.00881971
0.518227 0.127672 0.00881971
0.536553 0.116838 0.00888075
0.553613 0.10547 0.00885023
0.569482 0.0914168 0.00869764
0.584543 0.0735943 0.00843824
0.595193 0.0581826 0.00828565
0.598566 0.0491188 0.00822461
0.597436 0.0429084 0.00817884
0.595834 0.0380255 0.00808728
0.594766 0.0349432 0.0080415
0.593912 0.0325322 0.00802625
0.593088 0.0303044 0.00801099
0.00514229 0.187839 0.00660716
0.00514229 0.190372 0.00665293
0.00512703 0.191913 0.00666819
0.00512703 0.192782 0.00669871
0.00512703 0.192981 0.00671397
0.00512703 0.192477 0.00666819
0.00511177 0.191409 0.00665293
0.00526436 0.190478 0.00665293
0.00596628 0.190661 0.00668345
0.0081178 0.193454 0.00683604
0.0162966 0.198718 0.0069276
0.0425879 0.205081 0.0071107
0.0967727 0.211017 0.0074464
0.165942 0.214679 0.00790417
0.234119 0.214191 0.00831617
0.295552 0.21091 0.0087129
0.350637 0.207599 0.00917067
0.398795 0.203082 0.00950637
0.438468 0.195407 0.0096437
0.474357 0.186603 0.00972
0.506142 0.177325 0.00955215
0.533715 0.16817 0.00955215
0.554925 0.158038 0.00956741
0.572045 0.146044 0.00961318
0.588327 0.132097 0.00952163
0.603067 0.113481 0.00926223
0.612345 0.0935225 0.00900282
0.614359 0.0807355 0.00881971
0.611505 0.0729839 0.00866712
0.60827 0.066743 0.00856031
0.606134 0.0625925 0.0084535
0.604349 0.0590677 0.00840772
0.602762 0.0558022 0.00836194
0.00509651 0.213428 0.00706493
0.00509651 0.216129 0.0071107
0.00509651 0.217823 0.00715648
0.00509651 0.218738 0.007187
0.00509651 0.219013 0.00720226
0.00509651 0.218753 0.00715648
0.00509651 0.217929 0.00714122
0.00517281 0.216815 0.00715648
0.00549325 0.216449 0.00717174
0.00642405 0.218692 0.00729381
0.00973526 0.224521 0.0074464
0.0207675 0.230671 0.00756847
0.0536507 0.237034 0.00787366
0.116442 0.244541 0.00830091
0.19556 0.251728 0.00883497
0.269261 0.254353 0.00944533
0.332662 0.252201 0.0099794
0.391211 0.248814 0.0102998
0.44033 0.242893 0.0104372
0.479561 0.233448 0.0104524
0.514961 0.222965 0.0102693
0.546761 0.212482 0.0103761
0.571908 0.20235 0.0103914
0.590677 0.190723 0.0104677
0.607858 0.176944 0.0104524
0.623911 0.158846 0.0102083
0.634867 0.136767 0.0099031
0.636591 0.119188 0.00962844
0.632609 0.109255 0.00941482
0.628153 0.101869 0.00924697
0.625025 0.0967727 0.0091249
0.622583 0.0928054 0.0090486
0.62031 0.0890059 0.00898756
0.00509651 0.239994 0.00756847
0.00509651 0.242924 0.00761425
0.00509651 0.244709 0.00762951
0.00509651 0.245792 0.00761425
0.00509651 0.246159 0.00764477
0.00509651 0.246036 0.00762951
0.00509651 0.245304 0.00762951
0.00511177 0.244114 0.00764477
0.00521859 0.242847 0.00766003
0.00575265 0.243946 0.00769055
0.0075227 0.250324 0.00791943
0.0118715 0.257084 0.0080415
0.0267338 0.263691 0.00827039
0.0693217 0.271962 0.0087129
0.143587 0.282979 0.009308
0.230671 0.294331 0.00996414
0.30837 0.299443 0.0105745
0.374487 0.29633 0.0110323
0.434745 0.291554 0.0113375
0.481926 0.28455 0.011429
0.520989 0.274098 0.0112001
0.556435 0.262379 0.0112306
0.586648 0.251316 0.0112764
0.609201 0.240269 0.0114748
0.628458 0.22649 0.0115053
0.645762 0.20853 0.0113069
0.659434 0.186267 0.010956
0.662577 0.164523 0.010605
0.658946 0.152346 0.0103304
0.654002 0.143847 0.0101472
0.650172 0.137713 0.0100099
0.647379 0.133227 0.00991836
0.644663 0.128817 0.00981155
0.00505074 0.268513 0.00801099
0.00503548 0.271763 0.0080415
0.00502022 0.273915 0.00805676
0.00500496 0.275273 0.0080415
0.0049897 0.275731 0.00802625
0.0049897 0.275807 0.00802625
0.00497444 0.275151 0.0080415
0.0049897 0.274083 0.0080415
0.00505074 0.272572 0.00799573
0.00531014 0.272557 0.00805676
0.00640879 0.277684 0.00825513
0.00859083 0.285664 0.00851453
0.0138094 0.293523 0.00883497
0.0334173 0.30132 0.00926223
0.0879072 0.312062 0.00981155
0.174563 0.327062 0.0103914
0.266209 0.341802 0.0110781
0.350118 0.347875 0.0118563
0.418555 0.343404 0.0124208
0.476219 0.336828 0.0125734
0.52517 0.328786 0.0123598
0.56495 0.316869 0.0122683
0.598947 0.304265 0.0124514
0.627237 0.2934 0.0128328
0.649943 0.280324 0.0129091
0.668528 0.262364 0.0125887
0.683619 0.239261 0.0121614
0.690166 0.214786 0.0117189
0.687816 0.199878 0.011429
0.682933 0.190143 0.0112154
0.678813 0.183444 0.0110475
0.675669 0.178531 0.0109255
0.672816 0.173999 0.0108186
0.00491341 0.300801 0.0084535
0.00492866 0.304646 0.00852979
0.00494392 0.307393 0.00859083
0.00494392 0.309285 0.00863661
0.00494392 0.309926 0.00863661
0.00494392 0.31017 0.00863661
0.00495918 0.309789 0.00860609
0.00495918 0.308858 0.00859083
0.00500496 0.307378 0.00857557
0.005066 0.305913 0.00856031
0.00563058 0.308049 0.00868238
0.00720226 0.31635 0.00898756
0.00962844 0.326329 0.00935378
0.0170291 0.33492 0.00978103
0.0455634 0.343862 0.0102541
0.109377 0.357412 0.0108339
0.203403 0.376303 0.0116121
0.304616 0.393683 0.0126192
0.393957 0.399588 0.01355
0.461845 0.391119 0.0138705
0.51989 0.382879 0.0137789
0.571069 0.374304 0.0140536
0.610483 0.361089 0.0145724
0.643107 0.348547 0.0159609
0.669932 0.336629 0.0153353
0.691325 0.319951 0.0144961
0.707942 0.296376 0.0137942
0.718105 0.27071 0.013138
0.717952 0.252903 0.0126955
0.713603 0.241215 0.0124361
0.709346 0.233738 0.0122225
0.70602 0.228351 0.0120851
0.703059 0.223423 0.0120089
0.00505074 0.337743 0.00926223
0.00509651 0.341619 0.0093843
0.00511177 0.344472 0.00947585
0.00511177 0.346288 0.00955215
0.00512703 0.347036 0.00961318
0.00514229 0.347234 0.00959792
0.00514229 0.347021 0.00956741
0.00515755 0.346136 0.00952163
0.00517281 0.344854 0.00950637
0.00512703 0.34258 0.00944533
0.00540169 0.34229 0.00947585
0.00646983 0.348043 0.00967422
0.00830091 0.358434 0.0099794
0.0118105 0.368978 0.0103151
0.0239261 0.377478 0.0106966
0.0612345 0.387793 0.0112154
0.137407 0.404349 0.0120089
0.239918 0.427329 0.0131838
0.34728 0.447196 0.0152743
0.438773 0.450904 0.0180667
0.504189 0.439445 0.0178836
0.565026 0.430472 0.0189212
0.617166 0.421912 0.0205386
0.656123 0.408591 0.0224765
0.686351 0.394949 0.0204471
0.712795 0.380056 0.0195315
0.732937 0.358022 0.018143
0.746075 0.331273 0.0159609
0.749157 0.310613 0.0144656
0.74609 0.297017 0.0139162
0.74168 0.288365 0.0136568
0.738186 0.282429 0.013489
0.735241 0.277348 0.0133822
0.00543221 0.374258 0.0103914
0.00547799 0.378317 0.0105135
0.00549325 0.381216 0.010605
0.00547799 0.383017 0.0106661
0.00549325 0.384009 0.0107271
0.00549325 0.384314 0.0107118
0.00547799 0.38439 0.0106966
0.00549325 0.383795 0.0106813
0.00550851 0.382483 0.0106203
0.00543221 0.380484 0.0105592
0.00552377 0.378744 0.0105287
0.00604257 0.380591 0.0105898
0.0074464 0.389731 0.0108186
0.00976577 0.401694 0.0110781
0.0149386 0.410666 0.0113069
0.0330358 0.418769 0.0117189
0.0826581 0.430976 0.0124056
0.172702 0.450584 0.0138705
0.284672 0.475822 0.0175174
0.393133 0.494759 0.0240635
0.482856 0.497719 0.0274662
0.549325 0.486336 0.0272831
0.611261 0.480278 0.0285954
0.662394 0.470375 0.0317845
0.69807 0.456519 0.0280766
0.728862 0.44126 0.0275578
0.754726 0.422644 0.0265354
0.77232 0.396597 0.0233005
0.778714 0.371557 0.0199893
0.777691 0.354238 0.0179599
0.773922 0.344472 0.0169223
0.770657 0.338491 0.016434
0.767712 0.333272 0.016083
0.00581369 0.41117 0.0114443
0.00584421 0.415061 0.0115358
0.00587472 0.418006 0.0116121
0.00588998 0.419821 0.0116732
0.00590524 0.420829 0.0117189
0.00588998 0.421332 0.0117342
0.00587472 0.421454 0.0117189
0.00588998 0.420951 0.0117189
0.00588998 0.419821 0.0117037
0.00582895 0.418158 0.0116426
0.00581369 0.415915 0.0115663
0.00604257 0.415671 0.0115511
0.00700389 0.421836 0.0117189
0.00872816 0.432593 0.0119631
0.0114137 0.442329 0.0121767
0.0190738 0.450843 0.0124819
0.0456855 0.460792 0.0130617
0.112383 0.475074 0.0143587
0.217334 0.495766 0.018677
0.330968 0.520058 0.0281682
0.439292 0.538994 0.0352941
0.529168 0.540932 0.0390478
0.596078 0.532616 0.038056
0.656504 0.526635 0.0414282
0.702419 0.516548 0.0369879
0.738079 0.503136 0.0357977
0.768948 0.486641 0.0353399
0.793866 0.464652 0.0332036
0.805112 0.436912 0.0296941
0.806729 0.41561 0.026627
0.803555 0.404166 0.0248264
0.800641 0.398016 0.0238804
0.798138 0.392859 0.0231327
0.00610361 0.446967 0.012314
0.00614939 0.451255 0.0124361
0.0061799 0.454414 0.0125124
0.00621042 0.456428 0.0125582
0.00622568 0.45774 0.0125887
0.0062562 0.458473 0.0126345
0.00627146 0.458671 0.0126497
0.00627146 0.458442 0.012604
0.0062562 0.457404 0.0126345
0.00621042 0.455879 0.0125734
0.00621042 0.453819 0.0125124
0.00631724 0.452445 0.0124971
0.0068513 0.455039 0.0125734
0.00807202 0.463294 0.0127718
0.0100557 0.473808 0.0130465
0.0137484 0.482567 0.0133516
0.0264591 0.491157 0.0138552
0.0658732 0.502159 0.0151064
0.146166 0.518257 0.0196078
0.268467 0.540093 0.0308537
0.38175 0.563149 0.0401007
0.488319 0.578866 0.046952
0.577905 0.581659 0.0493324
0.642084 0.574533 0.051133
0.696544 0.566567 0.0465553
0.739437 0.557855 0.0443275
0.775799 0.545647 0.045243
0.80737 0.528054 0.0451667
0.828275 0.504036 0.0429847
0.83418 0.480507 0.0387732
0.831815 0.46775 0.0359197
0.828733 0.460609 0.0345159
0.826352 0.455207 0.0335851
0.00650034 0.485405 0.0133059
0.00654612 0.489647 0.0133822
0.00657664 0.492958 0.0134585
0.00660716 0.494942 0.0134432
0.00662242 0.496376 0.013489
0.00665293 0.497093 0.0135195
0.00666819 0.497383 0.0135195
0.00666819 0.497322 0.013489
0.00660716 0.496788 0.0135195
0.00660716 0.495445 0.0134737
0.00660716 0.493568 0.0134127
0.00660716 0.491463 0.0133669
0.00683604 0.491188 0.0133974
0.00769055 0.495705 0.0135805
0.00935378 0.504982 0.0139925
0.0118257 0.513252 0.0146334
0.0180667 0.520806 0.0155795
0.0386816 0.529549 0.0175479
0.0910964 0.542962 0.0224613
0.197024 0.561181 0.0324865
0.326909 0.58291 0.0437781
0.440726 0.605158 0.0524147
0.54226 0.617975 0.0580301
0.625422 0.619852 0.0608988
0.685832 0.611719 0.0571756
0.733318 0.604669 0.0543679
0.775677 0.597604 0.0585031
0.81239 0.584741 0.0610513
0.843046 0.565362 0.0605173
0.857801 0.543908 0.0572671
0.858915 0.53051 0.0537575
0.85658 0.523278 0.0515755
0.854429 0.518105 0.0500496
0.00689708 0.523751 0.0140841
0.00694286 0.527535 0.0142977
0.00697337 0.530465 0.0144808
0.00700389 0.532296 0.0146029
0.00700389 0.533547 0.0147097
0.00700389 0.53431 0.0147555
0.00701915 0.534722 0.0147555
0.00703441 0.534661 0.014786
0.00700389 0.534264 0.0148165
0.00700389 0.533135 0.0147555
0.00700389 0.531655 0.0146334
0.00697337 0.529656 0.0144961
0.00701915 0.527962 0.0144198
0.0075227 0.529229 0.0145266
0.00883497 0.535653 0.0153201
0.0108644 0.543633 0.0171969
0.0145724 0.550195 0.0193332
0.0259556 0.557397 0.0218814
0.0598154 0.567437 0.026215
0.132815 0.582788 0.0341039
0.264652 0.603113 0.0454108
0.391135 0.627222 0.0568704
0.495995 0.643961 0.0630503
0.592401 0.654276 0.0684977
0.671977 0.655894 0.0687877
0.725307 0.648066 0.0660716
0.770459 0.641642 0.0703136
0.811246 0.632807 0.0757916
0.847471 0.61735 0.0772869
0.872007 0.598764 0.075349
0.879301 0.586343 0.0722972
0.878614 0.579492 0.0701915
0.87715 0.575158 0.068864
0.00729381 0.557641 0.0161593
0.00732433 0.561181 0.0167697
0.00735485 0.563943 0.017319
0.00737011 0.565591 0.0176699
0.00737011 0.56672 0.0179446
0.00733959 0.567376 0.0181277
0.00735485 0.567819 0.0182956
0.00733959 0.567819 0.0183566
0.00733959 0.567514 0.0183871
0.00735485 0.56672 0.0183261
0.00735485 0.565515 0.018143
0.00735485 0.563821 0.0178836
0.00733959 0.562005 0.0176089
0.00756847 0.561685 0.0175479
0.00843824 0.565316 0.0184329
0.0101472 0.573297 0.0209354
0.012726 0.579599 0.0236057
0.0194705 0.584482 0.0263066
0.0420386 0.591424 0.0299382
