src/colors/film_stock_&_vintage/green_film_pop.cube
TITLE "Generated by Resolve"
LUT_3D_SIZE 9
0.00929274 0.0102998 0.00669871
0.0167086 0.0101472 0.00656138
0.122133 0.0091249 0.00578317
0.240024 0.00920119 0.00515755
0.345449 0.00840772 0.00518807
0.448295 0.00903334 0.00630198
0.552895 0.0102998 0.00735485
0.583597 0.010193 0.00750744
0.583597 0.010193 0.00750744
0.00936904 0.0128939 0.00640879
0.0131838 0.0130312 0.00639353
0.115557 0.0104372 0.00576791
0.241535 0.00929274 0.00514229
0.351141 0.00817884 0.00531014
0.456428 0.00927749 0.00643931
0.56347 0.0100099 0.00740063
0.583597 0.010193 0.00750744
0.583597 0.010193 0.00750744
0.00665293 0.074342 0.00505074
0.00677501 0.0763714 0.00514229
0.0556802 0.0732891 0.00587472
0.225193 0.0559091 0.00569161
0.352285 0.0335546 0.00573739
0.45124 0.0185245 0.00662242
0.552468 0.0112459 0.00733959
0.583627 0.0102235 0.00750744
0.583597 0.010193 0.00750744
0.00534066 0.163134 0.00633249
0.0052491 0.167651 0.00639353
0.00746166 0.165301 0.00639353
0.141802 0.179629 0.00724804
0.359823 0.166232 0.00828565
0.493919 0.136934 0.00881971
0.569482 0.0914168 0.00869764
0.597436 0.0429084 0.00817884
0.593088 0.0303044 0.00801099
0.00505074 0.268513 0.00801099
0.0049897 0.275731 0.00802625
0.00505074 0.272572 0.00799573
0.0138094 0.293523 0.00883497
0.266209 0.341802 0.0110781
0.52517 0.328786 0.0123598
0.649943 0.280324 0.0129091
0.687816 0.199878 0.011429
0.672816 0.173999 0.0108186
0.00581369 0.41117 0.0114443
0.00590524 0.420829 0.0117189
0.00588998 0.419821 0.0117037
0.00700389 0.421836 0.0117189
0.0456855 0.460792 0.0130617
0.439292 0.538994 0.0352941
0.702419 0.516548 0.0369879
0.805112 0.436912 0.0296941
0.798138 0.392859 0.0231327
0.00729381 0.557641 0.0161593
0.00737011 0.56672 0.0179446
0.00733959 0.567514 0.0183871
0.00733959 0.562005 0.0176089
0.012726 0.579599 0.0236057
0.193713 0.621927 0.0460822
0.641718 0.68777 0.0791943
0.846601 0.662486 0.0904707
0.892088 0.62298 0.0829023
0.0087129 0.677974 0.0408789
0.00881971 0.687922 0.0426032
0.00883497 0.689845 0.0429694
0.0087892 0.686687 0.0424201
0.00979629 0.682841 0.0425727
0.0578927 0.700221 0.0544289
0.479713 0.766094 0.102449
0.815183 0.800198 0.128908
0.931365 0.791547 0.145144
0.00920119 0.723293 0.0487068
0.00920119 0.723293 0.0487068
0.00920119 0.723293 0.0487068
0.00920119 0.723293 0.0487068
0.00927749 0.723384 0.0487831
0.0252079 0.737621 0.0565194
0.232898 0.786892 0.0955215
0.725978 0.867231 0.147585
0.923812 0.895323 0.186557
0.0100404 0.0104372 0.0134585
0.0155489 0.0101625 0.0107118
0.120943 0.00901808 0.00688182
0.24004 0.00914015 0.00529488
0.345571 0.00840772 0.00520333
0.448737 0.0090486 0.00630198
0.553674 0.0102693 0.00735485
0.583597 0.010193 0.00750744
0.583597 0.010193 0.00750744
0.00968948 0.0128634 0.00947585
0.0137331 0.0130312 0.00910964
0.116014 0.0102541 0.00679026
0.242054 0.009308 0.0053254
0.351751 0.00814832 0.00534066
0.457206 0.00929274 0.00645457
0.563912 0.0100099 0.00741588
0.583597 0.010193 0.00750744
0.583597 0.010193 0.00750744
0.00672923 0.0746166 0.0052491
0.00680552 0.0767376 0.00541695
0.0567483 0.0737621 0.00601205
0.226352 0.0568856 0.00570687
0.35375 0.0347143 0.00578317
0.45272 0.0193637 0.00665293
0.553353 0.011429 0.00735485
0.583673 0.0102693 0.00750744
0.583597 0.010193 0.00750744
0.00531014 0.164477 0.00634775
0.00523384 0.168795 0.00639353
0.00755322 0.166705 0.00640879
0.142901 0.181613 0.00723278
0.362173 0.168353 0.00834669
0.496468 0.138491 0.00885023
0.57142 0.0927901 0.00866712
0.597879 0.0443122 0.00814832
0.59353 0.0317388 0.00801099
0.00503548 0.270649 0.0080415
0.00497444 0.277958 0.0080415
0.005066 0.274678 0.00802625
0.0134127 0.296269 0.00891127
0.269306 0.345785 0.0112154
0.528634 0.332265 0.0124056
0.653239 0.283818 0.0130312
0.689769 0.202823 0.0115206
0.675074 0.1776 0.0108949
0.00584421 0.414038 0.0115358
0.00593576 0.423651 0.0117952
0.00593576 0.422583 0.0117342
0.00709544 0.425345 0.0118257
0.0479286 0.464485 0.0131685
0.442573 0.542107 0.0362097
0.705501 0.520851 0.0377813
0.807706 0.440711 0.0303655
0.800488 0.398062 0.0240024
0.00732433 0.560403 0.0166629
0.00740063 0.56939 0.018555
0.00737011 0.570184 0.0188754
0.00735485 0.564797 0.0179751
0.0130922 0.58262 0.0242161
0.199649 0.625559 0.0473793
0.645289 0.69041 0.0800336
0.849775 0.665003 0.0916762
0.893217 0.626978 0.0840009
0.00875868 0.680964 0.041413
0.00885023 0.690837 0.0431373
0.00888075 0.692744 0.0434577
0.00883497 0.689479 0.0429389
0.00993362 0.685725 0.0431983
0.0599069 0.703029 0.0553292
0.485206 0.76907 0.103655
0.818586 0.802777 0.130419
0.931945 0.79469 0.146868
0.00920119 0.723293 0.0487068
0.00920119 0.723293 0.0487068
0.00920119 0.723293 0.0487068
0.00920119 0.723293 0.0487068
0.00929274 0.723384 0.0487678
0.0260777 0.737789 0.0567178
0.24033 0.788357 0.0966049
0.731929 0.868437 0.148531
0.924514 0.895293 0.186801
0.0110475 0.0105135 0.109209
0.0126802 0.0102541 0.102663
0.11075 0.00914015 0.0702525
0.240818 0.00909438 0.0285039
0.349599 0.0075227 0.0108492
0.449393 0.00720226 0.00836194
0.552193 0.00946059 0.0077821
0.583734 0.00999466 0.00758373
0.583642 0.010132 0.0075227
0.0106813 0.012314 0.0969558
0.0130465 0.012314 0.0967727
0.107851 0.00962844 0.0714275
0.244419 0.00917067 0.0315862
0.357946 0.00729381 0.0133364
0.46038 0.00732433 0.00903334
0.562875 0.00898756 0.0080415
0.583963 0.00973526 0.00776684
0.583734 0.0100099 0.00759899
0.00790417 0.0654002 0.0471504
0.00798047 0.0673838 0.0487373
0.066331 0.0669261 0.0506294
0.240391 0.0439612 0.0202335
0.362158 0.0240024 0.0100099
0.45452 0.0151369 0.00817884
0.552438 0.010605 0.00775158
0.583795 0.0100862 0.00759899
0.583658 0.0101167 0.00755322
0.0052491 0.161852 0.0140536
0.00512703 0.166369 0.0149538
0.00827039 0.165515 0.0129702
0.15227 0.178607 0.0108644
0.363607 0.164004 0.0093843
0.494438 0.134737 0.00909438
0.568933 0.0898451 0.00869764
0.597375 0.0429236 0.00816358
0.593194 0.030869 0.00798047
0.00502022 0.26949 0.00836194
0.00500496 0.276814 0.00857557
0.005066 0.273686 0.00843824
0.0131685 0.294255 0.00903334
0.267628 0.343633 0.0111696
0.526864 0.330159 0.0123598
0.651911 0.282231 0.0129549
0.689006 0.20174 0.01149
0.674662 0.176944 0.0109255
0.00576791 0.413138 0.0115511
0.00588998 0.422705 0.0117494
0.00587472 0.421805 0.0117342
0.00704967 0.424338 0.0117952
0.047364 0.46363 0.0131533
0.441459 0.541451 0.0360418
0.705104 0.520592 0.0378882
0.807599 0.44004 0.0302434
0.800412 0.398016 0.0240177
0.00724804 0.560189 0.0167849
0.00735485 0.569162 0.0186007
0.00738537 0.569924 0.0188602
0.00733959 0.564691 0.0179141
0.0130465 0.582605 0.0241703
0.199054 0.625574 0.0473793
0.644984 0.69073 0.0800336
0.849943 0.665461 0.0918898
0.893416 0.627543 0.0841993
0.00875868 0.681239 0.041474
0.00885023 0.691035 0.0431678
0.00889601 0.693049 0.0435187
0.00885023 0.689784 0.0429847
0.00993362 0.685908 0.0432593
0.0601053 0.703456 0.0554665
0.48394 0.769253 0.1037
0.818647 0.803235 0.130632
0.93196 0.795407 0.147158
0.00920119 0.723293 0.0487068
0.00920119 0.723293 0.0487068
0.00920119 0.723293 0.0487068
0.00920119 0.723293 0.0487068
0.009308 0.7234 0.0487068
0.0255436 0.737682 0.056611
0.241627 0.788647 0.0968338
0.732555 0.868528 0.148669
0.924422 0.895048 0.186725
0.0126345 0.0111849 0.230213
0.0132753 0.0108186 0.22739
0.0812085 0.00880446 0.219425
0.232761 0.00831617 0.174456
0.36463 0.00741588 0.115084
0.467658 0.00816358 0.065095
0.558526 0.00862135 0.0256352
0.588556 0.00859083 0.0131991
0.588357 0.00859083 0.0112001
0.0124056 0.0124514 0.225528
0.0135348 0.0121767 0.227192
0.0807355 0.00895705 0.223682
0.236774 0.00823987 0.182055
0.374182 0.00750744 0.124987
0.478813 0.0084535 0.0766308
0.568597 0.00849927 0.0305486
0.588449 0.00860609 0.0168154
0.588632 0.00860609 0.0139315
0.00993362 0.0655375 0.192355
0.0099794 0.0680247 0.195666
0.0498817 0.0599527 0.216785
0.224216 0.0361944 0.188327
0.373953 0.0180514 0.111879
0.47097 0.0107881 0.0592203
0.559274 0.00881971 0.0248264
0.588525 0.00862135 0.0139162
0.588586 0.00860609 0.0119478
0.00675975 0.14258 0.142199
0.00663767 0.146441 0.147585
0.0105287 0.148287 0.149111
0.165576 0.172656 0.163699
0.381003 0.143923 0.104723
0.508293 0.100526 0.0457313
0.571267 0.0484627 0.0153353
0.598199 0.0182345 0.0109407
0.594675 0.0155642 0.0102846
0.00570687 0.274678 0.0855879
0.00587472 0.282368 0.0931106
0.00585946 0.278828 0.0895705
0.01944 0.295018 0.0733196
0.283696 0.335119 0.0716716
0.528634 0.30808 0.0608835
0.634836 0.242802 0.0268711
0.666926 0.165362 0.0119936
0.65922 0.15172 0.0111543
0.00576791 0.414771 0.0342412
0.0059205 0.42501 0.0401007
0.00595102 0.424262 0.0397955
0.00698863 0.422187 0.0318456
0.0523995 0.453635 0.0264744
0.438941 0.533425 0.0533303
0.698528 0.509026 0.0460517
0.801953 0.43006 0.0300603
0.797024 0.391348 0.0234989
0.00724804 0.55787 0.0196994
0.00735485 0.567269 0.0229953
0.00737011 0.568292 0.0243229
0.00733959 0.562737 0.0213779
0.0126955 0.578714 0.0251164
0.192493 0.621805 0.0467536
0.640955 0.688487 0.0792096
0.847639 0.663462 0.0910353
0.892821 0.625101 0.0836347
0.00869764 0.679576 0.0411841
0.00883497 0.689265 0.0428626
0.00883497 0.691188 0.0432288
0.00883497 0.688029 0.0426947
0.00978103 0.683879 0.0427863
0.0584421 0.701656 0.0547646
0.478187 0.767407 0.102922
0.81622 0.801953 0.129946
0.931762 0.794171 0.146426
0.00920119 0.723293 0.0487068
0.00920119 0.723293 0.0487068
0.00920119 0.723293 0.0487068
0.00920119 0.723293 0.0487068
0.00929274 0.723354 0.0487221
0.0246891 0.737606 0.0565194
0.235935 0.788067 0.0964065
0.730343 0.86804 0.148363
0.924071 0.894743 0.186496
0.0260166 0.0111849 0.363607
0.0276036 0.0105287 0.361624
0.073518 0.00663767 0.3691
0.196536 0.00660716 0.36405
0.358114 0.0090486 0.297795
0.483314 0.0105592 0.227573
0.562356 0.00914015 0.155306
0.585168 0.00860609 0.106371
0.585657 0.00860609 0.0890974
0.0254826 0.0122835 0.362814
0.0267948 0.0119783 0.364858
0.0754864 0.00669871 0.375525
0.202884 0.00677501 0.37467
0.368872 0.00939956 0.310842
0.494865 0.0107424 0.241703
0.572656 0.0089723 0.167025
0.585428 0.00859083 0.124605
0.585367 0.00854505 0.110277
0.0154879 0.0814374 0.355291
0.0161288 0.0851911 0.359197
0.0561532 0.0643626 0.371176
0.175814 0.0276341 0.383917
0.357763 0.0222782 0.314427
0.487678 0.0135348 0.231373
0.564202 0.00921645 0.15845
0.585153 0.00852979 0.114229
0.585229 0.00860609 0.102174
0.00985733 0.149233 0.308949
0.0100404 0.153704 0.314275
0.0150454 0.153643 0.318456
0.144671 0.170932 0.37052
0.347539 0.150362 0.339727
0.517494 0.106096 0.234714
0.585031 0.0363775 0.136599
0.600565 0.0126802 0.0780652
0.595346 0.0116579 0.0690471
0.00758373 0.237736 0.264469
0.00781262 0.244831 0.272282
0.00790417 0.241962 0.269306
0.040177 0.273213 0.296101
0.285145 0.337163 0.321675
0.52015 0.295369 0.247272
0.655879 0.191089 0.135271
0.652796 0.0841077 0.0442817
0.640772 0.0701305 0.0352941
0.00883497 0.427344 0.239078
0.00907912 0.436927 0.249836
0.00906386 0.435904 0.247898
0.00972 0.433753 0.23267
0.0552224 0.45774 0.176349
0.419226 0.517082 0.211948
0.682353 0.466407 0.194324
0.754498 0.302724 0.0617075
0.739651 0.261997 0.0360571
0.0087129 0.570062 0.151751
0.00903334 0.580209 0.162676
0.00907912 0.581369 0.163973
0.00885023 0.575418 0.154955
0.0130922 0.568292 0.111849
0.168109 0.595728 0.112154
0.629038 0.665812 0.170626
0.841001 0.617929 0.143114
0.878752 0.564157 0.102449
0.00917067 0.685191 0.0915999
0.00932326 0.696025 0.0990768
0.00935378 0.698177 0.10042
0.00929274 0.694789 0.0963607
0.00985733 0.685969 0.083711
0.0510567 0.689921 0.07364
0.454459 0.758877 0.122942
0.811887 0.796933 0.146593
0.931533 0.788159 0.153277
0.00933852 0.725307 0.0579538
0.0093843 0.726314 0.0625315
0.00933852 0.72639 0.0629129
0.00933852 0.726177 0.0621958
0.00933852 0.725277 0.0575418
0.0226139 0.736767 0.0592508
0.22211 0.786145 0.0957809
0.723705 0.866545 0.147829
0.923201 0.894301 0.186191
0.0545205 0.0257267 0.494942
0.0545815 0.0241093 0.494011
0.0776684 0.00936904 0.492638
0.170504 0.00985733 0.511742
0.322042 0.0108492 0.485222
0.482994 0.0105135 0.418051
0.576425 0.0101167 0.335973
0.592782 0.0090486 0.268208
0.591379 0.00888075 0.247105
0.0547799 0.0259709 0.496559
0.0552224 0.0272068 0.498619
0.0796674 0.00952163 0.498665
0.177234 0.0100099 0.520928
0.333577 0.0108186 0.496635
0.495842 0.0108492 0.431479
0.588098 0.00999466 0.349645
0.596735 0.00927749 0.292424
0.593957 0.0091249 0.27483
0.0532387 0.106081 0.497475
0.0536355 0.110903 0.500847
0.0764019 0.0827497 0.497215
0.154711 0.0329747 0.512413
0.314748 0.0209659 0.497963
0.484398 0.0125734 0.427146
0.580148 0.010193 0.343359
0.594842 0.00917067 0.282231
0.592538 0.00901808 0.267308
0.0263066 0.190509 0.471138
0.0256962 0.196933 0.475456
0.0343175 0.194202 0.475334
0.141543 0.190143 0.497337
0.290929 0.155886 0.519219
0.501656 0.130083 0.464225
0.609354 0.0598001 0.354299
0.616464 0.0122835 0.253651
0.607401 0.011017 0.236515
0.0117342 0.251987 0.425254
0.0116884 0.259449 0.430808
0.0118105 0.257267 0.429328
0.0668803 0.281682 0.450248
0.257008 0.332815 0.495277
0.483421 0.322011 0.482841
0.660487 0.228336 0.375174
0.675822 0.0850385 0.214054
0.662501 0.0655222 0.190173
0.0101778 0.365454 0.399771
0.0104067 0.374929 0.408423
0.0104219 0.374884 0.408087
0.0119326 0.374441 0.407584
0.139254 0.44213 0.445777
0.428107 0.523262 0.474037
0.671977 0.456352 0.400824
0.775433 0.224414 0.187396
0.756588 0.172534 0.136416
0.0130617 0.563348 0.405997
0.0133974 0.571664 0.416739
0.0134127 0.572519 0.416602
0.0132296 0.567895 0.409384
0.035172 0.575067 0.385107
0.174228 0.611353 0.322301
0.57969 0.660716 0.379461
0.844556 0.567956 0.295384
0.880827 0.459617 0.1935
0.0139467 0.699931 0.332845
0.0148775 0.710933 0.348577
0.0160067 0.713222 0.350545
0.0157626 0.709865 0.344717
0.0157778 0.700984 0.317617
0.052781 0.702144 0.207477
0.346059 0.747677 0.23122
0.790295 0.793103 0.292973
0.945861 0.755383 0.267445
0.0124208 0.747509 0.230457
0.0128634 0.75021 0.249805
0.0130007 0.750332 0.254734
0.0128786 0.749599 0.251591
0.0125582 0.747967 0.237079
0.020737 0.747265 0.154528
0.15108 0.781125 0.156008
0.685023 0.873167 0.231662
0.935302 0.908156 0.269627
0.0659953 0.029984 0.574762
0.0659953 0.0299382 0.574777
0.0797436 0.011017 0.575387
0.14728 0.0104677 0.600717
0.272709 0.0107118 0.613809
0.429969 0.0121462 0.580041
0.578531 0.0115969 0.502968
0.621439 0.0106966 0.446448
0.618875 0.010544 0.42974
0.0659953 0.0299535 0.574853
0.0659648 0.0300908 0.574899
0.080415 0.010605 0.575219
0.154574 0.0104219 0.602945
0.285496 0.0108644 0.615366
0.444327 0.0124971 0.581201
0.591989 0.0115663 0.507118
0.624414 0.0109255 0.466529
0.622187 0.0107729 0.454398
0.0685588 0.114916 0.585061
0.0682994 0.12018 0.585977
0.0822309 0.0925612 0.584329
0.137835 0.0284886 0.597436
0.264897 0.0162356 0.618189
0.429343 0.015259 0.586664
0.582238 0.0117647 0.509606
0.623743 0.0108644 0.461479
0.621881 0.0107271 0.449409
0.05066 0.229435 0.583719
0.0500496 0.234623 0.586099
0.0550088 0.230869 0.586725
0.135027 0.20763 0.598444
0.233066 0.157168 0.629679
0.419745 0.143511 0.639658
0.60911 0.0786145 0.551324
0.651576 0.0204013 0.460456
0.637964 0.0149386 0.440482
0.0236362 0.308888 0.557321
0.0221256 0.315206 0.561822
0.0232242 0.313573 0.561532
0.0747539 0.323659 0.573816
0.22446 0.330434 0.62562
0.39263 0.316396 0.656489
0.647959 0.282979 0.611612
0.736568 0.133654 0.48333
0.71812 0.1019 0.451774
0.0120241 0.375921 0.519265
0.0121157 0.384207 0.525338
0.012192 0.384161 0.525643
0.0148013 0.38146 0.523766
0.149172 0.443275 0.574914
0.368978 0.495338 0.636774
0.628275 0.48806 0.631922
0.815839 0.301335 0.488396
0.800031 0.22536 0.421744
0.0131533 0.503639 0.514122
0.0134737 0.513573 0.522759
0.0135042 0.514672 0.523827
0.0133516 0.509453 0.519234
0.0502174 0.532143 0.534981
0.284062 0.604135 0.5841
0.584649 0.668925 0.621881
0.858854 0.553079 0.506477
0.890074 0.382925 0.36817
0.0396429 0.692515 0.542824
0.0429847 0.704219 0.55378
0.0439155 0.707073 0.556512
0.0430457 0.703502 0.553536
0.0441138 0.69604 0.543099
0.109529 0.720974 0.513603
0.3552 0.768032 0.47187
0.77583 0.809033 0.498375
0.969635 0.753323 0.419699
0.0466163 0.767208 0.507134
0.0489509 0.767681 0.520623
0.0494392 0.767834 0.523598
0.0491035 0.767727 0.521843
0.0477302 0.767422 0.51339
0.066743 0.777676 0.446296
0.121309 0.80885 0.327062
0.573617 0.891081 0.359625
0.954223 0.937362 0.388128
0.0659953 0.0298924 0.575204
0.0659953 0.0298924 0.575204
0.0756847 0.0121309 0.574121
0.139757 0.010605 0.600183
0.261158 0.0107118 0.62089
0.413535 0.0123751 0.60145
0.566903 0.0120241 0.533639
0.630304 0.0112001 0.495201
0.630304 0.0112001 0.495201
0.0659953 0.0298924 0.575204
0.0659953 0.0298924 0.575204
0.0765698 0.0107881 0.57377
0.148333 0.0104982 0.602579
0.276051 0.0107881 0.620035
0.432288 0.0125887 0.59472
0.583978 0.011841 0.524987
0.630304 0.0112001 0.495201
0.630304 0.0112001 0.495201
0.0687877 0.0999008 0.584909
0.0686961 0.106172 0.58584
0.0783093 0.0828107 0.584497
0.132479 0.0226902 0.598932
0.255406 0.0140383 0.62359
0.416388 0.0138857 0.602121
0.574136 0.0120546 0.53048
0.630304 0.0112001 0.495201
0.630304 0.0112001 0.495201
0.0550393 0.22533 0.593912
0.0537575 0.230015 0.593637
0.0565652 0.226337 0.593957
0.129717 0.200702 0.604807
0.221317 0.145464 0.638209
0.394308 0.12697 0.66685
0.583612 0.0741588 0.592615
0.660136 0.0184329 0.515969
0.649119 0.0150607 0.507958
0.0268864 0.315053 0.589181
0.0243839 0.319768 0.588418
0.0249027 0.31841 0.58851
0.0741588 0.323033 0.602136
0.21117 0.317739 0.660548
0.345892 0.294636 0.712917
0.595346 0.274357 0.713771
0.75494 0.16553 0.601083
0.74905 0.134752 0.583902
0.0115511 0.392889 0.580072
0.0116426 0.398795 0.580713
0.0116732 0.398825 0.580774
0.0132143 0.39649 0.582147
0.140185 0.439139 0.646082
0.314702 0.452003 0.740612
0.537102 0.453742 0.782986
0.83035 0.367346 0.71722
0.853651 0.318685 0.676219
0.0139773 0.492119 0.599527
0.0142367 0.500893 0.603098
0.0142214 0.501839 0.603967
0.0140841 0.497642 0.602304
0.0527047 0.514107 0.619928
0.264225 0.576196 0.728557
0.490593 0.626688 0.812955
0.825727 0.590875 0.815
0.939818 0.50901 0.752453
0.0393835 0.643946 0.647196
0.0435492 0.657511 0.658808
0.0445563 0.659998 0.662547
0.0434272 0.65626 0.659785
0.0434119 0.647578 0.651774
0.145113 0.685191 0.693782
0.451072 0.759869 0.779828
0.779706 0.818967 0.823514
0.981689 0.757397 0.760372
0.066041 0.753826 0.667063
0.0660563 0.750637 0.676234
0.0660868 0.749859 0.678553
0.0661021 0.750286 0.677455
0.0661326 0.752224 0.672282
0.105913 0.774548 0.676799
0.313191 0.852476 0.709148
0.590845 0.935744 0.696956
0.957092 0.977432 0.66157
0.0659953 0.0298924 0.575204
0.0659953 0.0298924 0.575204
0.0730755 0.01355 0.573098
0.135027 0.0107118 0.598764
0.253834 0.0106661 0.62121
0.40647 0.0122988 0.603677
0.561242 0.0121462 0.536477
0.630304 0.0112001 0.495201
0.630304 0.0112001 0.495201
0.0659953 0.0298924 0.575204
0.0659953 0.0298924 0.575204
0.0747387 0.0113375 0.573144
0.143984 0.0105745 0.601358
0.270222 0.0107424 0.620661
0.4262 0.0124819 0.59704
0.579431 0.0119173 0.527398
0.630304 0.0112001 0.495201
0.630304 0.0112001 0.495201
0.0687572 0.0903182 0.583505
0.0686961 0.0974289 0.584543
0.0759442 0.0764019 0.582986
0.129244 0.0195621 0.597757
0.250645 0.0129702 0.623056
0.411337 0.0132906 0.60351
0.570382 0.0121157 0.532296
0.630304 0.0112001 0.495201
0.630304 0.0112001 0.495201
0.0562753 0.22089 0.59411
0.0549477 0.225849 0.593835
0.0567941 0.222538 0.594064
0.126665 0.195544 0.603449
0.217136 0.139132 0.635676
0.38822 0.120485 0.663905
0.577035 0.0709239 0.591821
0.657145 0.0175174 0.513954
0.646281 0.0142977 0.506142
0.0285801 0.311788 0.5897
0.0258488 0.316747 0.588861
0.026276 0.315435 0.588922
0.0717021 0.319036 0.601251
0.207385 0.313054 0.657389
0.340352 0.288487 0.709895
0.58703 0.269993 0.712627
0.75021 0.160342 0.59913
0.745266 0.127794 0.580957
0.0115206 0.389792 0.579965
0.0116274 0.39588 0.580514
0.0116121 0.396109 0.58056
0.0129397 0.393378 0.581659
0.136019 0.434531 0.64303
0.310231 0.447181 0.73817
0.528664 0.448386 0.78085
0.822873 0.363394 0.717952
0.851453 0.313909 0.677272
0.0138705 0.488258 0.60032
0.0140841 0.496925 0.602701
0.0141146 0.498375 0.603067
0.0140078 0.49424 0.601953
0.0493019 0.509133 0.618738
0.25771 0.570794 0.728176
0.47837 0.618845 0.815763
0.809644 0.583673 0.824857
0.942214 0.512779 0.783291
0.0377661 0.632868 0.657404
0.0420691 0.648066 0.665934
0.0430915 0.65153 0.667735
0.0419471 0.64799 0.665446
0.0413825 0.637903 0.659831
0.144015 0.671916 0.712901
0.428275 0.744381 0.814603
0.74818 0.807187 0.870039
0.981903 0.760311 0.855238
0.0660868 0.735088 0.718669
0.0661479 0.735409 0.718883
0.0661936 0.735607 0.719005
0.0661936 0.735607 0.719005
0.0662089 0.735607 0.719005
0.107332 0.758053 0.741314
0.37673 0.831708 0.818662
0.677592 0.936797 0.879744
0.973007 0.989563 0.936202
