src/colors/film_stock_&_vintage/green_film_pop.cube
TITLE "Generated by Resolve"
LUT_3D_SIZE 5
0.00929274 0.0102998 0.00669871
0.122133 0.0091249 0.00578317
0.345449 0.00840772 0.00518807
0.552895 0.0102998 0.00735485
0.583597 0.010193 0.00750744
0.00665293 0.074342 0.00505074
0.0556802 0.0732891 0.00587472
0.352285 0.0335546 0.00573739
0.552468 0.0112459 0.00733959
0.583597 0.010193 0.00750744
0.00505074 0.268513 0.00801099
0.00505074 0.272572 0.00799573
0.266209 0.341802 0.0110781
0.649943 0.280324 0.0129091
0.672816 0.173999 0.0108186
0.00729381 0.557641 0.0161593
0.00733959 0.567514 0.0183871
0.012726 0.579599 0.0236057
0.641718 0.68777 0.0791943
0.892088 0.62298 0.0829023
0.00920119 0.723293 0.0487068
0.00920119 0.723293 0.0487068
0.00927749 0.723384 0.0487831
0.232898 0.786892 0.0955215
0.923812 0.895323 0.186557
0.0110475 0.0105135 0.109209
0.11075 0.00914015 0.0702525
0.349599 0.0075227 0.0108492
0.552193 0.00946059 0.0077821
0.583642 0.010132 0.0075227
0.00790417 0.0654002 0.0471504
0.066331 0.0669261 0.0506294
0.362158 0.0240024 0.0100099
0.552438 0.010605 0.00775158
0.583658 0.0101167 0.00755322
0.00502022 0.26949 0.00836194
0.005066 0.273686 0.00843824
0.267628 0.343633 0.0111696
0.651911 0.282231 0.0129549
0.674662 0.176944 0.0109255
0.00724804 0.560189 0.0167849
0.00738537 0.569924 0.0188602
0.0130465 0.582605 0.0241703
0.644984 0.69073 0.0800336
0.893416 0.627543 0.0841993
0.00920119 0.723293 0.0487068
0.00920119 0.723293 0.0487068
0.009308 0.7234 0.0487068
0.241627 0.788647 0.0968338
0.924422 0.895048 0.186725
0.0260166 0.0111849 0.363607
0.073518 0.00663767 0.3691
0.358114 0.0090486 0.297795
0.562356 0.00914015 0.155306
0.585657 0.00860609 0.0890974
0.0154879 0.0814374 0.355291
0.0561532 0.0643626 0.371176
0.357763 0.0222782 0.314427
0.564202 0.00921645 0.15845
0.585229 0.00860609 0.102174
0.00758373 0.237736 0.264469
0.00790417 0.241962 0.269306
0.285145 0.337163 0.321675
0.655879 0.191089 0.135271
0.640772 0.0701305 0.0352941
0.0087129 0.570062 0.151751
0.00907912 0.581369 0.163973
0.0130922 0.568292 0.111849
0.629038 0.665812 0.170626
0.878752 0.564157 0.102449
0.00933852 0.725307 0.0579538
0.00933852 0.72639 0.0629129
0.00933852 0.725277 0.0575418
0.22211 0.786145 0.0957809
0.923201 0.894301 0.186191
0.0659953 0.029984 0.574762
0.0797436 0.011017 0.575387
0.272709 0.0107118 0.613809
0.578531 0.0115969 0.502968
0.618875 0.010544 0.42974
0.0685588 0.114916 0.585061
0.0822309 0.0925612 0.584329
0.264897 0.0162356 0.618189
0.582238 0.0117647 0.509606
0.621881 0.0107271 0.449409
0.0236362 0.308888 0.557321
0.0232242 0.313573 0.561532
0.22446 0.330434 0.62562
0.647959 0.282979 0.611612
0.71812 0.1019 0.451774
0.0131533 0.503639 0.514122
0.0135042 0.514672 0.523827
0.0502174 0.532143 0.534981
0.584649 0.668925 0.621881
0.890074 0.382925 0.36817
0.0466163 0.767208 0.507134
0.0494392 0.767834 0.523598
0.0477302 0.767422 0.51339
0.121309 0.80885 0.327062
0.954223 0.937362 0.388128
0.0659953 0.0298924 0.575204
0.0730755 0.01355 0.573098
0.253834 0.0106661 0.62121
0.561242 0.0121462 0.536477
0.630304 0.0112001 0.495201
0.0687572 0.0903182 0.583505
0.0759442 0.0764019 0.582986
0.250645 0.0129702 0.623056
0.570382 0.0121157 0.532296
0.630304 0.0112001 0.495201
0.0285801 0.311788 0.5897
0.026276 0.315435 0.588922
0.207385 0.313054 0.657389
0.58703 0.269993 0.712627
0.745266 0.127794 0.580957
0.0138705 0.488258 0.60032
0.0141146 0.498375 0.603067
0.0493019 0.509133 0.618738
0.47837 0.618845 0.815763
0.942214 0.512779 0.783291
0.0660868 0.735088 0.718669
0.0661936 0.735607 0.719005
0.0662089 0.735607 0.719005
0.37673 0.831708 0.818662
0.973007 0.989563 0.936202
