src/colors/film_stock_&_vintage/low_key_film.cube
TITLE "Generated by Resolve"
LUT_3D_SIZE 5
0 0 0
0 0 0
0.0814221 0.0282292 0.0224308
0.210346 0.0425422 0.0452735
0.376776 0.0443122 0.0654002
0.0505684 0.109728 0.0335241
0.137728 0.134615 0.0352026
0.272465 0.147326 0.0404974
0.438529 0.152087 0.0537118
0.614572 0.154513 0.0697337
0.0441444 0.291325 0.0280156
0.181979 0.306538 0.0299229
0.33051 0.318395 0.0390936
0.488869 0.327276 0.0541848
0.656825 0.332448 0.0828565
0.0745098 0.471092 0.0512093
0.222889 0.483772 0.0618143
0.372457 0.496361 0.0726787
0.522606 0.508995 0.0838178
0.679149 0.519661 0.0985885
0.115358 0.650721 0.084596
0.264195 0.663996 0.0964675
0.414252 0.677089 0.1084
0.564797 0.690181 0.120516
0.714946 0.702983 0.138567
0 0 0
0.019913 0.0120394 0.0117189
0.106661 0.0375982 0.0527047
0.236851 0.049134 0.095964
0.399207 0.0482643 0.13463
0.0538796 0.122255 0.0933547
0.146395 0.143389 0.112078
0.280537 0.155184 0.13846
0.441825 0.160449 0.163836
0.60676 0.165362 0.189746
0.04477 0.300542 0.138796
0.188327 0.313466 0.148577
0.336919 0.325277 0.159625
0.499794 0.332097 0.184039
0.661799 0.338628 0.218235
0.0809033 0.477958 0.173587
0.229236 0.490608 0.185672
0.378775 0.503166 0.197848
0.528893 0.51577 0.210178
0.688121 0.525338 0.229007
0.121706 0.657496 0.211002
0.270497 0.670726 0.224033
0.420493 0.683803 0.237049
0.571115 0.696788 0.250706
0.720775 0.709438 0.272114
0 0 0
0.0405432 0.0235142 0.0396582
0.133394 0.0447547 0.101015
0.264759 0.0538796 0.157336
0.423835 0.0519875 0.210376
0.0556344 0.132845 0.173312
0.153796 0.150942 0.210315
0.287007 0.163088 0.24004
0.441505 0.169833 0.273045
0.596948 0.176913 0.308461
0.0467231 0.307515 0.268833
0.193713 0.319387 0.280873
0.342382 0.331228 0.292927
0.497856 0.339834 0.322744
0.653635 0.348638 0.353079
0.0864118 0.48394 0.307958
0.23476 0.496605 0.320928
0.384283 0.509163 0.333883
0.534401 0.521782 0.34696
0.698177 0.529274 0.374487
0.127291 0.663508 0.347768
0.276036 0.676738 0.361563
0.426017 0.689799 0.37525
0.577035 0.702556 0.390509
0.726055 0.715358 0.412833
0.00299077 0.00302129 0.00395209
0.0598611 0.033402 0.0860151
0.158022 0.0502785 0.171832
0.293126 0.0556802 0.245777
0.45417 0.0526589 0.306538
0.0556649 0.14081 0.270222
0.159869 0.157259 0.32755
0.29659 0.167346 0.371771
0.451102 0.174716 0.399924
0.598428 0.185809 0.419287
0.0512856 0.312901 0.407675
0.198566 0.324773 0.420569
0.347326 0.33666 0.433356
0.496834 0.348653 0.44625
0.645243 0.360037 0.472892
0.0914321 0.489403 0.44918
0.239765 0.502098 0.462776
0.389334 0.514687 0.476326
0.539437 0.527321 0.489937
0.69575 0.536645 0.522347
0.132418 0.669047 0.490776
0.281163 0.682292 0.505119
0.431144 0.695354 0.519356
0.582956 0.707866 0.535134
0.731182 0.721157 0.555673
0.0156558 0.0161135 0.0398718
0.0775769 0.0416724 0.152392
0.180484 0.0542611 0.262501
0.315923 0.0558175 0.353353
0.482963 0.0513313 0.431815
0.0550546 0.148394 0.38703
0.164736 0.162402 0.46186
0.30454 0.170825 0.517388
0.455848 0.179507 0.543984
0.60499 0.190784 0.557168
0.0556191 0.317861 0.55198
0.203082 0.329778 0.565515
0.351904 0.341711 0.578897
0.501457 0.35375 0.592325
0.651286 0.366003 0.60592
0.0960861 0.49453 0.595346
0.244465 0.507256 0.609461
0.394003 0.51986 0.623468
0.544137 0.532525 0.637552
0.694453 0.545312 0.651774
0.137209 0.674235 0.638407
0.285924 0.68751 0.653193
0.436423 0.70045 0.667674
0.589105 0.712947 0.681697
0.73637 0.727031 0.697429
