src/colors/film_stock_&_vintage/low_key_film.cube
TITLE "Generated by Resolve"
LUT_3D_SIZE 33
0 0 0
0 0 0
0 0 0
0 0 0
0 0 0
0 0 0
0 0 0
0 0 0
0 0 0
0.00642405 0.0037995 0.00195315
0.0149386 0.00798047 0.00468452
0.0241855 0.0119326 0.00755322
0.0340887 0.0156863 0.0104982
0.0448005 0.0191806 0.0134737
0.0562753 0.0224155 0.0164645
0.0684825 0.0254368 0.0194553
0.0814221 0.0282292 0.0224308
0.0951247 0.0307774 0.0254063
0.109529 0.0330968 0.028336
0.124651 0.0352026 0.0312505
0.140475 0.0370947 0.0341344
0.156954 0.0387732 0.0369726
0.174121 0.040238 0.0397803
0.191913 0.041474 0.0425422
0.210346 0.0425422 0.0452735
0.229358 0.0433967 0.0479591
0.248951 0.0440528 0.0505837
0.269093 0.0445411 0.0531777
0.289754 0.0448463 0.0557259
0.310887 0.0449683 0.0582284
0.332479 0.0449226 0.0606699
0.354467 0.0446937 0.0630655
0.376776 0.0443122 0.0654002
0 0 0
0 0 0
0 0 0
0 0 0
0 0 0
0.00105287 0.000915541 0.000350958
0.0078584 0.0056611 0.00274662
0.0152743 0.0101778 0.00538643
0.0234073 0.0144808 0.00816358
0.0321813 0.0185702 0.0109865
0.0417334 0.0224155 0.0138247
0.0519875 0.0260319 0.0166629
0.0629892 0.0294194 0.019501
0.0747234 0.032578 0.0223392
0.0871748 0.0355077 0.0251316
0.100359 0.0382086 0.0279088
0.114244 0.0406958 0.0306554
0.128817 0.0429694 0.0333715
0.144076 0.0450141 0.0360418
0.160006 0.0468452 0.0386816
0.176577 0.0484932 0.0412909
0.193774 0.049897 0.0438544
0.211582 0.051133 0.0463722
0.229969 0.0521553 0.0488594
0.24892 0.0530098 0.0513008
0.268391 0.0536507 0.0536965
0.288365 0.054139 0.0560311
0.308797 0.0544289 0.0583505
0.329625 0.0545357 0.0605936
0.350805 0.0544747 0.0627756
0.372198 0.0542458 0.0648814
0.392325 0.0535897 0.0666209
0.41445 0.0530709 0.0686503
0 0 0
0 0 0
0.00273136 0.00270085 0.00105287
0.00834669 0.00779736 0.00337224
0.0146639 0.0126497 0.00590524
0.0216831 0.0172885 0.00852979
0.0293584 0.0217288 0.0112154
0.0376898 0.0259556 0.0139162
0.0467384 0.0299382 0.0165866
0.0565194 0.0337072 0.0192569
0.0670176 0.0372473 0.021912
0.0782483 0.0405585 0.0245212
0.0901808 0.0436561 0.0271153
0.102831 0.0465248 0.0296635
0.116167 0.0491798 0.0321965
0.13019 0.051606 0.0346838
0.144869 0.0538338 0.0371252
0.16022 0.0558328 0.0395209
0.176196 0.0576333 0.0419013
0.192782 0.0592355 0.0442359
0.209964 0.0606394 0.0465248
0.22771 0.0618296 0.0487678
0.245991 0.0628519 0.0509651
0.26479 0.0636759 0.0531167
0.284062 0.0643015 0.0552377
0.303746 0.0647746 0.0572976
0.323781 0.0650187 0.0592966
0.343984 0.065095 0.0611887
0.36321 0.0646982 0.0627604
0.384512 0.0645457 0.064683
0.406531 0.0643168 0.0666361
0.429175 0.0639811 0.0686046
0.452308 0.0635691 0.0705882
0.00817884 0.0102235 0.00422675
0.0132296 0.0154421 0.00663767
0.0188907 0.0204623 0.0090486
0.0251469 0.02533 0.0113527
0.0321355 0.0299382 0.0136263
0.0400244 0.0343023 0.0159915
0.0487373 0.0384222 0.0184787
0.0580606 0.0423285 0.0209964
0.0681163 0.0460059 0.0234684
0.0788739 0.0494545 0.0259098
0.0903029 0.0527047 0.0283055
0.102449 0.0557107 0.0306706
0.115251 0.0585336 0.0329747
0.128725 0.0611124 0.0352483
0.142855 0.0634928 0.0374762
0.157641 0.0656596 0.0396735
0.173037 0.067628 0.041825
0.189029 0.0693828 0.0439155
0.2056 0.0709544 0.0459907
0.222736 0.0723125 0.0480201
0.240375 0.0734874 0.0499886
0.258503 0.0744488 0.0519265
0.277058 0.075227 0.0538033
0.295949 0.0758068 0.0556191
0.314931 0.076112 0.0573281
0.333486 0.0760662 0.058793
0.353887 0.0762493 0.0605783
0.37496 0.0763561 0.0623789
0.396597 0.0763714 0.06421
0.418784 0.0762798 0.0660563
0.441398 0.0760967 0.0679026
0.464469 0.0758068 0.0697642
0.48809 0.0754101 0.0716106
0.0207675 0.0290074 0.0122225
0.0265049 0.0339971 0.0144198
0.0328527 0.0388037 0.0165255
0.0398871 0.0434272 0.0185092
0.0475624 0.0478523 0.0203708
0.0560311 0.0520333 0.0221714
0.0654612 0.0559243 0.0240635
0.0757 0.0595407 0.026154
0.0868391 0.0628824 0.0283207
0.0986496 0.0659953 0.0305333
0.111086 0.0688945 0.0327001
0.124132 0.0716106 0.0348211
0.137819 0.0741131 0.0368963
0.152102 0.0764172 0.0389105
0.166964 0.0785077 0.0408789
0.182437 0.080415 0.0428016
0.198444 0.0820935 0.0446784
0.214984 0.0835889 0.0465095
0.231998 0.0848859 0.0482795
0.249454 0.0859846 0.0500191
0.267247 0.0868391 0.051667
0.284276 0.087129 0.0529946
0.303014 0.0877089 0.0545968
0.322499 0.0882124 0.05626
0.342611 0.0886397 0.0579385
0.363302 0.0889906 0.0596323
0.384497 0.0892195 0.061326
0.40618 0.0893568 0.0630503
0.428428 0.0893416 0.0647288
0.45095 0.0892805 0.0664836
0.473838 0.0891432 0.0682383
0.497093 0.0889296 0.0700236
0.520638 0.0886397 0.071809
0.0310521 0.0484321 0.0193179
0.0375525 0.053193 0.0211337
0.0447089 0.0577707 0.0228428
0.0525368 0.0621347 0.0244144
0.0609903 0.0663157 0.025864
0.0700999 0.0702983 0.0271916
0.0800183 0.0740215 0.0284581
0.0908522 0.0774548 0.0298161
0.102632 0.0805982 0.0313878
0.115389 0.0833906 0.0331426
0.128847 0.0859388 0.0350042
0.142901 0.088304 0.0368963
0.157473 0.0904402 0.0387579
0.172564 0.0924239 0.0405737
0.188159 0.0941787 0.0423133
0.204196 0.0957504 0.0440223
0.220661 0.0971237 0.0456397
0.2374 0.0982071 0.0471809
0.253666 0.0987716 0.0484474
0.27158 0.0996719 0.0499886
0.290196 0.100511 0.051545
0.309392 0.101259 0.0531319
0.329137 0.101884 0.0547189
0.349401 0.102434 0.0562905
0.370153 0.102861 0.0578927
0.391455 0.103166 0.0594797
0.413062 0.10341 0.0611124
0.435065 0.103548 0.0627604
0.45742 0.103609 0.0644236
0.48011 0.103593 0.0661173
0.50309 0.103502 0.0678264
0.526345 0.103349 0.0695659
0.549813 0.103151 0.0713512
0.0392462 0.068452 0.0251774
0.0465553 0.0729686 0.0265812
0.0545357 0.0772717 0.0278782
0.0631723 0.0813764 0.0290379
0.0724346 0.0852979 0.0300755
0.0823377 0.0890211 0.0309911
0.0928359 0.092546 0.0317845
0.104051 0.0958267 0.0325322
0.116167 0.0988327 0.0333867
0.129412 0.101427 0.0344091
0.143557 0.103716 0.0356603
0.158404 0.105699 0.0371252
0.173785 0.107454 0.0386816
0.189593 0.10898 0.0402533
0.20528 0.110033 0.0416724
0.221424 0.110979 0.0430762
0.238651 0.112169 0.0446021
0.256489 0.113283 0.0461433
0.274861 0.11429 0.0476844
0.293782 0.115206 0.0492256
0.313207 0.11603 0.0507515
0.333089 0.116732 0.0522927
0.353521 0.117327 0.0538033
0.374289 0.117815 0.0553597
0.395422 0.118242 0.0569314
0.416968 0.118563 0.0585184
0.438834 0.118807 0.0601205
0.461021 0.118975 0.0617533
0.483482 0.119066 0.0634318
0.506188 0.119112 0.0651255
0.529107 0.119112 0.066865
0.552193 0.119051 0.0686503
0.575433 0.118959 0.0704814
0.0456397 0.0889448 0.0298619
0.0538033 0.0931716 0.030869
0.0626078 0.0972152 0.0317388
0.0720531 0.101045 0.0325017
0.0821088 0.104677 0.0331579
0.0927596 0.10811 0.0336767
0.10396 0.11136 0.0340887
0.115679 0.114397 0.0344091
0.128023 0.117205 0.034699
0.141436 0.119615 0.0350042
0.155688 0.121584 0.0354925
0.170077 0.122744 0.0360266
0.186007 0.124224 0.0370489
0.202747 0.125628 0.0383307
0.220096 0.126925 0.0397498
0.23798 0.128115 0.0412604
0.256352 0.129229 0.0428016
0.275166 0.130236 0.0443427
0.294453 0.131136 0.0458534
0.314122 0.13196 0.0474098
0.334188 0.132692 0.0489662
0.35462 0.133333 0.0505226
0.375433 0.133883 0.0520943
0.396597 0.134356 0.053666
0.418051 0.134752 0.0552834
0.439796 0.135073 0.0569314
0.461814 0.135317 0.0585794
0.484047 0.135515 0.0603037
0.506477 0.135683 0.0620584
0.529061 0.135805 0.063859
0.551751 0.135882 0.0657206
0.574517 0.135958 0.0676585
0.59733 0.136034 0.0696422
0.0505684 0.109728 0.0335241
0.0596017 0.113649 0.0341497
0.0692454 0.117372 0.0346532
0.0794842 0.120882 0.0350652
0.0903029 0.124178 0.0353399
0.101656 0.12726 0.0354925
0.113481 0.130114 0.0355688
0.125643 0.132677 0.0354925
0.137728 0.134615 0.0352026
0.151385 0.13695 0.0350652
0.166094 0.139086 0.0350652
0.181827 0.140993 0.0352941
0.198505 0.142657 0.0358129
0.216022 0.144091 0.0366369
0.234287 0.145312 0.0377356
0.253162 0.14638 0.0390326
0.272465 0.147326 0.0404974
0.292165 0.14818 0.0420539
0.312215 0.148928 0.0436713
0.332601 0.14963 0.045304
0.353231 0.150256 0.0469368
0.374197 0.15079 0.0485847
0.395407 0.151278 0.0502632
0.416861 0.15172 0.0519722
0.438529 0.152087 0.0537118
0.460288 0.152453 0.0553902
0.482185 0.152789 0.0570993
0.504311 0.153048 0.0589609
0.526543 0.153292 0.0608682
0.548821 0.153506 0.0628672
0.571115 0.15375 0.0649424
0.593393 0.153979 0.0671092
0.614572 0.154513 0.0697337
0.0534371 0.130907 0.0356298
0.0632639 0.134478 0.035874
0.0736706 0.137819 0.0360113
0.0845808 0.140887 0.0360113
0.0955673 0.143145 0.0357214
0.107469 0.145815 0.0355535
0.119997 0.148547 0.0353552
0.133059 0.151232 0.0351415
0.146593 0.153841 0.0348821
0.160952 0.156283 0.0345312
0.176089 0.158541 0.0341955
0.192157 0.160525 0.0339666
0.209201 0.162264 0.0339361
0.2271 0.163729 0.0342412
0.245792 0.164981 0.0348669
0.265217 0.165988 0.0358282
0.285206 0.166842 0.0370794
0.305638 0.167559 0.038529
0.326421 0.168154 0.0401465
0.347463 0.168704 0.041886
0.368719 0.169177 0.0437018
0.390204 0.169635 0.0455634
0.411795 0.170016 0.0474556
0.433539 0.170397 0.0494087
0.45539 0.170733 0.0514076
0.477333 0.171054 0.0534676
0.499321 0.171359 0.0556039
0.52134 0.171649 0.0578164
0.543313 0.171984 0.06009
0.563714 0.172686 0.0631266
0.583535 0.173571 0.0664073
0.603281 0.174472 0.0697337
0.622965 0.175402 0.0730602
0.05449 0.15198 0.0363622
0.0647135 0.154421 0.0360266
0.0758068 0.157473 0.0358434
0.087541 0.160494 0.0356298
0.0998398 0.163424 0.0353552
0.112703 0.166262 0.03505
0.126101 0.169009 0.034699
0.139971 0.171633 0.0343023
0.154253 0.174212 0.033875
0.169329 0.176577 0.0333867
0.18497 0.17879 0.0328527
0.201328 0.180835 0.0323339
0.218524 0.18262 0.0319829
0.236591 0.184161 0.0318608
0.255451 0.185458 0.0320439
0.27509 0.186511 0.0325475
0.295369 0.187366 0.0334173
0.316197 0.188037 0.034638
0.337423 0.188586 0.0361334
0.358953 0.189029 0.0378729
0.380682 0.18941 0.0397955
0.402533 0.189746 0.0418555
0.424445 0.190082 0.0440375
0.446403 0.190387 0.0462959
0.468315 0.190707 0.0486305
0.489998 0.191089 0.051194
0.510277 0.191821 0.0545968
0.530343 0.192599 0.0580606
0.550317 0.193439 0.0615396
0.570214 0.194293 0.0650187
0.590082 0.195148 0.0684977
0.609888 0.196063 0.0719768
0.629648 0.196979 0.0754559
0.0539254 0.172778 0.0358587
0.0653849 0.175982 0.0355535
0.0774395 0.179095 0.0352178
0.0900435 0.182101 0.0348211
0.103212 0.18497 0.0343938
0.116854 0.187732 0.0338903
0.131044 0.190372 0.033402
0.145663 0.192905 0.0328985
0.160632 0.195346 0.0324102
0.176394 0.197604 0.0318303
0.192645 0.199725 0.0312352
0.209369 0.201724 0.0306096
0.226719 0.203555 0.0300603
0.244846 0.205158 0.0296788
0.263752 0.206516 0.0295415
0.28336 0.20766 0.0297246
0.30367 0.208576 0.0302739
0.324514 0.209308 0.0311742
0.345876 0.209873 0.0324712
0.36759 0.2103 0.0341344
0.389502 0.210666 0.0360876
0.411551 0.210971 0.0383001
0.433097 0.211368 0.0411536
0.45388 0.211933 0.0446937
0.474495 0.212543 0.0483253
0.494972 0.213214 0.0519875
0.515312 0.213931 0.0556497
0.535531 0.214694 0.0592813
0.555688 0.215473 0.0629129
0.575769 0.216281 0.0665599
0.595773 0.217121 0.0701915
0.615717 0.218006 0.0738079
0.635615 0.218906 0.0773938
0.0528572 0.195514 0.0349584
0.0652323 0.198642 0.0344854
0.0781109 0.201648 0.0339513
0.0915847 0.204517 0.0334325
0.105562 0.207248 0.0328679
0.120043 0.209873 0.0323186
0.134951 0.212375 0.0317388
0.150256 0.214786 0.0311742
0.16585 0.217105 0.0306554
0.182223 0.219257 0.0300603
0.199054 0.221256 0.0294804
0.216297 0.223148 0.0289006
0.233921 0.224948 0.0283513
0.252094 0.226581 0.0278935
0.270954 0.228016 0.0276341
0.290455 0.229236 0.0276646
0.310567 0.230259 0.0280003
0.331258 0.231098 0.0287327
0.352438 0.231754 0.0298619
0.373373 0.23238 0.0321813
0.394324 0.232959 0.0350958
0.41532 0.233509 0.0383001
0.436286 0.234043 0.0417029
0.457206 0.234607 0.0452735
0.47805 0.235187 0.0489357
0.498772 0.235798 0.0526741
0.519402 0.236439 0.0564431
0.53991 0.237125 0.0602274
0.560296 0.237858 0.0640269
0.580575 0.238636 0.0677653
0.600778 0.239414 0.071519
0.620905 0.240238 0.0752728
0.640986 0.241093 0.0790112
0.0510109 0.218997 0.033463
0.0643015 0.221942 0.0328832
0.0780957 0.224781 0.0322881
0.0923781 0.227481 0.0316777
0.107149 0.230045 0.0310674
0.122377 0.232517 0.0304723
0.137987 0.234882 0.0299077
0.153948 0.237156 0.0293584
0.170153 0.239353 0.0289006
0.187091 0.241337 0.0283818
0.20444 0.243244 0.0278935
0.222141 0.245029 0.027451
0.240192 0.246723 0.0270695
0.258503 0.248341 0.0267491
0.277272 0.249836 0.026566
0.296559 0.251133 0.0267796
0.316045 0.252277 0.0281071
0.335866 0.253285 0.0297704
0.356023 0.2542 0.031754
0.376471 0.254994 0.0340429
0.397131 0.255711 0.0366369
0.41799 0.256352 0.0395361
0.438956 0.256947 0.04271
0.459968 0.257511 0.0460975
0.480964 0.258076 0.0496529
0.501915 0.258656 0.0533455
0.522774 0.259251 0.0571145
0.543526 0.259892 0.0609598
0.564187 0.260548 0.0648203
0.584741 0.26125 0.0687114
0.605188 0.261982 0.0725872
0.625528 0.26276 0.0764477
0.645777 0.263569 0.0802777
0.0487678 0.242893 0.0316625
0.0629129 0.24567 0.0310216
0.0775769 0.248295 0.0304112
0.092668 0.250828 0.0297856
0.108217 0.253223 0.029221
0.124132 0.255528 0.0286717
0.140429 0.25771 0.0281834
0.157015 0.259831 0.0277562
0.17377 0.261891 0.0274357
0.191241 0.263752 0.0271
0.209064 0.265522 0.0268101
0.227207 0.267216 0.0266117
0.245609 0.268757 0.0269932
0.264134 0.270207 0.027985
0.282673 0.271672 0.0290379
0.301442 0.27306 0.0301671
0.320531 0.274342 0.0314488
0.339971 0.275532 0.032929
0.359747 0.2766 0.034638
0.379828 0.277562 0.0366064
0.400183 0.278416 0.0388647
0.420813 0.279194 0.041413
0.441581 0.279896 0.0442359
0.462531 0.280522 0.0473335
0.483558 0.281117 0.0506752
0.504601 0.281712 0.0542
0.525612 0.282292 0.0578775
0.546578 0.282887 0.0616464
0.567452 0.283513 0.0655222
0.588251 0.284153 0.0694438
0.608927 0.28484 0.0733959
0.629511 0.285542 0.077348
0.650019 0.28629 0.0813153
0.0463417 0.267079 0.0297398
0.061387 0.269627 0.0291447
0.0768749 0.272053 0.0285801
0.0927749 0.274388 0.0280766
0.109041 0.276585 0.0276036
0.125673 0.278691 0.0272221
0.142611 0.28072 0.0269169
0.159792 0.282689 0.0267185
0.177081 0.284596 0.0266423
0.195346 0.286152 0.0274205
0.213794 0.287633 0.0284581
0.232303 0.289097 0.0295262
0.250828 0.290578 0.0306096
0.269413 0.292042 0.0317082
0.287984 0.293507 0.0328374
0.306584 0.294972 0.0339666
0.325368 0.296391 0.0351568
0.344472 0.297704 0.0364843
0.363882 0.298924 0.037995
0.383612 0.300038 0.039704
0.403647 0.301045 0.0416724
0.423941 0.301961 0.0438849
0.44448 0.302785 0.0463722
0.465217 0.303532 0.049134
0.486091 0.304234 0.0521401
0.507118 0.30486 0.0554208
0.528176 0.30547 0.0588846
0.549233 0.306065 0.0625162
0.57026 0.306676 0.0663005
0.591241 0.307286 0.070161
0.612146 0.307927 0.0741131
0.632944 0.308583 0.0781109
0.653666 0.30927 0.0821241
0.0441444 0.291325 0.0280156
0.0600748 0.293645 0.0275425
0.0763867 0.295842 0.0271458
0.09308 0.297963 0.0268254
0.110094 0.299962 0.0265965
0.127565 0.301823 0.026688
0.145769 0.30338 0.0276646
0.163943 0.304936 0.0287633
0.181979 0.306538 0.0299229
0.200427 0.308034 0.0310369
0.218921 0.309529 0.0321508
0.237476 0.311009 0.0332799
0.256046 0.312474 0.0344244
0.274632 0.313939 0.0355688
0.293233 0.315435 0.0367285
0.311879 0.316915 0.0379187
0.33051 0.318395 0.0390936
0.34931 0.319829 0.0403296
0.368414 0.321187 0.0416876
0.387823 0.322438 0.0432288
0.407507 0.323583 0.0449378
0.427466 0.324651 0.0468605
0.4477 0.325612 0.0490425
0.468177 0.326482 0.0514839
0.488869 0.327276 0.0541848
0.509667 0.328023 0.0571145
0.530648 0.328695 0.0603037
0.551705 0.329335 0.0637064
0.572808 0.329946 0.0673075
0.593881 0.330556 0.0710307
0.614923 0.331167 0.0748913
0.63592 0.331807 0.0788434
0.656825 0.332448 0.0828565
0.0426337 0.31545 0.0268101
0.0594339 0.317525 0.0265812
0.0771954 0.319265 0.0269932
0.0955825 0.320775 0.027985
0.113985 0.322255 0.0290379
0.132372 0.323781 0.0301213
0.150729 0.325292 0.0312505
0.168978 0.326863 0.0324407
0.18706 0.328466 0.0336614
0.205539 0.329976 0.0348211
0.224079 0.331472 0.035996
0.242634 0.332967 0.0371557
0.261234 0.334462 0.0383459
0.279866 0.335958 0.0395209
0.298482 0.337438 0.0407263
0.317143 0.338933 0.0419318
0.33579 0.340429 0.0431373
0.354452 0.341924 0.044358
0.373281 0.343389 0.0456245
0.392386 0.344762 0.0470283
0.41178 0.346029 0.0485542
0.431418 0.347234 0.0502785
0.451347 0.348318 0.0522011
0.471519 0.349325 0.0543374
0.49192 0.350256 0.056733
0.512535 0.351095 0.0593576
0.533333 0.351873 0.0622416
0.554223 0.352605 0.0653239
0.57525 0.353277 0.0686656
0.596353 0.353933 0.0722057
0.617456 0.354543 0.0758984
0.638544 0.355169 0.0797131
0.659602 0.35581 0.0836652
0.0448157 0.338323 0.0283818
0.063386 0.339773 0.0294041
0.0819257 0.341253 0.030457
0.100435 0.342733 0.0315557
0.118914 0.344228 0.0326848
0.137362 0.345739 0.0338293
0.155749 0.34728 0.0350042
0.174029 0.348852 0.0362249
0.192157 0.350469 0.0375067
0.210651 0.35198 0.0386969
0.229206 0.353491 0.0399023
0.247822 0.355001 0.0411078
0.266423 0.356512 0.0423285
0.285069 0.358007 0.0435492
0.303716 0.359533 0.04477
0.322377 0.361028 0.0459907
0.341054 0.362539 0.0472267
0.359747 0.36405 0.0484932
0.378424 0.36556 0.0497292
0.397269 0.367041 0.0510414
0.416373 0.368444 0.0524605
0.435737 0.369741 0.0540017
0.455344 0.370962 0.0557107
0.475242 0.372091 0.0576333
0.495354 0.373144 0.0597543
0.515694 0.374105 0.062089
0.536233 0.375006 0.0646677
0.556985 0.375814 0.0674907
0.577798 0.376608 0.0704814
0.59881 0.377295 0.0737621
0.619898 0.377981 0.0772259
0.641001 0.378637 0.0808728
0.66212 0.379278 0.0846418
0.0496071 0.360327 0.0319524
0.0682231 0.361776 0.0330358
0.0868238 0.363256 0.0341497
0.105379 0.364752 0.0352941
0.123903 0.366247 0.0364538
0.142367 0.367773 0.037644
0.1608 0.369329 0.0388647
0.17911 0.370901 0.040116
0.197253 0.372549 0.0414282
0.215778 0.374075 0.042649
0.234363 0.375601 0.0438849
0.252979 0.377127 0.0451209
0.271611 0.378637 0.0463569
0.290272 0.380163 0.0476081
0.308934 0.381674 0.0488594
0.327611 0.383185 0.0501106
0.346319 0.38471 0.0513771
0.364996 0.386236 0.0526436
0.383719 0.387762 0.0539254
0.402426 0.389288 0.0552224
0.421271 0.390784 0.0565499
0.440375 0.392187 0.057969
0.459724 0.39353 0.059556
0.479316 0.394766 0.0612497
0.499138 0.395941 0.0631723
0.519203 0.397024 0.0652476
0.539498 0.398032 0.0675669
0.559991 0.398962 0.0700847
0.580667 0.399832 0.0728313
0.60148 0.400626 0.0758068
0.622385 0.401389 0.0789807
0.643442 0.402106 0.0823682
0.664546 0.402762 0.0859388
0.05449 0.382361 0.0356451
0.073167 0.383825 0.0367895
0.0917983 0.385321 0.0379339
0.110384 0.386831 0.0391089
0.128923 0.388342 0.0403143
0.147433 0.389868 0.0415351
0.165866 0.39144 0.0427863
0.184192 0.393027 0.0440681
0.202365 0.394675 0.0454108
0.22092 0.396231 0.0466621
0.239521 0.397757 0.0479133
0.258152 0.399298 0.0491798
0.276799 0.400824 0.0504463
0.295476 0.40235 0.0517128
0.314153 0.403876 0.0529946
0.332845 0.405402 0.0542763
0.351553 0.406943 0.0555581
0.37026 0.408469 0.0568551
0.388968 0.410025 0.0581521
0.407706 0.411551 0.0594644
0.426444 0.413092 0.0607767
0.445289 0.414603 0.0621347
0.464393 0.416037 0.0635843
0.483711 0.41738 0.0651713
0.503288 0.418662 0.0668956
0.523079 0.419852 0.0687877
0.543099 0.420981 0.0708629
0.563333 0.422019 0.0731212
0.583764 0.422995 0.0756085
0.604364 0.423896 0.078294
0.625147 0.424735 0.0812085
0.645975 0.425544 0.0843061
0.666987 0.426291 0.0876326
0.0594492 0.404456 0.0394446
0.0781415 0.405936 0.0406043
0.096788 0.407431 0.0417945
0.115404 0.408957 0.0430152
0.133974 0.410483 0.0442359
0.152499 0.412039 0.0454871
0.170947 0.413611 0.0467536
0.189303 0.415213 0.0480659
0.207492 0.416876 0.0494392
0.226062 0.418433 0.050721
0.244663 0.419974 0.0520027
0.26331 0.421515 0.0532845
0.281987 0.423056 0.0545663
0.300664 0.424598 0.0558785
0.319356 0.426139 0.0571756
0.338064 0.42768 0.0584726
0.356771 0.429221 0.0597696
0.375509 0.430762 0.0610971
0.394232 0.432319 0.0624247
0.41297 0.433875 0.0637522
0.431708 0.435431 0.065095
0.450462 0.436973 0.0664225
0.469322 0.438483 0.0678111
0.488426 0.439933 0.069276
0.507729 0.441321 0.0708782
0.527276 0.442618 0.0726024
0.547036 0.443839 0.0744793
0.567025 0.444999 0.0765393
0.587198 0.446067 0.0787823
0.607569 0.447089 0.0812238
0.628122 0.448035 0.0838788
0.648829 0.448905 0.086717
0.669673 0.449729 0.0897841
0.0644541 0.426612 0.0433051
0.0831464 0.428107 0.0444953
0.101823 0.429618 0.045716
0.120455 0.431144 0.046952
0.139025 0.432685 0.0482185
0.157565 0.434256 0.0495003
0.176059 0.435843 0.0507973
0.194415 0.437446 0.0521248
0.212604 0.439124 0.0535286
0.231205 0.440696 0.0548257
0.249821 0.442252 0.0561379
0.268467 0.443809 0.0574502
0.28716 0.44535 0.0587472
0.305852 0.446906 0.0600595
0.324575 0.448447 0.061387
0.343297 0.450004 0.0627146
0.36202 0.45156 0.0640421
0.380743 0.453117 0.0653849
0.399496 0.454673 0.0667277
0.418235 0.45623 0.0680705
0.436973 0.457801 0.0694285
0.455741 0.459358 0.0707866
0.474495 0.460914 0.0721447
0.49337 0.46244 0.0735485
0.512474 0.46392 0.0750439
0.531762 0.465309 0.0766613
0.551293 0.466636 0.0783856
0.571008 0.467903 0.0802625
0.590936 0.469078 0.0823072
0.611078 0.470192 0.084535
0.631418 0.471214 0.0869306
0.651911 0.472206 0.0895399
0.672557 0.473121 0.0923323
0.0694743 0.448814 0.0472267
0.0881971 0.45034 0.0484474
0.106874 0.45185 0.0496986
0.125521 0.453391 0.0509651
0.144106 0.454948 0.0522316
0.162676 0.456519 0.0535592
0.181155 0.458122 0.0548867
0.199527 0.459739 0.0562448
0.217746 0.461418 0.0576486
0.236347 0.463004 0.0589914
0.254978 0.464576 0.0603189
0.273655 0.466133 0.0616312
0.292348 0.467689 0.062974
0.311055 0.469261 0.0643015
0.329763 0.470802 0.0656443
0.348501 0.472374 0.0669871
0.367224 0.47393 0.0683452
0.385992 0.475517 0.0697032
0.40473 0.477073 0.0710613
0.423484 0.47863 0.0724193
0.442237 0.480217 0.0737926
0.461006 0.481788 0.0751812
0.479774 0.48336 0.0765545
0.498543 0.484947 0.0779431
0.517433 0.486488 0.0793774
0.536538 0.487953 0.0808881
0.55581 0.489357 0.0825055
0.575326 0.490715 0.0842298
0.59501 0.491997 0.0861219
0.614908 0.493202 0.0881514
0.634989 0.494347 0.0903487
0.655268 0.49543 0.0927138
0.6757 0.496437 0.0952773
0.0745098 0.471092 0.0512093
0.0932479 0.472602 0.0524605
0.11194 0.474144 0.053727
0.130587 0.4757 0.055024
0.149203 0.477256 0.0563211
0.167758 0.478843 0.0576486
0.186267 0.480446 0.0590066
0.204654 0.482078 0.0603799
0.222889 0.483772 0.0618143
0.241489 0.485359 0.0631571
0.260136 0.486931 0.0645151
0.278828 0.488518 0.0658579
0.29752 0.490074 0.067216
0.316243 0.491661 0.068574
0.334981 0.493217 0.0699321
0.353719 0.494789 0.0713054
0.372457 0.496361 0.0726787
0.391211 0.497932 0.0740368
0.409979 0.499519 0.0754253
0.428733 0.501091 0.0768139
0.447501 0.502678 0.0782025
0.466285 0.50425 0.0796063
0.485054 0.505821 0.0810101
0.503838 0.507408 0.082414
0.522606 0.508995 0.0838178
0.541512 0.510567 0.0852674
0.560601 0.512062 0.0867933
0.579873 0.513481 0.088426
0.599359 0.514855 0.0901656
0.619013 0.516152 0.0920424
0.63888 0.517388 0.0940566
0.65893 0.518547 0.0962387
0.679149 0.519661 0.0985885
0.0795758 0.4934 0.0552377
0.0983139 0.494926 0.0565042
0.117021 0.496468 0.0578012
0.135683 0.498039 0.0591135
0.154299 0.499611 0.060441
0.172885 0.501213 0.061799
0.191394 0.502815 0.0631723
0.209796 0.504463 0.0645762
0.228016 0.506157 0.0660258
0.246647 0.507759 0.0673991
0.265309 0.509346 0.0687572
0.284001 0.510933 0.0701305
0.302708 0.512505 0.0715038
0.321447 0.514092 0.0728923
0.340169 0.515663 0.0742657
0.358923 0.51725 0.0756542
0.377676 0.518837 0.0770275
0.396445 0.520409 0.0784314
0.415213 0.521996 0.0798199
0.433967 0.523583 0.081239
0.452766 0.52517 0.0826276
0.471534 0.526757 0.0840467
0.490318 0.528344 0.0854658
0.509102 0.529946 0.0868849
0.527886 0.531533 0.0883192
0.546685 0.533135 0.0897536
0.565591 0.534691 0.0912184
0.58468 0.536217 0.0927749
0.603952 0.537652 0.0944076
0.623407 0.53904 0.0961471
0.643046 0.540368 0.0980392
0.662867 0.541619 0.100038
0.682887 0.542824 0.102205
0.0846571 0.515755 0.0593118
0.103395 0.517296 0.0606088
0.122103 0.518853 0.0619211
0.140795 0.520424 0.0632486
0.159411 0.522011 0.0646067
0.177996 0.523613 0.06598
0.196521 0.525231 0.0673686
