src/colors/film_stock_&_vintage/low_key_film.cube
TITLE "Generated by Resolve"
LUT_3D_SIZE 9
0 0 0
0 0 0
0 0 0
0.0340887 0.0156863 0.0104982
0.0814221 0.0282292 0.0224308
0.140475 0.0370947 0.0341344
0.210346 0.0425422 0.0452735
0.289754 0.0448463 0.0557259
0.376776 0.0443122 0.0654002
0.0207675 0.0290074 0.0122225
0.0475624 0.0478523 0.0203708
0.0868391 0.0628824 0.0283207
0.137819 0.0741131 0.0368963
0.198444 0.0820935 0.0446784
0.267247 0.0868391 0.051667
0.342611 0.0886397 0.0579385
0.428428 0.0893416 0.0647288
0.520638 0.0886397 0.071809
0.0505684 0.109728 0.0335241
0.0903029 0.124178 0.0353399
0.137728 0.134615 0.0352026
0.198505 0.142657 0.0358129
0.272465 0.147326 0.0404974
0.353231 0.150256 0.0469368
0.438529 0.152087 0.0537118
0.526543 0.153292 0.0608682
0.614572 0.154513 0.0697337
0.0528572 0.195514 0.0349584
0.105562 0.207248 0.0328679
0.16585 0.217105 0.0306554
0.233921 0.224948 0.0283513
0.310567 0.230259 0.0280003
0.394324 0.232959 0.0350958
0.47805 0.235187 0.0489357
0.560296 0.237858 0.0640269
0.640986 0.241093 0.0790112
0.0441444 0.291325 0.0280156
0.110094 0.299962 0.0265965
0.181979 0.306538 0.0299229
0.256046 0.312474 0.0344244
0.33051 0.318395 0.0390936
0.407507 0.323583 0.0449378
0.488869 0.327276 0.0541848
0.572808 0.329946 0.0673075
0.656825 0.332448 0.0828565
0.05449 0.382361 0.0356451
0.128923 0.388342 0.0403143
0.202365 0.394675 0.0454108
0.276799 0.400824 0.0504463
0.351553 0.406943 0.0555581
0.426444 0.413092 0.0607767
0.503288 0.418662 0.0668956
0.583764 0.422995 0.0756085
0.666987 0.426291 0.0876326
0.0745098 0.471092 0.0512093
0.149203 0.477256 0.0563211
0.222889 0.483772 0.0618143
0.29752 0.490074 0.067216
0.372457 0.496361 0.0726787
0.447501 0.502678 0.0782025
0.522606 0.508995 0.0838178
0.599359 0.514855 0.0901656
0.679149 0.519661 0.0985885
0.0948348 0.560586 0.0675975
0.169665 0.566934 0.0730602
0.243488 0.573587 0.0788739
0.318273 0.580041 0.0845808
0.393347 0.58645 0.0903029
0.468513 0.592889 0.0961013
0.543725 0.599344 0.101976
0.618982 0.605829 0.107912
0.695644 0.611902 0.114488
0.115358 0.650721 0.084596
0.190265 0.657206 0.0903639
0.264195 0.663996 0.0964675
0.339086 0.670558 0.102419
0.414252 0.677089 0.1084
0.489494 0.683635 0.114427
0.564797 0.690181 0.120516
0.640177 0.696635 0.128038
0.714946 0.702983 0.138567
0 0 0
0 0 0
0.009308 0.00582895 0.0039826
0.0459144 0.0213169 0.0197147
0.0941787 0.0330205 0.0365606
0.153903 0.0411231 0.0533761
0.224109 0.0458228 0.069688
0.303456 0.0474861 0.085069
0.389639 0.0463569 0.0993973
0.025742 0.0365911 0.0231327
0.0539864 0.0544442 0.0361944
0.0936294 0.0686809 0.049958
0.144289 0.079408 0.0630198
0.204791 0.0867628 0.0751965
0.271931 0.0903792 0.0857404
0.349233 0.0925002 0.0965896
0.434928 0.0930037 0.107485
0.526574 0.0922255 0.118166
0.0523995 0.116228 0.0610513
0.0935073 0.129534 0.067277
0.142199 0.139132 0.0710918
0.20621 0.145983 0.0783551
0.279301 0.150515 0.0886702
0.358144 0.15378 0.0984207
0.441947 0.155825 0.108095
0.528664 0.157183 0.11809
0.611551 0.159716 0.129351
0.0528725 0.201266 0.0765087
0.107195 0.212268 0.0782025
0.16875 0.22153 0.0793774
0.237766 0.228855 0.0800488
0.316289 0.23328 0.0836042
0.400107 0.235431 0.0969406
0.481758 0.238132 0.112718
0.561547 0.24152 0.128023
0.640513 0.245304 0.142885
0.0444953 0.296193 0.0806744
0.112444 0.30399 0.0822156
0.185306 0.31014 0.0872663
0.259388 0.31606 0.0923781
0.333852 0.321981 0.0975814
0.411566 0.326879 0.104524
0.494362 0.329915 0.116533
0.578363 0.332326 0.132555
0.660853 0.33518 0.149523
0.0578012 0.385962 0.0937057
0.13225 0.391928 0.098909
0.205676 0.398245 0.104509
0.280095 0.404364 0.110018
0.354833 0.410483 0.115572
0.429709 0.416617 0.121202
0.507012 0.422004 0.128038
0.588602 0.425879 0.138552
0.672724 0.428687 0.153155
0.077821 0.474647 0.110826
0.152514 0.480797 0.116381
0.226169 0.487297 0.122316
0.300801 0.493599 0.128115
0.375708 0.49987 0.133944
0.450752 0.506172 0.139834
0.525841 0.512489 0.145769
0.602869 0.518212 0.152667
0.683513 0.522683 0.162341
0.0981308 0.564111 0.128481
0.172946 0.570443 0.134325
0.246754 0.577081 0.140536
0.321523 0.583505 0.146578
0.396567 0.589914 0.152651
0.471717 0.596338 0.158755
0.546929 0.602792 0.16492
0.622171 0.609262 0.17116
0.699031 0.615244 0.178164
0.118624 0.654215 0.146578
0.193515 0.66067 0.152697
0.26743 0.667445 0.159136
0.34229 0.674006 0.165393
0.417441 0.680522 0.171664
0.492683 0.687053 0.177981
0.568002 0.693568 0.184527
0.643366 0.699931 0.193072
0.717922 0.706264 0.204562
0 0 0
0 0 0
0.019913 0.0120394 0.0117189
0.0577707 0.0265965 0.0315404
0.106661 0.0375982 0.0527047
0.166629 0.0450294 0.0744945
0.236851 0.049134 0.095964
0.315801 0.0502022 0.116457
0.399207 0.0482643 0.13463
0.0303197 0.0438392 0.0381323
0.060029 0.0606699 0.0564279
0.0998703 0.0743725 0.0728161
0.149722 0.0847944 0.0895399
0.209766 0.0914778 0.107256
0.276951 0.0944991 0.122759
0.354833 0.0963302 0.138842
0.440452 0.0965896 0.154574
0.531579 0.095613 0.169818
0.0538796 0.122255 0.0933547
0.0962081 0.13431 0.103944
0.146395 0.143389 0.112078
0.209186 0.150271 0.125414
0.280537 0.155184 0.13846
0.35874 0.158404 0.151232
0.441825 0.160449 0.163836
0.52752 0.161913 0.17641
0.60676 0.165362 0.189746
0.0527047 0.206561 0.12343
0.108537 0.216876 0.128969
0.171283 0.225513 0.133593
0.241154 0.232334 0.13724
0.322103 0.235523 0.147158
0.402594 0.238437 0.163226
0.481117 0.242145 0.178271
0.559197 0.246143 0.192966
0.637171 0.250278 0.207599
0.04477 0.300542 0.138796
0.115358 0.307347 0.143008
0.188327 0.313466 0.148577
0.262425 0.319387 0.15407
0.336919 0.325277 0.159625
0.416007 0.329656 0.168246
0.499794 0.332097 0.184039
0.581735 0.334997 0.20148
0.661799 0.338628 0.218235
0.0608377 0.389288 0.155474
0.135286 0.395239 0.161013
0.208743 0.401556 0.166964
0.283162 0.407675 0.172778
0.3579 0.413779 0.178622
0.432776 0.419928 0.184527
0.510811 0.42504 0.192264
0.593835 0.42826 0.205402
0.67805 0.430808 0.222751
0.0809033 0.477958 0.173587
0.155566 0.484123 0.179446
0.229236 0.490608 0.185672
0.303853 0.496895 0.19176
0.378775 0.503166 0.197848
0.453803 0.509468 0.203983
0.528893 0.51577 0.210178
0.606378 0.52134 0.217655
0.688121 0.525338 0.229007
0.101213 0.567407 0.192126
0.176028 0.573724 0.198245
0.249821 0.580377 0.204715
0.32459 0.586816 0.211017
0.399634 0.59321 0.217319
0.474754 0.599634 0.223667
0.549966 0.606073 0.23006
0.625193 0.612558 0.2365
0.702342 0.618402 0.243931
0.121706 0.657496 0.211002
0.196597 0.663966 0.21735
0.270497 0.670726 0.224033
0.345357 0.677287 0.230549
0.420493 0.683803 0.237049
0.49572 0.690318 0.24358
0.571115 0.696788 0.250706
0.646464 0.703075 0.260044
0.720775 0.709438 0.272114
0 0 0
0.00122072 0.00103761 0.000656138
0.0303349 0.0179599 0.0235142
0.0699168 0.0313573 0.048661
0.120104 0.0414588 0.0735637
0.180362 0.0483101 0.0986343
0.250141 0.0519722 0.124071
0.328115 0.0526284 0.14902
0.410712 0.0503395 0.171649
0.0345159 0.0507515 0.0577249
0.0656443 0.0664836 0.08159
0.106828 0.0791638 0.103395
0.158038 0.0886854 0.122423
0.21709 0.09514 0.140063
0.283345 0.0984054 0.159091
0.360616 0.100191 0.180484
0.44538 0.100343 0.201251
0.535531 0.0993362 0.220966
0.0549477 0.12781 0.130938
0.0980545 0.138048 0.145174
0.150256 0.147326 0.158709
0.211978 0.154788 0.170489
0.28098 0.160296 0.185565
0.358099 0.163394 0.203967
0.440543 0.165255 0.220935
0.523949 0.167163 0.236683
0.601617 0.171008 0.251392
0.0522927 0.211429 0.176074
0.109575 0.221027 0.185412
0.173465 0.229068 0.193362
0.244144 0.235447 0.199756
0.321309 0.239429 0.213703
0.398688 0.243473 0.227756
0.476219 0.247593 0.241993
0.553872 0.251774 0.256367
0.631586 0.256016 0.270924
0.0449989 0.304402 0.202152
0.118059 0.310399 0.20766
0.191104 0.316503 0.213565
0.265232 0.322423 0.219364
0.339727 0.328328 0.225177
0.421103 0.331701 0.237812
0.501976 0.334874 0.255222
0.580819 0.338842 0.271382
0.659159 0.343084 0.287098
0.0636301 0.39234 0.220813
0.138094 0.398306 0.226627
0.211551 0.404623 0.232837
0.285985 0.410742 0.238895
0.360723 0.416861 0.244968
0.435599 0.422995 0.251102
0.514992 0.427573 0.260456
0.599039 0.430182 0.277317
0.681178 0.433249 0.295796
0.0837262 0.481025 0.239734
0.158404 0.48719 0.245823
0.232074 0.493675 0.252293
0.306691 0.499962 0.258595
0.381598 0.506233 0.264897
0.456626 0.512535 0.271229
0.531716 0.518853 0.277623
0.609934 0.524132 0.285939
0.693111 0.527474 0.299855
0.104067 0.570489 0.258946
0.178851 0.576806 0.265293
0.252674 0.583459 0.271977
0.327413 0.589883 0.278477
0.402441 0.596277 0.284993
0.477592 0.602686 0.291524
0.552789 0.60914 0.2981
0.628 0.615625 0.304723
0.705623 0.621302 0.312688
0.124575 0.660578 0.278447
0.199451 0.667033 0.285008
0.273335 0.673808 0.29189
0.34818 0.680339 0.298589
0.423301 0.68687 0.305272
0.498543 0.693385 0.311986
0.574105 0.699748 0.319783
0.649424 0.706004 0.329625
0.723461 0.712428 0.34197
0 0 0
0.0100099 0.00775158 0.0099031
0.0405432 0.0235142 0.0396582
0.0816358 0.0357824 0.0708324
0.133394 0.0447547 0.101015
0.194842 0.0507362 0.12958
0.264759 0.0538796 0.157336
0.341558 0.0542306 0.184329
0.423835 0.0519875 0.210376
0.0382849 0.0572824 0.0820325
0.0708476 0.0719158 0.111635
0.113313 0.0835279 0.138903
0.16556 0.0920272 0.162951
0.224765 0.0970016 0.182208
0.293111 0.100832 0.201923
0.36936 0.103029 0.22385
0.452354 0.103563 0.247333
0.540581 0.102815 0.270878
0.0556344 0.132845 0.173312
0.100145 0.142199 0.191928
0.153796 0.150942 0.210315
0.216663 0.157809 0.226398
0.287007 0.163088 0.24004
0.362188 0.167147 0.254383
0.441505 0.169833 0.273045
0.520256 0.172915 0.291524
0.596948 0.176913 0.308461
0.051667 0.2159 0.233494
0.110399 0.224796 0.246448
0.175418 0.232288 0.25742
0.246845 0.23827 0.266178
0.320974 0.2439 0.272251
0.394705 0.249226 0.284504
0.470909 0.253498 0.301793
0.548257 0.257633 0.318135
0.625895 0.261799 0.333989
0.0467231 0.307515 0.268833
0.120607 0.313283 0.274678
0.193713 0.319387 0.280873
0.267872 0.325307 0.286885
0.342382 0.331228 0.292927
0.420066 0.335515 0.307774
0.497856 0.339834 0.322744
0.575708 0.344228 0.33785
0.653635 0.348638 0.353079
0.0662547 0.395254 0.288365
0.140734 0.401205 0.294423
0.214191 0.407523 0.300862
0.28864 0.413657 0.307118
0.363394 0.41976 0.313375
0.43827 0.42591 0.319692
0.519951 0.42948 0.333089
0.601083 0.432837 0.351415
0.68011 0.436988 0.368399
0.0864118 0.48394 0.307958
0.161089 0.490105 0.31426
0.23476 0.496605 0.320928
0.309377 0.502892 0.327398
0.384283 0.509163 0.333883
0.459312 0.515465 0.340398
0.534401 0.521782 0.34696
0.613977 0.526528 0.356847
0.698177 0.529274 0.374487
0.106783 0.573404 0.327764
0.181552 0.579736 0.334295
0.25536 0.586374 0.341146
0.330114 0.592828 0.347829
0.405142 0.599222 0.354482
0.480293 0.605646 0.361181
0.555474 0.61207 0.36791
0.630701 0.61854 0.374701
0.709026 0.623957 0.383459
0.127291 0.663508 0.347768
0.202167 0.669963 0.354498
0.276036 0.676738 0.361563
0.350896 0.683299 0.368429
0.426017 0.689799 0.37525
0.501335 0.696284 0.382254
0.577035 0.702556 0.390509
0.652323 0.708827 0.400549
0.726055 0.715358 0.412833
0 0 0
0.0184634 0.0140688 0.0239261
0.0503853 0.0286564 0.0604105
0.0929427 0.0397803 0.0978561
0.145983 0.0476997 0.133944
0.208682 0.0526589 0.167483
0.279484 0.0549935 0.198245
0.354421 0.054551 0.225483
0.438697 0.0527199 0.25449
0.0416571 0.0634165 0.111223
0.075639 0.0769513 0.146639
0.119326 0.0874952 0.179309
0.172503 0.0949416 0.208179
0.232624 0.0991226 0.231785
0.302754 0.102449 0.255009
0.379919 0.104494 0.276967
0.462181 0.105379 0.299413
0.548394 0.105333 0.322728
0.0559243 0.137316 0.220111
0.101991 0.146105 0.24358
0.156985 0.154253 0.266712
0.220935 0.160525 0.286824
0.292012 0.165331 0.30399
0.368383 0.1691 0.318181
0.447181 0.172457 0.331624
0.521309 0.177401 0.345068
0.595728 0.182116 0.361669
0.0509194 0.22002 0.295338
0.11107 0.22826 0.311559
0.177172 0.235233 0.32517
0.249317 0.240955 0.334905
0.323476 0.246616 0.341039
0.39791 0.252338 0.347143
0.471519 0.258091 0.356588
0.545769 0.263203 0.37258
0.621683 0.267704 0.390768
0.0490272 0.310262 0.337469
0.123049 0.31603 0.343542
0.196201 0.322118 0.34995
0.270375 0.328069 0.356191
0.3449 0.333989 0.362417
0.419608 0.339956 0.368673
0.493706 0.345586 0.381613
0.57023 0.350103 0.399756
0.647837 0.354482 0.416876
0.0687724 0.398016 0.357702
0.143252 0.403983 0.363943
0.216739 0.4103 0.370565
0.291188 0.416434 0.377005
0.365942 0.422553 0.383429
0.440833 0.428717 0.389899
0.518807 0.433204 0.405478
0.596826 0.437736 0.421149
0.674876 0.442283 0.436927
0.0889601 0.486717 0.377874
0.163638 0.492897 0.384344
0.237324 0.499397 0.391165
0.31194 0.505699 0.397803
0.386847 0.511986 0.40444
0.461875 0.518273 0.411093
0.536965 0.524605 0.417792
0.618845 0.528313 0.4318
0.700114 0.531807 0.450858
0.109377 0.576226 0.398169
0.184146 0.582544 0.404837
0.257939 0.589197 0.411872
0.332708 0.595636 0.418692
0.407721 0.602045 0.425498
0.482856 0.608454 0.432334
0.558053 0.614908 0.4392
0.63328 0.621363 0.446113
0.712917 0.626276 0.456565
0.1299 0.666316 0.418631
0.204761 0.672786 0.425513
0.27866 0.679561 0.432715
0.353491 0.686122 0.439704
0.428611 0.692622 0.446677
0.504128 0.699031 0.453986
0.57998 0.705272 0.462409
0.655192 0.711574 0.472358
0.728634 0.718257 0.484215
0.00299077 0.00302129 0.00395209
0.026566 0.0199893 0.0425269
0.0598611 0.033402 0.0860151
0.103792 0.0434272 0.129809
0.158022 0.0502785 0.171832
0.221637 0.0542611 0.210834
0.293126 0.0556802 0.245777
0.368887 0.054612 0.27538
0.45417 0.0526589 0.306538
0.0446174 0.0691234 0.145373
0.0799878 0.0815595 0.186572
0.124849 0.0910353 0.224506
0.178759 0.0973831 0.257725
0.240223 0.101045 0.286229
0.311437 0.103853 0.314199
0.389593 0.10544 0.338918
0.47245 0.106218 0.361196
0.557839 0.1066 0.382742
0.0556649 0.14081 0.270222
0.103593 0.149737 0.299992
0.159869 0.157259 0.32755
0.224842 0.162966 0.351476
0.29659 0.167346 0.371771
0.373205 0.170886 0.388357
0.451102 0.174716 0.399924
0.525048 0.18027 0.407797
0.598428 0.185809 0.419287
0.0500496 0.223789 0.361273
0.111604 0.231388 0.380377
0.178759 0.237903 0.396094
0.251667 0.243534 0.405066
0.325872 0.24921 0.411383
0.40032 0.254963 0.41767
0.474907 0.260746 0.423957
0.548775 0.266667 0.432441
0.622446 0.272282 0.445991
0.0512856 0.312901 0.407675
0.125383 0.318639 0.413962
0.198566 0.324773 0.420569
0.27277 0.330709 0.426963
0.347326 0.33666 0.433356
0.422034 0.342626 0.439796
0.496834 0.348653 0.44625
0.570748 0.354711 0.456214
0.645243 0.360037 0.472892
0.0711681 0.400656 0.428504
0.145678 0.406638 0.434928
0.219165 0.41297 0.441703
0.293614 0.419135 0.448295
0.368383 0.425254 0.454887
0.443275 0.431403 0.461494
0.518257 0.437613 0.468162
0.592584 0.443427 0.481651
0.669291 0.448142 0.500481
0.0914321 0.489403 0.44918
0.16611 0.495598 0.455802
0.239765 0.502098 0.462776
0.314412 0.508415 0.469551
0.389334 0.514687 0.476326
0.464347 0.520989 0.483116
0.539437 0.527321 0.489937
0.617578 0.53196 0.506096
0.69575 0.536645 0.522347
0.111864 0.578927 0.469917
0.186648 0.58526 0.476738
0.260441 0.591913 0.483894
0.33518 0.598367 0.490852
0.410208 0.604761 0.497795
0.485344 0.611185 0.504738
0.56054 0.617624 0.511727
0.635752 0.624125 0.518761
0.717571 0.627985 0.533425
0.132418 0.669047 0.490776
0.207263 0.675502 0.497795
0.281163 0.682292 0.505119
0.355993 0.688838 0.512261
0.431144 0.695354 0.519356
0.50695 0.701671 0.526833
0.582956 0.707866 0.535134
0.658076 0.714275 0.544625
0.731182 0.721157 0.555673
0.00956741 0.00978103 0.0191958
0.034287 0.0255131 0.0661631
0.0689403 0.0377508 0.11664
0.114199 0.0466316 0.166812
0.169543 0.0524605 0.21471
0.233936 0.0555123 0.258976
0.305516 0.0560464 0.298207
0.382712 0.0544289 0.332082
0.469245 0.0520485 0.36614
0.0471504 0.0744335 0.184573
0.0839094 0.0857557 0.231434
0.12987 0.0941787 0.274403
0.18378 0.0990311 0.310307
0.247471 0.102693 0.345357
0.319524 0.105028 0.377737
0.398108 0.106249 0.406134
0.481422 0.106783 0.430335
0.566873 0.107271 0.451072
0.0554513 0.144717 0.326238
0.104906 0.153079 0.360983
0.162448 0.15996 0.392676
0.228397 0.165164 0.42005
0.300755 0.169177 0.44303
0.377539 0.172519 0.461463
0.453559 0.177142 0.471351
0.528099 0.182696 0.477852
0.602136 0.188418 0.485466
0.0491188 0.227222 0.430976
0.112062 0.234272 0.452476
0.180255 0.240375 0.469581
0.253925 0.246052 0.476585
0.328176 0.251728 0.48307
0.40264 0.257481 0.489509
0.477241 0.263294 0.495964
0.551919 0.269184 0.502449
0.626032 0.275181 0.510536
0.0534829 0.315419 0.47924
0.127642 0.321187 0.485695
0.20087 0.327306 0.49247
0.27509 0.333272 0.499016
0.34966 0.339223 0.505562
0.424369 0.345205 0.512139
0.499184 0.351232 0.518746
0.574075 0.357336 0.525399
0.648173 0.3635 0.534295
0.0734874 0.403235 0.500603
0.147997 0.409216 0.507179
0.2215 0.415564 0.514092
0.295979 0.421714 0.520836
0.370764 0.427863 0.52755
0.445655 0.434012 0.534279
0.520623 0.440223 0.541054
0.595636 0.446464 0.547906
0.669749 0.452705 0.558282
0.0937972 0.492012 0.521721
0.16849 0.498207 0.528481
0.242161 0.504707 0.535576
0.316777 0.511025 0.542489
0.391714 0.517327 0.549371
0.466743 0.523629 0.556283
0.541833 0.529946 0.563241
0.616968 0.536324 0.570214
0.691432 0.542306 0.584192
0.11426 0.581552 0.542855
0.189044 0.587884 0.549783
0.262837 0.594553 0.557092
0.337591 0.600992 0.564157
0.412619 0.607401 0.571206
0.487755 0.613825 0.578271
0.562936 0.620279 0.585367
0.638163 0.626764 0.592508
0.716121 0.631617 0.609186
0.134844 0.671672 0.564095
0.209705 0.678157 0.571206
0.283589 0.684932 0.578668
0.358404 0.691493 0.585885
0.433738 0.697948 0.593103
0.50988 0.704204 0.600473
0.585977 0.71043 0.608331
0.661006 0.71696 0.617014
0.733761 0.724071 0.626871
0.0156558 0.0161135 0.0398718
0.0415808 0.0306249 0.0949111
0.0775769 0.0416724 0.152392
0.124086 0.0494698 0.208881
0.180484 0.0542611 0.262501
0.245548 0.0564126 0.311772
0.315923 0.0558175 0.353353
0.395712 0.0540932 0.394034
0.482963 0.0513313 0.431815
0.0492714 0.0793164 0.228794
0.0873884 0.0895247 0.281132
0.134401 0.0968795 0.328756
0.189334 0.100938 0.368963
0.254307 0.104128 0.409018
0.327123 0.105989 0.445426
0.406027 0.106889 0.477134
0.489189 0.107301 0.503838
0.57438 0.107851 0.525231
0.0550546 0.148394 0.38703
0.105943 0.156115 0.426474
0.164736 0.162402 0.46186
0.231601 0.167117 0.492241
0.30454 0.170825 0.517388
0.381308 0.174136 0.536812
0.455848 0.179507 0.543984
0.530388 0.185107 0.550622
0.60499 0.190784 0.557168
0.048127 0.230365 0.504112
0.112459 0.236881 0.527443
0.182315 0.242771 0.542397
0.256107 0.248447 0.549294
0.330388 0.254154 0.555917
0.404883 0.259937 0.562493
0.479484 0.265766 0.5691
0.554192 0.271656 0.575708
0.628977 0.277607 0.582376
0.0556191 0.317861 0.55198
0.129839 0.323629 0.558587
0.203082 0.329778 0.565515
0.277317 0.33576 0.572213
0.351904 0.341711 0.578897
0.426642 0.347707 0.585595
0.501457 0.35375 0.592325
0.576349 0.359854 0.5991
0.651286 0.366003 0.60592
0.0757305 0.405707 0.573831
0.150256 0.411734 0.58053
0.223774 0.418082 0.587594
0.298253 0.424247 0.594461
0.373037 0.430396 0.601282
0.447929 0.436561 0.608148
0.522911 0.442771 0.61503
0.59794 0.449012 0.621958
0.673014 0.455299 0.628962
0.0960861 0.49453 0.595346
0.170764 0.500725 0.602213
0.244465 0.507256 0.609461
0.319081 0.513573 0.61648
0.394003 0.51986 0.623468
0.469047 0.526192 0.630488
0.544137 0.532525 0.637552
0.619287 0.538888 0.644648
0.694453 0.545312 0.651774
0.116594 0.584085 0.616831
0.191379 0.590433 0.623896
0.265156 0.597101 0.631296
0.33991 0.603571 0.638483
0.414939 0.609979 0.645624
0.490089 0.616403 0.652796
0.56527 0.622873 0.659998
0.640497 0.629358 0.66717
0.715312 0.636027 0.674113
0.137209 0.674235 0.638407
0.212055 0.68072 0.64564
0.285924 0.68751 0.653193
0.360754 0.694072 0.660533
0.436423 0.70045 0.667674
0.512886 0.706645 0.674617
0.589105 0.712947 0.681697
0.664012 0.719646 0.689189
0.73637 0.727031 0.697429
