src/colors/film_stock_&_vintage/red_film.cube
TITLE "Generated by Resolve"
LUT_3D_SIZE 33
0 0 0
0 0 0
0 0 0
0 0 0
0 0 0
0 0 0
0 0 0
0.00782788 0 0
0.0164034 0 0
0.0293126 0 0
0.0483864 0.00199893 0.002533
0.0696117 0.00500496 0.00570687
0.0934462 0.00729381 0.00816358
0.119753 0.00892653 0.00996414
0.148592 0.00985733 0.0110781
0.179858 0.010132 0.0115511
0.213413 0.00979629 0.0114137
0.249439 0.00891127 0.0107271
0.287556 0.00753796 0.00953689
0.326772 0.0056611 0.0078584
0.367498 0.0033875 0.00578317
0.409522 0.000762951 0.00334173
0.452628 0 0.000595102
0.49662 0 0
0.542229 0 0
0.58732 0 0
0.632059 0 0
0.676188 0 0
0.719722 0 0
0.762676 0 0
0.80502 0 0
0.84715 0 0
0.889067 0 0
0 0 0
0 0 0
0 0 0
0 0 0
0.00370794 0 0
0.0118105 0 0
0.0257115 0.00265507 3.0518e-05
0.0417945 0.00712596 0.00363165
0.0601968 0.0109865 0.00653086
0.0811475 0.0142367 0.00874342
0.104707 0.0169528 0.0103914
0.130236 0.0189059 0.0112306
0.158068 0.0202335 0.011429
0.188067 0.0209812 0.0110323
0.220111 0.0211643 0.0100862
0.254093 0.0208438 0.00862135
0.290394 0.0200961 0.00672923
0.327932 0.0188907 0.00442512
0.366583 0.0173037 0.00177005
0.406378 0.0153964 0
0.447181 0.0131991 0
0.488838 0.0107881 0
0.531121 0.00817884 0
0.573999 0.00547799 0
0.617792 0.00273136 0
0.660746 0 0
0.703029 0 0
0.744335 0 0
0.784756 0 0
0.824292 0 0
0.863508 0 0
0.901793 0 0
0.939162 0 0
0 0 0
0 0 0
0.00854505 0.00202945 0
0.0201114 0.00779736 0.00144961
0.0335546 0.0130922 0.00480659
0.0490425 0.0178378 0.0074464
0.0666819 0.0220188 0.00936904
0.0864118 0.0256504 0.0106966
0.108721 0.028748 0.0113375
0.133288 0.0312352 0.0113527
0.15967 0.0330816 0.0107271
0.188113 0.0343633 0.00956741
0.218448 0.0351263 0.00790417
0.250584 0.0354162 0.00579843
0.284352 0.0352483 0.00329595
0.319585 0.0346838 0.00047303
0.356939 0.0338598 0
0.394644 0.0326085 0
0.433265 0.0311131 0
0.472679 0.0293736 0
0.512718 0.0274815 0
0.553216 0.0254368 0
0.594369 0.0233463 0
0.635752 0.0212406 0
0.676646 0.0190585 0
0.717174 0.016968 0
0.756741 0.0151369 0
0.795056 0.0136416 0
0.832197 0.0124361 0
0.868284 0.0115053 0
0.904021 0.0110018 0
0.938247 0.010544 0
0.971756 0.0102998 0
0.0121767 0.0134432 0.00259403
0.0229191 0.019791 0.00576791
0.0352331 0.0255131 0.00813306
0.0495003 0.0307164 0.00985733
0.0658427 0.0353704 0.0108644
0.0842908 0.0394751 0.0112306
0.10486 0.0430152 0.0109712
0.12752 0.0459754 0.010132
0.152773 0.0485695 0.00881971
0.179461 0.0504463 0.00695811
0.20798 0.0518196 0.00466926
0.238224 0.0527199 0.00199893
0.270039 0.053193 0
0.303288 0.053254 0
0.337972 0.0529946 0
0.374136 0.0525063 0
0.410758 0.0516213 0
0.448127 0.0505226 0
0.486107 0.0492409 0
0.524559 0.0478218 0
0.563302 0.0463111 0
0.602258 0.0447242 0
0.641886 0.0432746 0
0.68072 0.0416876 0
0.71928 0.0401617 0
0.757214 0.0387884 0
0.793957 0.0377203 0
0.829206 0.0370489 0
0.863188 0.036759 0
0.896269 0.0369116 0
0.927825 0.0371862 0
0.958419 0.0377203 0
0.98822 0.0384527 0
0.0297398 0.0401923 0.0101167
0.0425727 0.0459144 0.0108644
0.0572824 0.0511635 0.0110018
0.0741436 0.0558175 0.0105287
0.09308 0.0599069 0.00947585
0.114061 0.063447 0.00791943
0.137041 0.066453 0.00590524
0.162356 0.0691234 0.00349432
0.18909 0.0710918 0.000686656
0.217502 0.0725872 0
0.24744 0.07364 0
0.278813 0.0742962 0
0.311452 0.0746014 0
0.345205 0.0745861 0
0.380499 0.0744488 0
0.416022 0.0739147 0
0.452201 0.0731823 0
0.488853 0.0722972 0
0.525841 0.0713054 0
0.563012 0.0702373 0
0.600229 0.0691386 0
0.637903 0.0681926 0
0.674907 0.067155 0
0.711513 0.0661631 0
0.747646 0.0652781 0
0.782971 0.0645914 0
0.816861 0.064271 0
0.849088 0.0643931 0
0.880186 0.0651255 0
0.90956 0.0659648 0
0.937697 0.0671397 0
0.964797 0.068574 0
0.991424 0.0701152 0
0.0407111 0.0694438 0.00988785
0.0559854 0.0746471 0.00863661
0.0731212 0.0793469 0.0069276
0.0924239 0.0834516 0.00474556
0.11371 0.0870069 0.00216678
0.136873 0.0900282 0
0.162234 0.0927901 0
0.188907 0.0948348 0
0.217136 0.096437 0
0.246784 0.0976272 0
0.277714 0.0984665 0
0.309758 0.0989548 0
0.342794 0.0991684 0
0.377005 0.0992599 0
0.411719 0.0990616 0
0.446784 0.0986343 0
0.482261 0.098085 0
0.517968 0.0974441 0
0.553719 0.0967575 0
0.589456 0.0960555 0
0.625467 0.0955978 0
0.660746 0.0949721 0
0.695613 0.0944228 0
0.729946 0.0940108 0
0.763638 0.0937362 0
0.796353 0.0937209 0
0.827436 0.0941176 0
0.856886 0.0951247 0
0.884657 0.0964828 0
0.911589 0.0979477 0
0.938231 0.0995041 0
0.964767 0.101076 0
0.991394 0.102617 0
0.0453498 0.101213 0.00340276
0.0631571 0.105806 0.000686656
0.0826886 0.109926 0
0.104295 0.113466 0
0.127703 0.116487 0
0.152956 0.119158 0
0.179797 0.121355 0
0.207919 0.123018 0
0.237324 0.1243 0
0.267903 0.125246 0
0.299474 0.125887 0
0.331899 0.126253 0
0.365469 0.126635 0
0.399207 0.126604 0
0.433356 0.126421 0
0.467781 0.126131 0
0.502373 0.125765 0
0.53695 0.125383 0
0.571389 0.125017 0
0.605737 0.124773 0
0.639735 0.124636 0
0.673075 0.124483 0
0.705852 0.124437 0
0.737881 0.124575 0
0.7691 0.12491 0
0.799359 0.125475 0
0.828885 0.126543 0
0.857145 0.127672 0
0.884611 0.129 0
0.911559 0.130449 0
0.938201 0.132006 0
0.964721 0.133577 0
0.991363 0.135119 0
0.0446937 0.134997 0
0.0650187 0.138933 0
0.0868544 0.142443 0
0.110597 0.145403 0
0.136126 0.148104 0
0.162982 0.150225 0
0.191104 0.151888 0
0.220401 0.153201 0
0.250751 0.154208 0
0.281971 0.154925 0
0.313954 0.155398 0
0.346639 0.155734 0
0.379965 0.156039 0
0.413352 0.156024 0
0.446937 0.155932 0
0.480583 0.155795 0
0.514153 0.155642 0
0.547509 0.155505 0
0.580728 0.155612 0
0.613367 0.155703 0
0.64535 0.155856 0
0.676722 0.15613 0
0.707683 0.156512 0
0.738476 0.156939 0
0.7691 0.157412 0
0.799374 0.158038 0
0.82887 0.15906 0
0.857114 0.160174 0
0.884581 0.161501 0
0.911528 0.162966 0
0.93817 0.164508 0
0.964691 0.166079 0
0.991501 0.167803 0
0.0401923 0.170169 0
0.0629435 0.173434 0
0.0869154 0.176318 0
0.112612 0.178714 0
0.139864 0.180957 0
0.168139 0.182574 0
0.197467 0.183856 0
0.22771 0.184833 0
0.258747 0.18558 0
0.29044 0.186099 0
0.322789 0.186572 0
0.355489 0.186892 0
0.388281 0.186984 0
0.421195 0.18703 0
0.454063 0.18703 0
0.486793 0.187045 0
0.519234 0.187106 0
0.551263 0.187228 0
0.583032 0.187686 0
0.614389 0.187976 0
0.645594 0.188296 0
0.676692 0.188632 0
0.707652 0.189014 0
0.738445 0.189441 0
0.769192 0.190036 0
0.799527 0.190738 0
0.828824 0.191577 0
0.857069 0.192691 0
0.88455 0.194003 0
0.911498 0.195468 0
0.938125 0.197009 0
0.96466 0.198581 0
0.991516 0.200351 0
0.0333867 0.206119 0
0.0583658 0.208698 0
0.0843519 0.211078 0
0.111925 0.213092 0
0.140459 0.214588 0
0.169955 0.215763 0
0.200259 0.216678 0
0.23125 0.21738 0
0.262776 0.217868 0
0.294728 0.218219 0
0.327138 0.218631 0
0.359564 0.218845 0
0.391943 0.218952 0
0.424216 0.219043 0
0.456245 0.219165 0
0.488029 0.219333 0
0.519799 0.219577 0
0.551568 0.219959 0
0.583017 0.220218 0
0.614359 0.220493 0
0.645563 0.220798 0
0.676646 0.221149 0
0.707622 0.22153 0
0.738415 0.221942 0
0.769207 0.222583 0
0.799496 0.223255 0
0.828794 0.224079 0
0.857038 0.225193 0
0.884504 0.226505 0
0.911452 0.22797 0
0.93814 0.229572 0
0.964874 0.231342 0
0.991501 0.232898 0
0.0257267 0.242222 0
0.0527352 0.244144 0
0.0804913 0.246006 0
0.109529 0.24744 0
0.13933 0.248478 0
0.169818 0.249271 0
0.200885 0.249866 0
0.23241 0.250278 0
0.264256 0.250599 0
0.296498 0.251026 0
0.328557 0.251164 0
0.360555 0.251286 0
0.392493 0.251408 0
0.424384 0.25153 0
0.45623 0.251667 0
0.487999 0.251835 0
0.519814 0.252125 0
0.551537 0.252476 0
0.582986 0.25272 0
0.614313 0.252995 0
0.645533 0.253315 0
0.676616 0.253651 0
0.707591 0.254032 0
0.738613 0.254688 0
0.769253 0.255177 0
0.799466 0.255756 0
0.828763 0.25658 0
0.857008 0.257694 0
0.884474 0.259022 0
0.911421 0.260471 0
0.938155 0.262135 0
0.964843 0.263859 0
0.99147 0.2654 0
0.0185855 0.277958 0
0.0475013 0.2795 0
0.0767224 0.28072 0
0.10692 0.281544 0
0.137728 0.282155 0
0.169009 0.282597 0
0.200641 0.282902 0
0.232471 0.283085 0
0.264469 0.283268 0
0.29662 0.283574 0
0.328573 0.28368 0
0.360525 0.283787 0
0.392447 0.283909 0
0.424353 0.284031 0
0.456184 0.284169 0
0.488151 0.28452 0
0.519905 0.284764 0
0.551507 0.284977 0
0.582956 0.285222 0
0.614282 0.285496 0
0.645487 0.285817 0
0.676585 0.286152 0
0.707607 0.286595 0
0.738598 0.287205 0
0.769223 0.287678 0
0.799435 0.288258 0
0.828733 0.289082 0
0.856962 0.290196 0
0.884443 0.291524 0
0.911559 0.293156 0
0.938277 0.294789 0
0.964797 0.296361 0
0.99144 0.297902 0
0.0131685 0.312886 0
0.0436255 0.313893 0
0.074052 0.314549 0
0.105287 0.314946 0
0.136873 0.315175 0
0.168673 0.315343 0
0.200534 0.31548 0
0.232563 0.31574 0
0.264622 0.315969 0
0.296574 0.316075 0
0.328542 0.316182 0
0.360494 0.316289 0
0.392416 0.316411 0
0.424308 0.316533 0
0.456153 0.316686 0
0.488182 0.317098 0
0.519875 0.317266 0
0.551461 0.317479 0
0.582925 0.317723 0
0.614252 0.318013 0
0.645457 0.318318 0
0.676677 0.318791 0
0.707759 0.319295 0
0.738552 0.319707 0
0.769177 0.32018 0
0.79939 0.32076 0
0.828687 0.321599 0
0.856931 0.322698 0
0.884413 0.324025 0
0.911604 0.32575 0
0.938231 0.327291 0
0.964767 0.328862 0
0.991409 0.330404 0
0.0107271 0.346777 0
0.042237 0.347021 0
0.0734874 0.347326 0
0.105119 0.347509 0
0.136843 0.347692 0
0.168643 0.347845 0
0.200488 0.347982 0
0.232654 0.348363 0
0.264591 0.34847 0
0.296544 0.348577 0
0.328511 0.348699 0
0.360449 0.348806 0
0.392386 0.348913 0
0.424338 0.349111 0
0.456367 0.349447 0
0.488136 0.349599 0
0.519829 0.349783 0
0.551431 0.349981 0
0.582879 0.35024 0
0.614206 0.350515 0
0.645411 0.35082 0
0.676768 0.351415 0
0.707729 0.351797 0
0.738521 0.352224 0
0.769146 0.352697 0
0.799359 0.353277 0
0.828656 0.354101 0
0.856962 0.355276 0
0.884627 0.356786 0
0.911559 0.358251 0
0.938201 0.359792 0
0.964736 0.361364 0
0.991363 0.362921 0
0.0105898 0.379324 0
0.0422065 0.379522 0
0.0734417 0.379828 0
0.105089 0.380026 0
0.136812 0.380194 0
0.168627 0.380377 0
0.200717 0.380743 0
0.232609 0.380865 0
0.264546 0.380972 0
0.296513 0.381094 0
0.328466 0.381201 0
0.360418 0.381308 0
0.392355 0.38143 0
0.424491 0.381811 0
0.456336 0.381949 0
0.488106 0.382101 0
0.519799 0.382284 0
0.5514 0.382498 0
0.582849 0.382742 0
0.614191 0.383032 0
0.645624 0.383566 0
0.676722 0.383917 0
0.707698 0.384298 0
0.738491 0.384726 0
0.769116 0.385199 0
0.799329 0.385779 0
0.828626 0.386603 0
0.857114 0.387976 0
0.884581 0.389288 0
0.911528 0.390753 0
0.93817 0.392294 0
0.964691 0.393881 0
0.991333 0.395422 0
0.0105592 0.411826 0
0.0421759 0.412024 0
0.0734112 0.412329 0
0.105043 0.412528 0
0.136767 0.412695 0
0.168826 0.413108 0
0.200671 0.413245 0
0.232578 0.413367 0
0.264515 0.413489 0
0.296483 0.413596 0
0.328435 0.413703 0
0.360388 0.413809 0
0.392508 0.414115 0
0.42446 0.414313 0
0.456291 0.41445 0
0.488075 0.414618 0
0.519768 0.414786 0
0.551354 0.415 0
0.582818 0.415244 0
0.614389 0.415778 0
0.645594 0.416083 0
0.676692 0.416434 0
0.707652 0.416815 0
0.73846 0.417227 0
0.769085 0.4177 0
0.799298 0.41828 0
0.828763 0.419287 0
0.857084 0.420478 0
0.88455 0.42179 0
0.911498 0.423255 0
0.938125 0.424811 0
0.96466 0.426383 0
0.991302 0.427924 0
0.0105287 0.444327 0
0.0421302 0.444541 0
0.0733806 0.444831 0
0.105013 0.445029 0
0.136873 0.44535 0
0.16878 0.445609 0
0.200641 0.445747 0
0.232547 0.445869 0
0.264485 0.445991 0
0.296437 0.446097 0
0.328405 0.446204 0
0.360601 0.446571 0
0.392523 0.446693 0
0.42443 0.446815 0
0.45626 0.446952 0
0.488029 0.44712 0
0.519738 0.447288 0
0.551324 0.447501 0
0.58291 0.447883 0
0.614359 0.44828 0
0.645563 0.4486 0
0.676661 0.448936 0
0.707622 0.449317 0
0.738415 0.449744 0
0.769039 0.450202 0
0.799496 0.451026 0
0.828809 0.451865 0
0.857053 0.452979 0
0.88452 0.454307 0
0.911467 0.455772 0
0.938094 0.457313 0
0.96463 0.458885 0
0.991379 0.460548 0
0.0104982 0.476844 0
0.0421149 0.477043 0
0.0733501 0.477333 0
0.105196 0.477745 0
0.136965 0.477958 0
0.168765 0.478111 0
0.200626 0.478248 0
0.232517 0.47837 0
0.264454 0.478492 0
0.296422 0.478599 0
0.32845 0.478782 0
0.360571 0.479072 0
0.392508 0.479194 0
0.424399 0.479316 0
0.456245 0.479454 0
0.488014 0.479622 0
0.519707 0.479805 0
0.551507 0.480201 0
0.583001 0.480507 0
0.614343 0.480781 0
0.645548 0.481102 0
0.676631 0.481437 0
0.707607 0.481819 0
0.738399 0.482246 0
0.769085 0.482765 0
0.799481 0.483543 0
0.828779 0.484367 0
0.857023 0.485481 0
0.884504 0.486809 0
0.911437 0.488273 0
0.938079 0.489815 0
0.964782 0.491569 0
0.991485 0.493187 0
0.0105135 0.509316 0
0.0421302 0.509529 0
0.0733959 0.50985 0
0.105257 0.510277 0
0.13698 0.510445 0
0.16878 0.510597 0
0.200641 0.510735 0
0.232532 0.510857 0
0.264485 0.510979 0
0.296574 0.511223 0
0.328634 0.511452 0
0.360601 0.511559 0
0.392523 0.511681 0
0.424414 0.511803 0
0.45626 0.51194 0
0.488029 0.512108 0
0.519738 0.512291 0
0.551568 0.512734 0
0.583017 0.512993 0
0.614359 0.513268 0
0.645548 0.513573 0
0.676661 0.513924 0
0.707607 0.514305 0
0.738537 0.514855 0
0.769284 0.51545 0
0.799496 0.51603 0
0.828794 0.516854 0
0.857038 0.517968 0
0.884504 0.519295 0
0.911452 0.520745 0
0.938094 0.522301 0
0.964858 0.524102 0
0.991501 0.525673 0
0.0105287 0.541802 0
0.042237 0.542107 0
0.07364 0.542565 0
0.105272 0.542763 0
0.136995 0.542931 0
0.168795 0.543084 0
0.200641 0.543221 0
0.232547 0.543343 0
0.264485 0.543465 0
0.296635 0.54377 0
0.328664 0.543938 0
0.360616 0.544045 0
0.392538 0.544152 0
0.42443 0.544289 0
0.456275 0.544427 0
0.488121 0.544671 0
0.519997 0.545022 0
0.551583 0.545235 0
0.583032 0.54548 0
0.614374 0.545754 0
0.645579 0.546075 0
0.676661 0.54641 0
0.707622 0.546792 0
0.738613 0.547387 0
0.769299 0.547936 0
0.799512 0.548516 0
0.828809 0.54934 0
0.857053 0.550454 0
0.88452 0.551766 0
0.911543 0.553307 0
0.938354 0.555032 0
0.964889 0.556603 0
0.991531 0.55816 0
0.010544 0.574289 0
0.042298 0.574639 0
0.0736553 0.575051 0
0.105287 0.57525 0
0.137011 0.575418 0
0.168811 0.57557 0
0.200671 0.575708 0
0.232593 0.57586 0
0.264759 0.576196 0
0.296712 0.576303 0
0.328679 0.576425 0
0.360616 0.576532 0
0.392554 0.576654 0
0.424445 0.576776 0
0.456291 0.576913 0
0.488197 0.577203 0
0.520012 0.577508 0
0.551598 0.577707 0
0.583047 0.577966 0
0.614389 0.578241 0
0.645579 0.578546 0
0.676692 0.578912 0
0.707897 0.579522 0
0.738689 0.57995 0
0.769314 0.580423 0
0.799527 0.581003 0
0.828824 0.581827 0
0.857069 0.58294 0
0.884535 0.584268 0
0.911604 0.58584 0
0.938369 0.587518 0
0.964904 0.589105 0
0.991531 0.590646 0
0.0107424 0.607004 0
0.0423896 0.607248 0
0.07364 0.607553 0
0.105272 0.607736 0
0.136995 0.607919 0
0.168795 0.608072 0
0.200641 0.608209 0
0.232639 0.608408 0
0.264744 0.608698 0
0.296696 0.608804 0
0.328649 0.608911 0
0.360601 0.609033 0
0.392538 0.60914 0
0.42443 0.609277 0
0.456474 0.609613 0
0.488289 0.609827 0
0.519997 0.61001 0
0.551583 0.610208 0
0.583032 0.610452 0
0.614359 0.610742 0
0.645579 0.611048 0
0.676738 0.61146 0
0.707881 0.612024 0
0.738674 0.612451 0
0.769299 0.612924 0
0.799512 0.613504 0
0.828809 0.614328 0
0.857053 0.615442 0
0.884703 0.616938 0
0.911711 0.618479 0
0.938354 0.62002 0
0.964889 0.621592 0
0.991516 0.623148 0
0.0107424 0.639551 0
0.042359 0.63975 0
0.0735943 0.640055 0
0.105241 0.640253 0
0.136965 0.640421 0
0.16875 0.640574 0
0.200763 0.640864 0
0.232761 0.641093 0
0.264698 0.641199 0
0.296666 0.641321 0
0.328618 0.641428 0
0.360571 0.641535 0
0.392493 0.641642 0
0.424414 0.641794 0
0.456489 0.642176 0
0.488258 0.642329 0
0.519951 0.642512 0
0.551553 0.642725 0
0.583001 0.642969 0
0.614328 0.643244 0
0.64567 0.643687 0
0.676875 0.644144 0
0.707851 0.644526 0
0.738643 0.644953 0
0.769268 0.645426 0
0.799481 0.646006 0
0.828779 0.64683 0
0.857023 0.647944 0
0.884733 0.649516 0
0.911681 0.65098 0
0.938323 0.652522 0
0.964843 0.654093 0
0.991485 0.65565 0
0.0107118 0.672053 0
0.0423133 0.672251 0
0.0735637 0.672557 0
0.105196 0.672755 0
0.136919 0.672923 0
0.168719 0.673075 0
0.200824 0.673472 0
0.232731 0.673594 0
0.264668 0.673716 0
0.29662 0.673823 0
0.328588 0.67393 0
0.36054 0.674037 0
0.392554 0.67425 0
0.424613 0.67454 0
0.456443 0.674678 0
0.488228 0.674846 0
0.519921 0.675013 0
0.551507 0.675227 0
0.582971 0.675471 0
0.614298 0.675746 0
0.645747 0.67631 0
0.676844 0.676661 0
0.707805 0.677043 0
0.738598 0.677455 0
0.769223 0.677928 0
0.799435 0.678508 0
0.828809 0.679408 0
0.857237 0.680705 0
0.884703 0.682017 0
0.91165 0.683482 0
0.938277 0.685039 0
0.964813 0.68661 0
0.991455 0.688151 0
0.0106661 0.704555 0
0.0422827 0.704768 0
0.0735332 0.705058 0
0.105165 0.705257 0
0.136919 0.70547 0
0.168933 0.705837 0
0.200793 0.705974 0
0.2327 0.706096 0
0.264637 0.706218 0
0.29659 0.706325 0
0.328557 0.706432 0
0.360494 0.706554 0
0.392676 0.70692 0
0.424567 0.707042 0
0.456413 0.707179 0
0.488182 0.707347 0
0.519875 0.707515 0
0.551476 0.707729 0
0.582956 0.708003 0
0.614511 0.708507 0
0.645716 0.708827 0
0.676814 0.709163 0
0.707774 0.709545 0
0.738567 0.709972 0
0.769192 0.71043 0
0.799405 0.711009 0
0.828946 0.712093 0
0.857191 0.713207 0
0.884672 0.714534 0
0.911604 0.715984 0
0.938247 0.71754 0
0.964782 0.719112 0
0.991424 0.720668 0
0.0106355 0.737072 0
0.0422522 0.73727 0
0.0734874 0.737575 0
0.105135 0.737774 0
0.137102 0.738186 0
0.168902 0.738338 0
0.200763 0.738476 0
0.232654 0.738613 0
0.264591 0.73872 0
0.296559 0.738827 0
0.328511 0.738933 0
0.360662 0.739254 0
0.392645 0.739422 0
0.424536 0.739544 0
0.456382 0.739696 0
0.488151 0.739849 0
0.519844 0.740032 0
0.551446 0.74023 0
0.583139 0.740734 0
0.614481 0.741009 0
0.645685 0.741329 0
0.676768 0.741665 0
0.707744 0.742046 0
0.738537 0.742473 0
0.769162 0.742947 0
0.799558 0.743709 0
0.828916 0.74461 0
0.85716 0.745708 0
0.884642 0.747036 0
0.911574 0.748501 0
0.938216 0.750042 0
0.964736 0.751614 0
0.991623 0.753414 0
0.010605 0.769574 0
0.0422217 0.769772 0
0.0734569 0.770077 0
0.105257 0.770428 0
0.137072 0.770703 0
0.168872 0.770855 0
0.200717 0.770993 0
0.232624 0.771115 0
0.264561 0.771221 0
0.296529 0.771344 0
0.328725 0.771695 0
0.360678 0.771817 0
0.392615 0.771923 0
0.424506 0.772045 0
0.456352 0.772198 0
0.488121 0.772351 0
0.519814 0.772534 0
0.551553 0.772885 0
0.583108 0.773236 0
0.61445 0.773526 0
0.64564 0.773831 0
0.676738 0.774182 0
0.707698 0.774548 0
0.738506 0.774975 0
0.769375 0.775692 0
0.799588 0.776272 0
0.828885 0.777111 0
0.85713 0.778225 0
0.884596 0.779538 0
0.911543 0.781003 0
0.938186 0.782559 0
0.964843 0.784253 0
0.991592 0.785916 0
0.0105745 0.802075 0
0.0421759 0.802274 0
0.07364 0.802808 0
0.105318 0.803037 0
0.137041 0.803204 0
0.168826 0.803357 0
0.200687 0.803494 0
0.232593 0.803616 0
0.26453 0.803738 0
