src/colors/film_stock_&_vintage/red_film.cube
TITLE "Generated by Resolve"
LUT_3D_SIZE 9
0 0 0
0 0 0
0.0164034 0 0
0.0934462 0.00729381 0.00816358
0.213413 0.00979629 0.0114137
0.367498 0.0033875 0.00578317
0.542229 0 0
0.719722 0 0
0.889067 0 0
0.0297398 0.0401923 0.0101167
0.09308 0.0599069 0.00947585
0.18909 0.0710918 0.000686656
0.311452 0.0746014 0
0.452201 0.0731823 0
0.600229 0.0691386 0
0.747646 0.0652781 0
0.880186 0.0651255 0
0.991424 0.0701152 0
0.0401923 0.170169 0
0.139864 0.180957 0
0.258747 0.18558 0
0.388281 0.186984 0
0.519234 0.187106 0
0.645594 0.188296 0
0.769192 0.190036 0
0.88455 0.194003 0
0.991516 0.200351 0
0.0131685 0.312886 0
0.136873 0.315175 0
0.264622 0.315969 0
0.392416 0.316411 0
0.519875 0.317266 0
0.645457 0.318318 0
0.769177 0.32018 0
0.884413 0.324025 0
0.991409 0.330404 0
0.0105287 0.444327 0
0.136873 0.44535 0
0.264485 0.445991 0
0.392523 0.446693 0
0.519738 0.447288 0
0.645563 0.4486 0
0.769039 0.450202 0
0.88452 0.454307 0
0.991379 0.460548 0
0.010544 0.574289 0
0.137011 0.575418 0
0.264759 0.576196 0
0.392554 0.576654 0
0.520012 0.577508 0
0.645579 0.578546 0
0.769314 0.580423 0
0.884535 0.584268 0
0.991531 0.590646 0
0.0106661 0.704555 0
0.136919 0.70547 0
0.264637 0.706218 0
0.392676 0.70692 0
0.519875 0.707515 0
0.645716 0.708827 0
0.769192 0.71043 0
0.884672 0.714534 0
0.991424 0.720668 0
0.0105287 0.834592 0
0.136995 0.835706 0
0.264652 0.836393 0
0.392538 0.836942 0
0.519997 0.837797 0
0.645579 0.838849 0
0.769299 0.840711 0
0.884535 0.844556 0
0.991531 0.850935 0
0.0106508 0.964858 0
0.136858 0.965728 0
0.264607 0.966506 0
0.392432 0.966995 0
0.51986 0.967819 0
0.645685 0.969116 0
0.769162 0.970733 0
0.884642 0.974823 0
0.991379 0.980957 0
0 0 0
0 0 0
0.031754 0 0.011902
0.11989 0.00941482 0.0400854
0.245594 0.00848402 0.0602579
0.40177 0 0.0722362
0.574334 0 0.0770581
0.748745 0 0.0787823
0.911803 0 0.0800793
0.0349279 0.0476997 0.0476844
0.102495 0.0647288 0.0646982
0.201755 0.0731975 0.073167
0.325689 0.0746929 0.0746471
0.466087 0.0720531 0.0720073
0.612085 0.0675975 0.0675364
0.755962 0.0640116 0.0639658
0.883482 0.0645457 0.0644846
0.991867 0.0705425 0.0704967
0.0379797 0.174655 0.0720531
0.140658 0.183124 0.0682841
0.261219 0.186511 0.0630961
0.390631 0.187228 0.0587625
0.52018 0.187442 0.0572213
0.646021 0.188739 0.0585184
0.769497 0.190341 0.0601205
0.884978 0.194446 0.06421
0.991791 0.200641 0.0704204
0.0121309 0.314015 0.0551461
0.137316 0.315618 0.0552377
0.264805 0.316152 0.0557717
0.392859 0.316854 0.0564736
0.520302 0.317708 0.0573281
0.645884 0.318761 0.0583658
0.769619 0.320623 0.0602426
0.88484 0.324468 0.0640726
0.991836 0.330846 0.0704662
0.010956 0.44477 0.0542306
0.137179 0.44564 0.0551003
0.264927 0.446418 0.0558785
0.392798 0.446952 0.0564126
0.520165 0.44773 0.0571908
0.646006 0.449027 0.0584878
0.769482 0.450645 0.06009
0.884947 0.454734 0.0641947
0.991699 0.460868 0.0703288
0.0109865 0.574731 0.0542458
0.137453 0.575845 0.055375
0.264942 0.576379 0.0559091
0.392996 0.577081 0.0565957
0.520409 0.577905 0.0574197
0.646021 0.578988 0.0585031
0.769757 0.58085 0.0603799
0.884978 0.584695 0.06421
0.991974 0.591073 0.0706035
0.0111086 0.704997 0.0543832
0.137331 0.705867 0.0552529
0.265064 0.706645 0.0560311
0.392859 0.707103 0.0564736
0.520317 0.707958 0.0573434
0.646159 0.709255 0.0586404
0.769635 0.710872 0.0602426
0.8851 0.714961 0.0643473
0.991852 0.721096 0.0704814
0.0109712 0.835019 0.0542306
0.137438 0.836149 0.0553597
0.264927 0.836683 0.0558938
0.392981 0.837369 0.0565957
0.520287 0.838087 0.0572976
0.646006 0.839277 0.0584878
0.769696 0.841108 0.0603189
0.884962 0.844984 0.06421
0.991958 0.851377 0.0705882
0.0110781 0.965301 0.0543526
0.137301 0.966171 0.0552224
0.265049 0.966949 0.0560006
0.392844 0.967391 0.0564431
0.520302 0.968261 0.0573129
0.645869 0.969299 0.0583505
0.769604 0.971176 0.0602274
0.885069 0.975265 0.0643168
0.991821 0.981399 0.0704509
0 0 0
0 0 0.000976577
0.0514382 0.00448615 0.036408
0.146502 0.0107271 0.0778058
0.277287 0.00703441 0.112016
0.434882 0 0.137209
0.605905 0 0.153521
0.77612 0 0.164904
0.93283 0 0.17351
0.0398871 0.0551003 0.0904707
0.111696 0.0694743 0.121324
0.213794 0.0755016 0.142138
0.339696 0.075639 0.154711
0.479728 0.072221 0.160876
0.623697 0.0677043 0.163012
0.764065 0.0646982 0.164004
0.886976 0.0663462 0.167041
0.994034 0.0727092 0.173419
0.0369268 0.179736 0.155489
0.142687 0.186358 0.15964
0.26479 0.188815 0.160418
0.393927 0.189029 0.159762
0.522362 0.189593 0.160143
0.648081 0.190784 0.161334
0.771664 0.192508 0.163058
0.887144 0.196597 0.167147
0.993881 0.202731 0.173281
0.0133516 0.316548 0.157168
0.139483 0.317784 0.15816
0.266972 0.318303 0.158694
0.39501 0.319005 0.159396
0.522225 0.319615 0.160006
0.648051 0.320912 0.161303
0.771786 0.322789 0.163165
0.887007 0.326619 0.16701
0.994003 0.333013 0.173388
0.0131228 0.446937 0.157153
0.13933 0.447807 0.158022
0.267079 0.448585 0.158816
0.394873 0.449027 0.159258
0.522332 0.449897 0.160113
0.647944 0.450965 0.161196
0.771634 0.452811 0.163027
0.887114 0.456901 0.167117
0.993866 0.463035 0.173251
0.0131533 0.576898 0.157183
0.139605 0.578012 0.158297
0.267109 0.578546 0.158831
0.395148 0.579248 0.159533
0.522362 0.579858 0.160143
0.648188 0.581155 0.16144
0.771817 0.582925 0.16321
0.887144 0.586862 0.167147
0.994141 0.59324 0.173526
0.0132753 0.707164 0.157305
0.139483 0.708034 0.158175
0.267231 0.708812 0.158953
0.395026 0.709255 0.159411
0.522484 0.710124 0.160266
0.648051 0.711162 0.161318
0.771786 0.713039 0.16318
0.887266 0.717128 0.167269
0.994003 0.723262 0.173404
0.013138 0.837186 0.157168
0.139528 0.838239 0.158221
0.267094 0.838834 0.158816
0.395132 0.839536 0.159518
0.522347 0.840146 0.160128
0.648173 0.841443 0.161425
0.771695 0.843107 0.163088
0.887129 0.84715 0.167132
0.994018 0.853437 0.173419
0.0130007 0.967208 0.157031
0.139452 0.968322 0.158145
0.267201 0.969116 0.158938
0.394995 0.969558 0.15938
0.522454 0.970413 0.160235
0.648035 0.971466 0.161288
0.771771 0.973327 0.163149
0.886992 0.977172 0.166995
0.993988 0.983551 0.173373
0 0 0
0.00860609 0 0.016434
0.0718242 0.00825513 0.06981
0.172763 0.0111696 0.124849
0.307744 0.005066 0.172488
0.46537 0 0.208957
0.634989 0 0.235111
0.800855 0 0.254139
0.951675 0 0.268269
0.0441138 0.0617838 0.14258
0.120165 0.0736095 0.186114
0.22533 0.0776379 0.217716
0.352514 0.0764935 0.23917
0.491524 0.0723735 0.25185
0.633829 0.0681926 0.259052
0.770611 0.065919 0.262852
0.889433 0.0687266 0.266941
0.996429 0.0751049 0.27332
0.0359655 0.184253 0.24242
0.144778 0.189532 0.252796
0.268193 0.19118 0.257679
0.397024 0.191226 0.259159
0.524758 0.191989 0.260044
0.650339 0.193042 0.261097
0.77406 0.194903 0.262959
0.889372 0.19884 0.266896
0.996292 0.205127 0.273182
0.0154116 0.319051 0.256947
0.141863 0.320165 0.258061
0.269368 0.320714 0.25861
0.397406 0.321401 0.259297
0.52462 0.322011 0.259907
0.650446 0.323323 0.261204
0.773922 0.324926 0.262821
0.889403 0.329015 0.266911
0.996353 0.335363 0.273259
0.0152743 0.449088 0.256825
0.141726 0.450202 0.257939
0.269474 0.45098 0.258717
0.397269 0.451423 0.259159
0.524727 0.452293 0.260029
0.650309 0.45333 0.261067
0.774029 0.455207 0.262928
0.889265 0.459052 0.266773
0.996262 0.465431 0.273167
0.0155337 0.579293 0.257084
0.141878 0.580285 0.258091
0.269505 0.580941 0.258732
0.397543 0.581643 0.259434
0.524758 0.582254 0.260044
0.650584 0.583551 0.261341
0.77406 0.585168 0.262959
0.88954 0.589258 0.267048
0.996384 0.595483 0.273289
0.0154116 0.7093 0.256962
0.141878 0.71043 0.258076
0.269627 0.711208 0.258869
0.397421 0.71165 0.259312
0.52488 0.71252 0.260166
0.650462 0.713558 0.261219
0.774182 0.715434 0.263081
0.889403 0.719265 0.266926
0.996414 0.725658 0.273304
0.0155337 0.839582 0.257069
0.141772 0.840482 0.257969
0.26949 0.84123 0.258732
0.397406 0.84181 0.259297
0.524742 0.842542 0.260029
0.650568 0.843839 0.261326
0.774044 0.845457 0.262943
0.889525 0.849546 0.267033
0.996262 0.85568 0.273167
0.0153964 0.969604 0.256931
0.141863 0.970733 0.258061
0.269352 0.971252 0.258579
0.397391 0.971954 0.259281
0.524849 0.972808 0.260136
0.650431 0.973861 0.261189
0.774166 0.975723 0.26305
0.889387 0.979568 0.266896
0.996384 0.985962 0.273289
0 0 0.00682078
0.0210117 0.000442512 0.0428626
0.0921035 0.0108034 0.115541
0.198444 0.0105135 0.186419
0.336156 0.0021973 0.24799
0.493431 0 0.295796
0.660838 0 0.331273
0.821454 0 0.356771
0.966964 0 0.375692
0.0472267 0.0673075 0.209384
0.127214 0.0765698 0.265873
0.235203 0.0787671 0.308217
0.363363 0.0764935 0.337957
0.501625 0.0720073 0.356497
0.641596 0.0681315 0.367376
0.774517 0.0665904 0.372519
0.891051 0.0703441 0.376883
0.997955 0.0766308 0.383169
0.0343633 0.187579 0.343328
0.145968 0.191653 0.358984
0.270283 0.192493 0.366567
0.398917 0.192752 0.369116
0.526375 0.193606 0.369985
0.651957 0.194659 0.371023
0.775677 0.196521 0.3729
0.890898 0.200366 0.37673
0.997894 0.206744 0.383124
0.0170291 0.320668 0.366888
0.143236 0.321538 0.367758
0.270985 0.322316 0.368536
0.398962 0.322957 0.369162
0.526238 0.323629 0.369848
0.652064 0.324926 0.371145
0.77554 0.326543 0.372747
0.89102 0.330648 0.376852
0.997757 0.336767 0.382986
0.0168765 0.45069 0.366751
0.143359 0.45182 0.367864
0.270848 0.452354 0.368399
0.398886 0.45304 0.3691
0.526345 0.45391 0.369955
0.651926 0.454948 0.371008
0.775647 0.456825 0.372869
0.890883 0.460655 0.376715
0.997879 0.467048 0.383093
0.0171664 0.580911 0.367025
0.143374 0.581781 0.367895
0.271122 0.582559 0.368673
0.398993 0.583078 0.369192
0.526375 0.583871 0.369985
0.652201 0.585168 0.371283
0.775677 0.58677 0.372885
0.891142 0.590875 0.376989
0.997894 0.597009 0.383124
0.0170291 0.710918 0.366888
0.143496 0.712047 0.368017
0.271 0.712581 0.368551
0.399039 0.713268 0.369253
0.526436 0.714076 0.370047
0.652079 0.715175 0.371145
0.775799 0.717052 0.373022
0.89102 0.720882 0.376852
0.998016 0.727275 0.383246
0.0171511 0.841199 0.36701
0.143359 0.842069 0.36788
0.271107 0.842847 0.368658
0.398901 0.84329 0.3691
0.52636 0.84416 0.36997
0.652003 0.845273 0.371084
0.775662 0.847074 0.372885
0.891142 0.851164 0.376974
0.997879 0.857298 0.383108
0.0170138 0.971222 0.366873
0.143465 0.972335 0.367987
0.27097 0.972869 0.368521
0.399008 0.973571 0.369223
0.526223 0.974182 0.369833
0.652049 0.975479 0.37113
0.775723 0.977279 0.37293
0.891005 0.981186 0.376837
0.998001 0.987564 0.383215
0 0 0.0235904
0.0351873 0.00529488 0.0836957
0.111376 0.0119326 0.174884
0.222705 0.00872816 0.263462
0.362325 0 0.33904
0.518929 0 0.397818
0.683421 0 0.441581
0.839261 0 0.472663
0.978836 0 0.49482
0.0491646 0.0716106 0.291768
0.132769 0.0782788 0.360647
0.243412 0.0788891 0.413489
0.372076 0.0755932 0.450263
0.509606 0.0710002 0.473701
0.647105 0.0675975 0.486885
0.776425 0.0671397 0.492149
0.89192 0.0712291 0.496254
0.998672 0.077348 0.502388
0.0322271 0.189853 0.457771
0.146349 0.192798 0.477272
0.271504 0.193149 0.48629
0.399802 0.193637 0.488502
0.527001 0.194247 0.489113
0.652827 0.195529 0.49041
0.776562 0.197406 0.492271
0.891783 0.201251 0.496117
0.998779 0.20763 0.50251
0.0178988 0.321553 0.486259
0.144121 0.322423 0.487144
0.27187 0.323201 0.487922
0.399664 0.323659 0.488365
0.527108 0.324514 0.489219
0.652827 0.325689 0.490394
0.776425 0.327428 0.492134
0.891905 0.331518 0.496239
0.998642 0.337652 0.502358
0.0177615 0.451575 0.486122
0.144228 0.452705 0.487251
0.271717 0.453223 0.48777
0.399771 0.453925 0.488487
0.52697 0.454536 0.489082
0.652811 0.455833 0.490379
0.776532 0.457694 0.492241
0.891768 0.46154 0.496101
0.998749 0.467933 0.50248
0.0180362 0.581781 0.486397
0.144259 0.582666 0.487266
0.271992 0.583444 0.48806
0.399786 0.583886 0.488502
0.527245 0.584741 0.489357
0.652857 0.585809 0.490425
0.776562 0.587655 0.492271
0.892027 0.59176 0.496361
0.998779 0.597879 0.502495
0.0179141 0.711803 0.486275
0.144381 0.712932 0.487404
0.27187 0.713451 0.487922
0.399924 0.714153 0.488624
0.527123 0.714763 0.489235
0.652949 0.71606 0.490532
0.776577 0.717815 0.492287
0.891905 0.721767 0.496239
0.998901 0.728145 0.502617
0.0178225 0.841871 0.486183
0.144244 0.842954 0.487251
0.271992 0.843732 0.488045
0.399786 0.844175 0.488487
0.52723 0.845029 0.489342
0.652811 0.846082 0.490394
0.776547 0.847944 0.492256
0.891783 0.851804 0.496117
0.998764 0.858167 0.50248
0.0178836 0.972107 0.486244
0.144274 0.973144 0.487282
0.271839 0.973754 0.487907
0.399893 0.974456 0.488594
0.527092 0.975067 0.489204
0.652934 0.976364 0.490501
0.77641 0.977966 0.492119
0.891875 0.982071 0.496208
0.998764 0.988342 0.502495
0.000762951 0 0.0406653
0.0491798 0.00883497 0.138186
0.130434 0.0119326 0.249317
0.245396 0.00598154 0.354437
0.385489 0 0.442023
0.541772 0 0.511177
0.70312 0 0.561593
0.854154 0 0.596582
0.987778 0 0.620203
0.0500801 0.0747997 0.387579
0.137407 0.0792401 0.468177
0.250248 0.0783398 0.529503
0.379217 0.0742351 0.571588
0.515877 0.069749 0.598306
0.65066 0.0668956 0.611917
0.776974 0.0676585 0.616114
0.892378 0.0716716 0.620142
0.999191 0.0778821 0.626352
0.0298619 0.191348 0.580697
0.146304 0.193378 0.60235
0.272221 0.19353 0.611185
0.40032 0.194156 0.612467
0.52752 0.194766 0.613062
0.653361 0.196063 0.614374
0.776837 0.197681 0.615976
0.892317 0.20177 0.620081
0.999313 0.208148 0.626459
0.0182803 0.321935 0.610071
0.14464 0.322942 0.611093
0.272389 0.323735 0.611872
0.400183 0.324178 0.612329
0.527642 0.325032 0.613184
0.653223 0.326085 0.614221
0.776944 0.327947 0.616083
0.892241 0.331868 0.620005
0.999176 0.33817 0.626322
0.0182956 0.452094 0.610086
0.144732 0.453193 0.611185
0.272251 0.453758 0.611734
0.40029 0.454459 0.612436
0.527504 0.455055 0.613031
0.65333 0.456367 0.614343
0.776806 0.457969 0.615946
0.892287 0.462074 0.62005
0.999222 0.468391 0.626368
0.0183108 0.582055 0.610101
0.144778 0.583185 0.611231
0.272526 0.583963 0.612009
0.40032 0.584421 0.612451
0.527779 0.585275 0.613321
0.653346 0.586313 0.614359
0.777081 0.58819 0.61622
0.892302 0.592035 0.620066
0.999298 0.598413 0.626459
0.0184329 0.712322 0.610224
0.144778 0.713314 0.611215
0.272404 0.713985 0.611887
0.400412 0.714641 0.612543
0.527642 0.715282 0.613184
0.653483 0.716579 0.614481
0.776959 0.718196 0.616098
0.892439 0.722301 0.620203
0.999268 0.728511 0.626413
0.0182956 0.842359 0.610086
0.144762 0.843473 0.611215
0.272251 0.844007 0.611749
0.400305 0.844709 0.612436
0.527764 0.845563 0.613306
0.653346 0.846616 0.614343
0.777066 0.848478 0.61622
0.892287 0.852308 0.62005
0.999298 0.858701 0.626444
0.0184176 0.972625 0.610208
0.144625 0.973495 0.611078
0.272374 0.974273 0.611856
0.400275 0.974838 0.612421
0.527626 0.975586 0.613169
0.653452 0.976883 0.614466
0.776928 0.9785 0.616083
0.892409 0.982589 0.620172
0.999146 0.988724 0.626307
0.00935378 0.000762951 0.0814069
0.0624704 0.0110323 0.207919
0.148302 0.0106813 0.339773
0.266209 0.00225834 0.460853
0.407034 0 0.560113
0.561791 0 0.637476
0.719127 0 0.692363
0.86598 0 0.730297
0.993667 0 0.753704
0.0498512 0.0767071 0.497932
0.140764 0.0791791 0.589578
0.255451 0.0769207 0.657649
0.384909 0.0723735 0.704021
0.520317 0.0681163 0.732128
0.652476 0.0660563 0.74461
0.776928 0.0676127 0.747356
0.89218 0.0714733 0.751232
0.999146 0.0778363 0.75758
0.0271305 0.191897 0.713893
0.145464 0.193011 0.735653
0.272236 0.193408 0.742992
0.40029 0.19411 0.743709
0.527489 0.19472 0.744305
0.653315 0.196017 0.745602
0.776791 0.197635 0.747219
0.892271 0.201724 0.751324
0.999008 0.207858 0.757443
0.0181277 0.321782 0.741207
0.14461 0.322911 0.742336
0.272145 0.323491 0.742916
0.400137 0.324132 0.743557
0.527596 0.325002 0.744427
0.653178 0.32604 0.745464
0.776913 0.327916 0.747341
0.892134 0.331746 0.751171
0.99913 0.33814 0.757565
0.0182498 0.452064 0.741329
0.144457 0.452934 0.742199
0.272206 0.453712 0.742977
0.400168 0.454337 0.743603
0.527459 0.455024 0.744289
0.653284 0.456321 0.745586
0.776761 0.457923 0.747189
0.892241 0.462028 0.751293
0.998993 0.468162 0.757427
0.018265 0.58201 0.741344
0.144732 0.583139 0.742473
0.272236 0.583673 0.742992
0.400275 0.584375 0.743694
0.527733 0.585229 0.744564
0.653315 0.586282 0.745602
0.777035 0.588144 0.747478
0.892271 0.591989 0.751308
0.999252 0.598367 0.757702
0.0184024 0.712291 0.741482
0.14461 0.713161 0.742351
0.272358 0.713939 0.74313
0.400214 0.714458 0.743633
0.527611 0.715251 0.744442
0.653346 0.716457 0.745647
0.776913 0.718151 0.747341
0.892393 0.722255 0.751431
0.99913 0.728389 0.75758
0.018265 0.842313 0.741329
0.144717 0.843427 0.742458
0.272221 0.843961 0.742992
0.400259 0.844663 0.743694
0.527474 0.845273 0.744289
0.6533 0.846571 0.745586
0.777035 0.848432 0.747463
0.892256 0.852277 0.751293
0.999252 0.858656 0.757687
0.0183719 0.97258 0.741451
0.144579 0.973449 0.742321
0.272328 0.974243 0.743099
0.400122 0.974685 0.743542
0.527581 0.97554 0.744411
0.653223 0.976654 0.74551
0.776883 0.978454 0.747311
0.892363 0.982544 0.751415
0.999115 0.988678 0.757549
0.0176089 0.00520333 0.143862
0.0741894 0.0113832 0.29723
0.164263 0.00772107 0.452842
0.284291 0 0.590616
0.425299 0 0.701961
0.578164 0 0.78732
0.73196 0 0.84654
0.873854 0 0.885695
0.995377 0 0.907057
0.0479286 0.0768292 0.632319
0.142077 0.0773327 0.734691
0.258259 0.0737926 0.808896
0.388006 0.0690166 0.858915
0.521843 0.0650187 0.88687
0.651576 0.0641337 0.896941
0.775311 0.0659953 0.898817
0.890547 0.0698405 0.902663
0.997543 0.0762188 0.909041
0.0231022 0.190616 0.869108
0.143374 0.191241 0.890013
0.270619 0.191806 0.894469
0.398413 0.192248 0.894911
0.525872 0.193103 0.895766
0.651667 0.194369 0.897032
0.775174 0.196017 0.89868
0.890654 0.200107 0.90277
0.997391 0.206241 0.908904
0.0165255 0.320165 0.892668
0.142992 0.321294 0.893797
0.270481 0.321828 0.894316
0.398535 0.32253 0.895018
0.525734 0.323125 0.895628
0.65156 0.324422 0.896925
0.775296 0.326299 0.898787
0.890517 0.330144 0.902632
0.997513 0.336522 0.909026
0.0166323 0.450446 0.892775
0.142855 0.451316 0.89366
0.270588 0.452094 0.894438
0.398383 0.452552 0.894881
0.525841 0.453407 0.895735
0.651545 0.454566 0.89691
0.775158 0.456321 0.89865
0.890623 0.46041 0.902754
0.997375 0.466545 0.908873
0.0166629 0.580407 0.892805
0.143114 0.581521 0.893935
0.270619 0.582055 0.894453
0.398657 0.582757 0.895155
0.525872 0.583368 0.895766
0.651698 0.584665 0.897063
0.775418 0.586511 0.898909
0.890654 0.590372 0.90277
0.99765 0.59675 0.909148
0.0166629 0.710552 0.892821
0.142992 0.711543 0.893812
0.270741 0.712322 0.894591
0.398535 0.712764 0.895033
0.525994 0.713634 0.895888
0.651576 0.714687 0.896956
0.775296 0.716548 0.898802
0.890639 0.7205 0.902754
0.997528 0.726772 0.909026
0.0166476 0.840696 0.89279
0.143114 0.84181 0.893919
0.270604 0.842344 0.894438
0.398657 0.843046 0.89514
0.525856 0.843656 0.89575
0.651682 0.844953 0.897047
0.775158 0.846571 0.898665
0.890639 0.85066 0.902754
0.99762 0.857023 0.909133
0.0165408 0.970748 0.892683
0.142977 0.971847 0.893782
0.27071 0.972625 0.89456
0.398505 0.973068 0.895003
0.525963 0.973922 0.895857
0.651545 0.974975 0.89691
0.77528 0.976837 0.898772
0.890501 0.980682 0.902632
0.997497 0.98706 0.908995
