src/colors/film_stock_&_vintage/red_film.cube
TITLE "Generated by Resolve"
LUT_3D_SIZE 5
0 0 0
0.0164034 0 0
0.213413 0.00979629 0.0114137
0.542229 0 0
0.889067 0 0
0.0401923 0.170169 0
0.258747 0.18558 0
0.519234 0.187106 0
0.769192 0.190036 0
0.991516 0.200351 0
0.0105287 0.444327 0
0.264485 0.445991 0
0.519738 0.447288 0
0.769039 0.450202 0
0.991379 0.460548 0
0.0106661 0.704555 0
0.264637 0.706218 0
0.519875 0.707515 0
0.769192 0.71043 0
0.991424 0.720668 0
0.0106508 0.964858 0
0.264607 0.966506 0
0.51986 0.967819 0
0.769162 0.970733 0
0.991379 0.980957 0
0 0 0
0.0514382 0.00448615 0.036408
0.277287 0.00703441 0.112016
0.605905 0 0.153521
0.93283 0 0.17351
0.0369268 0.179736 0.155489
0.26479 0.188815 0.160418
0.522362 0.189593 0.160143
0.771664 0.192508 0.163058
0.993881 0.202731 0.173281
0.0131228 0.446937 0.157153
0.267079 0.448585 0.158816
0.522332 0.449897 0.160113
0.771634 0.452811 0.163027
0.993866 0.463035 0.173251
0.0132753 0.707164 0.157305
0.267231 0.708812 0.158953
0.522484 0.710124 0.160266
0.771786 0.713039 0.16318
0.994003 0.723262 0.173404
0.0130007 0.967208 0.157031
0.267201 0.969116 0.158938
0.522454 0.970413 0.160235
0.771771 0.973327 0.163149
0.993988 0.983551 0.173373
0 0 0.00682078
0.0921035 0.0108034 0.115541
0.336156 0.0021973 0.24799
0.660838 0 0.331273
0.966964 0 0.375692
0.0343633 0.187579 0.343328
0.270283 0.192493 0.366567
0.526375 0.193606 0.369985
0.775677 0.196521 0.3729
0.997894 0.206744 0.383124
0.0168765 0.45069 0.366751
0.270848 0.452354 0.368399
0.526345 0.45391 0.369955
0.775647 0.456825 0.372869
0.997879 0.467048 0.383093
0.0170291 0.710918 0.366888
0.271 0.712581 0.368551
0.526436 0.714076 0.370047
0.775799 0.717052 0.373022
0.998016 0.727275 0.383246
0.0170138 0.971222 0.366873
0.27097 0.972869 0.368521
0.526223 0.974182 0.369833
0.775723 0.977279 0.37293
0.998001 0.987564 0.383215
0.000762951 0 0.0406653
0.130434 0.0119326 0.249317
0.385489 0 0.442023
0.70312 0 0.561593
0.987778 0 0.620203
0.0298619 0.191348 0.580697
0.272221 0.19353 0.611185
0.52752 0.194766 0.613062
0.776837 0.197681 0.615976
0.999313 0.208148 0.626459
0.0182956 0.452094 0.610086
0.272251 0.453758 0.611734
0.527504 0.455055 0.613031
0.776806 0.457969 0.615946
0.999222 0.468391 0.626368
0.0184329 0.712322 0.610224
0.272404 0.713985 0.611887
0.527642 0.715282 0.613184
0.776959 0.718196 0.616098
0.999268 0.728511 0.626413
0.0184176 0.972625 0.610208
0.272374 0.974273 0.611856
0.527626 0.975586 0.613169
0.776928 0.9785 0.616083
0.999146 0.988724 0.626307
0.0176089 0.00520333 0.143862
0.164263 0.00772107 0.452842
0.425299 0 0.701961
0.73196 0 0.84654
0.995377 0 0.907057
0.0231022 0.190616 0.869108
0.270619 0.191806 0.894469
0.525872 0.193103 0.895766
0.775174 0.196017 0.89868
0.997391 0.206241 0.908904
0.0166323 0.450446 0.892775
0.270588 0.452094 0.894438
0.525841 0.453407 0.895735
0.775158 0.456321 0.89865
0.997375 0.466545 0.908873
0.0166629 0.710552 0.892821
0.270741 0.712322 0.894591
0.525994 0.713634 0.895888
0.775296 0.716548 0.898802
0.997528 0.726772 0.909026
0.0165408 0.970748 0.892683
0.27071 0.972625 0.89456
0.525963 0.973922 0.895857
0.77528 0.976837 0.898772
0.997497 0.98706 0.908995
