src/colors/film_stock_&_vintage/standard_film.cube
TITLE "Generated by Resolve"
LUT_3D_SIZE 5
0.0519417 0.0519417 0.0519417
0.140658 0.045655 0.045655
0.378698 0.00576791 0.00576791
0.695872 0 0
0.866926 0 0
0.0433356 0.138354 0.0433356
0.143648 0.143648 0.0486458
0.400488 0.119295 0.0242924
0.745434 0.0958419 0.000823987
0.956374 0.120439 0.0254215
0 0.342031 0
0.110353 0.389883 0.0153353
0.406394 0.406394 0.0292668
0.783108 0.41146 0.0335546
1 0.46041 0.0744182
0 0.712627 0
0.128283 0.774166 0.0332647
0.430396 0.792187 0.0495308
0.798596 0.789395 0.0469978
1 0.811383 0.0664073
0.0997177 1 0.0997177
0.224277 1 0.128893
0.503456 1 0.110857
0.832273 0.998138 0.0758221
1 0.993469 0.0716106
0.0487984 0.0487984 0.143816
0.139544 0.0445258 0.139544
0.378225 0.00534066 0.100343
0.69659 0 0.0534371
0.869703 0 0.0455787
0.0445106 0.139513 0.139513
0.14696 0.14696 0.14696
0.40853 0.126085 0.126085
0.758419 0.107118 0.107118
0.974548 0.136217 0.136217
0 0.356298 0.0806744
0.127184 0.409827 0.127184
0.427527 0.427527 0.142123
0.804044 0.433005 0.146746
1 0.482841 0.188769
0 0.733349 0.0914778
0.14699 0.794903 0.14699
0.450034 0.810575 0.161105
0.813092 0.803342 0.154589
1 0.821118 0.170611
0.110857 1 0.206287
0.231693 1 0.231693
0.509148 1 0.211124
0.836133 1 0.174594
1 0.996719 0.169986
0.0343175 0.0343175 0.412375
0.126009 0.0309911 0.408438
0.363897 0 0.363897
0.683314 0 0.314794
0.858854 0 0.308354
0.0336461 0.128649 0.411566
0.138674 0.138674 0.423453
0.403265 0.121645 0.403265
0.758831 0.107485 0.386465
0.979294 0.140337 0.425422
0 0.358511 0.358511
0.132036 0.415579 0.415579
0.433265 0.433265 0.433265
0.810971 0.440116 0.440116
1 0.489998 0.489982
0.00273136 0.740307 0.37528
0.152575 0.801114 0.439918
0.453208 0.81355 0.453254
0.81146 0.801785 0.440635
1 0.815518 0.455375
0.108064 1 0.499977
0.225559 1 0.525246
0.499229 1 0.499046
0.825101 0.991241 0.454719
1 0.986084 0.449195
0.0167697 0.0167697 0.743984
0.109178 0.0141604 0.741268
0.346426 0 0.702022
0.666697 0 0.655894
0.845182 0 0.652125
0.0199893 0.114992 0.747341
0.128084 0.128084 0.761028
0.395636 0.115206 0.74757
0.757 0.105882 0.737835
0.980789 0.141634 0.775189
0 0.358236 0.713329
0.1337 0.417563 0.766903
0.434882 0.434882 0.782193
0.81413 0.443381 0.78967
1 0.49247 0.833021
0.00549325 0.743374 0.732219
0.153918 0.802594 0.788022
0.450538 0.811048 0.795987
0.804303 0.794888 0.780758
0.997711 0.804807 0.790112
0.100526 1 0.831952
0.215 1 0.85185
0.48455 1 0.825971
0.809888 0.976577 0.785824
0.988067 0.971847 0.781369
0.0110933 0.0110933 0.903777
0.104204 0.00920119 0.901793
0.342199 0 0.863645
0.664271 0 0.819409
0.846235 0 0.818814
0.0187839 0.113802 0.911818
0.130388 0.130388 0.929152
0.403723 0.122026 0.920409
0.769985 0.117174 0.915328
0.996551 0.15491 0.9552
0 0.371923 0.89192
0.146975 0.433295 0.946929
0.451072 0.451087 0.9626
0.830686 0.460456 0.97084
1 0.507668 1
0.0196231 0.759045 0.912688
0.165881 0.815854 0.966674
0.459968 0.819852 0.970428
0.809079 0.799481 0.951247
0.998901 0.805951 0.957336
0.103441 1 1
0.215244 1 1
0.483085 1 0.990829
0.808026 0.974777 0.950271
0.986923 0.970748 0.946471
