src/colors/film_stock_&_vintage/standard_film.cube
TITLE "Generated by Resolve"
LUT_3D_SIZE 33
0.0519417 0.0519417 0.0519417
0.05832 0.0513466 0.0513466
0.0673991 0.0508583 0.0508583
0.0772564 0.0503853 0.0503853
0.0877852 0.0498512 0.0498512
0.0990768 0.0492103 0.0492103
0.111421 0.0483864 0.0483864
0.125139 0.0472267 0.0472267
0.140658 0.045655 0.045655
0.158694 0.0434424 0.0434424
0.179782 0.0404517 0.0404517
0.204364 0.0365606 0.0365606
0.232746 0.0316472 0.0316472
0.26537 0.0257725 0.0257725
0.301411 0.0192721 0.0192721
0.33933 0.0124666 0.0124666
0.378698 0.00576791 0.00576791
0.421195 0 0
0.46537 0 0
0.509773 0 0
0.553094 0 0
0.594278 0 0
0.631861 0 0
0.665644 0 0
0.695872 0 0
0.72282 0 0
0.746838 0 0
0.768673 0 0
0.788983 0 0
0.808316 0 0
0.827298 0 0
0.84654 0 0
0.866926 0 0
0.0515602 0.0585184 0.0515602
0.0588083 0.0588083 0.0518349
0.0682689 0.0587015 0.0517281
0.0783856 0.0584878 0.0515145
0.0891127 0.0581674 0.051194
0.100587 0.0576944 0.050721
0.113069 0.0570077 0.0500343
0.126909 0.0559854 0.049012
0.142565 0.0545205 0.0475471
0.160708 0.0524147 0.0454414
0.181888 0.0499428 0.0425574
0.206577 0.0461585 0.0387732
0.235019 0.0413367 0.0339513
0.267887 0.0355688 0.0281987
0.304051 0.0291752 0.0217899
0.342168 0.0224918 0.0151064
0.381842 0.0158999 0.00852979
0.424613 0.00929274 0.00190738
0.468956 0.00239567 0
0.513497 0 0
0.55697 0 0
0.598352 0 0
0.636103 0 0
0.670115 0 0
0.700572 0 0
0.727779 0 0
0.752071 0 0
0.774212 0 0
0.794827 0 0
0.814496 0 0
0.833829 0 0
0.853452 0 0
0.874235 0 0
0.0512093 0.0677501 0.0512093
0.0586557 0.0682231 0.0516823
0.0682689 0.0682689 0.0517281
0.0785382 0.0681926 0.0516518
0.0893873 0.0679942 0.0514534
0.100969 0.0676432 0.0511025
0.113558 0.0670481 0.0505226
0.127504 0.0661326 0.0496071
0.143252 0.0647746 0.048249
0.161501 0.0627756 0.0462501
0.182788 0.0599985 0.043473
0.207584 0.0563211 0.0397955
0.236133 0.0519417 0.0350805
0.269184 0.0463874 0.0294499
0.305501 0.0401312 0.0231785
0.343816 0.0335851 0.0166323
0.38378 0.0271458 0.010193
0.426795 0.0206912 0.00375372
0.471336 0.0139773 0
0.516075 0.00723278 0
0.559777 0.000732433 0
0.601389 0 0
0.639368 0 0
0.673671 0 0
0.704433 0 0
0.73196 0 0
0.756588 0 0
0.779095 0 0
0.800092 0 0
0.820172 0 0
0.839933 0 0
0.860014 0 0
0.8813 0 0
0.0508431 0.0777142 0.0508431
0.0583963 0.0783093 0.0514382
0.0681315 0.0784772 0.0515908
0.0785077 0.0785077 0.0516213
0.0894484 0.0784009 0.0515297
0.101137 0.0781567 0.0512703
0.113832 0.0776684 0.0507973
0.127886 0.0768597 0.0499886
0.143755 0.0756085 0.0487373
0.162112 0.0737316 0.0468605
0.18352 0.0710918 0.0442054
0.208453 0.0675364 0.0406653
0.23714 0.0629892 0.0361028
0.270405 0.057496 0.0306096
0.306889 0.0518044 0.0245212
0.345449 0.0454414 0.0181582
0.385794 0.0392004 0.011902
0.429053 0.0329595 0.0056611
0.473869 0.0264591 0
0.518853 0.0199435 0
0.562829 0.0137026 0
0.60473 0.00798047 0
0.64303 0.00311284 0
0.677668 0 0
0.708797 0 0
0.736721 0 0
0.761761 0 0
0.78471 0 0
0.806195 0 0
0.826795 0 0
0.84712 0 0
0.867811 0 0
0.889723 0 0
0.0503395 0.0882734 0.0503395
0.0579995 0.0889601 0.0510414
0.0678264 0.0892348 0.0513008
0.0783093 0.0893568 0.0514229
0.0893721 0.0893721 0.0514534
0.101183 0.0892348 0.0513161
0.113985 0.0888838 0.0509499
0.128176 0.0881971 0.0502632
0.144167 0.0870832 0.0491646
0.162692 0.085359 0.047425
0.184253 0.0828565 0.0449378
0.209354 0.0794842 0.0415656
0.238209 0.0751202 0.0371862
0.271733 0.0698253 0.0318914
0.308446 0.0639353 0.0260014
0.347311 0.0578012 0.0198672
0.388128 0.0519417 0.0138705
0.431678 0.0462196 0.00787366
0.476814 0.0399939 0.00164797
0.522118 0.0337682 0
0.56643 0.0278325 0
0.608667 0.022446 0
0.647364 0.0179294 0
0.682414 0.0144198 0
0.714015 0.0118868 0
0.742428 0.0102998 0
0.768017 0.00955215 0
0.791547 0.00949111 0
0.813626 0.0099794 0
0.834867 0.0108644 0
0.855833 0.0120394 0
0.87718 0.0133669 0
0.899779 0.0146181 0
0.049546 0.0994125 0.049546
0.0573281 0.100221 0.0503548
0.067277 0.100603 0.0507362
0.0778821 0.100862 0.0509957
0.0890669 0.101015 0.0511482
0.101015 0.101015 0.0511482
0.11397 0.100801 0.0509346
0.128328 0.100298 0.0504311
0.144503 0.0993515 0.049485
0.163195 0.0978103 0.0479438
0.18497 0.0955215 0.045655
0.210285 0.0923629 0.0424964
0.239368 0.0882124 0.0383459
0.273198 0.0831769 0.0333104
0.310201 0.0775464 0.0276799
0.349432 0.0716869 0.0218204
0.390814 0.06598 0.0161135
0.434714 0.0603189 0.0104524
0.480247 0.0544137 0.00454719
0.525933 0.0489662 0
0.570672 0.0433967 0
0.613321 0.0384222 0
0.652522 0.0343633 0
0.688151 0.0313268 0
0.720333 0.0293126 0
0.749355 0.0282444 0
0.77557 0.0280613 0
0.799756 0.0285649 0
0.822522 0.029633 0
0.84445 0.0311284 0
0.866133 0.032929 0
0.888228 0.0348974 0
0.911589 0.0368048 0
0.0482795 0.111315 0.0482795
0.056199 0.112261 0.0492256
0.0662852 0.112795 0.0497597
0.0770428 0.113207 0.0501564
0.0884108 0.113512 0.0504768
0.100526 0.113695 0.05066
0.11368 0.11368 0.0506447
0.128237 0.113375 0.0503395
0.144625 0.112657 0.0496223
0.163577 0.11136 0.0483101
0.185595 0.109316 0.0462806
0.211185 0.106432 0.0433814
0.240543 0.102571 0.0395209
0.274739 0.0978256 0.0347906
0.312093 0.0925307 0.0294957
0.351766 0.0870069 0.0239719
0.39379 0.0816663 0.0186313
0.438148 0.0763867 0.0133364
0.484169 0.0709087 0.00787366
0.530358 0.065507 0.00247196
0.575647 0.060441 0
0.61883 0.0559854 0
0.658671 0.0524453 0
0.694926 0.0504005 0
0.727779 0.0489509 0
0.757488 0.0484779 0
0.784405 0.0488899 0
0.809308 0.0500343 0
0.832822 0.0517433 0
0.855528 0.0535134 0
0.878004 0.0560006 0
0.900923 0.0586709 0
0.925124 0.061326 0
0.0462959 0.124193 0.0462959
0.0543832 0.125307 0.0474098
0.0646525 0.126024 0.048127
0.0756085 0.126635 0.0487373
0.0871901 0.127153 0.0492561
0.0995346 0.127581 0.0496681
0.112932 0.127794 0.049897
0.127749 0.127749 0.0498512
0.144411 0.127306 0.0494087
0.163653 0.126299 0.0484016
0.185992 0.124559 0.0466621
0.211902 0.122011 0.0441138
0.241596 0.118502 0.040589
0.276234 0.114122 0.0362249
0.314015 0.109224 0.0313268
0.354253 0.104143 0.0262455
0.39704 0.0992752 0.0213626
0.442008 0.0944991 0.0166018
0.488624 0.0895552 0.0116579
0.535424 0.0846876 0.00679026
0.581353 0.0801862 0.00228885
0.625101 0.0763104 0
0.66566 0.0733806 0
0.702632 0.071519 0
0.736217 0.0707256 0
0.766674 0.0709087 0
0.794385 0.0720073 0
0.820081 0.0738384 0
0.844419 0.0762646 0
0.867979 0.0791791 0.00128176
0.89134 0.0824292 0.00453193
0.915145 0.0858778 0.00798047
0.940246 0.0893111 0.0114137
0.0433356 0.138354 0.0433356
0.0519417 0.139681 0.0446632
0.06215 0.140627 0.0456092
0.0733501 0.141482 0.0464637
0.0851911 0.142275 0.0472572
0.0978256 0.142962 0.0479591
0.111513 0.143496 0.0484779
0.12665 0.143755 0.0487526
0.143648 0.143648 0.0486458
0.163241 0.142992 0.0479896
0.185962 0.141649 0.0466316
0.212284 0.139498 0.0444953
0.24242 0.136446 0.0414282
0.277607 0.132555 0.0375525
0.315953 0.128176 0.0331579
0.356832 0.123629 0.0286107
0.400488 0.119295 0.0242924
0.446143 0.115099 0.0200809
0.493431 0.110735 0.0157321
0.540902 0.106477 0.0114748
0.587533 0.102602 0.00759899
0.631937 0.099382 0.00436408
0.673274 0.0971084 0.00209049
0.71104 0.0959487 0.0009308
0.745434 0.0958419 0.000823987
0.77673 0.0967422 0.00173953
0.805295 0.0985885 0.00357061
0.831891 0.101198 0.0061799
0.85713 0.104402 0.00939956
0.881575 0.10811 0.0130922
0.905821 0.112123 0.0171206
0.93048 0.116304 0.0213016
0.956374 0.120439 0.0254215
0.0389258 0.154177 0.0389258
0.0479133 0.155779 0.040528
0.0582895 0.157015 0.0417639
0.0697948 0.158175 0.0429236
0.0819715 0.159289 0.0440375
0.0949416 0.160327 0.0450752
0.108995 0.161212 0.0459602
0.124514 0.161883 0.0466163
0.141955 0.162188 0.0469368
0.162005 0.162005 0.0467536
0.185214 0.161151 0.0458991
0.21207 0.159533 0.0442664
0.242756 0.157015 0.0417487
0.278523 0.153689 0.0384222
0.317479 0.149874 0.0346227
0.359091 0.145922 0.0306706
0.403647 0.142214 0.0269474
0.45005 0.138643 0.0233768
0.498085 0.134936 0.0196689
0.546304 0.13135 0.0160983
0.593713 0.128161 0.0128939
0.63888 0.125643 0.0103914
0.681056 0.124102 0.00885023
0.719692 0.12369 0.00843824
0.754971 0.124376 0.00910964
0.787182 0.12607 0.0108034
0.816632 0.128679 0.0134279
0.844099 0.132052 0.0167849
0.870176 0.135988 0.0207218
0.895399 0.140352 0.0251011
0.920378 0.145006 0.0297551
0.945693 0.149767 0.0345159
0.972213 0.154421 0.0391699
0.0327611 0.172091 0.0327611
0.0420844 0.174014 0.034699
0.0528115 0.175601 0.0362707
0.0646982 0.177127 0.0378119
0.0772564 0.178653 0.0393225
0.0906691 0.180133 0.0408026
0.105211 0.181491 0.0421759
0.121233 0.182666 0.0433356
0.139193 0.183505 0.0441901
0.159792 0.183856 0.0445411
0.183581 0.183581 0.0442512
0.211002 0.182528 0.0432136
0.242298 0.180606 0.0412909
0.278691 0.17792 0.0385901
0.318318 0.174731 0.0354162
0.360708 0.17145 0.0321202
0.40618 0.168414 0.029099
0.453422 0.165545 0.026215
0.502281 0.162554 0.0232395
0.551324 0.159716 0.0203861
0.599603 0.15729 0.0179599
0.645594 0.15555 0.0162203
0.688685 0.154803 0.0154726
0.728222 0.155169 0.0158389
0.764355 0.156588 0.017258
0.797375 0.158984 0.0196536
0.827588 0.162264 0.0229343
0.855756 0.166232 0.0269169
0.882475 0.170733 0.0314183
0.908293 0.175616 0.0363012
0.933806 0.180728 0.041413
0.959594 0.185901 0.0465858
0.986526 0.190921 0.051606
0.0246433 0.192432 0.0246433
0.0343786 0.194781 0.0269932
0.0459754 0.196826 0.0290227
0.0579385 0.19884 0.0310521
0.0710155 0.200885 0.0330816
0.0849622 0.202884 0.0350958
0.100053 0.204807 0.0370184
0.116655 0.206546 0.0387579
0.13521 0.20798 0.0401923
0.156405 0.208942 0.0411536
0.180819 0.209293 0.0414893
0.208896 0.208896 0.0411078
0.240848 0.207645 0.0398413
0.277897 0.205615 0.0378271
0.318273 0.203159 0.0353704
0.36144 0.200595 0.0327916
0.407858 0.198306 0.030518
0.456016 0.196201 0.0284123
0.505776 0.194003 0.0261997
0.555718 0.191943 0.024155
0.604837 0.19028 0.0224918
0.651652 0.189273 0.0214847
0.695537 0.189212 0.0214237
0.73579 0.190219 0.0224308
0.772625 0.192233 0.024445
0.806271 0.195178 0.0273747
0.837064 0.198947 0.0311589
0.865736 0.203372 0.0355688
0.892912 0.20827 0.0404669
0.919127 0.213489 0.0457008
0.944961 0.218891 0.0511025
0.971023 0.224262 0.0560922
0.998642 0.229389 0.0612955
0.0144961 0.215763 0.0144961
0.0247501 0.218631 0.0173648
0.0368963 0.221195 0.0199435
0.0498207 0.223758 0.0225376
0.0630655 0.226337 0.0251469
0.0776226 0.228901 0.0277562
0.0933242 0.231403 0.0302892
0.110552 0.233738 0.0326543
0.129763 0.235798 0.0347448
0.151644 0.237415 0.0363775
0.176745 0.238437 0.0374151
0.205524 0.238758 0.0377356
0.238239 0.238239 0.0372168
0.275944 0.237003 0.0359503
0.317113 0.235325 0.0342565
0.361105 0.23357 0.0324865
0.408423 0.23209 0.0309758
0.457465 0.230762 0.029633
0.508049 0.229297 0.0281529
0.55877 0.227924 0.0267643
0.608576 0.226902 0.0257267
0.656046 0.22649 0.0252995
0.700526 0.226932 0.0257572
0.741344 0.228397 0.0272374
0.778653 0.230808 0.0296788
0.812741 0.234073 0.0330053
0.8439 0.238132 0.0370947
0.872892 0.242786 0.0417792
0.900313 0.247913 0.046891
0.926696 0.253376 0.0519417
0.952651 0.259068 0.0573587
0.978775 0.264759 0.0628214
1 0.270146 0.0679942
0.00289921 0.241962 0.00289921
0.0137484 0.245411 0.00636301
0.0264897 0.248615 0.00953689
0.0400397 0.251865 0.0127413
0.0539254 0.255207 0.0160067
0.0691386 0.258595 0.0192721
0.0855268 0.261952 0.0224765
0.103456 0.265141 0.0255589
0.123384 0.26807 0.0283665
0.145998 0.270542 0.0307469
0.171862 0.272404 0.0325475
0.201434 0.273548 0.0336461
0.234974 0.273823 0.0339055
0.27332 0.27332 0.0334173
0.315221 0.272328 0.0324712
0.359899 0.271214 0.0313878
0.407904 0.270329 0.0305486
0.457664 0.269566 0.0298009
0.508904 0.268589 0.0288701
0.560204 0.267689 0.0280003
0.610529 0.267079 0.0274205
0.658473 0.267063 0.0274052
0.703365 0.267918 0.0282292
0.744533 0.269764 0.0299992
0.782132 0.272572 0.0327001
0.816434 0.276204 0.0362097
0.847745 0.280613 0.0404364
0.876829 0.285557 0.0452125
0.90428 0.290883 0.0503395
0.930632 0.296437 0.0552682
0.956466 0.302068 0.0606699
0.982391 0.307591 0.0659648
1 0.312795 0.0709392
0 0.27216 0
0.00259403 0.276417 0
0.0160067 0.280415 0
0.0302434 0.284443 0.00294499
0.0452583 0.288563 0.00691234
0.0607767 0.292714 0.0109102
0.0779126 0.296834 0.0148775
0.0966049 0.300832 0.0187076
0.117327 0.304585 0.0223087
0.140734 0.307897 0.0254673
0.167361 0.310582 0.0280461
0.197665 0.31249 0.0298619
0.231922 0.313497 0.0308232
0.270771 0.313649 0.0309606
0.313268 0.313268 0.0306096
0.358434 0.312703 0.0300755
0.406912 0.312322 0.0297093
0.457206 0.312016 0.0294041
0.508904 0.311452 0.0288701
0.560586 0.310887 0.028336
0.611231 0.310567 0.0280308
0.659434 0.310796 0.0282444
0.70454 0.311833 0.0292363
0.74583 0.313817 0.0311437
0.783505 0.316716 0.0338903
0.817807 0.320409 0.0373999
0.849058 0.324819 0.0415808
0.877989 0.329747 0.0462196
0.905226 0.335027 0.0511635
0.931365 0.340551 0.0559091
0.957168 0.346349 0.0612802
0.983261 0.352255 0.0667124
1 0.358038 0.0719921
0 0.305516 0
0 0.310552 0
0.00683604 0.315358 0
0.0218357 0.320256 0
0.0376135 0.325261 0
0.0539254 0.330327 0.0040589
0.0718395 0.335393 0.00880446
0.0912947 0.340322 0.0133974
0.112718 0.344961 0.0177157
0.136797 0.349111 0.0215305
0.164034 0.352575 0.0247196
0.194903 0.3552 0.0271153
0.229725 0.356817 0.0285954
0.26894 0.357488 0.0292058
0.311864 0.357565 0.0292668
0.357382 0.357382 0.029099
0.406149 0.357336 0.0290684
0.456748 0.35729 0.0290227
0.508705 0.356939 0.0287022
0.560571 0.356512 0.0283055
0.611322 0.356283 0.0281071
0.659571 0.356558 0.0283513
0.704631 0.357626 0.0293278
0.745846 0.359625 0.0311437
0.783352 0.362509 0.033753
0.817411 0.366171 0.0370642
0.848508 0.370687 0.0411078
0.877485 0.375937 0.0457771
0.904952 0.381796 0.0509346
0.931472 0.388235 0.0560006
0.95761 0.394965 0.0616617
0.983993 0.401709 0.0673686
1 0.40824 0.0728618
0 0.342031 0
0 0.348089 0
0.000442512 0.353933 0
0.0162203 0.359884 0
0.0327459 0.365942 0
0.0501564 0.372076 0
0.0683146 0.378149 0.00527962
0.088365 0.3841 0.0104677
0.110353 0.389883 0.0153353
0.13492 0.395026 0.0196689
0.162631 0.399329 0.0233005
0.193896 0.40264 0.0261082
0.229084 0.404807 0.0279393
0.268574 0.405905 0.0288548
0.311742 0.406256 0.02916
0.357458 0.406287 0.0291752
0.406394 0.406394 0.0292668
0.457069 0.406424 0.0292973
0.509041 0.406058 0.0289921
0.560861 0.405554 0.0285496
0.61149 0.405188 0.0282597
0.659556 0.405295 0.028336
0.704387 0.406195 0.029099
0.745495 0.408255 0.0308537
0.783108 0.41146 0.0335546
0.817487 0.415686 0.0371099
0.848936 0.420859 0.041474
0.878248 0.426734 0.0464332
0.906004 0.433143 0.0518349
0.932769 0.439887 0.0571298
0.959121 0.446815 0.062974
0.985672 0.453758 0.0688029
1 0.46041 0.0744182
0 0.38323 0
0 0.390738 0
0 0.397894 0
0.0127108 0.405066 0
0.0298314 0.412253 0
0.047776 0.419379 0
0.0664225 0.426352 0.0033875
0.0869154 0.433021 0.00901808
0.10927 0.439246 0.0142672
0.134188 0.44477 0.0189212
0.162173 0.449424 0.0228428
0.193652 0.45301 0.025864
0.229007 0.455375 0.027863
0.26862 0.456611 0.0288853
0.311849 0.457038 0.0292515
0.357549 0.457053 0.0292668
0.406424 0.457084 0.0292973
0.456962 0.456977 0.0292058
0.508705 0.456382 0.0287022
0.560311 0.455665 0.0280919
0.610941 0.455268 0.0277714
0.659175 0.455558 0.0280156
0.704356 0.45684 0.0290837
0.74583 0.459281 0.0311437
0.783749 0.462806 0.0341039
0.818402 0.467338 0.0379187
0.850095 0.47274 0.0424811
0.879591 0.478798 0.0476081
0.907485 0.485313 0.0527199
0.934356 0.492103 0.0585031
0.960754 0.499001 0.0643931
0.987793 0.505821 0.0702373
1 0.512291 0.0758068
0 0.430503 0
0 0.438666 0
0 0.446464 0
0.00987259 0.454215 0
0.0273899 0.461906 0
0.045716 0.46949 0
0.0646677 0.476829 0.00163272
0.08542 0.483772 0.0075227
0.107988 0.490181 0.0129702
0.133043 0.495811 0.0177768
0.161105 0.500496 0.0217899
0.19263 0.504051 0.0248417
0.227985 0.506355 0.0268101
0.26743 0.507454 0.0277562
0.310506 0.507698 0.0279698
0.355917 0.507469 0.0277714
0.404517 0.507362 0.0276799
0.4551 0.507301 0.0276341
0.507118 0.506981 0.0273594
0.559121 0.506645 0.0270695
0.610101 0.506615 0.027039
0.65864 0.50721 0.0275425
0.704082 0.508721 0.0288396
0.745769 0.511315 0.0310826
0.783871 0.514946 0.0341955
0.818631 0.519478 0.038117
0.850416 0.524849 0.0427558
0.879942 0.5308 0.0479133
0.907851 0.537163 0.0530251
0.934646 0.54377 0.0587625
0.960952 0.550423 0.0645609
0.987839 0.55697 0.0702831
1 0.563165 0.0756847
0 0.479988 0
0 0.488563 0
0 0.496666 0
0.00793469 0.504631 0
0.0256962 0.512444 0
0.0442054 0.520043 0
0.0632792 0.527352 0.000244144
0.0841077 0.534234 0.00621042
0.106676 0.54052 0.0116732
0.131685 0.545998 0.016434
0.15964 0.550469 0.020325
0.190997 0.55378 0.023209
0.226169 0.555795 0.024979
0.265461 0.556802 0.025864
0.308629 0.557168 0.0261692
0.354269 0.557275 0.0262608
0.403098 0.557534 0.0264897
0.454017 0.557794 0.0267185
0.50634 0.557763 0.026688
0.558602 0.557671 0.0266117
0.609781 0.557839 0.0267643
0.658473 0.558572 0.0274052
0.704036 0.560174 0.0287938
0.745785 0.562799 0.0310979
0.783902 0.566384 0.0342412
0.818647 0.57084 0.0381323
0.850355 0.576043 0.04271
0.879774 0.581811 0.0477607
0.9075 0.58793 0.0527352
0.934096 0.594247 0.0582742
0.960143 0.600565 0.063859
0.986236 0.606653 0.0693065
1 0.612284 0.074403
0 0.529656 0
0 0.538308 0
0 0.546441 0
0.007187 0.554376 0
0.0249943 0.562112 0
0.0434882 0.569604 0
0.062501 0.57673 0
0.0831922 0.583383 0.00529488
0.105577 0.58938 0.0105592
0.130419 0.594598 0.0151522
0.158373 0.599023 0.0190585
0.189899 0.602441 0.0221103
0.225391 0.604776 0.0241855
0.264958 0.606104 0.0253758
0.3084 0.606744 0.0259709
0.354284 0.607111 0.0262913
0.403357 0.607569 0.0267033
0.454459 0.608011 0.0271
0.506935 0.608103 0.0271916
0.559274 0.608118 0.0272068
0.610498 0.608331 0.0273899
0.65919 0.609033 0.0280308
0.704723 0.610544 0.0293889
0.74638 0.613001 0.0316167
0.78436 0.616327 0.034638
0.818936 0.620447 0.0383764
0.850416 0.625254 0.0427558
0.879545 0.630579 0.0475624
0.90695 0.636225 0.0522469
0.933165 0.642023 0.0574807
0.958785 0.647807 0.0626841
0.984405 0.653376 0.0677043
1 0.658518 0.072343
0 0.578363 0
0 0.586938 0
0 0.594965 0
0.00790417 0.60267 0
0.0255589 0.61001 0
0.0438544 0.617014 0
0.0627451 0.623758 0
0.0834974 0.630274 0.00560006
0.106111 0.636378 0.0111086
0.131289 0.64184 0.0160372
0.159533 0.646479 0.0202182
0.191318 0.650156 0.0235294
0.227008 0.65272 0.0258335
0.266865 0.654231 0.0272068
0.31046 0.655039 0.0279393
0.356558 0.655512 0.0283665
0.405905 0.656062 0.0288548
0.457053 0.656535 0.0292821
0.509483 0.656626 0.0293584
0.561746 0.65658 0.0293126
0.612833 0.656687 0.0294194
0.661387 0.657252 0.0299229
0.706706 0.658579 0.0311131
0.748119 0.660792 0.0331273
0.785809 0.663859 0.0358892
0.820035 0.667689 0.0393378
0.851102 0.672145 0.0433661
0.879789 0.677058 0.047776
0.906706 0.682231 0.0520333
0.932357 0.687495 0.0567788
0.957382 0.692683 0.0614633
0.98233 0.697627 0.065919
1 0.702083 0.0699321
0 0.624704 0
0 0.632837 0
0 0.640436 0
0.0106813 0.647959 0
0.0284581 0.655436 0
0.0470436 0.662791 0
0.0662547 0.669947 0.00320439
0.0872816 0.676783 0.0093843
0.11014 0.683162 0.0151217
0.135515 0.688853 0.020264
0.163943 0.69369 0.0246128
0.19585 0.697505 0.0280613
0.231571 0.700175 0.030457
0.271733 0.701747 0.0318914
0.315404 0.702586 0.032639
0.361715 0.703029 0.0330358
0.411353 0.703502 0.033463
0.462394 0.703853 0.0337835
0.514595 0.703777 0.0337224
0.566613 0.703532 0.0334936
0.617365 0.70338 0.0333562
0.665599 0.703639 0.0336004
0.710567 0.704616 0.0344701
0.751553 0.706432 0.0361028
0.788785 0.709056 0.038468
0.822477 0.712367 0.0414588
0.852995 0.716289 0.0449989
0.881056 0.720592 0.0488746
0.907286 0.725109 0.0525368
0.932235 0.729686 0.0566567
0.956497 0.734157 0.0607004
0.980713 0.738384 0.0644999
1 0.742123 0.0678721
0 0.668772 0
0 0.67715 0
0 0.6851 0
0.0173037 0.692958 0
0.0353552 0.700725 0
0.0537423 0.708339 0.00387579
0.0735637 0.715709 0.0105287
0.0947433 0.722728 0.016846
0.117723 0.729229 0.0227054
0.143175 0.735012 0.027924
0.171649 0.739895 0.0323186
0.203555 0.743709 0.0357671
0.239139 0.746334 0.0381323
0.279606 0.747829 0.0394751
0.323262 0.748516 0.0401007
0.369833 0.748791 0.0403449
0.419776 0.749035 0.0405737
0.470527 0.749126 0.04065
0.522301 0.748714 0.0402838
0.573877 0.748104 0.0397192
0.624079 0.747539 0.0392157
0.671855 0.747326 0.0390326
0.716289 0.747784 0.0394293
0.756695 0.749035 0.0405737
0.793271 0.751034 0.0423743
0.826276 0.753689 0.0447547
0.856062 0.756909 0.0476692
0.883375 0.760479 0.0508888
0.908843 0.764279 0.0538949
0.933059 0.768139 0.0573739
0.956588 0.771908 0.0607767
0.980087 0.775433 0.0639658
1 0.778485 0.0667124
0 0.712627 0
0 0.721279 0
0.0099031 0.729473 0
0.0275273 0.73753 0.000228885
0.045716 0.745449 0.00737011
0.06421 0.753185 0.0143435
0.0840925 0.760632 0.0210574
0.105318 0.767681 0.0274205
0.128283 0.774166 0.0332647
0.153689 0.779889 0.0384222
0.182055 0.784649 0.0427253
0.213825 0.788327 0.0460365
0.249256 0.790753 0.0482185
0.289845 0.792004 0.0493477
0.333471 0.792401 0.0497139
0.380346 0.79234 0.0496529
0.430396 0.792187 0.0495308
0.480659 0.791836 0.0492103
0.531823 0.790951 0.0484169
0.582788 0.789807 0.047364
0.632258 0.788663 0.0463417
0.679393 0.787808 0.0455787
0.72311 0.787579 0.0453651
0.762783 0.788128 0.0458534
0.798596 0.789395 0.0469978
0.830869 0.791333 0.0487373
0.859907 0.793835 0.0509957
0.886503 0.796719 0.053193
0.911254 0.799817 0.0559854
0.934752 0.803006 0.058854
0.957595 0.806104 0.0616617
0.980407 0.808972 0.0642405
1 0.811383 0.0664073
0 0.7561 0
0.00601205 0.764889 0
0.0230564 0.773175 0.00610361
0.0407111 0.781292 0.0134279
0.0585031 0.789227 0.0205844
0.0773938 0.796933 0.0275273
0.0972152 0.804303 0.034165
0.118318 0.811231 0.0404059
0.141131 0.817548 0.0461128
0.166339 0.823056 0.0510719
0.194461 0.827573 0.0547341
0.22591 0.83093 0.0577707
0.261433 0.833005 0.0596323
0.301778 0.833844 0.0603952
0.345342 0.833799 0.0603494
0.392798 0.833219 0.0598306
0.442344 0.832532 0.059205
0.491936 0.831571 0.0583352
0.542306 0.83003 0.0569619
0.592493 0.828183 0.0552834
0.641108 0.826322 0.0536049
0.687495 0.82475 0.0521859
0.730465 0.823789 0.0517433
0.769406 0.823636 0.051606
0.804501 0.824216 0.0519417
0.836057 0.825452 0.0528267
0.864393 0.827298 0.05449
0.890288 0.829511 0.0564889
0.914366 0.831952 0.0586862
0.937209 0.834485 0.0609751
0.959381 0.836957 0.0632029
0.981537 0.8392 0.0652323
1 0.841001 0.0668498
0.00627146 0.798825 0.00627146
0.0215763 0.807614 0.0141909
0.0385748 0.815854 0.0216373
0.0557412 0.82388 0.0288701
0.0738231 0.831678 0.0359045
0.092546 0.8392 0.0426795
0.112154 0.846342 0.0491188
0.133013 0.852979 0.0546883
0.155535 0.858991 0.0601053
0.180407 0.864118 0.0647288
0.208148 0.868208 0.0684215
0.239002 0.871107 0.0710307
0.274723 0.872648 0.0724193
0.314611 0.872923 0.0726635
0.358099 0.872236 0.0720684
0.405951 0.871 0.0709392
0.454765 0.869596 0.0696727
0.503502 0.867918 0.0681621
0.553017 0.86566 0.0661173
0.602411 0.863096 0.0638132
0.650202 0.860533 0.0614939
0.695857 0.858259 0.0594492
0.738125 0.856641 0.0579843
0.776364 0.855802 0.0572366
0.810773 0.855711 0.0571603
0.841642 0.856306 0.0576944
0.869322 0.857496 0.0587625
0.89456 0.859083 0.0601968
0.918013 0.860914 0.0618448
0.940215 0.862852 0.0635843
0.961776 0.864729 0.0652781
0.983322 0.866377 0.0667735
1 0.867613 0.0678874
0.0234379 0.840589 0.0234379
0.0386206 0.849226 0.0312352
0.0550088 0.857267 0.0384833
0.0723735 0.865034 0.0454871
0.0901808 0.872541 0.0519417
0.108598 0.879728 0.05832
0.127855 0.886473 0.0644083
0.148318 0.892683 0.0699931
0.170397 0.898192 0.0749676
