src/colors/film_stock_&_vintage/standard_film.cube
TITLE "Generated by Resolve"
LUT_3D_SIZE 9
0.0519417 0.0519417 0.0519417
0.0877852 0.0498512 0.0498512
0.140658 0.045655 0.045655
0.232746 0.0316472 0.0316472
0.378698 0.00576791 0.00576791
0.553094 0 0
0.695872 0 0
0.788983 0 0
0.866926 0 0
0.0503395 0.0882734 0.0503395
0.0893721 0.0893721 0.0514534
0.144167 0.0870832 0.0491646
0.238209 0.0751202 0.0371862
0.388128 0.0519417 0.0138705
0.56643 0.0278325 0
0.714015 0.0118868 0
0.813626 0.0099794 0
0.899779 0.0146181 0
0.0433356 0.138354 0.0433356
0.0851911 0.142275 0.0472572
0.143648 0.143648 0.0486458
0.24242 0.136446 0.0414282
0.400488 0.119295 0.0242924
0.587533 0.102602 0.00759899
0.745434 0.0958419 0.000823987
0.85713 0.104402 0.00939956
0.956374 0.120439 0.0254215
0.0144961 0.215763 0.0144961
0.0630655 0.226337 0.0251469
0.129763 0.235798 0.0347448
0.238239 0.238239 0.0372168
0.408423 0.23209 0.0309758
0.608576 0.226902 0.0257267
0.778653 0.230808 0.0296788
0.900313 0.247913 0.046891
1 0.270146 0.0679942
0 0.342031 0
0.0327459 0.365942 0
0.110353 0.389883 0.0153353
0.229084 0.404807 0.0279393
0.406394 0.406394 0.0292668
0.61149 0.405188 0.0282597
0.783108 0.41146 0.0335546
0.906004 0.433143 0.0518349
1 0.46041 0.0744182
0 0.529656 0
0.0249943 0.562112 0
0.105577 0.58938 0.0105592
0.225391 0.604776 0.0241855
0.403357 0.607569 0.0267033
0.610498 0.608331 0.0273899
0.78436 0.616327 0.034638
0.90695 0.636225 0.0522469
1 0.658518 0.072343
0 0.712627 0
0.045716 0.745449 0.00737011
0.128283 0.774166 0.0332647
0.249256 0.790753 0.0482185
0.430396 0.792187 0.0495308
0.632258 0.788663 0.0463417
0.798596 0.789395 0.0469978
0.911254 0.799817 0.0559854
1 0.811383 0.0664073
0.0412604 0.881086 0.0412604
0.106615 0.911498 0.0682689
0.18471 0.934798 0.0892805
0.300069 0.943145 0.0968032
0.477668 0.934478 0.0889906
0.666911 0.920073 0.0760052
0.822309 0.910277 0.0671702
0.924804 0.910933 0.0677501
1 0.913893 0.0704356
0.0997177 1 0.0997177
0.156008 1 0.117662
0.224277 1 0.128893
0.331975 1 0.127153
0.503456 1 0.110857
0.68368 1 0.0905776
0.832273 0.998138 0.0758221
0.929702 0.993896 0.0720073
1 0.993469 0.0716106
0.0506752 0.0506752 0.0886091
0.0876173 0.0496834 0.0876173
0.140749 0.0457313 0.0836652
0.23299 0.0319066 0.0698253
0.379202 0.00619516 0.0445411
0.553841 0 0.0170443
0.696941 0 0
0.790478 0 0
0.868971 0 0
0.05066 0.0885939 0.0885939
0.0898756 0.0898756 0.0898756
0.144915 0.0878309 0.0878309
0.239261 0.076173 0.076173
0.389868 0.053254 0.053254
0.568765 0.0298161 0.0298161
0.717113 0.0145724 0.0145724
0.817731 0.0135348 0.0135348
0.905013 0.0191653 0.0191653
0.0445258 0.139544 0.0824598
0.0868391 0.143923 0.0868391
0.145861 0.145861 0.088777
0.245411 0.139422 0.0823377
0.405112 0.123201 0.0661173
0.593286 0.107546 0.0508736
0.752468 0.101946 0.0452735
0.865614 0.111772 0.0546883
0.966079 0.128847 0.0717784
0.0178073 0.219059 0.0557259
0.0673381 0.230533 0.0673381
0.135119 0.241108 0.0780194
0.24477 0.24477 0.0817121
0.417639 0.23978 0.0766918
0.618616 0.235508 0.0723735
0.78941 0.24004 0.0769513
0.911376 0.25774 0.0944228
1 0.280003 0.115846
0 0.34963 0.0178988
0.0409094 0.375082 0.0409094
0.119341 0.400534 0.0622568
0.238437 0.416037 0.075349
0.417792 0.417792 0.0768139
0.622248 0.416281 0.0755474
0.794263 0.422934 0.0811627
0.917571 0.445045 0.0998245
1 0.472465 0.122911
0 0.540688 0.00630198
0.0345769 0.573053 0.0345769
0.114916 0.599985 0.0578317
0.235111 0.615671 0.0719615
0.415335 0.618723 0.0747539
0.622141 0.619501 0.0754559
0.795758 0.627207 0.0824598
0.917739 0.646616 0.0999619
1 0.668009 0.119234
0 0.72369 0.0260929
0.0554513 0.75671 0.0554513
0.138354 0.785336 0.0812695
0.259251 0.801541 0.0958724
0.441184 0.802289 0.0965591
0.641688 0.797742 0.0924544
0.806821 0.797314 0.0920729
0.918334 0.806638 0.100481
1 0.817166 0.109972
0.050782 0.891646 0.088716
0.115419 0.921263 0.115419
0.192508 0.94345 0.135424
0.307134 0.950652 0.141924
0.48452 0.940902 0.133135
0.672541 0.925505 0.119234
0.826978 0.914778 0.109575
0.928695 0.914672 0.109483
1 0.917082 0.11165
0.106142 1 0.144472
0.161471 1 0.161471
0.228794 1 0.171817
0.336004 1 0.169268
0.507195 1 0.152377
0.686824 1 0.13164
0.835035 1 0.116564
0.932219 0.996323 0.112535
1 0.995834 0.112093
0.0487984 0.0487984 0.143816
0.0861982 0.0482643 0.143282
0.139544 0.0445258 0.139544
0.231968 0.030869 0.125872
0.378225 0.00534066 0.100343
0.553109 0 0.0730907
0.69659 0 0.0534371
0.7906 0 0.0470588
0.869703 0 0.0455787
0.0496834 0.0876173 0.144686
0.0890974 0.0890974 0.146181
0.144396 0.0873121 0.144396
0.239094 0.0759899 0.133074
0.390204 0.0535286 0.110613
0.569741 0.0306706 0.0873274
0.718959 0.0161898 0.0728618
0.82063 0.0160525 0.0727245
0.909117 0.0227207 0.0793927
0.0445106 0.139513 0.139513
0.0872969 0.144381 0.144381
0.14696 0.14696 0.14696
0.247349 0.14136 0.14136
0.40853 0.126085 0.126085
0.597894 0.111513 0.111513
0.758419 0.107118 0.107118
0.872999 0.118181 0.118181
0.974548 0.136217 0.136217
0.0200656 0.221317 0.115084
0.0706035 0.233753 0.127687
0.139498 0.245487 0.139498
0.250477 0.250477 0.144442
0.425696 0.246555 0.140566
0.627359 0.243076 0.137087
0.798779 0.248157 0.142153
0.920897 0.266346 0.159777
1 0.288334 0.180957
0 0.356298 0.0806744
0.0480354 0.3832 0.104707
0.127184 0.409827 0.127184
0.246632 0.425788 0.140642
0.427527 0.427527 0.142123
0.631418 0.425742 0.140612
0.804044 0.433005 0.146746
0.927657 0.455451 0.165652
1 0.482841 0.188769
0 0.550179 0.0712444
0.0426947 0.582315 0.0993668
0.12311 0.60911 0.12311
0.243656 0.625147 0.137667
0.425772 0.628428 0.140627
0.632166 0.629129 0.141268
0.805417 0.636515 0.147921
0.92668 0.655238 0.164813
1 0.675608 0.183185
0 0.733349 0.0914778
0.0642557 0.766461 0.12134
0.14699 0.794903 0.14699
0.267781 0.810636 0.161166
0.450034 0.810575 0.161105
0.649149 0.804913 0.156008
0.813092 0.803342 0.154589
0.923491 0.811597 0.162036
1 0.821118 0.170611
0.0583505 0.900496 0.153765
0.12256 0.929183 0.179629
0.198596 0.95021 0.198596
0.312459 0.956298 0.204089
0.489403 0.945495 0.194354
0.67628 0.929107 0.179568
0.829786 0.917479 0.169085
0.930816 0.916716 0.168399
1 0.918608 0.170108
0.110857 1 0.206287
0.16527 1 0.222324
0.231693 1 0.231693
0.338369 1 0.228443
0.509148 1 0.211124
0.688258 1 0.18996
0.836133 1 0.174594
0.93315 0.997223 0.170428
1 0.996719 0.169986
0.0435798 0.0435798 0.244587
0.0813153 0.0433814 0.244373
0.134844 0.0398413 0.240848
0.227497 0.0263371 0.227497
0.373327 0.0010071 0.202258
0.548363 0 0.175265
0.692287 0 0.155947
0.786816 0 0.149615
0.86656 0 0.148699
0.0452125 0.0831464 0.24622
0.0848554 0.0848554 0.247944
0.140429 0.0833448 0.246418
0.235554 0.0724193 0.235554
0.386511 0.0508583 0.213779
0.566857 0.0281987 0.191104
0.717083 0.0145571 0.177478
0.819852 0.0153658 0.178286
0.90956 0.0231174 0.186038
0.0410925 0.13611 0.2421
0.0844129 0.141497 0.247501
0.144778 0.144778 0.250813
0.246036 0.140047 0.246036
0.408164 0.12578 0.231876
0.598856 0.112322 0.21857
0.760815 0.109194 0.215442
0.876692 0.121401 0.227558
0.979217 0.140276 0.246265
0.0191196 0.220371 0.220371
0.0706951 0.233845 0.233845
0.140764 0.246754 0.246754
0.25304 0.25304 0.25304
0.429908 0.250156 0.250156
0.632288 0.247364 0.247364
0.80415 0.252903 0.252903
0.926284 0.271214 0.271214
1 0.292927 0.292927
0 0.359518 0.189853
0.0518959 0.387762 0.214817
0.13164 0.415122 0.237675
0.251408 0.431357 0.251408
0.432959 0.432959 0.252781
0.636759 0.431235 0.251286
0.809873 0.438987 0.258045
0.9337 0.461692 0.277913
1 0.488945 0.301869
0 0.555566 0.182193
0.0471351 0.587366 0.210056
0.127932 0.61442 0.233997
0.248829 0.630854 0.248829
0.431983 0.634241 0.251942
0.638025 0.634775 0.25243
0.810773 0.641672 0.258854
0.931228 0.659617 0.275685
1 0.678874 0.293721
0.00167849 0.739147 0.202945
0.0694896 0.772259 0.232654
0.151949 0.800427 0.258198
0.272389 0.815549 0.272389
0.454322 0.814588 0.271489
0.65211 0.807767 0.265095
0.814893 0.805081 0.262577
0.924193 0.812268 0.269322
1 0.820813 0.277317
0.0625162 0.905119 0.264439
0.125795 0.932769 0.290333
0.200793 0.952636 0.308995
0.31371 0.957626 0.31371
0.489723 0.9458 0.302556
0.675608 0.92845 0.28629
0.82826 0.915999 0.274647
0.928664 0.914641 0.273365
1 0.91606 0.274693
0.111727 1 0.315663
0.165225 1 0.331701
0.230838 1 0.340963
0.336706 1 0.336706
0.506752 1 0.317693
0.685466 1 0.295186
0.833066 0.998901 0.278981
0.929976 0.994156 0.27454
1 0.993713 0.274128
0.0343175 0.0343175 0.412375
0.0722972 0.0343633 0.412436
0.126009 0.0309911 0.408438
0.218921 0.0176547 0.392645
0.363897 0 0.363897
0.538811 0 0.334844
0.683314 0 0.314794
0.778408 0 0.308659
0.858854 0 0.308354
0.0366217 0.0745556 0.415106
0.0764935 0.0764935 0.417411
0.132387 0.0753033 0.415991
0.228031 0.0647898 0.40354
0.378302 0.0437476 0.378302
0.559396 0.0217899 0.353872
0.710704 0.00901808 0.340047
0.814618 0.0108339 0.341985
0.905638 0.0196994 0.351598
0.0336461 0.128649 0.411566
0.0775311 0.134615 0.418647
0.138674 0.138674 0.423453
0.240864 0.134874 0.418936
0.403265 0.121645 0.403265
0.595392 0.109346 0.388693
0.758831 0.107485 0.386465
0.875929 0.120729 0.402197
0.979294 0.140337 0.425422
0.0142977 0.215564 0.388647
0.0669566 0.230167 0.406104
0.138247 0.244236 0.422934
0.251713 0.251713 0.431724
0.42948 0.24979 0.42948
0.632563 0.247608 0.426932
0.80473 0.253422 0.433707
0.926741 0.271626 0.45452
1 0.29337 0.479377
0 0.358511 0.358511
0.0518044 0.38764 0.38764
0.132036 0.415579 0.415579
0.251926 0.431968 0.431968
0.433265 0.433265 0.433265
0.637446 0.431952 0.431952
0.810971 0.440116 0.440116
0.93492 0.462943 0.462989
1 0.489998 0.489982
0 0.5561 0.351644
0.0473945 0.587671 0.382452
0.128679 0.615259 0.411597
0.249866 0.631983 0.429572
0.433204 0.635386 0.433204
0.638926 0.63563 0.433463
0.811063 0.641962 0.440223
0.930571 0.658991 0.458488
1 0.677104 0.477882
0.00273136 0.740307 0.37528
0.0704509 0.773342 0.410254
0.152575 0.801114 0.439918
0.272389 0.815534 0.45539
0.453208 0.81355 0.453254
0.649821 0.80557 0.444678
0.81146 0.801785 0.440635
0.919692 0.80795 0.447227
1 0.815518 0.455375
0.0621958 0.904768 0.445914
0.124483 0.931304 0.474388
0.198444 0.950042 0.494148
0.310231 0.953948 0.498222
0.484733 0.941115 0.484794
0.669779 0.92285 0.465324
0.821653 0.909651 0.451148
0.921477 0.907729 0.449073
1 0.908721 0.450156
0.108064 1 0.499977
0.160693 1 0.516335
0.225559 1 0.525246
0.330388 1 0.520088
0.499229 1 0.499046
0.677729 1 0.473518
0.825101 0.991241 0.454719
0.92195 0.986435 0.449577
1 0.986084 0.449195
0.0243534 0.0243534 0.601892
0.0625467 0.0246128 0.602167
0.116411 0.0214084 0.598764
0.209522 0.00825513 0.584436
0.353796 0 0.55697
0.528435 0 0.527428
0.673594 0 0.50634
0.769284 0 0.500221
0.850538 0 0.500679
0.0272984 0.0652171 0.604974
0.0674296 0.0674296 0.607263
0.123674 0.0665904 0.606394
0.219837 0.0565194 0.595743
0.36965 0.0360571 0.572824
0.551308 0.0148623 0.54934
0.703792 0.00300603 0.536095
0.808896 0.00585946 0.539284
0.901259 0.0158999 0.5505
0.0255741 0.120577 0.603174
0.0700847 0.127169 0.610025
0.132067 0.132067 0.615061
0.235279 0.129229 0.612131
0.397864 0.117082 0.599466
0.591485 0.106004 0.587427
0.75639 0.105364 0.586725
0.874571 0.119554 0.60209
0.978637 0.139773 0.623011
0.00903334 0.210285 0.585275
0.0628214 0.226078 0.602457
0.135363 0.241352 0.618448
0.249943 0.249943 0.627329
0.428397 0.248859 0.626215
0.63209 0.247181 0.624491
0.804395 0.253132 0.630594
0.926116 0.271077 0.648646
1 0.293141 0.670863
0 0.356954 0.560174
0.0511025 0.386801 0.589364
0.131701 0.415183 0.614679
0.251591 0.431571 0.629023
0.432609 0.432609 0.629923
0.637385 0.431876 0.629282
0.8112 0.44036 0.636774
0.93518 0.463203 0.65687
1 0.489982 0.680552
0 0.555611 0.554299
0.0470436 0.587259 0.584924
0.12874 0.615335 0.611643
0.250111 0.632242 0.627497
0.433417 0.635584 0.63064
0.638727 0.635447 0.630518
0.810147 0.641077 0.635828
0.928603 0.657084 0.650904
1 0.674037 0.66688
0.00297551 0.740581 0.578622
0.0705272 0.773419 0.610468
0.152209 0.800702 0.635996
0.271244 0.814313 0.648829
0.450721 0.811215 0.645899
0.64622 0.80209 0.637308
0.806745 0.797238 0.632731
0.913924 0.802396 0.637583
1 0.809049 0.643854
0.0607614 0.903181 0.640162
0.121996 0.928557 0.664073
0.194949 0.946166 0.680674
0.305592 0.94902 0.68336
0.478447 0.93521 0.670344
0.66273 0.916045 0.652293
0.813916 0.90219 0.639231
0.913207 0.899748 0.636927
0.995148 0.900389 0.637537
0.103304 1 0.684611
0.155062 1 0.698634
0.219257 1 0.706065
0.323064 1 0.700755
0.490608 1 0.681102
0.668971 1 0.657954
0.81619 0.982651 0.641291
0.913024 0.977844 0.636774
0.994095 0.977646 0.636591
0.0167697 0.0167697 0.743984
0.0551461 0.0172122 0.744457
0.109178 0.0141604 0.741268
0.202472 0.00122072 0.727733
0.346426 0 0.702022
0.520897 0 0.674784
0.666697 0 0.655894
0.763043 0 0.650919
0.845182 0 0.652125
0.0203403 0.0582742 0.747723
0.0607614 0.0607614 0.750332
0.117388 0.0603037 0.749859
0.214054 0.051133 0.739834
0.363882 0.0308843 0.718685
0.546242 0.0105287 0.697414
0.699901 0 0.68603
0.806256 0.00357061 0.69012
0.900008 0.0148165 0.701885
0.0199893 0.114992 0.747341
0.0652171 0.122301 0.754986
0.128084 0.128084 0.761028
0.232319 0.126223 0.759091
0.395636 0.115206 0.74757
0.590768 0.105379 0.737316
0.757 0.105882 0.737835
0.876127 0.120912 0.753536
0.980789 0.141634 0.775189
0.00642405 0.207691 0.733181
0.061387 0.224674 0.750988
0.135195 0.241184 0.76846
0.250813 0.250813 0.778485
0.430259 0.250462 0.778103
0.634333 0.249165 0.776776
0.806668 0.255146 0.782895
0.9281 0.272862 0.800702
1 0.29546 0.823438
0 0.358236 0.713329
0.0524453 0.388907 0.741634
0.1337 0.417563 0.766903
0.253498 0.433799 0.781216
0.434882 0.434882 0.782193
0.640085 0.434669 0.781994
0.81413 0.443381 0.78967
0.938033 0.466133 0.809705
1 0.49247 0.833021
0 0.55758 0.708385
0.0491646 0.58967 0.737774
0.131197 0.618021 0.764279
0.252705 0.635065 0.780407
0.436225 0.638224 0.783368
0.64097 0.637598 0.782788
0.811551 0.64242 0.787335
0.928862 0.657328 0.801373
1 0.673136 0.816281
0.00549325 0.743374 0.732219
0.0727855 0.775921 0.76289
0.153918 0.802594 0.788022
0.27216 0.815305 0.8
0.450538 0.811048 0.795987
0.644862 0.800793 0.786328
0.804303 0.794888 0.780758
0.910475 0.799054 0.784695
0.997711 0.804807 0.790112
0.0612802 0.903746 0.790936
0.121462 0.927962 0.813748
0.193439 0.944472 0.829313
0.303044 0.946303 0.831052
0.47454 0.931548 0.817136
0.658061 0.911559 0.798291
0.808621 0.897093 0.78468
0.907439 0.894194 0.781933
0.989029 0.894514 0.782238
0.100526 1 0.831952
0.151461 1 0.845121
0.215 1 0.85185
0.318044 1 0.846006
0.48455 1 0.825971
0.662791 0.994369 0.802594
0.809888 0.976577 0.785824
0.906767 0.971817 0.781338
0.988067 0.971847 0.781369
0.0132448 0.0132448 0.8327
0.0519417 0.0138552 0.833356
0.106004 0.0109865 0.83035
0.199512 0 0.817044
0.343542 0 0.791623
0.518212 0 0.764782
0.664622 0 0.746395
0.761669 0 0.742077
0.84477 0 0.744152
0.0174716 0.0554055 0.837125
0.0582132 0.0582132 0.84007
0.115251 0.0581674 0.840024
0.212451 0.0495308 0.830564
0.36289 0.029984 0.810132
0.546212 0.0105135 0.789776
0.701015 0.000610361 0.779431
0.808667 0.0056611 0.78471
0.903853 0.0181582 0.797772
0.0186007 0.113619 0.8383
0.064622 0.121706 0.846754
0.128405 0.128405 0.853758
0.233661 0.127596 0.852918
0.398657 0.117739 0.842618
0.595193 0.109178 0.833677
0.76257 0.110719 0.835279
0.882536 0.126482 0.851759
0.988113 0.147585 0.873808
0.00820935 0.209461 0.827436
0.0643931 0.227634 0.846525
0.139406 0.245396 0.865263
0.256092 0.256092 0.876249
0.437079 0.256352 0.876524
0.641245 0.255299 0.875441
0.813428 0.261265 0.881437
0.93492 0.278996 0.899275
1 0.302068 0.922469
0 0.364202 0.811368
0.0583352 0.39588 0.840192
0.139712 0.424674 0.865568
0.259434 0.440589 0.879606
0.442115 0.442115 0.880964
0.647501 0.442298 0.881117
0.821668 0.451148 0.888914
0.945373 0.473701 0.908766
1 0.499443 0.93164
0 0.564172 0.806806
0.0549935 0.59678 0.836698
0.137713 0.625193 0.863478
0.259434 0.642298 0.879606
0.443641 0.645151 0.882307
0.647562 0.643946 0.881163
0.817212 0.647868 0.884855
0.933303 0.661616 0.89781
1 0.676295 0.91165
0.0119478 0.750515 0.831357
0.0788739 0.782681 0.861662
0.15938 0.808652 0.886137
0.276875 0.820325 0.897124
0.454673 0.814908 0.892027
0.647745 0.803571 0.881331
0.806104 0.796628 0.8748
0.911284 0.799847 0.877836
0.997665 0.804761 0.88246
0.0654154 0.908339 0.887663
0.124575 0.931426 0.909422
0.19559 0.946868 0.923964
0.304341 0.947692 0.924743
0.475029 0.932006 0.909957
0.657755 0.911269 0.890425
0.807752 0.896254 0.87628
0.906126 0.892943 0.873152
0.987457 0.892989 0.873198
0.101472 1 0.925322
0.151598 1 0.937652
0.214542 1 0.943786
0.317082 1 0.937469
0.483085 1 0.917082
0.661143 0.992782 0.893492
0.808179 0.974945 0.876677
0.90518 0.969833 0.872297
0.986297 0.970138 0.872587
0.0110933 0.0110933 0.903777
0.0502174 0.0118868 0.904601
0.104204 0.00920119 0.901793
0.197971 0 0.888731
0.342199 0 0.863645
0.517235 0 0.837247
0.664271 0 0.819409
0.762127 0 0.815808
0.846235 0 0.818814
0.016022 0.0539559 0.908934
0.0571145 0.0571145 0.912245
0.114611 0.0575265 0.912657
0.212375 0.0494545 0.903807
0.363668 0.0306859 0.884184
0.548104 0.0121309 0.86479
0.704082 0.00326543 0.855528
0.813077 0.00949111 0.862028
0.909728 0.0232547 0.876417
0.0187839 0.113802 0.911818
0.0656443 0.122728 0.921141
0.130388 0.130388 0.929152
0.236698 0.130663 0.929442
0.403723 0.122026 0.920409
0.601587 0.114687 0.912749
0.769985 0.117174 0.915328
0.890669 0.133532 0.932433
0.996551 0.15491 0.9552
0.0117037 0.21297 0.904418
0.0691539 0.232319 0.924804
0.145296 0.251347 0.944732
0.263081 0.263081 0.957
0.445594 0.263844 0.957778
0.649683 0.262913 0.956832
0.821561 0.268605 0.96257
0.943435 0.286687 0.980758
1 0.31017 1
0 0.371923 0.89192
0.0656138 0.404517 0.921111
0.146975 0.433295 0.946929
0.266789 0.448966 0.960739
0.451072 0.451087 0.9626
0.656519 0.451591 0.963043
0.830686 0.460456 0.97084
0.954116 0.482673 0.990448
1 0.507668 1
0 0.572473 0.887709
0.0626841 0.605402 0.918044
0.145556 0.63389 0.945006
0.267536 0.650919 0.961486
0.452445 0.653391 0.963821
0.65539 0.651484 0.96202
0.823972 0.654383 0.964752
0.938857 0.666972 0.976608
1 0.680552 0.98941
0.0196231 0.759045 0.912688
0.0861067 0.790707 0.942535
0.165881 0.815854 0.966674
0.282567 0.826413 0.976608
0.459968 0.819852 0.970428
0.651759 0.807431 0.95874
0.809079 0.799481 0.951247
0.913298 0.801785 0.953399
0.998901 0.805951 0.957336
0.0705272 0.914 0.966751
0.128679 0.935973 0.987442
0.198734 0.950362 1
0.306722 0.95021 1
0.476753 0.933623 0.985245
0.658778 0.912245 0.965087
0.808225 0.896727 0.950469
0.906233 0.893034 0.94699
0.986862 0.892882 0.94641
0.103441 1 1
0.152834 1 1
0.215244 1 1
0.317388 1 1
0.483085 1 0.990829
0.66099 0.99263 0.967102
0.808026 0.974777 0.950271
0.905196 0.969833 0.945617
0.986923 0.970748 0.946471
