src/colors/film_stock_&_vintage/vintage_400_film.cube
# M.Fahri Analog Film Pack 2023
# Follow me: https://www.instagram.com/m.fahri.photo/
TITLE "M Fahri - 400h"
#LUT size
LUT_3D_SIZE 9
#LUT data points
0.015686 0.019608 0.011765
0.094118 0.023529 0.043137
0.219608 0.019608 0.023529
0.388235 0.015686 0.015686
0.588235 0.003922 0.007843
0.756863 0.011765 0.011765
0.874510 0.003922 0.000000
0.956863 0.105882 0.015686
0.996078 0.227451 0.000000
0.043137 0.101961 0.047059
0.078431 0.098039 0.015686
0.215686 0.105882 0.007843
0.403922 0.086275 0.007843
0.596078 0.050980 0.003922
0.752941 0.062745 0.003922
0.870588 0.121569 0.003922
0.960784 0.192157 0.003922
1.000000 0.258824 0.000000
0.011765 0.227451 0.043137
0.007843 0.211765 0.015686
0.192157 0.235294 0.015686
0.403922 0.235294 0.000000
0.596078 0.235294 0.003922
0.741176 0.250980 0.003922
0.858824 0.274510 0.003922
0.952941 0.321569 0.007843
0.984314 0.341176 0.007843
0.000000 0.376471 0.019608
0.003922 0.376471 0.027451
0.109804 0.376471 0.019608
0.356863 0.384314 0.003922
0.560784 0.403922 0.003922
0.733333 0.415686 0.003922
0.843137 0.419608 0.003922
0.937255 0.439216 0.003922
0.976471 0.447059 0.003922
0.000000 0.521569 0.007843
0.003922 0.517647 0.019608
0.023529 0.509804 0.007843
0.317647 0.521569 0.003922
0.517647 0.533333 0.007843
0.698039 0.549020 0.003922
0.819608 0.552941 0.007843
0.913725 0.552941 0.003922
0.984314 0.556863 0.003922
0.000000 0.635294 0.050980
0.003922 0.635294 0.050980
0.019608 0.627451 0.054902
0.298039 0.627451 0.050980
0.486275 0.631373 0.000000
0.647059 0.639216 0.011765
0.780392 0.647059 0.000000
0.890196 0.654902 0.003922
0.984314 0.658824 0.000000
0.000000 0.733333 0.168627
0.011765 0.733333 0.160784
0.172549 0.733333 0.180392
0.345098 0.729412 0.180392
0.494118 0.725490 0.149020
0.627451 0.733333 0.105882
0.749020 0.741176 0.058824
0.870588 0.752941 0.019608
0.937255 0.756863 0.003922
0.227451 0.835294 0.309804
0.250980 0.835294 0.325490
0.329412 0.831373 0.329412
0.423529 0.831373 0.337255
0.525490 0.827451 0.329412
0.627451 0.827451 0.305882
0.737255 0.835294 0.305882
0.854902 0.847059 0.243137
0.952941 0.854902 0.231373
0.415686 0.933333 0.486275
0.431373 0.937255 0.490196
0.474510 0.941176 0.501961
0.517647 0.929412 0.505882
0.580392 0.925490 0.509804
0.654902 0.929412 0.517647
0.741176 0.937255 0.513725
0.831373 0.945098 0.498039
0.945098 0.960784 0.501961
0.039216 0.043137 0.090196
0.105882 0.031373 0.086275
0.227451 0.019608 0.086275
0.403922 0.007843 0.090196
0.588235 0.007843 0.090196
0.760784 0.007843 0.078431
0.882353 0.019608 0.098039
0.968627 0.141176 0.066667
0.996078 0.239216 0.086275
0.011765 0.105882 0.086275
0.094118 0.105882 0.086275
0.227451 0.117647 0.090196
0.415686 0.090196 0.082353
0.600000 0.054902 0.090196
0.764706 0.050980 0.074510
0.870588 0.141176 0.062745
0.960784 0.215686 0.054902
0.996078 0.262745 0.054902
0.003922 0.231373 0.090196
0.050980 0.239216 0.105882
0.211765 0.235294 0.082353
0.415686 0.239216 0.062745
0.596078 0.243137 0.050980
0.749020 0.250980 0.027451
0.862745 0.282353 0.015686
0.952941 0.325490 0.023529
0.984314 0.341176 0.035294
0.003922 0.392157 0.090196
0.007843 0.392157 0.090196
0.137255 0.380392 0.086275
0.380392 0.396078 0.047059
0.576471 0.407843 0.003922
0.733333 0.407843 0.003922
0.843137 0.423529 0.003922
0.937255 0.443137 0.007843
0.976471 0.447059 0.007843
0.003922 0.533333 0.090196
0.007843 0.525490 0.101961
0.062745 0.517647 0.105882
0.333333 0.525490 0.082353
0.529412 0.529412 0.015686
0.698039 0.549020 0.000000
0.819608 0.552941 0.007843
0.913725 0.552941 0.007843
0.980392 0.552941 0.011765
0.003922 0.643137 0.133333
0.007843 0.643137 0.141176
0.090196 0.639216 0.152941
0.325490 0.631373 0.145098
0.494118 0.635294 0.109804
0.650980 0.643137 0.062745
0.788235 0.658824 0.003922
0.890196 0.658824 0.011765
0.984314 0.658824 0.000000
0.007843 0.745098 0.219608
0.047059 0.741176 0.223529
0.203922 0.737255 0.235294
0.356863 0.729412 0.227451
0.494118 0.729412 0.211765
0.635294 0.733333 0.180392
0.756863 0.745098 0.152941
0.870588 0.752941 0.121569
0.952941 0.760784 0.101961
0.235294 0.839216 0.337255
0.270588 0.835294 0.349020
0.337255 0.831373 0.341176
0.431373 0.831373 0.356863
0.533333 0.827451 0.356863
0.623529 0.827451 0.345098
0.733333 0.839216 0.325490
0.843137 0.843137 0.294118
0.949020 0.854902 0.282353
0.415686 0.933333 0.498039
0.435294 0.937255 0.501961
0.470588 0.933333 0.505882
0.521569 0.929412 0.517647
0.588235 0.933333 0.533333
0.662745 0.933333 0.533333
0.745098 0.941176 0.529412
0.839216 0.937255 0.505882
0.917647 0.952941 0.513725
0.050980 0.043137 0.203922
0.125490 0.039216 0.203922
0.250980 0.023529 0.215686
0.411765 0.011765 0.223529
0.611765 0.011765 0.227451
0.776471 0.019608 0.243137
0.886275 0.023529 0.247059
0.952941 0.180392 0.266667
0.992157 0.282353 0.270588
0.027451 0.113725 0.211765
0.121569 0.125490 0.219608
0.247059 0.117647 0.215686
0.431373 0.086275 0.227451
0.619608 0.035294 0.227451
0.776471 0.058824 0.235294
0.882353 0.164706 0.247059
0.956863 0.239216 0.254902
0.996078 0.313725 0.266667
0.015686 0.254902 0.231373
0.062745 0.258824 0.231373
0.243137 0.262745 0.239216
0.439216 0.247059 0.227451
0.615686 0.250980 0.235294
0.756863 0.270588 0.227451
0.866667 0.301961 0.219608
0.949020 0.345098 0.231373
0.992157 0.380392 0.254902
0.007843 0.415686 0.247059
0.019608 0.423529 0.247059
0.235294 0.411765 0.247059
0.411765 0.411765 0.223529
0.600000 0.419608 0.207843
0.741176 0.419608 0.188235
0.847059 0.427451 0.180392
0.933333 0.450980 0.203922
0.988235 0.470588 0.207843
0.003922 0.556863 0.266667
0.007843 0.560784 0.254902
0.141176 0.545098 0.250980
0.364706 0.541176 0.250980
0.552941 0.545098 0.215686
0.705882 0.549020 0.172549
0.819608 0.552941 0.133333
0.909804 0.556863 0.152941
0.992157 0.560784 0.180392
0.003922 0.658824 0.282353
0.015686 0.658824 0.278431
0.192157 0.650980 0.282353
0.364706 0.643137 0.282353
0.521569 0.643137 0.266667
0.662745 0.647059 0.231373
0.788235 0.654902 0.196078
0.894118 0.654902 0.172549
0.984314 0.654902 0.137255
0.039216 0.749020 0.313725
0.152941 0.749020 0.325490
0.282353 0.745098 0.333333
0.392157 0.733333 0.337255
0.509804 0.729412 0.329412
0.635294 0.737255 0.305882
0.756863 0.745098 0.298039
0.866667 0.749020 0.258824
0.956863 0.756863 0.258824
0.266667 0.843137 0.403922
0.313725 0.847059 0.423529
0.372549 0.839216 0.411765
0.447059 0.831373 0.415686
0.533333 0.827451 0.415686
0.635294 0.831373 0.403922
0.729412 0.839216 0.396078
0.835294 0.843137 0.384314
0.956863 0.854902 0.364706
0.431373 0.937255 0.529412
0.443137 0.933333 0.533333
0.478431 0.929412 0.537255
0.521569 0.917647 0.529412
0.596078 0.933333 0.564706
0.662745 0.929412 0.556863
0.745098 0.945098 0.568627
0.835294 0.945098 0.556863
0.937255 0.952941 0.545098
0.074510 0.054902 0.368627
0.160784 0.062745 0.376471
0.286275 0.031373 0.384314
0.447059 0.019608 0.384314
0.615686 0.011765 0.392157
0.768627 0.015686 0.396078
0.886275 0.007843 0.392157
0.968627 0.152941 0.400000
0.996078 0.298039 0.423529
0.074510 0.129412 0.380392
0.152941 0.129412 0.380392
0.294118 0.133333 0.384314
0.454902 0.113725 0.396078
0.627451 0.039216 0.388235
0.772549 0.031373 0.396078
0.882353 0.098039 0.403922
0.964706 0.239216 0.419608
0.996078 0.360784 0.454902
0.007843 0.254902 0.388235
0.078431 0.250980 0.388235
0.290196 0.266667 0.396078
0.462745 0.266667 0.407843
0.619608 0.258824 0.403922
0.760784 0.282353 0.407843
0.862745 0.321569 0.415686
0.949020 0.376471 0.435294
0.992157 0.427451 0.450980
0.011765 0.419608 0.407843
0.007843 0.439216 0.415686
0.235294 0.435294 0.419608
0.450980 0.431373 0.419608
0.615686 0.431373 0.407843
0.745098 0.443137 0.415686
0.847059 0.450980 0.403922
0.933333 0.474510 0.415686
0.988235 0.498039 0.427451
0.007843 0.568627 0.423529
0.050980 0.584314 0.427451
0.294118 0.576471 0.435294
0.439216 0.568627 0.423529
0.584314 0.556863 0.411765
0.713725 0.560784 0.400000
0.819608 0.564706 0.380392
0.913725 0.568627 0.384314
0.988235 0.576471 0.396078
0.180392 0.678431 0.447059
0.247059 0.678431 0.443137
0.333333 0.670588 0.439216
0.435294 0.666667 0.435294
0.552941 0.658824 0.431373
0.674510 0.658824 0.415686
0.792157 0.662745 0.388235
0.898039 0.658824 0.360784
0.988235 0.654902 0.352941
0.250980 0.756863 0.454902
0.301961 0.760784 0.458824
0.349020 0.756863 0.447059
0.447059 0.749020 0.450980
0.537255 0.737255 0.454902
0.643137 0.741176 0.439216
0.756863 0.752941 0.419608
0.866667 0.752941 0.407843
0.972549 0.756863 0.396078
0.325490 0.847059 0.490196
0.352941 0.847059 0.498039
0.403922 0.839216 0.498039
0.474510 0.835294 0.501961
0.552941 0.835294 0.509804
0.639216 0.835294 0.494118
0.737255 0.839216 0.486275
0.843137 0.847059 0.478431
0.941176 0.854902 0.466667
0.443137 0.933333 0.568627
0.454902 0.933333 0.572549
0.486275 0.925490 0.572549
0.545098 0.933333 0.588235
0.596078 0.925490 0.592157
0.670588 0.929412 0.600000
0.749020 0.941176 0.603922
0.839216 0.945098 0.596078
0.913725 0.949020 0.592157
0.133333 0.054902 0.529412
0.215686 0.050980 0.537255
0.341176 0.043137 0.545098
0.498039 0.007843 0.549020
0.647059 0.015686 0.564706
0.772549 0.011765 0.552941
0.882353 0.003922 0.541176
0.960784 0.101961 0.537255
0.996078 0.262745 0.545098
0.129412 0.137255 0.529412
0.215686 0.141176 0.529412
0.352941 0.137255 0.541176
0.498039 0.121569 0.552941
0.643137 0.101961 0.556863
0.776471 0.066667 0.552941
0.882353 0.082353 0.541176
0.964706 0.207843 0.545098
0.996078 0.325490 0.552941
0.078431 0.254902 0.541176
0.176471 0.262745 0.541176
0.333333 0.274510 0.549020
0.498039 0.282353 0.552941
0.639216 0.286275 0.556863
0.760784 0.282353 0.552941
0.866667 0.294118 0.541176
0.949020 0.360784 0.556863
0.988235 0.419608 0.572549
0.011765 0.400000 0.545098
0.058824 0.403922 0.541176
0.301961 0.419608 0.552941
0.482353 0.431373 0.564706
0.631373 0.454902 0.572549
0.749020 0.454902 0.564706
0.847059 0.470588 0.564706
0.933333 0.494118 0.572549
0.996078 0.541176 0.600000
0.015686 0.564706 0.556863
0.074510 0.576471 0.560784
0.317647 0.564706 0.556863
0.470588 0.568627 0.564706
0.607843 0.580392 0.572549
0.729412 0.588235 0.576471
0.827451 0.580392 0.560784
0.913725 0.596078 0.556863
0.988235 0.607843 0.572549
0.192157 0.705882 0.576471
0.250980 0.698039 0.572549
0.380392 0.686275 0.568627
0.498039 0.686275 0.576471
0.596078 0.682353 0.572549
0.701961 0.678431 0.568627
0.803922 0.674510 0.552941
0.901961 0.670588 0.541176
0.980392 0.674510 0.529412
0.352941 0.776471 0.580392
0.380392 0.776471 0.584314
0.423529 0.772549 0.572549
0.517647 0.768627 0.580392
0.580392 0.752941 0.572549
0.662745 0.749020 0.568627
0.768627 0.752941 0.552941
0.870588 0.756863 0.541176
0.960784 0.756863 0.525490
0.396078 0.858824 0.584314
0.435294 0.854902 0.600000
0.462745 0.850980 0.596078
0.525490 0.847059 0.600000
0.580392 0.843137 0.596078
0.654902 0.839216 0.592157
0.741176 0.843137 0.584314
0.847059 0.847059 0.576471
0.949020 0.858824 0.568627
0.482353 0.941176 0.639216
0.498039 0.937255 0.647059
0.513725 0.909804 0.639216
0.560784 0.933333 0.647059
0.615686 0.937255 0.658824
0.678431 0.933333 0.662745
0.745098 0.909804 0.635294
0.850980 0.941176 0.658824
0.937255 0.956863 0.650980
0.250980 0.062745 0.662745
0.317647 0.070588 0.662745
0.415686 0.062745 0.670588
0.541176 0.070588 0.674510
0.670588 0.101961 0.686275
0.780392 0.082353 0.686275
0.878431 0.105882 0.682353
0.964706 0.152941 0.666667
0.996078 0.274510 0.662745
0.266667 0.160784 0.658824
0.321569 0.156863 0.658824
0.419608 0.164706 0.662745
0.545098 0.168627 0.674510
0.670588 0.200000 0.682353
0.776471 0.192157 0.682353
0.870588 0.196078 0.674510
0.960784 0.239216 0.666667
0.996078 0.305882 0.662745
0.254902 0.278431 0.662745
0.305882 0.278431 0.654902
0.407843 0.278431 0.666667
0.545098 0.301961 0.666667
0.666667 0.329412 0.678431
0.772549 0.337255 0.682353
0.862745 0.345098 0.670588
0.937255 0.372549 0.662745
0.992157 0.407843 0.662745
0.125490 0.388235 0.650980
0.231373 0.403922 0.658824
0.364706 0.407843 0.662745
0.521569 0.431373 0.670588
0.643137 0.462745 0.678431
0.756863 0.490196 0.686275
0.847059 0.494118 0.674510
0.929412 0.498039 0.670588
0.980392 0.498039 0.666667
0.074510 0.533333 0.650980
0.203922 0.545098 0.654902
0.341176 0.541176 0.654902
0.478431 0.549020 0.658824
0.619608 0.576471 0.678431
0.733333 0.600000 0.686275
0.827451 0.600000 0.682353
0.913725 0.607843 0.678431
0.988235 0.619608 0.686275
0.176471 0.666667 0.666667
0.278431 0.670588 0.662745
0.384314 0.674510 0.666667
0.498039 0.682353 0.674510
0.611765 0.686275 0.682353
0.713725 0.694118 0.686275
0.811765 0.690196 0.678431
0.901961 0.690196 0.670588
0.976471 0.698039 0.670588
0.321569 0.792157 0.682353
0.376471 0.788235 0.682353
0.447059 0.788235 0.678431
0.529412 0.776471 0.678431
0.600000 0.772549 0.678431
0.686275 0.764706 0.674510
0.784314 0.768627 0.670588
0.890196 0.768627 0.658824
0.976471 0.764706 0.654902
0.439216 0.870588 0.686275
0.462745 0.866667 0.694118
0.498039 0.866667 0.694118
0.556863 0.862745 0.694118
0.603922 0.858824 0.694118
0.682353 0.850980 0.682353
0.764706 0.850980 0.682353
0.858824 0.854902 0.670588
0.964706 0.858824 0.666667
0.521569 0.956863 0.717647
0.533333 0.941176 0.725490
0.549020 0.937255 0.717647
0.592157 0.941176 0.717647
0.635294 0.937255 0.717647
0.694118 0.937255 0.717647
0.768627 0.941176 0.725490
0.854902 0.945098 0.721569
0.952941 0.956863 0.717647
0.403922 0.137255 0.764706
0.435294 0.133333 0.764706
0.505882 0.137255 0.764706
0.596078 0.152941 0.772549
0.694118 0.196078 0.776471
0.792157 0.250980 0.784314
0.874510 0.270588 0.788235
0.956863 0.301961 0.776471
0.996078 0.341176 0.772549
0.403922 0.207843 0.764706
0.435294 0.211765 0.764706
0.505882 0.215686 0.760784
0.596078 0.231373 0.768627
0.694118 0.258824 0.776471
0.788235 0.294118 0.780392
0.870588 0.317647 0.780392
0.949020 0.345098 0.776471
0.992157 0.352941 0.768627
0.396078 0.309804 0.764706
0.423529 0.313725 0.760784
0.498039 0.321569 0.760784
0.588235 0.329412 0.768627
0.690196 0.360784 0.772549
0.776471 0.400000 0.776471
0.858824 0.423529 0.780392
0.937255 0.423529 0.772549
0.968627 0.439216 0.764706
0.341176 0.423529 0.752941
0.380392 0.427451 0.756863
0.458824 0.431373 0.756863
0.568627 0.450980 0.756863
0.662745 0.474510 0.764706
0.760784 0.509804 0.772549
0.847059 0.533333 0.776471
0.929412 0.529412 0.768627
0.980392 0.529412 0.760784
0.235294 0.513725 0.737255
0.286275 0.521569 0.745098
0.396078 0.521569 0.749020
0.521569 0.549020 0.752941
0.627451 0.576471 0.760784
0.737255 0.603922 0.772549
0.827451 0.627451 0.776471
0.913725 0.619608 0.772549
0.996078 0.619608 0.768627
0.266667 0.647059 0.749020
0.317647 0.643137 0.745098
0.400000 0.643137 0.749020
0.505882 0.662745 0.756863
0.603922 0.662745 0.760784
0.713725 0.690196 0.772549
0.819608 0.705882 0.780392
0.905882 0.709804 0.776471
0.988235 0.717647 0.780392
0.345098 0.764706 0.764706
0.376471 0.764706 0.760784
0.443137 0.760784 0.760784
0.517647 0.768627 0.764706
0.611765 0.776471 0.772549
0.705882 0.784314 0.776471
0.803922 0.788235 0.780392
0.898039 0.788235 0.768627
0.976471 0.784314 0.760784
0.431373 0.870588 0.776471
0.450980 0.866667 0.776471
0.494118 0.866667 0.780392
0.560784 0.870588 0.780392
0.627451 0.874510 0.780392
0.709804 0.870588 0.784314
0.796078 0.866667 0.780392
0.878431 0.870588 0.772549
0.964706 0.866667 0.760784
0.498039 0.952941 0.788235
0.513725 0.952941 0.788235
0.545098 0.952941 0.792157
0.596078 0.945098 0.792157
0.647059 0.941176 0.788235
0.717647 0.952941 0.792157
0.784314 0.952941 0.792157
0.866667 0.949020 0.792157
0.960784 0.913725 0.772549
0.525490 0.239216 0.858824
0.549020 0.254902 0.858824
0.592157 0.274510 0.858824
0.647059 0.290196 0.858824
0.725490 0.301961 0.862745
0.792157 0.360784 0.862745
0.870588 0.431373 0.866667
0.952941 0.431373 0.870588
0.996078 0.419608 0.870588
0.525490 0.294118 0.858824
0.545098 0.294118 0.858824
0.584314 0.301961 0.858824
0.650980 0.329412 0.858824
0.721569 0.360784 0.858824
0.796078 0.407843 0.866667
0.870588 0.447059 0.866667
0.945098 0.454902 0.866667
0.996078 0.443137 0.870588
0.517647 0.364706 0.858824
0.537255 0.376471 0.858824
0.576471 0.384314 0.854902
0.643137 0.396078 0.854902
0.721569 0.423529 0.858824
0.792157 0.462745 0.858824
0.866667 0.498039 0.862745
0.941176 0.513725 0.862745
0.992157 0.501961 0.858824
0.470588 0.458824 0.850980
0.501961 0.478431 0.847059
0.552941 0.482353 0.850980
0.623529 0.494118 0.850980
0.701961 0.521569 0.854902
0.772549 0.541176 0.858824
0.854902 0.580392 0.862745
0.929412 0.588235 0.866667
0.988235 0.576471 0.854902
0.411765 0.541176 0.843137
0.423529 0.541176 0.843137
0.498039 0.564706 0.843137
0.580392 0.576471 0.843137
0.666667 0.600000 0.854902
0.745098 0.615686 0.854902
0.843137 0.647059 0.862745
0.917647 0.654902 0.862745
0.980392 0.654902 0.862745
0.337255 0.631373 0.835294
0.380392 0.635294 0.835294
0.447059 0.635294 0.839216
0.529412 0.647059 0.839216
0.611765 0.658824 0.843137
0.717647 0.686275 0.850980
0.831373 0.721569 0.862745
0.917647 0.729412 0.862745
0.984314 0.729412 0.862745
0.380392 0.749020 0.843137
0.407843 0.749020 0.843137
0.466667 0.749020 0.843137
0.529412 0.752941 0.847059
0.603922 0.749020 0.847059
0.698039 0.756863 0.847059
0.803922 0.776471 0.854902
0.909804 0.803922 0.866667
0.992157 0.803922 0.866667
0.427451 0.866667 0.862745
0.447059 0.866667 0.858824
0.486275 0.862745 0.858824
0.552941 0.858824 0.858824
0.627451 0.866667 0.862745
0.713725 0.870588 0.866667
0.807843 0.874510 0.870588
0.894118 0.878431 0.870588
0.976471 0.882353 0.862745
0.478431 0.956863 0.866667
0.494118 0.952941 0.866667
0.529412 0.972549 0.866667
0.588235 0.956863 0.866667
0.654902 0.956863 0.874510
0.729412 0.960784 0.874510
0.811765 0.960784 0.874510
0.886275 0.945098 0.874510
0.976471 0.960784 0.866667
0.635294 0.411765 0.945098
0.639216 0.411765 0.941176
0.662745 0.435294 0.941176
0.705882 0.454902 0.941176
0.756863 0.470588 0.941176
0.819608 0.513725 0.941176
0.882353 0.552941 0.941176
0.949020 0.560784 0.929412
0.996078 0.576471 0.949020
0.627451 0.443137 0.949020
0.623529 0.423529 0.933333
0.662745 0.454902 0.945098
0.705882 0.470588 0.945098
0.752941 0.486275 0.937255
0.815686 0.513725 0.933333
0.882353 0.556863 0.945098
0.952941 0.584314 0.937255
0.972549 0.584314 0.937255
0.615686 0.494118 0.937255
0.627451 0.494118 0.937255
0.658824 0.505882 0.941176
0.698039 0.513725 0.937255
0.752941 0.521569 0.929412
0.815686 0.556863 0.937255
0.882353 0.588235 0.941176
0.952941 0.619608 0.941176
0.972549 0.611765 0.937255
0.600000 0.564706 0.933333
0.611765 0.560784 0.933333
0.647059 0.564706 0.941176
0.686275 0.576471 0.941176
0.737255 0.576471 0.925490
0.803922 0.603922 0.933333
0.874510 0.631373 0.937255
0.941176 0.650980 0.937255
0.996078 0.658824 0.945098
0.576471 0.631373 0.937255
0.588235 0.627451 0.937255
0.603922 0.627451 0.933333
0.658824 0.635294 0.929412
0.729412 0.650980 0.937255
0.788235 0.662745 0.933333
0.862745 0.682353 0.937255
0.933333 0.698039 0.937255
0.992157 0.709804 0.949020
0.509804 0.678431 0.937255
0.509804 0.674510 0.921569
0.560784 0.678431 0.941176
0.603922 0.686275 0.925490
0.686275 0.698039 0.929412
0.772549 0.717647 0.941176
0.854902 0.741176 0.941176
0.933333 0.756863 0.941176
0.968627 0.760784 0.941176
0.486275 0.760784 0.937255
0.494118 0.760784 0.933333
0.537255 0.760784 0.937255
0.580392 0.756863 0.945098
0.650980 0.768627 0.921569
0.737255 0.780392 0.917647
0.835294 0.796078 0.941176
0.921569 0.819608 0.945098
0.980392 0.827451 0.949020
0.486275 0.862745 0.933333
0.494118 0.862745 0.933333
0.533333 0.858824 0.945098
0.564706 0.854902 0.925490
0.623529 0.858824 0.905882
0.709804 0.862745 0.925490
0.803922 0.870588 0.945098
0.901961 0.890196 0.945098
0.960784 0.890196 0.937255
0.486275 0.968627 0.960784
0.505882 0.921569 0.952941
0.533333 0.952941 0.952941
0.580392 0.945098 0.937255
0.647059 0.956863 0.917647
0.717647 0.964706 0.956863
0.803922 0.949020 0.937255
0.898039 0.960784 0.956863
0.996078 0.972549 0.964706
