src/colors/film_stock_&_vintage/vintage_green_film.cube
TITLE "Generated by Resolve"
LUT_3D_SIZE 9
0.0705882 0.117647 0.117647
0.0705882 0.117647 0.117647
0.123156 0.122423 0.117647
0.225895 0.127626 0.109804
0.364645 0.143389 0.106737
0.603601 0.177493 0.0838788
0.827146 0.223453 0.0666667
0.937957 0.259648 0.0783093
1 0.294484 0.120073
0.0705882 0.117647 0.117647
0.0705882 0.117647 0.117647
0.126329 0.12372 0.11664
0.232807 0.131121 0.108248
0.375509 0.153811 0.102144
0.612192 0.191669 0.082536
0.826001 0.233768 0.0674754
0.936965 0.266743 0.0784619
0.998062 0.298955 0.114397
0.0453803 0.138384 0.114565
0.0485847 0.137499 0.115389
0.128771 0.155077 0.108415
0.255451 0.172946 0.10071
0.410468 0.213016 0.0948348
0.626459 0.259876 0.0567788
0.821607 0.288563 0.0465553
0.936019 0.302129 0.0745708
0.997131 0.322271 0.110964
0.0187533 0.199634 0.153796
0.0228885 0.195773 0.144366
0.0939345 0.202106 0.125017
0.258976 0.245075 0.0831159
0.438087 0.300557 0.0400702
0.653483 0.344762 0.0161288
0.822736 0.350454 0.0167849
0.9252 0.354391 0.0576028
0.992386 0.367453 0.105409
1.5259e-05 0.282139 0.176379
0.000244144 0.272206 0.168734
0.0308537 0.26038 0.146715
0.22179 0.300374 0.097612
0.422415 0.365713 0.0229953
0.653681 0.428122 0.00262455
0.834592 0.418647 0.0034638
0.936568 0.416434 0.0556344
0.999222 0.426398 0.119509
0 0.390936 0.214405
0 0.37084 0.208286
0 0.351507 0.180102
0.0602579 0.365606 0.151446
0.300969 0.430518 0.0916457
0.591501 0.513313 0.000289921
0.816205 0.52401 0.000762951
0.953567 0.516182 0.0459449
0.999512 0.529488 0.183566
0 0.533532 0.283253
0 0.519768 0.274723
0.00480659 0.515251 0.267201
0.00242618 0.518471 0.225299
0.0262913 0.540902 0.216922
0.367819 0.606668 0.1617
0.745373 0.651072 0.00221256
0.933379 0.650263 0
0.996124 0.656138 0.0909895
0.00392157 0.651408 0.395377
0.00392157 0.652476 0.396551
0.00140383 0.650645 0.388708
0.0118563 0.657084 0.384527
0.143496 0.670283 0.377615
0.30956 0.688655 0.379721
0.624155 0.744183 0.291096
0.888212 0.768978 0.0531777
0.995956 0.760418 0
0.353979 0.752041 0.538125
0.359197 0.754376 0.541512
0.39469 0.754101 0.54435
0.412573 0.754543 0.535836
0.41474 0.763699 0.532662
0.448341 0.765911 0.521065
0.576989 0.798306 0.486046
0.786221 0.849042 0.415457
0.980056 0.8822 0.226429
0.0695506 0.116609 0.116609
0.0699626 0.117021 0.117021
0.124392 0.122255 0.117006
0.226856 0.129549 0.109697
0.371786 0.148425 0.105333
0.611872 0.194537 0.0817731
0.825895 0.239307 0.0605325
0.937652 0.271962 0.075639
0.998413 0.302876 0.118364
0.06981 0.116869 0.116869
0.0698711 0.11693 0.11693
0.128801 0.124041 0.11577
0.235126 0.134676 0.107759
0.384344 0.162554 0.101534
0.622187 0.209171 0.0796979
0.827375 0.24799 0.0613565
0.937987 0.278828 0.0791333
0.99826 0.306127 0.112993
0.0493629 0.141711 0.117968
0.0515602 0.14023 0.118242
0.131426 0.155138 0.111513
0.25864 0.175937 0.0999008
0.416434 0.219394 0.0895552
0.629709 0.267308 0.0526589
0.824994 0.292088 0.0450599
0.932342 0.303655 0.0721904
0.996262 0.322026 0.109636
0.0307469 0.202152 0.154101
0.0313878 0.19736 0.147387
0.092668 0.202274 0.127825
0.256626 0.24358 0.0872816
0.432059 0.298802 0.0437324
0.647272 0.34609 0.0156405
0.818875 0.347295 0.01738
0.921447 0.351263 0.05626
0.990967 0.365332 0.103883
0.00392157 0.288441 0.185168
0.00105287 0.270542 0.177569
0.0340887 0.257633 0.149584
0.218601 0.296254 0.105287
0.413764 0.359716 0.0312657
0.648127 0.424826 0.002121
0.83061 0.417182 0.00282292
0.934569 0.414771 0.0540932
0.999146 0.425666 0.118776
0.000427253 0.385611 0.21886
0.000564584 0.365713 0.210575
0 0.347448 0.179568
0.0543374 0.361807 0.151873
0.296773 0.427222 0.0935073
0.589609 0.511574 0.000534066
0.81738 0.524605 0.000839246
0.95555 0.517906 0.0474556
0.999176 0.53547 0.188724
0 0.53077 0.281605
0 0.518456 0.273884
0.00485237 0.514931 0.26714
0.00231937 0.520531 0.226184
0.0284733 0.544457 0.217975
0.371466 0.609491 0.163241
0.747967 0.653483 0.00183108
0.936492 0.652033 0.000122072
0.997803 0.657359 0.0901503
0.00392157 0.652781 0.396887
0.00392157 0.65478 0.399084
0.00144961 0.652613 0.390936
0.0251621 0.658579 0.387228
0.156786 0.671992 0.381369
0.317525 0.689296 0.380377
0.625666 0.743938 0.29691
0.885893 0.769314 0.0616159
0.996307 0.76051 0
0.358984 0.753368 0.540841
0.36347 0.754864 0.543359
0.396307 0.75465 0.545342
0.414389 0.754711 0.537606
0.419303 0.765515 0.532662
0.447227 0.764294 0.521752
0.57705 0.797833 0.4925
0.786984 0.848249 0.419883
0.980026 0.878706 0.237095
0.0745098 0.1178 0.141558
0.078584 0.117647 0.139742
0.134524 0.119982 0.119631
0.251728 0.148379 0.109377
0.411673 0.189425 0.0966812
0.651011 0.253376 0.0568246
0.837995 0.29221 0.0433661
0.948745 0.315404 0.0844282
0.998138 0.341726 0.124285
0.0704662 0.119646 0.142779
0.0763561 0.119417 0.141619
0.137407 0.123064 0.122087
0.257557 0.154894 0.111696
0.422415 0.202579 0.0954604
0.656535 0.266865 0.0539712
0.840055 0.299107 0.0386206
0.946914 0.322118 0.0807355
0.998367 0.343175 0.122286
0.0545663 0.154665 0.154253
0.0613107 0.153994 0.151965
0.13254 0.160525 0.149416
0.264225 0.190494 0.128756
0.438209 0.245945 0.0986648
0.659922 0.310109 0.0315862
0.833173 0.326848 0.0279393
0.934524 0.337407 0.066453
0.995605 0.348226 0.111406
0.0357977 0.218891 0.176745
0.0484169 0.212375 0.174777
0.107012 0.21062 0.159533
0.254124 0.244465 0.135409
0.425757 0.300496 0.100526
0.655238 0.369024 0.00479133
0.819791 0.373007 0.00267033
0.922789 0.370504 0.0551614
0.992523 0.382864 0.105318
0.00209049 0.302571 0.219638
0.00770581 0.285863 0.209934
0.0647898 0.271153 0.188052
0.216205 0.300237 0.154742
0.402289 0.356359 0.108248
0.648707 0.424445 0.00112917
0.833112 0.432441 0.00154116
0.932876 0.432944 0.0559701
0.993957 0.441459 0.125124
0.000320439 0.402502 0.247578
6.10361e-05 0.379294 0.232212
0.00109865 0.359075 0.212772
0.0543679 0.360449 0.189837
0.287892 0.424826 0.150164
0.588739 0.508339 0.0157168
0.827207 0.53196 0.00128176
0.960098 0.531716 0.0408637
0.997971 0.551644 0.202319
0.000671397 0.536797 0.294942
1.5259e-05 0.526009 0.286839
0.00331121 0.515602 0.281468
0.000366217 0.527947 0.246738
0.0305333 0.55079 0.254658
0.373663 0.608774 0.224735
0.748592 0.655024 0.0366979
0.938247 0.657649 0.00230411
0.999863 0.665751 0.0989548
0.00297551 0.652384 0.412116
0.00292973 0.655009 0.41619
0.0557717 0.660487 0.421363
0.161852 0.665385 0.412299
0.254658 0.675731 0.421408
0.34522 0.688701 0.409216
0.625025 0.737301 0.356313
0.879911 0.769665 0.182574
0.997513 0.764431 0.0170596
0.374334 0.756146 0.549035
0.376867 0.757412 0.550088
0.406607 0.755215 0.556161
0.441199 0.755306 0.557641
0.446921 0.766552 0.544869
0.468269 0.763531 0.539223
0.583093 0.79472 0.517006
0.785168 0.847471 0.452216
0.979049 0.877226 0.331212
0.0881971 0.137194 0.199878
0.0916457 0.136095 0.196689
0.159136 0.134157 0.184741
0.243427 0.148669 0.172015
0.39379 0.180377 0.158877
0.66305 0.263416 0.110903
0.859724 0.325917 0.0383307
0.966293 0.355795 0.0838331
1 0.385275 0.137591
0.0877852 0.139849 0.203143
0.0930648 0.139483 0.200565
0.162097 0.138811 0.189502
0.24918 0.153033 0.176562
0.397284 0.191409 0.166827
0.664622 0.268956 0.118929
0.858991 0.333639 0.0362097
0.961608 0.357809 0.0798505
0.996719 0.384329 0.13434
0.0661936 0.166934 0.210727
0.0719005 0.166064 0.206104
0.143771 0.172305 0.1991
0.235599 0.191531 0.188952
0.392279 0.233753 0.183612
0.650401 0.306798 0.145983
0.845808 0.365026 0.0206455
0.946548 0.372564 0.0628519
0.994842 0.386679 0.116457
0.0104219 0.238941 0.238499
0.024033 0.230808 0.231495
0.116152 0.225116 0.215381
0.232059 0.246601 0.202289
0.392828 0.291096 0.200977
0.631006 0.362539 0.164706
0.832319 0.401129 0.0208591
0.928908 0.403555 0.0493935
0.998062 0.408865 0.11487
0.00271611 0.326772 0.277745
0.00210575 0.307256 0.261082
0.0946517 0.291569 0.239918
0.205722 0.30222 0.220691
0.387015 0.349172 0.203342
0.61976 0.416922 0.173831
0.83534 0.449607 0.0484474
0.948898 0.453513 0.0641947
0.997101 0.464698 0.134203
0.00115969 0.429923 0.301747
0.00238041 0.407919 0.286427
7.62951e-05 0.375982 0.267353
0.106462 0.376745 0.246555
0.277363 0.42562 0.23061
0.580972 0.51014 0.181262
0.822507 0.538476 0.123995
0.966491 0.549889 0.0742809
0.998444 0.572976 0.210193
0.00167849 0.556848 0.33875
0.00184634 0.547433 0.332952
0.00296025 0.538842 0.328481
0.00474556 0.544762 0.320638
0.110338 0.563439 0.319783
0.385901 0.61416 0.315419
0.741527 0.657862 0.241047
0.928695 0.670085 0.198413
0.998749 0.676143 0.1243
0.0759289 0.66508 0.45127
0.0931411 0.669215 0.457694
0.206104 0.668009 0.464759
0.332921 0.672282 0.479973
0.362768 0.682307 0.480095
0.41059 0.688792 0.469535
0.635798 0.733272 0.44271
0.870665 0.775158 0.364019
0.99585 0.773754 0.271214
0.400427 0.765606 0.575982
0.402121 0.766674 0.577386
0.423957 0.763241 0.57789
0.474815 0.762127 0.578729
0.49305 0.769574 0.583947
0.50837 0.770397 0.563439
0.586435 0.790417 0.545892
0.786831 0.847715 0.514168
0.974014 0.884184 0.446784
0.114397 0.152087 0.267155
0.119432 0.150896 0.263493
0.187625 0.149035 0.263554
0.270604 0.151064 0.250309
0.406592 0.159503 0.248463
0.628763 0.221592 0.218341
0.855879 0.335454 0.141543
0.983566 0.380743 0.0948348
0.998474 0.405066 0.152178
0.112657 0.155749 0.271168
0.119982 0.155093 0.26772
0.193362 0.154955 0.268498
0.275456 0.158587 0.252308
0.409354 0.170413 0.250202
0.62443 0.236072 0.229053
0.853971 0.340673 0.154314
0.973587 0.381811 0.0864118
0.999329 0.405966 0.14229
0.0763409 0.183429 0.272358
0.0858167 0.183734 0.267231
0.170367 0.188907 0.268177
0.265721 0.199588 0.260761
0.380301 0.2224 0.253666
0.596719 0.285863 0.239582
0.836545 0.366094 0.168231
0.957916 0.397009 0.0815137
0.996811 0.41088 0.124071
0.00306706 0.252415 0.299138
0.0119478 0.245747 0.290791
0.120165 0.23711 0.275608
0.233722 0.249622 0.263767
0.349874 0.280293 0.265599
0.587564 0.345495 0.258396
0.810712 0.401785 0.195239
0.936507 0.428641 0.0784619
0.999237 0.437964 0.124331
0.00314336 0.343954 0.351171
0.000900282 0.327016 0.330205
0.0670329 0.311528 0.30454
0.208957 0.311192 0.283818
0.355276 0.342672 0.287053
0.602792 0.420096 0.303136
0.813718 0.468772 0.265263
0.950317 0.481605 0.163928
0.998367 0.49131 0.156359
0.00187686 0.449363 0.365057
0.00173953 0.426719 0.343313
0.00360113 0.412528 0.324468
0.172961 0.402579 0.312764
0.277256 0.429252 0.306371
0.575326 0.510307 0.302541
0.804578 0.560906 0.334691
0.951339 0.58613 0.313909
1 0.60238 0.274418
0.000213626 0.572259 0.387717
7.62951e-05 0.564691 0.381018
3.0518e-05 0.558907 0.378378
0.126085 0.564508 0.3879
0.266377 0.579202 0.398947
0.411963 0.606348 0.398016
0.730816 0.667552 0.38085
0.909117 0.693553 0.399817
0.996994 0.710582 0.368582
0.221057 0.677028 0.49958
0.235569 0.679713 0.504479
0.298756 0.676905 0.502556
0.388083 0.680858 0.515984
0.444556 0.688655 0.531685
0.466407 0.691951 0.514229
0.640116 0.736782 0.508522
0.859754 0.779049 0.472297
0.993423 0.795407 0.441535
0.431159 0.775036 0.60473
0.431067 0.774868 0.604608
0.440085 0.769909 0.599786
0.487312 0.768139 0.602396
0.531197 0.775021 0.612131
0.536248 0.777966 0.597314
0.598535 0.7897 0.578851
0.789288 0.848234 0.559396
0.968292 0.887343 0.517021
0.171939 0.179187 0.405707
0.177447 0.17789 0.4
0.257023 0.17406 0.396201
0.389731 0.167391 0.428275
0.497078 0.172183 0.434913
0.642573 0.210391 0.410483
0.788464 0.349523 0.36228
0.933501 0.441718 0.358053
0.998138 0.46714 0.306065
0.172076 0.183764 0.412772
0.180041 0.182986 0.407248
0.261067 0.180392 0.407034
0.392264 0.175814 0.430014
0.498238 0.182345 0.437827
0.638727 0.219135 0.410422
0.785824 0.351446 0.362997
0.925277 0.441398 0.351354
0.998947 0.464454 0.293767
0.122896 0.214862 0.413214
0.133898 0.214237 0.409354
0.233021 0.222263 0.408209
0.359243 0.22182 0.421698
0.476036 0.231022 0.430625
0.595651 0.268391 0.402579
0.761746 0.378164 0.359457
0.904326 0.438636 0.342077
0.994232 0.456535 0.268406
0.00415045 0.265614 0.421225
0.0125277 0.257786 0.410773
0.148135 0.261036 0.402533
0.297826 0.283406 0.410224
0.425086 0.289586 0.422934
0.542962 0.3149 0.388907
0.731975 0.411353 0.375601
0.888701 0.470405 0.355505
0.990494 0.482658 0.28426
0.00111391 0.360021 0.467613
0.0018616 0.34316 0.445411
0.071809 0.323842 0.420203
0.224155 0.322164 0.40705
0.361151 0.349508 0.411048
0.506737 0.384771 0.406531
0.736294 0.486442 0.427527
0.884337 0.542535 0.43566
0.990539 0.568139 0.400854
0.00154116 0.459937 0.485786
0.00271611 0.440314 0.470649
0.00177005 0.429282 0.446418
0.160983 0.426719 0.421485
0.303243 0.452354 0.431525
0.507973 0.503883 0.448524
0.745296 0.598917 0.521737
0.892958 0.653834 0.549767
0.998932 0.681346 0.537758
0.00427253 0.589532 0.482673
0.000915541 0.584955 0.476875
0.0116579 0.584024 0.474662
0.246616 0.593042 0.482292
0.396918 0.602686 0.505364
0.480919 0.608408 0.507469
0.706798 0.670436 0.526574
0.872908 0.722728 0.565972
0.997436 0.756191 0.570764
0.34226 0.692409 0.553658
0.348074 0.695079 0.557336
0.379522 0.690776 0.563226
0.446403 0.698573 0.575082
0.501991 0.701045 0.584436
0.54641 0.701961 0.588037
0.629053 0.724971 0.573312
0.84097 0.781811 0.574029
0.9888 0.815137 0.588525
0.449516 0.791882 0.638697
0.449012 0.790158 0.637156
0.469657 0.784482 0.64004
0.505333 0.778576 0.636835
0.534005 0.790295 0.639307
0.584588 0.789532 0.650538
0.60911 0.782666 0.621027
0.769696 0.842145 0.621561
0.95169 0.891707 0.607401
0.282139 0.244984 0.5841
0.282506 0.243702 0.580575
0.345953 0.243153 0.58381
0.444251 0.252872 0.594903
0.55996 0.267506 0.614145
0.710307 0.295079 0.627039
0.781933 0.416815 0.571939
0.864942 0.503441 0.556512
0.934066 0.576593 0.572335
0.279606 0.248997 0.581552
0.285557 0.248768 0.583108
0.350561 0.249119 0.585657
0.451469 0.261387 0.600427
0.559091 0.277333 0.614328
0.703197 0.302556 0.626902
0.772503 0.411948 0.570031
0.856962 0.497353 0.54815
0.923934 0.570871 0.561028
0.252277 0.282795 0.58468
0.25745 0.280888 0.582574
0.333196 0.288151 0.575402
0.429297 0.294423 0.589715
0.525887 0.315694 0.606119
0.660655 0.330541 0.61912
0.745586 0.408713 0.550347
0.825818 0.492073 0.528176
0.896956 0.557794 0.537636
0.171527 0.315923 0.580514
0.175357 0.309483 0.573785
0.267765 0.323232 0.573999
0.383932 0.342367 0.57821
0.473228 0.355154 0.588647
0.614649 0.369329 0.596338
0.710079 0.431113 0.542855
0.794018 0.497749 0.517128
0.875715 0.570031 0.541375
0.0715801 0.364645 0.586633
0.0588846 0.348501 0.57145
0.18471 0.343969 0.568856
0.327428 0.376913 0.572427
0.437522 0.406287 0.5785
0.577768 0.43505 0.593545
0.694484 0.493614 0.562219
0.780743 0.559747 0.554925
0.897642 0.62565 0.584909
0.0445563 0.449042 0.592432
0.0230564 0.434226 0.579797
0.0992142 0.422644 0.56408
0.236194 0.423896 0.561379
0.358587 0.454322 0.566003
0.525643 0.517311 0.5841
0.674937 0.577401 0.58645
0.790738 0.640528 0.609598
0.937942 0.704173 0.650797
0.0950332 0.570611 0.593927
0.0819715 0.568017 0.59118
0.148348 0.56701 0.588418
0.29633 0.578851 0.592218
0.413535 0.605097 0.602274
0.5084 0.626535 0.604334
0.636744 0.645075 0.607065
0.825055 0.72871 0.675334
0.962554 0.780652 0.704128
0.340551 0.683024 0.636255
0.346975 0.686687 0.641047
0.381384 0.694453 0.643397
0.448508 0.700359 0.649195
0.502785 0.712963 0.653895
0.571405 0.724666 0.658198
0.634379 0.710185 0.644999
0.789837 0.76704 0.663554
0.955428 0.824369 0.703182
0.456092 0.79089 0.714092
0.456336 0.788602 0.712505
0.469444 0.787991 0.694759
0.510277 0.79472 0.699351
0.552895 0.809537 0.704845
0.593744 0.814511 0.710277
0.657359 0.798077 0.697826
0.721187 0.808743 0.682414
0.914778 0.885039 0.705409
0.379507 0.340291 0.680156
0.379538 0.337697 0.676677
0.422415 0.34255 0.675685
0.498802 0.360906 0.678325
0.580896 0.392996 0.69897
0.691005 0.431128 0.715969
0.8215 0.489982 0.709667
0.869093 0.56463 0.680919
0.966506 0.607919 0.674769
0.384421 0.348669 0.681758
0.385336 0.346502 0.678721
0.426566 0.349447 0.67808
0.50135 0.366705 0.683223
0.579431 0.399649 0.694438
0.684413 0.432914 0.711528
0.817884 0.486412 0.709667
0.863844 0.554986 0.677501
0.950301 0.595972 0.666667
0.36762 0.371939 0.668727
0.368643 0.36733 0.668482
0.414511 0.379324 0.671626
0.48629 0.392187 0.677852
0.557687 0.415152 0.685771
0.651896 0.44448 0.692103
0.794949 0.479438 0.695033
0.829282 0.539391 0.652583
0.909865 0.579232 0.639078
0.339498 0.402029 0.676036
0.33489 0.39234 0.6701
0.384207 0.404639 0.662745
0.456184 0.423758 0.666255
0.523949 0.438148 0.673716
0.610712 0.456031 0.677501
0.755886 0.485924 0.675029
0.797498 0.542367 0.637186
0.877195 0.583505 0.63299
0.291951 0.429435 0.675029
0.287877 0.415274 0.664698
0.345571 0.420142 0.66186
0.427298 0.446647 0.661204
0.504463 0.477272 0.664302
0.596475 0.502235 0.669673
0.740032 0.536492 0.682246
0.800687 0.588937 0.659052
0.895888 0.631388 0.659983
0.246647 0.460105 0.665202
0.225193 0.447639 0.655741
0.254337 0.438865 0.643961
0.342428 0.45623 0.645258
0.453285 0.508507 0.655787
0.571817 0.562341 0.673609
0.72697 0.603067 0.697658
0.808408 0.655238 0.692622
0.908019 0.6916 0.703304
0.291341 0.565011 0.663691
0.287373 0.563195 0.662104
0.3131 0.562051 0.661311
0.383612 0.583185 0.660365
0.452125 0.598993 0.672526
0.519112 0.613474 0.672572
0.636423 0.646632 0.673304
0.771282 0.693462 0.702007
0.869291 0.73843 0.704952
0.395956 0.679789 0.701106
0.399664 0.683192 0.705592
0.421317 0.687846 0.704417
0.459464 0.696559 0.710292
0.500862 0.706294 0.719982
0.54728 0.717556 0.715297
0.628183 0.716884 0.708171
0.726253 0.733776 0.702052
0.905608 0.819944 0.77673
0.436423 0.793561 0.771817
0.435767 0.790753 0.768841
0.452201 0.787854 0.765759
0.485084 0.792889 0.768902
0.516106 0.801312 0.765713
0.563516 0.809445 0.770626
0.657618 0.814755 0.757305
0.738323 0.809476 0.748135
0.862623 0.859617 0.764569
0.510872 0.483574 0.775357
0.508949 0.476982 0.770138
0.536843 0.481926 0.775036
0.591424 0.499367 0.781048
0.653407 0.522835 0.796048
0.732296 0.549447 0.812924
0.870359 0.575998 0.831296
0.950439 0.611414 0.83122
0.985779 0.654521 0.796139
0.516396 0.490181 0.775433
0.514992 0.4851 0.772824
0.541405 0.487541 0.776318
0.591882 0.504189 0.783749
0.651698 0.524529 0.792218
0.724804 0.54789 0.811368
0.851743 0.567849 0.819074
0.932967 0.598657 0.814847
0.968704 0.639902 0.781567
0.509239 0.502586 0.77023
0.505943 0.495399 0.766552
0.533944 0.503532 0.769543
0.578958 0.508797 0.768292
0.62739 0.526955 0.779995
0.695827 0.542779 0.785504
0.808576 0.556542 0.793362
0.894331 0.580362 0.787808
0.924178 0.619577 0.755291
0.4963 0.519997 0.775448
0.487297 0.506722 0.764035
0.507317 0.507546 0.751278
0.558892 0.5196 0.753704
0.595834 0.533684 0.755566
0.653986 0.545968 0.762509
0.763607 0.556939 0.767346
0.864591 0.579553 0.769589
0.898985 0.621927 0.740719
0.468818 0.532845 0.781064
0.456596 0.517968 0.76527
0.484031 0.514763 0.750118
0.53756 0.536324 0.749249
0.584619 0.555352 0.754604
0.645121 0.569818 0.759365
0.764187 0.589975 0.776913
0.886564 0.619196 0.793729
0.935592 0.665095 0.773602
0.396246 0.523812 0.755611
0.386572 0.511147 0.748775
0.412604 0.514931 0.736034
0.472618 0.541711 0.740001
0.54345 0.570382 0.750683
0.631983 0.611215 0.764263
0.756939 0.644465 0.795026
0.905898 0.680354 0.832715
0.962158 0.725383 0.819471
0.384649 0.584482 0.738491
0.38407 0.583932 0.738079
0.396384 0.589166 0.736584
0.441077 0.600381 0.73901
0.48423 0.618921 0.75613
0.537835 0.624857 0.763485
0.678004 0.67599 0.782116
0.825544 0.709957 0.813642
0.917876 0.752575 0.819135
0.435386 0.696773 0.787091
0.436652 0.700496 0.790494
0.444541 0.702342 0.792645
0.472175 0.70576 0.797223
0.504204 0.718608 0.808743
0.541405 0.717311 0.801419
0.614588 0.711009 0.78587
0.723522 0.730434 0.785931
0.871046 0.783856 0.820111
0.442222 0.80972 0.865461
0.442451 0.806439 0.859693
0.453773 0.797345 0.84593
0.472572 0.799588 0.840864
0.506249 0.807935 0.858961
0.54638 0.813214 0.858198
0.617655 0.812604 0.840024
0.703609 0.813214 0.824521
0.791669 0.816098 0.809232
