src/colors/film_stock_&_vintage/vintage_green_film.cube
TITLE "Generated by Resolve"
LUT_3D_SIZE 33
0.0705882 0.117647 0.117647
0.0705882 0.117647 0.117647
0.0705882 0.117647 0.117647
0.0705882 0.117647 0.117647
0.0705882 0.117647 0.117647
0.0711681 0.117937 0.116777
0.0770275 0.120867 0.108003
0.0974594 0.121569 0.11223
0.123156 0.122423 0.117647
0.150973 0.124956 0.117647
0.175402 0.12549 0.113939
0.197787 0.125612 0.109804
0.225895 0.127626 0.109804
0.252201 0.129534 0.109804
0.287739 0.133089 0.109804
0.323278 0.136645 0.109804
0.364645 0.143389 0.106737
0.408331 0.150973 0.102937
0.46421 0.157717 0.0987716
0.528984 0.16466 0.0941482
0.603601 0.177493 0.0838788
0.67274 0.187137 0.0742046
0.733761 0.194919 0.0666667
0.788083 0.213016 0.0666667
0.827146 0.223453 0.0666667
0.860777 0.234806 0.0681315
0.891417 0.247303 0.0707103
0.915618 0.25214 0.0731365
0.937957 0.259648 0.0783093
0.958495 0.271061 0.0874342
0.978637 0.279149 0.0979324
0.998627 0.285817 0.109041
1 0.294484 0.120073
0.0705882 0.117647 0.117647
0.0705882 0.117647 0.117647
0.0705882 0.117647 0.117647
0.0705882 0.117647 0.117647
0.0705882 0.117647 0.117647
0.0711681 0.117937 0.116777
0.0770581 0.120882 0.107958
0.097734 0.121569 0.112322
0.123674 0.122469 0.117647
0.151644 0.125017 0.117647
0.176013 0.12549 0.113817
0.199084 0.125704 0.109804
0.227604 0.127749 0.109804
0.255268 0.129839 0.109804
0.291722 0.133486 0.109804
0.327581 0.137072 0.109804
0.368872 0.144121 0.106371
0.411856 0.151598 0.102632
0.468071 0.158129 0.098497
0.532082 0.165164 0.0937514
0.605814 0.177874 0.0835737
0.674342 0.187289 0.0739757
0.735424 0.195468 0.0666667
0.789731 0.213565 0.0666667
0.827695 0.22359 0.0666667
0.861708 0.235187 0.0682078
0.892027 0.247425 0.0707713
0.916091 0.252232 0.0731823
0.938369 0.259876 0.0784924
0.958923 0.27129 0.0876173
0.978912 0.27924 0.098085
0.998627 0.285817 0.109041
1 0.294484 0.120073
0.0705882 0.117647 0.117647
0.0705882 0.117647 0.117647
0.0705882 0.117647 0.117647
0.0705882 0.117647 0.117647
0.0705882 0.117647 0.117647
0.0711986 0.117952 0.116732
0.0771496 0.120928 0.107805
0.098146 0.121569 0.112459
0.124514 0.122545 0.117647
0.152651 0.125109 0.117647
0.177539 0.12549 0.113512
0.201221 0.125856 0.109804
0.230182 0.127932 0.109804
0.25864 0.130175 0.109804
0.294179 0.13373 0.109804
0.329412 0.137255 0.109804
0.370993 0.144488 0.106188
0.413977 0.151965 0.102449
0.469795 0.158312 0.0983749
0.533852 0.165469 0.0935073
0.607599 0.17818 0.0833295
0.675303 0.187381 0.0738384
0.735698 0.19556 0.0666667
0.79057 0.213855 0.0666667
0.828061 0.223682 0.0666667
0.861708 0.235187 0.0682078
0.892027 0.247425 0.0707713
0.916243 0.252262 0.0731975
0.938369 0.259876 0.0784924
0.958495 0.271061 0.0874342
0.978637 0.279149 0.0979324
0.998352 0.285725 0.108888
1 0.294179 0.119692
0.0705882 0.117647 0.117647
0.0705882 0.117647 0.117647
0.0705882 0.117647 0.117647
0.0705882 0.117647 0.117647
0.0705882 0.117647 0.117647
0.0712902 0.117998 0.116594
0.0773327 0.121019 0.10753
0.0991073 0.121569 0.112779
0.126024 0.122683 0.117647
0.154162 0.125246 0.117647
0.178622 0.12549 0.113298
0.202731 0.125963 0.109804
0.230823 0.127977 0.109804
0.259556 0.130266 0.109804
0.295399 0.133852 0.109804
0.330816 0.137499 0.109682
0.371695 0.14461 0.106126
0.414771 0.152224 0.102342
0.471168 0.159426 0.0980545
0.535515 0.167529 0.093019
0.608042 0.180026 0.0832532
0.67602 0.189502 0.0736553
0.735912 0.197696 0.0662852
0.789532 0.214557 0.066392
0.827512 0.224277 0.0667277
0.861326 0.235569 0.0683299
0.891752 0.247883 0.0709087
0.915557 0.252796 0.0731975
0.937835 0.260426 0.0783398
0.958343 0.271519 0.0877394
0.977981 0.279759 0.0977646
0.996658 0.286503 0.107744
0.999634 0.294911 0.118242
0.0705882 0.117647 0.117647
0.0705882 0.117647 0.117647
0.0705882 0.117647 0.117647
0.0705882 0.117647 0.117647
0.0705882 0.117647 0.117647
0.0716259 0.118105 0.11664
0.0783551 0.121096 0.109926
0.100664 0.122164 0.113558
0.126329 0.12372 0.11664
0.152483 0.126375 0.116548
0.17821 0.127352 0.112108
0.204074 0.128664 0.108461
0.232807 0.131121 0.108248
0.261677 0.134325 0.10779
0.297475 0.140337 0.106569
0.33283 0.146731 0.105089
0.375509 0.153811 0.102144
0.419821 0.160693 0.0994278
0.475822 0.170123 0.0953536
0.539696 0.180987 0.0905318
0.612192 0.191669 0.082536
0.678859 0.202258 0.0728923
0.735759 0.212299 0.0635843
0.783123 0.222995 0.0636759
0.826001 0.233768 0.0674754
0.862333 0.244617 0.0708629
0.893187 0.255634 0.0734417
0.915221 0.260471 0.0740978
0.936965 0.266743 0.0784619
0.96054 0.276432 0.0908675
0.978912 0.284306 0.0995499
0.993225 0.290898 0.105226
0.998062 0.298955 0.114397
0.0700084 0.118227 0.117357
0.0699779 0.118257 0.117342
0.0699779 0.118257 0.117342
0.0700694 0.118166 0.117388
0.0704967 0.117739 0.117601
0.0720531 0.118135 0.117617
0.0809186 0.121126 0.117357
0.103746 0.123888 0.11519
0.127077 0.126574 0.113817
0.147387 0.129152 0.113771
0.177966 0.131838 0.109422
0.20766 0.134676 0.1066
0.236255 0.137438 0.106203
0.26511 0.141466 0.104875
0.301686 0.149294 0.103258
0.337942 0.156603 0.101884
0.381598 0.163897 0.0988479
0.42771 0.171984 0.0952163
0.483635 0.182559 0.0917067
0.546609 0.194186 0.0880903
0.614572 0.206653 0.0806744
0.680537 0.217578 0.071107
0.738369 0.226093 0.060914
0.782681 0.235599 0.0610513
0.823728 0.244556 0.0648661
0.860151 0.253925 0.0687419
0.891463 0.263905 0.0713207
0.914534 0.270085 0.0740063
0.936172 0.276051 0.0784314
0.959411 0.283177 0.0889143
0.978454 0.290028 0.0973678
0.992248 0.296605 0.103426
0.998489 0.304707 0.113619
0.064332 0.123903 0.114519
0.064271 0.123964 0.114488
0.064332 0.123903 0.114519
0.0644541 0.123781 0.11458
0.0648966 0.123339 0.114794
0.0680095 0.124025 0.114534
0.0851911 0.128908 0.112566
0.109056 0.130327 0.113176
0.134905 0.132876 0.112917
0.160571 0.13727 0.111131
0.189899 0.141665 0.114397
0.217563 0.145617 0.115969
0.24361 0.148516 0.108476
0.270298 0.152087 0.102434
0.307362 0.158419 0.102098
0.344686 0.164569 0.101961
0.389715 0.174746 0.0966964
0.436591 0.184909 0.0916152
0.491859 0.196307 0.0881971
0.553887 0.208865 0.0843977
0.617365 0.222827 0.0762646
0.68069 0.233783 0.0673838
0.74052 0.239933 0.0577859
0.784054 0.250385 0.0578012
0.821637 0.256657 0.0604715
0.855634 0.263355 0.063508
0.887861 0.273014 0.0660105
0.912779 0.280324 0.0721599
0.935286 0.286885 0.0789349
0.956878 0.291249 0.085359
0.976516 0.296117 0.0922713
0.991196 0.302571 0.100938
1 0.310262 0.112184
0.0547189 0.129503 0.113725
0.0547189 0.129503 0.113725
0.0548409 0.129442 0.113725
0.055024 0.129351 0.113725
0.0570382 0.129442 0.114275
0.0632334 0.13106 0.114778
0.0842298 0.135729 0.111742
0.10779 0.139086 0.111864
0.134691 0.142718 0.111055
0.164553 0.147021 0.108476
0.194003 0.151171 0.112871
0.22182 0.155154 0.114458
0.249882 0.159609 0.105959
0.279149 0.165225 0.0998093
0.315358 0.173709 0.0995804
0.351049 0.182544 0.0993515
0.399741 0.191623 0.0965591
0.451362 0.200473 0.0938888
0.503243 0.213062 0.0870832
0.559548 0.228031 0.0776684
0.621408 0.239384 0.066331
0.683864 0.249866 0.0572061
0.741711 0.259037 0.0529488
0.781567 0.267521 0.0510109
0.821469 0.272129 0.0550546
0.857984 0.276219 0.0603952
0.887266 0.284321 0.061387
0.913634 0.289418 0.0682078
0.938018 0.293126 0.0774548
0.958373 0.297292 0.0829633
0.977646 0.301457 0.0881819
0.989593 0.308812 0.100191
1 0.316213 0.111711
0.0453803 0.138384 0.114565
0.0453498 0.138476 0.11458
0.0454108 0.138293 0.114549
0.0455634 0.137835 0.114473
0.0485847 0.137499 0.115389
0.0579538 0.139422 0.117144
0.078233 0.142046 0.114427
0.100969 0.149371 0.111254
0.128771 0.155077 0.108415
0.161608 0.157855 0.106081
0.192615 0.161074 0.10782
0.223087 0.16556 0.107866
0.255451 0.172946 0.10071
0.286534 0.180758 0.0949874
0.324041 0.191745 0.0960098
0.361349 0.202396 0.0977798
0.410468 0.213016 0.0948348
0.462287 0.223865 0.0906996
0.513787 0.236347 0.0810254
0.567056 0.249012 0.0680858
0.626459 0.259876 0.0567788
0.688502 0.269902 0.0469215
0.742535 0.277485 0.0426184
0.782757 0.284794 0.0422522
0.821607 0.288563 0.0465553
0.858381 0.289631 0.0542458
0.885222 0.295613 0.0563821
0.91107 0.299977 0.0629892
0.936019 0.302129 0.0745708
0.957092 0.305531 0.0818647
0.976181 0.309667 0.0869306
0.98764 0.315572 0.0979477
0.997131 0.322271 0.110964
0.0399176 0.154742 0.117296
0.0399481 0.15465 0.117281
0.0399786 0.154559 0.117266
0.0401617 0.154009 0.117174
0.0433509 0.15169 0.117174
0.0522316 0.150072 0.11751
0.0685283 0.152712 0.116777
0.095613 0.158312 0.110582
0.126375 0.163653 0.1066
0.159213 0.168154 0.105928
0.192859 0.175677 0.106416
0.225147 0.183459 0.104738
0.258762 0.19202 0.0937514
0.291432 0.200793 0.0855726
0.33312 0.212207 0.0909438
0.376196 0.224155 0.0969863
0.423148 0.236896 0.0925002
0.47274 0.250507 0.0847028
0.522545 0.26154 0.0731365
0.575204 0.270939 0.0579995
0.633036 0.281376 0.0467231
0.69398 0.291447 0.0376287
0.743938 0.295384 0.0303807
0.785748 0.301457 0.0314946
0.822446 0.304952 0.0361639
0.855512 0.304189 0.0427558
0.88246 0.308064 0.0491035
0.906691 0.312078 0.0567025
0.929046 0.315099 0.0703899
0.950149 0.318715 0.0816358
0.969894 0.323339 0.0896162
0.983825 0.32755 0.0983749
0.991287 0.331258 0.108339
0.0369268 0.168276 0.129061
0.0369421 0.1682 0.128985
0.0370031 0.167895 0.128679
0.0370947 0.167437 0.128222
0.0388952 0.165423 0.125582
0.0456397 0.163882 0.122744
0.0605783 0.166155 0.122423
0.085069 0.170153 0.114611
0.116258 0.175036 0.110292
0.152529 0.18088 0.110246
0.189319 0.189487 0.104509
0.224506 0.19852 0.098146
0.262379 0.210925 0.0910811
0.299199 0.223529 0.0858473
0.340703 0.23508 0.0843366
0.381704 0.24654 0.081529
0.428687 0.259281 0.0753796
0.479728 0.272633 0.068574
0.531945 0.284474 0.0596475
0.58703 0.295232 0.0477455
0.643229 0.303548 0.0346532
0.701335 0.310094 0.0217136
0.745754 0.314931 0.0207065
0.78706 0.31809 0.0240024
0.823423 0.320378 0.029633
0.852476 0.320867 0.0346075
0.879789 0.322271 0.0429389
0.904265 0.324514 0.0513771
0.925246 0.327703 0.0652018
0.945724 0.331212 0.0786755
0.965377 0.336431 0.0894942
0.982162 0.340627 0.0994125
0.987869 0.341711 0.107393
0.0308537 0.182696 0.141695
0.0310063 0.182483 0.141543
0.0313115 0.18204 0.141238
0.0319219 0.181186 0.140627
0.033402 0.17937 0.135668
0.0388647 0.178943 0.130053
0.0538033 0.180941 0.129625
0.070985 0.183078 0.12137
0.102434 0.188251 0.11751
0.144427 0.195346 0.117372
0.183688 0.202258 0.101991
0.2224 0.211719 0.0903487
0.266941 0.229709 0.0901045
0.306859 0.245502 0.0878462
0.34699 0.256901 0.0767071
0.386603 0.267842 0.0661936
0.43267 0.280003 0.0585184
0.482994 0.293111 0.0515297
0.537072 0.306035 0.0437629
0.595026 0.31751 0.0358282
0.651408 0.32488 0.0247044
0.706798 0.327901 0.00872816
0.747768 0.332677 0.0106355
0.787091 0.334112 0.0171054
0.824338 0.333516 0.0250858
0.850645 0.337652 0.0287938
0.877241 0.338598 0.0376593
0.902617 0.338582 0.0489815
0.924758 0.341085 0.0605325
0.946075 0.344182 0.0724193
0.965042 0.349172 0.085008
0.983413 0.354116 0.0972
0.989899 0.35465 0.106157
0.0187533 0.199634 0.153796
0.0190585 0.199207 0.15349
0.01944 0.198672 0.153109
0.0200504 0.197803 0.152499
0.0228885 0.195773 0.144366
0.0295567 0.194583 0.136233
0.0416724 0.194888 0.134005
0.0621347 0.196902 0.130266
0.0939345 0.202106 0.125017
0.132479 0.209293 0.119051
0.175525 0.217121 0.105364
0.216159 0.227527 0.093431
0.258976 0.245075 0.0831159
0.298573 0.260471 0.0731518
0.34519 0.273594 0.0619211
0.391592 0.286702 0.0508125
0.438087 0.300557 0.0400702
0.485283 0.314443 0.0296483
0.537072 0.32726 0.0218814
0.595987 0.337255 0.0201419
0.653483 0.344762 0.0161288
0.706615 0.348501 0.0075227
0.75024 0.351095 0.00637827
0.788312 0.352148 0.00968948
0.822736 0.350454 0.0167849
0.850034 0.353201 0.0221866
0.876249 0.354391 0.031693
0.902022 0.35288 0.0459907
0.9252 0.354391 0.0576028
0.947097 0.35729 0.0678874
0.966339 0.361654 0.0809949
0.984009 0.366888 0.0948348
0.992386 0.367453 0.105409
0.0106813 0.213947 0.1552
0.0108644 0.213565 0.155261
0.0112306 0.212833 0.155383
0.0117342 0.211826 0.15555
0.0137179 0.211902 0.149569
0.019379 0.210956 0.142458
0.0302434 0.209781 0.138979
0.0528267 0.211139 0.138216
0.0852674 0.215976 0.1308
0.121935 0.222492 0.120745
0.16849 0.231128 0.10901
0.21146 0.242756 0.0949721
0.25272 0.259525 0.0763867
0.293751 0.274998 0.0608225
0.345251 0.289555 0.0494392
0.395804 0.303899 0.0380102
0.442023 0.318669 0.0257572
0.487404 0.333684 0.0131075
0.538567 0.347402 0.00421149
0.598321 0.35642 0.00630198
0.657877 0.363653 0.00694286
0.709224 0.367987 0.00492866
0.753689 0.368658 0.00294499
0.791379 0.369406 0.00320439
0.821134 0.369863 0.00688182
0.850263 0.369497 0.0140993
0.877729 0.369284 0.0251926
0.903487 0.367773 0.0422675
0.92578 0.368215 0.0556954
0.946151 0.370413 0.0669108
0.965667 0.373449 0.0800183
0.98436 0.377005 0.0939651
0.993408 0.379553 0.106111
0.00419623 0.226902 0.153033
0.00451667 0.226261 0.15314
0.00488289 0.225528 0.153262
0.00543221 0.224414 0.153445
0.0049897 0.22858 0.153552
0.00729381 0.229007 0.149126
0.0160372 0.22771 0.144427
0.0360266 0.228611 0.142245
0.068513 0.232898 0.135729
0.106798 0.238361 0.126787
0.155505 0.246204 0.114199
0.20148 0.257801 0.0997177
0.244388 0.273106 0.0831159
0.287129 0.287678 0.0675517
0.339986 0.303578 0.0507515
0.391394 0.318975 0.0341955
0.438453 0.334966 0.0217288
0.485878 0.351827 0.0104524
0.537652 0.367178 0.00256352
0.596933 0.37734 0.004654
0.65626 0.385412 0.00541695
0.708705 0.388647 0.00317388
0.755215 0.388357 0.00135805
0.794629 0.38735 0.000167849
0.822553 0.387762 0.000396735
0.852079 0.385779 0.00677501
0.880171 0.383627 0.0193332
0.906371 0.382391 0.039292
0.927932 0.382574 0.0544594
0.946868 0.383948 0.0667124
0.966537 0.385702 0.0802319
0.986267 0.387778 0.0942855
0.994598 0.391577 0.107607
0.00195315 0.255116 0.164797
0.00210575 0.252979 0.163882
0.00227359 0.250614 0.162875
0.00250248 0.247395 0.161486
0.000732433 0.249454 0.160632
0.00077821 0.247257 0.155642
0.00579843 0.244846 0.150011
0.0203708 0.244831 0.14638
0.0512551 0.247837 0.140902
0.0902419 0.252506 0.133013
0.141772 0.260044 0.119432
0.18999 0.271046 0.105226
0.235325 0.285466 0.0900893
0.279728 0.299779 0.0742199
0.333028 0.316304 0.0525216
0.385687 0.332937 0.0309911
0.434043 0.350439 0.0179904
0.482994 0.368933 0.00816358
0.536278 0.386603 0.000900282
0.596017 0.398489 0.00302129
0.655299 0.407279 0.00387579
0.707729 0.409705 0.0016022
0.755047 0.409201 0.000610361
0.796613 0.40679 0.000503548
0.828428 0.40296 0.00190738
0.85864 0.401511 0.00451667
0.886213 0.400244 0.0151064
0.910735 0.398871 0.0370947
0.931517 0.398611 0.0544289
0.95024 0.399283 0.0690776
0.970245 0.400748 0.0829786
0.990723 0.402533 0.0966659
0.996811 0.407599 0.112261
1.5259e-05 0.282139 0.176379
0.000167849 0.279988 0.175463
0.000381476 0.276997 0.174166
0.000640879 0.27335 0.17261
0.000244144 0.272206 0.168734
0.00273136 0.266453 0.162554
0.00587472 0.261158 0.156863
0.0111849 0.258824 0.153231
0.0308537 0.26038 0.146715
0.0643168 0.264561 0.138262
0.123857 0.273869 0.124712
0.175982 0.285527 0.111238
0.22179 0.300374 0.097612
0.265949 0.315114 0.0829175
0.318959 0.331655 0.060502
0.371038 0.347707 0.0384375
0.422415 0.365713 0.0229953
0.474891 0.384497 0.0104982
0.531868 0.403174 0.000289921
0.592874 0.417273 0.00173953
0.653681 0.428122 0.00262455
0.705318 0.430365 0.00115969
0.754086 0.429999 0.000213626
0.798718 0.427024 0.000808728
0.834592 0.418647 0.0034638
0.865873 0.41799 0.00215152
0.893095 0.4177 0.0112612
0.91603 0.416632 0.0355077
0.936568 0.416434 0.0556344
0.955642 0.416419 0.073518
0.976165 0.417929 0.0873579
0.996994 0.420005 0.100298
0.999222 0.426398 0.119509
0 0.306447 0.187594
0 0.303853 0.186404
0 0.300679 0.184924
0 0.296696 0.183093
0 0.293507 0.176623
0.00375372 0.28603 0.170016
0.00613413 0.277577 0.163851
0.00236515 0.272557 0.160067
0.0101167 0.272633 0.152911
0.0330968 0.275807 0.144289
0.100969 0.286656 0.130724
0.158526 0.29955 0.118013
0.204715 0.31606 0.105821
0.246906 0.331258 0.0936751
0.299809 0.347326 0.0716716
0.351125 0.362905 0.0503395
0.404532 0.380087 0.0320439
0.462516 0.399695 0.0153658
0.525002 0.419348 7.62951e-05
0.587716 0.43534 0.000656138
0.651255 0.448707 0.00148013
0.700664 0.451133 0.00224308
0.748211 0.448386 0.00112917
0.794369 0.445182 0.000411994
0.836378 0.442939 0.00207523
0.866835 0.438987 0.000946059
0.894728 0.437003 0.0114595
0.920592 0.43624 0.0380102
0.940795 0.436912 0.0594034
0.959381 0.438682 0.0794537
0.980179 0.439323 0.0957961
0.998688 0.440558 0.11252
0.99942 0.446494 0.132448
0 0.330144 0.198535
0 0.327153 0.197147
0 0.323781 0.19559
0 0.319799 0.193744
0 0.314992 0.185321
0.0016022 0.308248 0.179095
0.0037995 0.300877 0.173877
0.0010071 0.296315 0.166781
0.00228885 0.294316 0.159457
0.00787366 0.293782 0.151629
0.0677958 0.303395 0.139895
0.125811 0.314305 0.128405
0.177752 0.331182 0.117052
0.222843 0.346441 0.107195
0.274662 0.362646 0.0867323
0.32668 0.379034 0.0656138
0.381231 0.396155 0.0445411
0.441306 0.415015 0.0231327
0.508095 0.435676 0
0.574578 0.453346 0
0.644511 0.470054 0.000335698
0.694575 0.473243 0.00263981
0.742153 0.469612 0.00199893
0.788449 0.464866 0
0.837278 0.470802 0.000183108
0.865095 0.46305 0.000137331
0.893431 0.458305 0.0133059
0.925856 0.45861 0.0438849
0.94548 0.462318 0.0663767
0.961761 0.466728 0.0867018
0.981994 0.464027 0.108904
0.996765 0.462837 0.129549
0.998932 0.466361 0.145846
0 0.359564 0.206561
0 0.355642 0.20557
0 0.351232 0.204471
0 0.346319 0.20325
0 0.339208 0.196353
1.5259e-05 0.33196 0.188098
0.000686656 0.324987 0.186145
0.00047303 0.322911 0.175845
0.000442512 0.321233 0.166949
0.00184634 0.320348 0.159319
0.0295872 0.326314 0.151873
0.0663767 0.334325 0.144533
0.127581 0.347601 0.133913
0.185931 0.361089 0.124102
0.240269 0.376928 0.108186
0.293568 0.39498 0.0868391
0.347814 0.413764 0.0651102
0.406729 0.431998 0.0374456
0.471656 0.451743 0.00653086
0.546166 0.47187 0
0.62887 0.492943 1.5259e-05
0.681743 0.494865 0.000869764
0.734707 0.495079 0.000900282
0.783642 0.493416 0
0.827192 0.495613 0
0.863355 0.489723 0
0.896056 0.485496 0.00749218
0.927199 0.486 0.0243687
0.950683 0.487892 0.0602579
0.972091 0.489372 0.10074
0.987457 0.489265 0.123125
0.997024 0.491417 0.144579
0.999298 0.495674 0.164767
0 0.390936 0.214405
0 0.387015 0.213413
0 0.382605 0.212314
0 0.377691 0.211093
0 0.37084 0.208286
0 0.364172 0.201694
0 0.355352 0.196124
0 0.351904 0.189197
0 0.351507 0.180102
0 0.349783 0.169589
0.00579843 0.351308 0.161944
0.0225223 0.357076 0.157961
0.0602579 0.365606 0.151446
0.125597 0.377829 0.141482
0.186252 0.390097 0.131395
0.243137 0.410147 0.111376
0.300969 0.430518 0.0916457
0.3608 0.449973 0.0622721
0.426642 0.469718 0.0234836
0.502831 0.491127 0.00184634
0.591501 0.513313 0.000289921
0.661357 0.519814 0
0.723796 0.522774 0
0.777768 0.525185 4.57771e-05
0.816205 0.52401 0.000762951
0.858503 0.519692 0.000427253
0.896513 0.516197 0.00163272
0.926345 0.516091 0.00590524
0.953567 0.516182 0.0459449
0.978225 0.516793 0.0903182
0.989868 0.519799 0.122606
0.997177 0.524468 0.154391
0.999512 0.529488 0.183566
0 0.424018 0.224414
0 0.420096 0.223194
0 0.41593 0.221897
0 0.411032 0.220356
0 0.404166 0.218219
0 0.398474 0.216571
0 0.390387 0.209842
0 0.382696 0.201801
0 0.384375 0.197223
0 0.383017 0.186343
0 0.380118 0.171984
0.00408942 0.382513 0.167651
0.00836194 0.385916 0.165362
0.0562905 0.396201 0.156405
0.107179 0.407889 0.147021
0.165148 0.424384 0.134569
0.232395 0.446113 0.119585
0.303746 0.469184 0.0979324
0.374517 0.491783 0.0495155
0.453315 0.514519 0.00796521
0.539712 0.534432 0.00263981
0.626581 0.545876 0
0.707362 0.551461 0
0.769223 0.557336 0
0.807797 0.557351 0.00299077
0.850385 0.553689 0.00202945
0.890852 0.549325 0.000732433
0.92076 0.545953 0.00299077
0.950408 0.546685 0.0221714
0.978225 0.549722 0.048188
0.99086 0.554025 0.101823
0.998184 0.55877 0.148089
0.999771 0.564996 0.18938
0 0.458579 0.235218
0 0.454902 0.234073
0 0.45098 0.232837
0 0.446571 0.231464
0 0.440192 0.22948
0 0.435843 0.229343
0.000411994 0.433433 0.23006
0.00299077 0.422919 0.224384
0.00198367 0.42208 0.215137
9.15541e-05 0.425284 0.205417
0.000991836 0.420706 0.192752
0.0012665 0.418891 0.183108
0.000518807 0.421592 0.178454
0.0100099 0.427176 0.174166
0.0365148 0.436851 0.170855
0.0606088 0.447425 0.168383
0.137285 0.468284 0.152255
0.22089 0.489906 0.134386
0.30425 0.512764 0.106355
0.397375 0.536919 0.0753643
0.485481 0.557946 0.029099
0.579034 0.576471 0
0.6692 0.5879 0
0.741176 0.583642 0
0.800153 0.583337 0.00488289
0.84268 0.58349 0.00416571
0.875578 0.583124 6.10361e-05
0.908385 0.580362 0.000122072
0.943542 0.581125 0
0.977188 0.583444 0.00553903
0.991547 0.586465 0.0595712
0.9991 0.591104 0.110353
0.998825 0.597009 0.168765
0 0.496071 0.259388
0 0.492683 0.257206
0 0.488777 0.254673
0 0.484611 0.251972
0 0.479133 0.248432
0.000137331 0.473655 0.244923
0.000991836 0.474586 0.246387
0.00416571 0.468528 0.246464
0.0062562 0.463096 0.24126
0.00151064 0.468696 0.223865
0.0016022 0.468345 0.213581
0.00383001 0.465339 0.206699
0.00199893 0.46714 0.198535
0.000122072 0.470558 0.192416
0.00289921 0.476951 0.194522
0.00576791 0.483864 0.196719
0.0607919 0.500633 0.186892
0.133196 0.519951 0.173129
0.221622 0.53962 0.157641
0.334386 0.560571 0.1393
0.427665 0.581979 0.0971084
0.524269 0.602243 0.0480354
0.623636 0.617563 0.000183108
0.709392 0.616037 0.00457771
0.777707 0.616114 0.0052491
0.829435 0.617487 0.00529488
0.870359 0.617899 0.00535592
0.905989 0.615015 0.00141909
0.939864 0.614404 0
0.970123 0.614893 0.000839246
0.986648 0.619745 0.00988785
0.996078 0.624079 0.05037
0.996078 0.626184 0.129183
0 0.533532 0.283253
0 0.531228 0.28188
0 0.528481 0.280217
0 0.525231 0.278264
0 0.519768 0.274723
0 0.515068 0.271687
0.0037995 0.51339 0.267124
0.00570687 0.513741 0.265553
0.00480659 0.515251 0.267201
0.00169375 0.515053 0.255344
0.00102235 0.514992 0.242954
0.00332647 0.51667 0.230076
0.00242618 0.518471 0.225299
0.00047303 0.521767 0.225345
0.00140383 0.526558 0.224002
0.00294499 0.53106 0.221469
0.0262913 0.540902 0.216922
0.0598154 0.553872 0.211154
0.138048 0.568963 0.201312
0.265476 0.588449 0.187991
0.367819 0.606668 0.1617
0.468513 0.624399 0.122606
0.567544 0.642771 0.0663462
0.668025 0.650568 0.0134432
0.745373 0.651072 0.00221256
0.808392 0.649607 0.00213626
0.86038 0.648386 0.00230411
0.895766 0.652415 0.000442512
0.933379 0.650263 0
0.97023 0.645747 0.00015259
0.986755 0.652155 0.00109865
0.996078 0.656321 0.0292363
0.996124 0.656138 0.0909895
0 0.568002 0.303929
0 0.565927 0.302693
0 0.564553 0.301869
0 0.562478 0.300633
0 0.559045 0.298558
0 0.555825 0.296635
0.00303655 0.552041 0.295399
0.00637827 0.55079 0.294545
0.00756847 0.555413 0.295064
0.00303655 0.556451 0.285008
0.000442512 0.557366 0.272862
0.00140383 0.557137 0.258183
0.00184634 0.559792 0.253803
0.00262455 0.564553 0.253391
0.00224308 0.569879 0.251484
0.000808728 0.57525 0.249332
0 0.580545 0.245869
0 0.584314 0.243824
0.0859998 0.598016 0.23769
0.214725 0.616022 0.229191
0.319692 0.628077 0.216251
0.424887 0.64419 0.19234
0.525933 0.664469 0.152544
0.629633 0.677745 0.0753185
0.712978 0.68246 0.0314641
0.784207 0.681559 0.00895705
0.843015 0.680232 0
0.888243 0.681437 0
0.927962 0.680537 0
0.962386 0.681163 0
0.98439 0.683467 0
0.996902 0.684733 0.0112306
0.998734 0.686122 0.0300908
0.00134279 0.597787 0.331243
0.00128176 0.597177 0.330449
0.00122072 0.596567 0.329656
0.00114443 0.595804 0.328664
0.000961318 0.593957 0.326268
0.000793469 0.592279 0.324086
0.0024567 0.588785 0.325978
0.00563058 0.586877 0.32752
0.00994888 0.589776 0.327108
0.00321965 0.592493 0.317891
0.000366217 0.593286 0.30634
0.00125124 0.593118 0.29192
0.00195315 0.597787 0.288655
0.00187686 0.602792 0.287144
0.000762951 0.605814 0.289555
1.5259e-05 0.608911 0.293751
0 0.611353 0.290822
0 0.613184 0.286732
0.0918288 0.624643 0.283543
0.190829 0.636271 0.278828
0.295247 0.64773 0.26865
0.400854 0.664973 0.253422
0.50135 0.682658 0.227695
0.595285 0.695171 0.183963
0.686213 0.707973 0.0972457
0.759594 0.711803 0.0517128
0.822568 0.711254 0.0237888
0.876326 0.708003 0.00199893
0.919875 0.710552 0.00154116
0.957839 0.712016 0.00256352
