src/colors/film_stock_&_vintage/vintage_green_film.cube
TITLE "Generated by Resolve"
LUT_3D_SIZE 5
0.0705882 0.117647 0.117647
0.123156 0.122423 0.117647
0.364645 0.143389 0.106737
0.827146 0.223453 0.0666667
1 0.294484 0.120073
0.0453803 0.138384 0.114565
0.128771 0.155077 0.108415
0.410468 0.213016 0.0948348
0.821607 0.288563 0.0465553
0.997131 0.322271 0.110964
1.5259e-05 0.282139 0.176379
0.0308537 0.26038 0.146715
0.422415 0.365713 0.0229953
0.834592 0.418647 0.0034638
0.999222 0.426398 0.119509
0 0.533532 0.283253
0.00480659 0.515251 0.267201
0.0262913 0.540902 0.216922
0.745373 0.651072 0.00221256
0.996124 0.656138 0.0909895
0.353979 0.752041 0.538125
0.39469 0.754101 0.54435
0.41474 0.763699 0.532662
0.576989 0.798306 0.486046
0.980056 0.8822 0.226429
0.0745098 0.1178 0.141558
0.134524 0.119982 0.119631
0.411673 0.189425 0.0966812
0.837995 0.29221 0.0433661
0.998138 0.341726 0.124285
0.0545663 0.154665 0.154253
0.13254 0.160525 0.149416
0.438209 0.245945 0.0986648
0.833173 0.326848 0.0279393
0.995605 0.348226 0.111406
0.00209049 0.302571 0.219638
0.0647898 0.271153 0.188052
0.402289 0.356359 0.108248
0.833112 0.432441 0.00154116
0.993957 0.441459 0.125124
0.000671397 0.536797 0.294942
0.00331121 0.515602 0.281468
0.0305333 0.55079 0.254658
0.748592 0.655024 0.0366979
0.999863 0.665751 0.0989548
0.374334 0.756146 0.549035
0.406607 0.755215 0.556161
0.446921 0.766552 0.544869
0.583093 0.79472 0.517006
0.979049 0.877226 0.331212
0.114397 0.152087 0.267155
0.187625 0.149035 0.263554
0.406592 0.159503 0.248463
0.855879 0.335454 0.141543
0.998474 0.405066 0.152178
0.0763409 0.183429 0.272358
0.170367 0.188907 0.268177
0.380301 0.2224 0.253666
0.836545 0.366094 0.168231
0.996811 0.41088 0.124071
0.00314336 0.343954 0.351171
0.0670329 0.311528 0.30454
0.355276 0.342672 0.287053
0.813718 0.468772 0.265263
0.998367 0.49131 0.156359
0.000213626 0.572259 0.387717
3.0518e-05 0.558907 0.378378
0.266377 0.579202 0.398947
0.730816 0.667552 0.38085
0.996994 0.710582 0.368582
0.431159 0.775036 0.60473
0.440085 0.769909 0.599786
0.531197 0.775021 0.612131
0.598535 0.7897 0.578851
0.968292 0.887343 0.517021
0.282139 0.244984 0.5841
0.345953 0.243153 0.58381
0.55996 0.267506 0.614145
0.781933 0.416815 0.571939
0.934066 0.576593 0.572335
0.252277 0.282795 0.58468
0.333196 0.288151 0.575402
0.525887 0.315694 0.606119
0.745586 0.408713 0.550347
0.896956 0.557794 0.537636
0.0715801 0.364645 0.586633
0.18471 0.343969 0.568856
0.437522 0.406287 0.5785
0.694484 0.493614 0.562219
0.897642 0.62565 0.584909
0.0950332 0.570611 0.593927
0.148348 0.56701 0.588418
0.413535 0.605097 0.602274
0.636744 0.645075 0.607065
0.962554 0.780652 0.704128
0.456092 0.79089 0.714092
0.469444 0.787991 0.694759
0.552895 0.809537 0.704845
0.657359 0.798077 0.697826
0.914778 0.885039 0.705409
0.510872 0.483574 0.775357
0.536843 0.481926 0.775036
0.653407 0.522835 0.796048
0.870359 0.575998 0.831296
0.985779 0.654521 0.796139
0.509239 0.502586 0.77023
0.533944 0.503532 0.769543
0.62739 0.526955 0.779995
0.808576 0.556542 0.793362
0.924178 0.619577 0.755291
0.468818 0.532845 0.781064
0.484031 0.514763 0.750118
0.584619 0.555352 0.754604
0.764187 0.589975 0.776913
0.935592 0.665095 0.773602
0.384649 0.584482 0.738491
0.396384 0.589166 0.736584
0.48423 0.618921 0.75613
0.678004 0.67599 0.782116
0.917876 0.752575 0.819135
0.442222 0.80972 0.865461
0.453773 0.797345 0.84593
0.506249 0.807935 0.858961
0.617655 0.812604 0.840024
0.791669 0.816098 0.809232
