src/colors/film_stock_&_vintage/vintage_400_film.cube
# M.Fahri Analog Film Pack 2023
# Follow me: https://www.instagram.com/m.fahri.photo/
TITLE "M Fahri - 400h"
#LUT size
LUT_3D_SIZE 5
#LUT data points
0.015686 0.019608 0.011765
0.219608 0.019608 0.023529
0.588235 0.003922 0.007843
0.874510 0.003922 0.000000
0.996078 0.227451 0.000000
0.011765 0.227451 0.043137
0.192157 0.235294 0.015686
0.596078 0.235294 0.003922
0.858824 0.274510 0.003922
0.984314 0.341176 0.007843
0.000000 0.521569 0.007843
0.023529 0.509804 0.007843
0.517647 0.533333 0.007843
0.819608 0.552941 0.007843
0.984314 0.556863 0.003922
0.000000 0.733333 0.168627
0.172549 0.733333 0.180392
0.494118 0.725490 0.149020
0.749020 0.741176 0.058824
0.937255 0.756863 0.003922
0.415686 0.933333 0.486275
0.474510 0.941176 0.501961
0.580392 0.925490 0.509804
0.741176 0.937255 0.513725
0.945098 0.960784 0.501961
0.050980 0.043137 0.203922
0.250980 0.023529 0.215686
0.611765 0.011765 0.227451
0.886275 0.023529 0.247059
0.992157 0.282353 0.270588
0.015686 0.254902 0.231373
0.243137 0.262745 0.239216
0.615686 0.250980 0.235294
0.866667 0.301961 0.219608
0.992157 0.380392 0.254902
0.003922 0.556863 0.266667
0.141176 0.545098 0.250980
0.552941 0.545098 0.215686
0.819608 0.552941 0.133333
0.992157 0.560784 0.180392
0.039216 0.749020 0.313725
0.282353 0.745098 0.333333
0.509804 0.729412 0.329412
0.756863 0.745098 0.298039
0.956863 0.756863 0.258824
0.431373 0.937255 0.529412
0.478431 0.929412 0.537255
0.596078 0.933333 0.564706
0.745098 0.945098 0.568627
0.937255 0.952941 0.545098
0.133333 0.054902 0.529412
0.341176 0.043137 0.545098
0.647059 0.015686 0.564706
0.882353 0.003922 0.541176
0.996078 0.262745 0.545098
0.078431 0.254902 0.541176
0.333333 0.274510 0.549020
0.639216 0.286275 0.556863
0.866667 0.294118 0.541176
0.988235 0.419608 0.572549
0.015686 0.564706 0.556863
0.317647 0.564706 0.556863
0.607843 0.580392 0.572549
0.827451 0.580392 0.560784
0.988235 0.607843 0.572549
0.352941 0.776471 0.580392
0.423529 0.772549 0.572549
0.580392 0.752941 0.572549
0.768627 0.752941 0.552941
0.960784 0.756863 0.525490
0.482353 0.941176 0.639216
0.513725 0.909804 0.639216
0.615686 0.937255 0.658824
0.745098 0.909804 0.635294
0.937255 0.956863 0.650980
0.403922 0.137255 0.764706
0.505882 0.137255 0.764706
0.694118 0.196078 0.776471
0.874510 0.270588 0.788235
0.996078 0.341176 0.772549
0.396078 0.309804 0.764706
0.498039 0.321569 0.760784
0.690196 0.360784 0.772549
0.858824 0.423529 0.780392
0.968627 0.439216 0.764706
0.235294 0.513725 0.737255
0.396078 0.521569 0.749020
0.627451 0.576471 0.760784
0.827451 0.627451 0.776471
0.996078 0.619608 0.768627
0.345098 0.764706 0.764706
0.443137 0.760784 0.760784
0.611765 0.776471 0.772549
0.803922 0.788235 0.780392
0.976471 0.784314 0.760784
0.498039 0.952941 0.788235
0.545098 0.952941 0.792157
0.647059 0.941176 0.788235
0.784314 0.952941 0.792157
0.960784 0.913725 0.772549
0.635294 0.411765 0.945098
0.662745 0.435294 0.941176
0.756863 0.470588 0.941176
0.882353 0.552941 0.941176
0.996078 0.576471 0.949020
0.615686 0.494118 0.937255
0.658824 0.505882 0.941176
0.752941 0.521569 0.929412
0.882353 0.588235 0.941176
0.972549 0.611765 0.937255
0.576471 0.631373 0.937255
0.603922 0.627451 0.933333
0.729412 0.650980 0.937255
0.862745 0.682353 0.937255
0.992157 0.709804 0.949020
0.486275 0.760784 0.937255
0.537255 0.760784 0.937255
0.650980 0.768627 0.921569
0.835294 0.796078 0.941176
0.980392 0.827451 0.949020
0.486275 0.968627 0.960784
0.533333 0.952941 0.952941
0.647059 0.956863 0.917647
0.803922 0.949020 0.937255
0.996078 0.972549 0.964706
