src/colors/film_stock_&_vintage/vintage_400_film.cube
# M.Fahri Analog Film Pack 2023
# Follow me: https://www.instagram.com/m.fahri.photo/
TITLE "M Fahri - 400h"
#LUT size
LUT_3D_SIZE 25
#LUT data points
0.015686 0.019608 0.011765
0.039216 0.027451 0.023529
0.066667 0.031373 0.035294
0.094118 0.023529 0.043137
0.133333 0.027451 0.043137
0.176471 0.023529 0.035294
0.219608 0.019608 0.023529
0.262745 0.015686 0.015686
0.329412 0.015686 0.015686
0.388235 0.015686 0.015686
0.458824 0.007843 0.011765
0.525490 0.000000 0.003922
0.588235 0.003922 0.007843
0.658824 0.007843 0.007843
0.713725 0.011765 0.011765
0.756863 0.011765 0.011765
0.796078 0.011765 0.007843
0.839216 0.007843 0.003922
0.874510 0.003922 0.000000
0.913725 0.003922 0.000000
0.937255 0.054902 0.003922
0.956863 0.105882 0.015686
0.976471 0.164706 0.019608
0.988235 0.200000 0.007843
0.996078 0.227451 0.000000
0.023529 0.043137 0.023529
0.035294 0.047059 0.023529
0.062745 0.047059 0.031373
0.090196 0.047059 0.039216
0.133333 0.047059 0.039216
0.176471 0.047059 0.031373
0.219608 0.043137 0.023529
0.266667 0.043137 0.015686
0.333333 0.031373 0.015686
0.392157 0.019608 0.015686
0.462745 0.007843 0.007843
0.529412 0.000000 0.003922
0.592157 0.007843 0.007843
0.658824 0.007843 0.007843
0.713725 0.011765 0.007843
0.756863 0.011765 0.007843
0.796078 0.015686 0.007843
0.839216 0.007843 0.003922
0.878431 0.000000 0.000000
0.909804 0.039216 0.000000
0.937255 0.078431 0.003922
0.956863 0.125490 0.011765
0.980392 0.180392 0.019608
0.988235 0.215686 0.003922
1.000000 0.235294 0.000000
0.031373 0.074510 0.035294
0.039216 0.074510 0.027451
0.050980 0.074510 0.023529
0.082353 0.070588 0.027451
0.129412 0.074510 0.027451
0.176471 0.078431 0.023529
0.219608 0.078431 0.015686
0.270588 0.074510 0.015686
0.337255 0.066667 0.011765
0.396078 0.050980 0.011765
0.466667 0.023529 0.007843
0.533333 0.007843 0.003922
0.592157 0.011765 0.003922
0.658824 0.007843 0.003922
0.713725 0.007843 0.003922
0.756863 0.023529 0.003922
0.796078 0.035294 0.003922
0.839216 0.047059 0.003922
0.874510 0.054902 0.000000
0.905882 0.086275 0.003922
0.933333 0.125490 0.003922
0.960784 0.156863 0.007843
0.980392 0.203922 0.011765
0.992157 0.235294 0.003922
1.000000 0.247059 0.000000
0.043137 0.101961 0.047059
0.043137 0.098039 0.031373
0.050980 0.094118 0.019608
0.078431 0.098039 0.015686
0.125490 0.101961 0.019608
0.172549 0.105882 0.015686
0.215686 0.105882 0.007843
0.274510 0.101961 0.007843
0.341176 0.098039 0.007843
0.403922 0.086275 0.007843
0.470588 0.074510 0.003922
0.537255 0.058824 0.003922
0.596078 0.050980 0.003922
0.658824 0.027451 0.000000
0.709804 0.035294 0.000000
0.752941 0.062745 0.003922
0.796078 0.090196 0.003922
0.839216 0.105882 0.003922
0.870588 0.121569 0.003922
0.901961 0.141176 0.003922
0.929412 0.168627 0.003922
0.960784 0.192157 0.003922
0.984314 0.227451 0.003922
1.000000 0.254902 0.000000
1.000000 0.258824 0.000000
0.035294 0.141176 0.047059
0.039216 0.137255 0.035294
0.043137 0.133333 0.023529
0.058824 0.133333 0.019608
0.109804 0.141176 0.023529
0.160784 0.141176 0.015686
0.207843 0.145098 0.007843
0.274510 0.145098 0.003922
0.345098 0.145098 0.003922
0.407843 0.141176 0.003922
0.478431 0.133333 0.003922
0.545098 0.121569 0.003922
0.603922 0.109804 0.003922
0.658824 0.098039 0.003922
0.709804 0.105882 0.003922
0.752941 0.125490 0.003922
0.796078 0.145098 0.003922
0.835294 0.164706 0.003922
0.866667 0.180392 0.003922
0.898039 0.200000 0.003922
0.929412 0.223529 0.003922
0.956863 0.239216 0.003922
0.988235 0.262745 0.003922
1.000000 0.274510 0.000000
1.000000 0.274510 0.000000
0.027451 0.184314 0.047059
0.027451 0.184314 0.039216
0.027451 0.176471 0.027451
0.035294 0.176471 0.019608
0.082353 0.180392 0.023529
0.141176 0.184314 0.023529
0.200000 0.192157 0.011765
0.266667 0.196078 0.003922
0.341176 0.192157 0.003922
0.411765 0.192157 0.003922
0.486275 0.188235 0.000000
0.549020 0.180392 0.003922
0.600000 0.176471 0.003922
0.654902 0.172549 0.003922
0.705882 0.180392 0.003922
0.745098 0.188235 0.003922
0.792157 0.203922 0.000000
0.835294 0.219608 0.000000
0.862745 0.235294 0.003922
0.894118 0.250980 0.003922
0.925490 0.270588 0.003922
0.956863 0.286275 0.007843
0.980392 0.301961 0.003922
0.992157 0.305882 0.003922
0.992157 0.309804 0.003922
0.011765 0.227451 0.043137
0.015686 0.223529 0.039216
0.011765 0.215686 0.027451
0.007843 0.211765 0.015686
0.066667 0.215686 0.019608
0.133333 0.227451 0.019608
0.192157 0.235294 0.015686
0.262745 0.239216 0.007843
0.337255 0.235294 0.003922
0.403922 0.235294 0.000000
0.478431 0.235294 0.000000
0.541176 0.239216 0.000000
0.596078 0.235294 0.003922
0.650980 0.235294 0.003922
0.698039 0.243137 0.003922
0.741176 0.250980 0.003922
0.788235 0.258824 0.000000
0.827451 0.266667 0.000000
0.858824 0.274510 0.003922
0.890196 0.290196 0.007843
0.921569 0.305882 0.007843
0.952941 0.321569 0.007843
0.976471 0.333333 0.007843
0.984314 0.341176 0.007843
0.984314 0.341176 0.007843
0.000000 0.270588 0.043137
0.003922 0.270588 0.035294
0.003922 0.266667 0.023529
0.003922 0.266667 0.019608
0.039216 0.266667 0.023529
0.113725 0.270588 0.019608
0.180392 0.278431 0.011765
0.250980 0.282353 0.003922
0.325490 0.282353 0.000000
0.392157 0.286275 0.000000
0.462745 0.290196 0.000000
0.529412 0.294118 0.003922
0.584314 0.294118 0.003922
0.643137 0.298039 0.003922
0.694118 0.301961 0.003922
0.737255 0.309804 0.003922
0.780392 0.317647 0.003922
0.819608 0.317647 0.003922
0.854902 0.321569 0.003922
0.886275 0.333333 0.003922
0.921569 0.345098 0.007843
0.949020 0.360784 0.007843
0.972549 0.368627 0.007843
0.976471 0.372549 0.011765
0.980392 0.376471 0.011765
0.000000 0.329412 0.031373
0.000000 0.325490 0.031373
0.003922 0.325490 0.023529
0.003922 0.321569 0.027451
0.015686 0.325490 0.035294
0.074510 0.329412 0.039216
0.149020 0.329412 0.019608
0.231373 0.333333 0.007843
0.309804 0.337255 0.000000
0.376471 0.341176 0.000000
0.450980 0.345098 0.000000
0.513725 0.349020 0.003922
0.572549 0.352941 0.003922
0.631373 0.356863 0.003922
0.690196 0.360784 0.003922
0.737255 0.368627 0.003922
0.776471 0.372549 0.003922
0.815686 0.372549 0.003922
0.847059 0.376471 0.003922
0.882353 0.380392 0.003922
0.913725 0.392157 0.003922
0.945098 0.400000 0.003922
0.968627 0.407843 0.003922
0.972549 0.411765 0.003922
0.976471 0.411765 0.003922
0.000000 0.376471 0.019608
0.003922 0.376471 0.023529
0.003922 0.372549 0.019608
0.003922 0.376471 0.027451
0.007843 0.376471 0.039216
0.039216 0.376471 0.039216
0.109804 0.376471 0.019608
0.196078 0.376471 0.007843
0.282353 0.380392 0.003922
0.356863 0.384314 0.003922
0.431373 0.388235 0.000000
0.498039 0.396078 0.000000
0.560784 0.403922 0.003922
0.623529 0.411765 0.003922
0.686275 0.411765 0.003922
0.733333 0.415686 0.003922
0.772549 0.423529 0.003922
0.811765 0.419608 0.003922
0.843137 0.419608 0.003922
0.874510 0.427451 0.003922
0.909804 0.435294 0.003922
0.937255 0.439216 0.003922
0.964706 0.443137 0.003922
0.972549 0.447059 0.003922
0.976471 0.447059 0.003922
0.000000 0.431373 0.007843
0.000000 0.431373 0.011765
0.003922 0.431373 0.019608
0.003922 0.427451 0.023529
0.003922 0.423529 0.023529
0.007843 0.423529 0.019608
0.066667 0.419608 0.007843
0.160784 0.423529 0.007843
0.254902 0.431373 0.007843
0.333333 0.435294 0.003922
0.415686 0.435294 0.000000
0.486275 0.447059 0.000000
0.549020 0.454902 0.003922
0.615686 0.462745 0.003922
0.674510 0.466667 0.003922
0.725490 0.470588 0.003922
0.764706 0.470588 0.003922
0.803922 0.470588 0.003922
0.835294 0.466667 0.003922
0.866667 0.474510 0.003922
0.898039 0.478431 0.003922
0.929412 0.478431 0.003922
0.960784 0.482353 0.003922
0.976471 0.486275 0.003922
0.980392 0.486275 0.003922
0.000000 0.486275 0.000000
0.000000 0.482353 0.003922
0.000000 0.482353 0.011765
0.000000 0.478431 0.015686
0.000000 0.474510 0.011765
0.000000 0.470588 0.003922
0.027451 0.470588 0.000000
0.141176 0.470588 0.003922
0.250980 0.478431 0.003922
0.329412 0.482353 0.003922
0.403922 0.482353 0.003922
0.470588 0.490196 0.003922
0.533333 0.498039 0.003922
0.603922 0.505882 0.003922
0.666667 0.513725 0.003922
0.717647 0.517647 0.003922
0.756863 0.517647 0.003922
0.792157 0.517647 0.007843
0.827451 0.517647 0.007843
0.858824 0.517647 0.003922
0.890196 0.517647 0.003922
0.921569 0.521569 0.003922
0.952941 0.521569 0.003922
0.972549 0.521569 0.003922
0.980392 0.521569 0.003922
0.000000 0.521569 0.007843
0.000000 0.521569 0.011765
0.000000 0.517647 0.015686
0.003922 0.517647 0.019608
0.003922 0.513725 0.015686
0.007843 0.509804 0.011765
0.023529 0.509804 0.007843
0.133333 0.513725 0.003922
0.247059 0.517647 0.000000
0.317647 0.521569 0.003922
0.388235 0.521569 0.007843
0.458824 0.529412 0.007843
0.517647 0.533333 0.007843
0.584314 0.541176 0.007843
0.650980 0.545098 0.007843
0.698039 0.549020 0.003922
0.745098 0.549020 0.003922
0.784314 0.552941 0.007843
0.819608 0.552941 0.007843
0.850980 0.556863 0.003922
0.882353 0.552941 0.003922
0.913725 0.552941 0.003922
0.949020 0.552941 0.003922
0.976471 0.556863 0.003922
0.984314 0.556863 0.003922
0.000000 0.564706 0.019608
0.000000 0.560784 0.019608
0.000000 0.560784 0.023529
0.003922 0.556863 0.023529
0.003922 0.556863 0.019608
0.007843 0.552941 0.015686
0.003922 0.552941 0.007843
0.109804 0.556863 0.007843
0.231373 0.560784 0.007843
0.301961 0.560784 0.007843
0.376471 0.564706 0.011765
0.443137 0.568627 0.007843
0.505882 0.572549 0.007843
0.568627 0.576471 0.007843
0.627451 0.576471 0.007843
0.682353 0.580392 0.007843
0.729412 0.584314 0.003922
0.772549 0.584314 0.007843
0.807843 0.588235 0.003922
0.839216 0.592157 0.003922
0.874510 0.592157 0.003922
0.909804 0.592157 0.003922
0.941176 0.588235 0.003922
0.972549 0.592157 0.003922
0.988235 0.592157 0.003922
0.000000 0.603922 0.027451
0.000000 0.603922 0.027451
0.000000 0.603922 0.031373
0.003922 0.600000 0.031373
0.003922 0.600000 0.023529
0.000000 0.596078 0.011765
0.023529 0.592157 0.019608
0.101961 0.592157 0.027451
0.211765 0.592157 0.027451
0.290196 0.596078 0.027451
0.360784 0.596078 0.015686
0.435294 0.600000 0.007843
0.494118 0.603922 0.003922
0.552941 0.603922 0.003922
0.611765 0.607843 0.007843
0.662745 0.611765 0.007843
0.713725 0.615686 0.003922
0.760784 0.619608 0.003922
0.792157 0.619608 0.003922
0.827451 0.623529 0.003922
0.866667 0.627451 0.003922
0.898039 0.627451 0.003922
0.933333 0.627451 0.003922
0.964706 0.627451 0.000000
0.988235 0.627451 0.000000
0.000000 0.635294 0.050980
0.000000 0.635294 0.050980
0.000000 0.635294 0.047059
0.003922 0.635294 0.050980
0.003922 0.631373 0.050980
0.003922 0.631373 0.050980
0.019608 0.627451 0.054902
0.101961 0.627451 0.054902
0.207843 0.627451 0.054902
0.298039 0.627451 0.050980
0.360784 0.627451 0.027451
0.431373 0.631373 0.007843
0.486275 0.631373 0.000000
0.545098 0.631373 0.007843
0.596078 0.635294 0.011765
0.647059 0.639216 0.011765
0.698039 0.643137 0.003922
0.745098 0.647059 0.003922
0.780392 0.647059 0.000000
0.819608 0.650980 0.000000
0.854902 0.654902 0.003922
0.890196 0.654902 0.003922
0.925490 0.654902 0.003922
0.956863 0.658824 0.000000
0.984314 0.658824 0.000000
0.000000 0.670588 0.090196
0.000000 0.670588 0.090196
0.000000 0.670588 0.086275
0.000000 0.670588 0.090196
0.003922 0.670588 0.094118
0.015686 0.666667 0.094118
0.070588 0.662745 0.098039
0.152941 0.662745 0.098039
0.250980 0.662745 0.094118
0.313725 0.662745 0.086275
0.372549 0.662745 0.066667
0.435294 0.666667 0.047059
0.482353 0.666667 0.035294
0.533333 0.666667 0.027451
0.588235 0.666667 0.027451
0.635294 0.670588 0.019608
0.682353 0.674510 0.007843
0.729412 0.678431 0.003922
0.764706 0.682353 0.000000
0.803922 0.686275 0.003922
0.847059 0.690196 0.007843
0.882353 0.690196 0.003922
0.917647 0.690196 0.003922
0.952941 0.694118 0.003922
0.964706 0.694118 0.000000
0.000000 0.705882 0.133333
0.000000 0.705882 0.129412
0.000000 0.701961 0.125490
0.000000 0.705882 0.121569
0.000000 0.705882 0.125490
0.047059 0.705882 0.129412
0.125490 0.701961 0.141176
0.203922 0.701961 0.141176
0.274510 0.698039 0.137255
0.329412 0.698039 0.129412
0.388235 0.698039 0.117647
0.443137 0.698039 0.101961
0.486275 0.698039 0.094118
0.533333 0.698039 0.082353
0.584314 0.701961 0.070588
0.627451 0.701961 0.050980
0.670588 0.705882 0.031373
0.717647 0.709804 0.003922
0.752941 0.713725 0.003922
0.796078 0.717647 0.011765
0.839216 0.721569 0.011765
0.878431 0.725490 0.007843
0.917647 0.725490 0.003922
0.945098 0.725490 0.000000
0.949020 0.725490 0.000000
0.000000 0.733333 0.168627
0.000000 0.733333 0.168627
0.003922 0.733333 0.160784
0.011765 0.733333 0.160784
0.023529 0.737255 0.160784
0.090196 0.733333 0.168627
0.172549 0.733333 0.180392
0.247059 0.729412 0.184314
0.298039 0.729412 0.184314
0.345098 0.729412 0.180392
0.396078 0.725490 0.172549
0.450980 0.725490 0.156863
0.494118 0.725490 0.149020
0.537255 0.725490 0.141176
0.584314 0.729412 0.125490
0.627451 0.733333 0.105882
0.670588 0.737255 0.082353
0.713725 0.737255 0.066667
0.749020 0.741176 0.058824
0.792157 0.745098 0.043137
0.835294 0.749020 0.035294
0.870588 0.752941 0.019608
0.909804 0.756863 0.003922
0.933333 0.760784 0.000000
0.937255 0.756863 0.003922
0.003922 0.768627 0.211765
0.027451 0.768627 0.211765
0.058824 0.764706 0.211765
0.086275 0.768627 0.211765
0.113725 0.768627 0.215686
0.160784 0.764706 0.219608
0.227451 0.764706 0.227451
0.286275 0.764706 0.235294
0.329412 0.764706 0.239216
0.368627 0.764706 0.235294
0.415686 0.760784 0.231373
0.466667 0.760784 0.219608
0.501961 0.760784 0.211765
0.545098 0.760784 0.203922
0.588235 0.760784 0.192157
0.627451 0.764706 0.176471
0.670588 0.768627 0.156863
0.709804 0.768627 0.156863
0.741176 0.772549 0.149020
0.784314 0.776471 0.129412
0.827451 0.780392 0.109804
0.866667 0.780392 0.082353
0.905882 0.788235 0.058824
0.933333 0.792157 0.054902
0.937255 0.788235 0.058824
0.129412 0.803922 0.262745
0.141176 0.803922 0.262745
0.160784 0.803922 0.270588
0.172549 0.800000 0.270588
0.200000 0.800000 0.274510
0.247059 0.800000 0.274510
0.282353 0.796078 0.278431
0.321569 0.796078 0.286275
0.360784 0.800000 0.290196
0.396078 0.796078 0.290196
0.439216 0.796078 0.286275
0.478431 0.796078 0.278431
0.509804 0.792157 0.274510
0.549020 0.792157 0.266667
0.588235 0.792157 0.258824
0.627451 0.796078 0.247059
0.666667 0.796078 0.239216
0.701961 0.800000 0.243137
0.737255 0.803922 0.247059
0.776471 0.807843 0.219608
0.819608 0.807843 0.188235
0.858824 0.811765 0.164706
0.898039 0.819608 0.152941
0.929412 0.823529 0.152941
0.945098 0.823529 0.149020
0.227451 0.835294 0.309804
0.231373 0.835294 0.313725
0.239216 0.835294 0.321569
0.250980 0.835294 0.325490
0.274510 0.835294 0.329412
0.305882 0.831373 0.325490
0.329412 0.831373 0.329412
0.356863 0.831373 0.333333
0.388235 0.831373 0.337255
0.423529 0.831373 0.337255
0.462745 0.831373 0.333333
0.498039 0.827451 0.333333
0.525490 0.827451 0.329412
0.556863 0.827451 0.321569
0.592157 0.823529 0.317647
0.627451 0.827451 0.305882
0.662745 0.827451 0.305882
0.701961 0.831373 0.309804
0.737255 0.835294 0.305882
0.776471 0.835294 0.286275
0.815686 0.843137 0.262745
0.854902 0.847059 0.243137
0.890196 0.847059 0.235294
0.929412 0.850980 0.231373
0.952941 0.854902 0.231373
0.294118 0.870588 0.372549
0.298039 0.870588 0.376471
0.305882 0.870588 0.384314
0.317647 0.870588 0.388235
0.333333 0.870588 0.392157
0.356863 0.870588 0.392157
0.380392 0.866667 0.388235
0.403922 0.866667 0.392157
0.427451 0.866667 0.392157
0.454902 0.866667 0.400000
0.490196 0.866667 0.400000
0.525490 0.862745 0.400000
0.545098 0.862745 0.400000
0.572549 0.862745 0.396078
0.603922 0.858824 0.380392
0.631373 0.854902 0.372549
0.670588 0.858824 0.372549
0.705882 0.866667 0.376471
0.737255 0.866667 0.376471
0.776471 0.874510 0.364706
0.811765 0.878431 0.345098
0.847059 0.878431 0.337255
0.882353 0.882353 0.329412
0.921569 0.886275 0.321569
0.952941 0.890196 0.321569
0.364706 0.905882 0.435294
0.364706 0.905882 0.439216
0.372549 0.905882 0.447059
0.380392 0.905882 0.447059
0.392157 0.905882 0.450980
0.411765 0.905882 0.450980
0.427451 0.905882 0.450980
0.450980 0.905882 0.450980
0.466667 0.898039 0.447059
0.490196 0.901961 0.458824
0.521569 0.901961 0.462745
0.545098 0.901961 0.462745
0.564706 0.898039 0.462745
0.592157 0.901961 0.470588
0.619608 0.898039 0.458824
0.647059 0.894118 0.447059
0.678431 0.901961 0.450980
0.713725 0.901961 0.450980
0.741176 0.905882 0.450980
0.772549 0.909804 0.447059
0.807843 0.913725 0.435294
0.839216 0.917647 0.427451
0.874510 0.917647 0.423529
0.913725 0.921569 0.419608
0.945098 0.925490 0.419608
0.415686 0.933333 0.486275
0.419608 0.937255 0.486275
0.427451 0.937255 0.490196
0.431373 0.937255 0.490196
0.439216 0.937255 0.494118
0.450980 0.937255 0.494118
0.474510 0.941176 0.501961
0.482353 0.933333 0.498039
0.498039 0.929412 0.494118
0.517647 0.929412 0.505882
0.545098 0.933333 0.513725
0.560784 0.929412 0.509804
0.580392 0.925490 0.509804
0.607843 0.929412 0.517647
0.635294 0.933333 0.525490
0.654902 0.929412 0.517647
0.686275 0.937255 0.521569
0.713725 0.933333 0.509804
0.741176 0.937255 0.513725
0.772549 0.945098 0.513725
0.803922 0.945098 0.501961
0.831373 0.945098 0.498039
0.866667 0.945098 0.494118
0.905882 0.952941 0.494118
0.945098 0.960784 0.501961
0.023529 0.027451 0.035294
0.043137 0.031373 0.035294
0.066667 0.031373 0.039216
0.094118 0.023529 0.047059
0.133333 0.023529 0.043137
0.180392 0.039216 0.043137
0.219608 0.023529 0.035294
0.270588 0.027451 0.031373
0.333333 0.015686 0.027451
0.392157 0.015686 0.027451
0.462745 0.007843 0.015686
0.525490 0.000000 0.011765
0.584314 0.003922 0.019608
0.650980 0.007843 0.027451
0.709804 0.011765 0.027451
0.756863 0.011765 0.023529
0.800000 0.007843 0.019608
0.843137 0.003922 0.011765
0.878431 0.003922 0.011765
0.913725 0.015686 0.019608
0.941176 0.062745 0.019608
0.960784 0.121569 0.027451
0.980392 0.168627 0.027451
0.988235 0.200000 0.011765
1.000000 0.227451 0.000000
0.023529 0.050980 0.035294
0.039216 0.050980 0.039216
0.062745 0.050980 0.039216
0.090196 0.047059 0.039216
0.133333 0.047059 0.039216
0.180392 0.054902 0.039216
0.219608 0.047059 0.035294
0.270588 0.047059 0.031373
0.333333 0.035294 0.027451
0.396078 0.019608 0.023529
0.462745 0.007843 0.015686
0.529412 0.000000 0.011765
0.584314 0.003922 0.019608
0.650980 0.007843 0.027451
0.713725 0.007843 0.027451
0.756863 0.011765 0.023529
0.800000 0.011765 0.019608
0.843137 0.007843 0.011765
0.878431 0.003922 0.007843
0.909804 0.047059 0.011765
0.937255 0.090196 0.015686
0.960784 0.137255 0.023529
0.980392 0.184314 0.023529
0.992157 0.215686 0.007843
1.000000 0.235294 0.000000
0.027451 0.078431 0.043137
0.039216 0.078431 0.039216
0.058824 0.074510 0.035294
0.090196 0.074510 0.035294
0.133333 0.078431 0.039216
0.180392 0.082353 0.035294
0.219608 0.078431 0.035294
0.274510 0.074510 0.031373
0.341176 0.066667 0.027451
0.400000 0.050980 0.023529
0.466667 0.023529 0.015686
0.533333 0.007843 0.011765
0.592157 0.011765 0.019608
0.654902 0.007843 0.027451
0.713725 0.007843 0.023529
0.760784 0.019608 0.023529
0.800000 0.031373 0.019608
0.839216 0.047059 0.007843
0.874510 0.058824 0.003922
0.905882 0.090196 0.003922
0.933333 0.129412 0.011765
0.960784 0.168627 0.015686
0.984314 0.207843 0.015686
0.992157 0.235294 0.007843
1.000000 0.247059 0.003922
0.027451 0.101961 0.050980
0.043137 0.101961 0.047059
0.058824 0.098039 0.039216
0.086275 0.101961 0.035294
0.133333 0.105882 0.035294
0.176471 0.109804 0.031373
0.219608 0.109804 0.031373
0.278431 0.105882 0.027451
0.345098 0.101961 0.023529
0.403922 0.090196 0.019608
0.470588 0.074510 0.011765
0.537255 0.058824 0.011765
0.596078 0.054902 0.019608
0.658824 0.035294 0.027451
0.713725 0.039216 0.019608
0.756863 0.062745 0.011765
0.800000 0.090196 0.007843
0.839216 0.105882 0.003922
0.870588 0.121569 0.003922
0.901961 0.141176 0.003922
0.933333 0.172549 0.007843
0.960784 0.196078 0.003922
0.984314 0.227451 0.003922
1.000000 0.254902 0.000000
1.000000 0.258824 0.000000
0.023529 0.141176 0.050980
0.035294 0.141176 0.047059
0.047059 0.137255 0.039216
0.070588 0.137255 0.039216
0.113725 0.141176 0.039216
0.164706 0.145098 0.035294
0.211765 0.149020 0.031373
0.278431 0.149020 0.023529
0.349020 0.149020 0.015686
0.407843 0.145098 0.011765
0.478431 0.133333 0.007843
0.545098 0.121569 0.007843
0.600000 0.113725 0.011765
0.658824 0.105882 0.015686
0.709804 0.113725 0.007843
0.752941 0.129412 0.003922
0.800000 0.149020 0.000000
0.835294 0.168627 0.003922
0.866667 0.180392 0.003922
0.898039 0.200000 0.003922
0.929412 0.223529 0.003922
0.956863 0.239216 0.003922
0.988235 0.262745 0.000000
1.000000 0.274510 0.000000
1.000000 0.274510 0.000000
0.019608 0.188235 0.050980
0.027451 0.184314 0.043137
0.031373 0.180392 0.039216
0.043137 0.180392 0.035294
0.086275 0.184314 0.039216
0.149020 0.188235 0.039216
0.203922 0.192157 0.031373
0.270588 0.196078 0.015686
0.345098 0.196078 0.011765
0.411765 0.192157 0.003922
0.482353 0.188235 0.000000
0.545098 0.180392 0.003922
0.596078 0.176471 0.007843
0.654902 0.176471 0.007843
0.705882 0.184314 0.007843
0.749020 0.196078 0.003922
0.792157 0.207843 0.000000
0.835294 0.219608 0.000000
0.862745 0.231373 0.003922
0.894118 0.250980 0.003922
0.925490 0.270588 0.003922
0.956863 0.286275 0.007843
0.980392 0.301961 0.003922
0.992157 0.305882 0.003922
0.992157 0.305882 0.003922
0.011765 0.227451 0.043137
0.015686 0.223529 0.043137
0.015686 0.219608 0.035294
0.019608 0.215686 0.035294
0.066667 0.223529 0.035294
0.133333 0.227451 0.035294
0.196078 0.235294 0.027451
0.262745 0.239216 0.011765
0.337255 0.239216 0.003922
0.403922 0.235294 0.000000
0.474510 0.239216 0.000000
0.537255 0.239216 0.000000
0.592157 0.235294 0.003922
0.647059 0.235294 0.007843
0.701961 0.239216 0.007843
0.741176 0.250980 0.003922
0.788235 0.254902 0.003922
0.827451 0.266667 0.003922
0.862745 0.274510 0.003922
0.894118 0.290196 0.003922
0.925490 0.305882 0.007843
0.952941 0.321569 0.007843
0.976471 0.333333 0.011765
0.984314 0.341176 0.011765
0.984314 0.341176 0.011765
0.000000 0.274510 0.043137
0.003922 0.270588 0.035294
0.003922 0.270588 0.035294
0.007843 0.270588 0.031373
0.039216 0.270588 0.035294
0.109804 0.274510 0.027451
0.180392 0.278431 0.015686
0.250980 0.286275 0.003922
0.325490 0.286275 0.000000
0.392157 0.286275 0.000000
0.462745 0.290196 0.000000
0.529412 0.294118 0.003922
0.584314 0.298039 0.003922
0.647059 0.298039 0.003922
0.694118 0.301961 0.003922
0.741176 0.305882 0.003922
0.780392 0.313725 0.003922
0.823529 0.317647 0.003922
0.854902 0.325490 0.003922
0.890196 0.337255 0.003922
0.921569 0.349020 0.007843
0.949020 0.360784 0.007843
0.972549 0.368627 0.007843
0.976471 0.376471 0.011765
0.980392 0.376471 0.011765
0.000000 0.329412 0.031373
0.000000 0.329412 0.031373
0.003922 0.325490 0.035294
0.007843 0.325490 0.035294
0.015686 0.325490 0.043137
0.070588 0.329412 0.039216
0.145098 0.329412 0.023529
0.227451 0.333333 0.003922
0.309804 0.337255 0.000000
0.376471 0.341176 0.000000
0.450980 0.345098 0.000000
0.517647 0.349020 0.003922
0.576471 0.356863 0.003922
0.635294 0.360784 0.003922
0.690196 0.360784 0.003922
0.737255 0.364706 0.003922
0.776471 0.368627 0.003922
0.815686 0.372549 0.003922
0.847059 0.376471 0.003922
0.882353 0.384314 0.003922
0.913725 0.392157 0.003922
0.945098 0.403922 0.003922
0.968627 0.407843 0.003922
0.972549 0.411765 0.003922
0.976471 0.411765 0.003922
0.000000 0.380392 0.023529
0.003922 0.376471 0.023529
0.003922 0.376471 0.031373
0.003922 0.376471 0.035294
0.003922 0.376471 0.043137
0.035294 0.376471 0.043137
0.109804 0.376471 0.027451
0.200000 0.376471 0.011765
0.290196 0.380392 0.007843
0.360784 0.388235 0.007843
0.435294 0.392157 0.003922
0.505882 0.400000 0.000000
0.568627 0.407843 0.000000
0.627451 0.411765 0.000000
0.686275 0.411765 0.000000
0.733333 0.415686 0.003922
0.772549 0.419608 0.003922
0.811765 0.419608 0.003922
0.843137 0.423529 0.003922
0.874510 0.427451 0.007843
0.909804 0.435294 0.003922
0.937255 0.439216 0.003922
0.964706 0.447059 0.003922
0.976471 0.447059 0.003922
0.976471 0.447059 0.003922
0.000000 0.431373 0.007843
0.003922 0.431373 0.011765
0.003922 0.431373 0.023529
0.003922 0.431373 0.031373
0.003922 0.427451 0.031373
0.011765 0.423529 0.031373
0.074510 0.423529 0.027451
0.176471 0.423529 0.015686
