src/colors/film_stock_&_vintage/warm_roast_film.cube
TITLE "Generated by Resolve"
LUT_3D_SIZE 5
0.000579843 0 0
0.155596 0 0
0.268498 0.0244602 0
0.379019 0.0671855 0
0.502678 0.111574 0
0.0700084 0.166888 0.0640574
0.18674 0.198932 0.0587778
0.442069 0.218631 0.0292515
0.561273 0.272526 0.0505989
0.703822 0.318074 0.0623178
0.429328 0.366995 0.338766
0.399847 0.41088 0.310933
0.495735 0.460777 0.369207
0.702007 0.492973 0.366918
0.87158 0.541802 0.288121
0.825223 0.560052 0.637491
0.751781 0.60209 0.658595
0.735561 0.662089 0.674037
0.794125 0.734997 0.708125
0.955428 0.781628 0.687938
1 0.790448 0.929915
1 0.823301 0.939361
0.979889 0.86714 0.941894
0.970657 0.920195 0.947631
0.996124 0.964034 0.967727
0 0 0.147478
0.169345 0 0.143297
0.37171 0.00946059 0.113359
0.471122 0.0589303 0.119875
0.626413 0.0911879 0.146563
0 0.208484 0.102296
0.195926 0.223316 0.157549
0.473533 0.23476 0.123064
0.604547 0.283452 0.122103
0.715084 0.338369 0.128359
0.284932 0.431998 0.24622
0.362081 0.447913 0.28072
0.509483 0.484428 0.2822
0.775601 0.501564 0.274144
0.884794 0.567971 0.286259
0.770825 0.602548 0.516564
0.708675 0.641779 0.551843
0.706233 0.69955 0.517983
0.809247 0.75581 0.575265
0.971176 0.798596 0.595865
1 0.823651 0.794278
1 0.847883 0.84123
0.975113 0.884413 0.858579
0.973602 0.932845 0.867857
1 0.973068 0.894942
0 0.00735485 0.228595
0.129305 0.01149 0.297063
0.321965 0.0380713 0.262318
0.478523 0.0722362 0.255451
0.641978 0.103014 0.277104
0 0.215702 0.265904
0.185061 0.235599 0.379019
0.489525 0.236072 0.395331
0.718975 0.255436 0.383597
0.808194 0.316609 0.38323
0.0740215 0.475868 0.287495
0.221668 0.519463 0.369436
0.522393 0.514382 0.412268
0.803265 0.522774 0.374792
0.923201 0.578378 0.378195
0.468833 0.696574 0.399908
0.510689 0.740719 0.465049
0.667979 0.747753 0.513497
0.822187 0.787518 0.515084
1 0.820737 0.528466
0.980774 0.872404 0.657679
0.952514 0.893904 0.736324
0.950759 0.921172 0.77583
0.962203 0.961883 0.744427
1 0.989868 0.801282
0 0.0170138 0.298436
0.0958877 0.0371252 0.345418
0.287007 0.0646525 0.366445
0.467994 0.0912795 0.381689
0.646479 0.117769 0.409201
0 0.227024 0.348028
0.191852 0.254078 0.465156
0.455009 0.260502 0.554894
0.659815 0.288731 0.533791
0.815579 0.330404 0.527276
0.0995651 0.487511 0.408942
0.258564 0.522301 0.539315
0.520577 0.5234 0.643
0.818418 0.522255 0.658549
0.993378 0.561471 0.65304
0.252995 0.739422 0.458671
0.400351 0.784649 0.538582
0.540566 0.826871 0.618204
0.833173 0.820783 0.655207
1 0.845304 0.632013
0.42269 0.972549 0.540993
0.643259 0.993988 0.633967
0.786679 1 0.712154
0.940505 0.991135 0.756237
1 1 0.759686
0 0.0273594 0.379309
0.0881514 0.0572213 0.439368
0.277989 0.0841077 0.47071
0.46305 0.109911 0.499184
0.634073 0.139101 0.522637
0 0.242863 0.45182
0.200443 0.273472 0.540246
0.420417 0.294545 0.600839
0.621973 0.319814 0.638392
0.804776 0.350942 0.656687
0.110872 0.503502 0.523354
0.30985 0.528405 0.622126
0.531991 0.541833 0.729564
0.784863 0.549035 0.815
0.955795 0.59115 0.798505
0.254856 0.758663 0.568689
0.425177 0.795575 0.661494
0.579629 0.82855 0.788296
0.829084 0.829313 0.878141
1 0.843336 0.90692
0.41738 0.991302 0.651331
0.586633 1 0.739162
0.728862 1 0.809766
0.84567 1 0.865599
1 1 0.886503
