src/colors/film_stock_&_vintage/warm_roast_film.cube
TITLE "Generated by Resolve"
LUT_3D_SIZE 9
0.000579843 0 0
0.0557412 0.00198367 0
0.155596 0 0
0.255634 0 0
0.268498 0.0244602 0
0.320134 0.0465858 0
0.379019 0.0671855 0
0.448707 0.0870832 0
0.502678 0.111574 0
0.0227207 0.0564126 0.0247349
0.0601205 0.0733349 0.0252537
0.187594 0.0805066 0.0055848
0.320348 0.0899214 0
0.37229 0.112917 0
0.411048 0.140688 0.00148013
0.463081 0.1664 0.00260929
0.528252 0.190326 0.00140383
0.592218 0.214984 0.00148013
0.0700084 0.166888 0.0640574
0.116274 0.177081 0.0664378
0.18674 0.198932 0.0587778
0.337743 0.20412 0.029221
0.442069 0.218631 0.0292515
0.499504 0.247913 0.0353857
0.561273 0.272526 0.0505989
0.629984 0.295872 0.0583352
0.703822 0.318074 0.0623178
0.193988 0.283268 0.151583
0.210758 0.294942 0.141054
0.257862 0.311666 0.136416
0.341878 0.332967 0.150103
0.466789 0.341497 0.185077
0.560052 0.358892 0.198428
0.646174 0.38088 0.170413
0.725063 0.407401 0.125231
0.79881 0.428168 0.13434
0.429328 0.366995 0.338766
0.40029 0.387808 0.32723
0.399847 0.41088 0.310933
0.437018 0.434577 0.32668
0.495735 0.460777 0.369207
0.603754 0.47567 0.374945
0.702007 0.492973 0.366918
0.790127 0.514778 0.341665
0.87158 0.541802 0.288121
0.632349 0.460304 0.490074
0.597925 0.478691 0.497185
0.573175 0.50277 0.498726
0.576959 0.528603 0.50605
0.599191 0.561013 0.519448
0.64828 0.594156 0.542412
0.749615 0.613428 0.543496
0.842527 0.635569 0.528389
0.922362 0.660945 0.502098
0.825223 0.560052 0.637491
0.792752 0.575799 0.655085
0.751781 0.60209 0.658595
0.73489 0.630091 0.66424
0.735561 0.662089 0.674037
0.750607 0.70016 0.68838
0.794125 0.734997 0.708125
0.883162 0.756603 0.701228
0.955428 0.781628 0.687938
0.972015 0.676326 0.783993
0.947387 0.688121 0.800061
0.910307 0.710491 0.806882
0.886381 0.735607 0.813367
0.874235 0.764767 0.820035
0.873564 0.798199 0.827405
0.883513 0.835691 0.836423
0.919982 0.867384 0.852918
0.978225 0.889921 0.855817
1 0.790448 0.929915
1 0.802335 0.94107
1 0.823301 0.939361
0.993744 0.844129 0.939803
0.979889 0.86714 0.941894
0.973037 0.893278 0.944976
0.970657 0.920195 0.947631
0.975067 0.945754 0.953994
0.996124 0.964034 0.967727
0 0 0.0493172
0.0625772 0.00155642 0.052079
0.174411 0 0.0460059
0.306188 0 0.0325628
0.350988 0.0081178 0.0335851
0.392844 0.0347753 0.0423896
0.450385 0.0565957 0.0419776
0.518517 0.0762646 0.035462
0.581979 0.0981308 0.0288853
0 0.0792096 0.0428473
0.0640116 0.0861372 0.062501
0.178042 0.0958724 0.0470588
0.31075 0.100771 0.0263066
0.430259 0.108644 0.0132906
0.437339 0.145083 0.0205844
0.485817 0.172 0.022034
0.544411 0.197482 0.0239109
0.618067 0.219638 0.0242618
0.00340276 0.191424 0.0542916
0.117876 0.188235 0.0979477
0.188937 0.207919 0.0992905
0.339422 0.215198 0.0711681
0.481575 0.224704 0.0370794
0.537453 0.249943 0.0603799
0.5776 0.280156 0.0814069
0.632837 0.307485 0.0877852
0.700481 0.331746 0.0857099
0.136355 0.308904 0.136187
0.206256 0.30573 0.161212
0.263294 0.316991 0.167529
0.344182 0.34052 0.164202
0.501503 0.345861 0.137194
0.611231 0.359686 0.153094
0.670619 0.388922 0.165118
0.731151 0.416846 0.164385
0.795087 0.440726 0.172061
0.376959 0.394553 0.286488
0.340734 0.419745 0.263935
0.365881 0.43418 0.252811
0.421103 0.453864 0.24654
0.506249 0.475364 0.259632
0.631525 0.482277 0.297963
0.725643 0.498634 0.320333
0.808988 0.522179 0.313024
0.880217 0.552499 0.283223
0.592264 0.484657 0.431449
0.569909 0.499428 0.44651
0.546151 0.523476 0.433951
0.552712 0.55082 0.415213
0.594263 0.577218 0.428901
0.656825 0.604456 0.471565
0.764782 0.621241 0.480735
0.855848 0.642725 0.479438
0.93106 0.669383 0.466712
0.794186 0.582238 0.569863
0.766705 0.596338 0.592035
0.737835 0.617426 0.600656
0.722911 0.644709 0.601038
0.731243 0.675013 0.606256
0.75404 0.710491 0.617578
0.801907 0.743816 0.64213
0.891905 0.764172 0.646189
0.96199 0.789258 0.637797
0.952895 0.694011 0.710948
0.932586 0.704356 0.737652
0.906554 0.720913 0.755459
0.879545 0.747219 0.758541
0.869871 0.775601 0.763088
0.874189 0.807157 0.772183
0.888853 0.842603 0.784848
0.925063 0.873762 0.804257
0.983612 0.896544 0.802014
1 0.805524 0.863188
1 0.818524 0.877302
1 0.831983 0.893568
0.99144 0.851972 0.898665
0.978393 0.874311 0.902663
0.972305 0.899474 0.907591
0.971847 0.92517 0.912657
0.978317 0.950011 0.919142
1 0.968017 0.930083
0 0 0.147478
0.057557 0.000976577 0.148882
0.169345 0 0.143297
0.30338 0 0.132204
0.37171 0.00946059 0.113359
0.408408 0.038819 0.112139
0.471122 0.0589303 0.119875
0.54403 0.0760204 0.131884
0.626413 0.0911879 0.146563
0 0.0847028 0.132616
0.054078 0.0921798 0.150912
0.181781 0.0995651 0.151995
0.328756 0.100282 0.150408
0.479896 0.0998245 0.147158
0.524605 0.126207 0.148562
0.560388 0.15581 0.156252
0.618509 0.18085 0.157458
0.69015 0.203372 0.151675
0 0.208484 0.102296
0.0462196 0.219837 0.132189
0.195926 0.223316 0.157549
0.329946 0.231067 0.140566
0.473533 0.23476 0.123064
0.596414 0.243763 0.106859
0.604547 0.283452 0.122103
0.655268 0.311971 0.126238
0.715084 0.338369 0.128359
0 0.341772 0.109407
0.116335 0.345052 0.163073
0.266072 0.331304 0.21004
0.348196 0.351125 0.216007
0.503655 0.357198 0.19295
0.650629 0.36582 0.157351
0.708598 0.392828 0.177707
0.746181 0.423636 0.200015
0.797116 0.451728 0.205112
0.284932 0.431998 0.24622
0.277287 0.453758 0.25182
0.362081 0.447913 0.28072
0.428275 0.460533 0.28661
0.509483 0.484428 0.2822
0.666468 0.488411 0.253941
0.775601 0.501564 0.274144
0.831357 0.532464 0.299168
0.884794 0.567971 0.286259
0.558129 0.50811 0.387839
0.514275 0.532158 0.398886
0.486686 0.559487 0.375647
0.520607 0.575906 0.363989
0.579324 0.598688 0.356344
0.666819 0.62118 0.368811
0.790692 0.63035 0.410666
0.877028 0.651331 0.440314
0.94461 0.679393 0.442786
0.770825 0.602548 0.516564
0.723247 0.624994 0.535592
0.708675 0.641779 0.551843
0.695613 0.668391 0.538598
0.706233 0.69955 0.517983
0.74934 0.728557 0.530694
0.809247 0.75581 0.575265
0.904463 0.773754 0.588785
0.971176 0.798596 0.595865
0.937881 0.711772 0.648844
0.902968 0.727855 0.673304
0.882551 0.742565 0.698192
0.868818 0.762554 0.70724
0.860761 0.790494 0.70634
0.870573 0.820539 0.709972
0.891814 0.854063 0.721431
0.930678 0.883528 0.747463
0.989471 0.904753 0.757183
1 0.823651 0.794278
1 0.838804 0.809476
1 0.847883 0.84123
0.989654 0.861769 0.857511
0.975113 0.884413 0.858579
0.970687 0.908995 0.86157
0.973602 0.932845 0.867857
0.982177 0.955825 0.878309
1 0.973068 0.894942
0 0.000457771 0.239551
0.0456855 0.000854505 0.263859
0.163317 0 0.254566
0.284688 0 0.232334
0.355154 0.0205081 0.198291
0.411399 0.0456397 0.185077
0.478645 0.0645914 0.187396
0.551064 0.0821241 0.196323
0.635889 0.0968643 0.210651
0 0.0883192 0.24181
0.0425116 0.0971084 0.26273
0.182834 0.103731 0.261143
0.326955 0.105745 0.262303
0.478431 0.105074 0.263844
0.546288 0.126558 0.245441
0.576455 0.158541 0.239292
0.640909 0.180896 0.249668
0.71667 0.199771 0.264607
0 0.215564 0.206546
0.0321355 0.226963 0.239094
0.192966 0.229496 0.258991
0.333959 0.233371 0.267735
0.489693 0.231952 0.27451
0.648219 0.228489 0.279301
0.696345 0.257145 0.281285
0.731624 0.289448 0.288106
0.787625 0.316915 0.288029
0 0.347601 0.191455
0.0438544 0.366476 0.231159
0.204273 0.368521 0.259251
0.357488 0.368185 0.284276
0.495247 0.373999 0.268101
0.641367 0.376883 0.249912
0.76875 0.384085 0.236149
0.771313 0.426535 0.242313
0.817517 0.456596 0.245472
0.0563516 0.47219 0.215198
0.100038 0.507332 0.240238
0.272572 0.496406 0.288075
0.431373 0.477607 0.337438
0.513878 0.496529 0.341985
0.669017 0.500984 0.316487
0.81207 0.510857 0.281987
0.865309 0.541665 0.299428
0.897765 0.575998 0.324468
0.406088 0.557137 0.332143
0.401984 0.580056 0.356298
0.412558 0.602121 0.365362
0.515862 0.593088 0.398978
0.587594 0.60766 0.405005
0.670436 0.633158 0.399558
0.82298 0.640192 0.373663
0.920104 0.658305 0.399435
0.960159 0.693385 0.432776
0.687175 0.641306 0.46041
0.665339 0.659129 0.491356
0.644694 0.681941 0.507332
0.63241 0.709346 0.485969
0.674296 0.72723 0.474845
0.735195 0.751842 0.466514
0.818586 0.774548 0.47921
0.926146 0.785565 0.524742
0.985031 0.810056 0.563287
0.908629 0.736095 0.590082
0.876326 0.751583 0.622202
0.838239 0.774319 0.645075
0.841657 0.788785 0.662303
0.836683 0.814389 0.648615
0.849226 0.845212 0.627314
0.888655 0.872221 0.64097
0.936568 0.89633 0.688762
0.997955 0.915068 0.708309
1 0.842908 0.731273
1 0.856153 0.756359
0.975464 0.871015 0.783764
0.972992 0.881895 0.807401
0.968963 0.898634 0.816022
0.96553 0.92192 0.813504
0.972473 0.943969 0.816129
0.985306 0.964813 0.826551
1 0.980468 0.849699
0 0.00735485 0.228595
0.0307469 0.0108186 0.277714
0.129305 0.01149 0.297063
0.23476 0.0198367 0.282582
0.321965 0.0380713 0.262318
0.404776 0.055024 0.255879
0.478523 0.0722362 0.255451
0.555093 0.0890669 0.262821
0.641978 0.103014 0.277104
0 0.0921798 0.267185
0.0346838 0.103548 0.355505
0.179477 0.108629 0.379843
0.326665 0.110918 0.379995
0.459602 0.115572 0.369451
0.526925 0.138354 0.334524
0.579446 0.16495 0.319097
0.648936 0.185992 0.322744
0.724117 0.205707 0.333944
0 0.215702 0.265904
0.0243229 0.232136 0.356161
0.185061 0.235599 0.379019
0.337728 0.236912 0.383963
0.489525 0.236072 0.395331
0.647318 0.232136 0.402777
0.718975 0.255436 0.383597
0.747707 0.291447 0.374533
0.808194 0.316609 0.38323
0 0.346029 0.265583
0.0357977 0.373205 0.344762
0.191546 0.376532 0.374716
0.358373 0.372992 0.391943
0.500938 0.374777 0.404135
0.658381 0.371954 0.408438
0.812741 0.369146 0.410483
0.856245 0.399558 0.410239
0.88571 0.434424 0.416632
0.0740215 0.475868 0.287495
0.103075 0.510567 0.33785
0.221668 0.519463 0.369436
0.376761 0.515557 0.392065
0.522393 0.514382 0.412268
0.661097 0.519005 0.394263
0.803265 0.522774 0.374792
0.916869 0.535225 0.363287
0.923201 0.578378 0.378195
0.168765 0.597436 0.313848
0.2224 0.624414 0.342962
0.25211 0.662699 0.36022
0.426001 0.648371 0.407538
0.589548 0.627588 0.459007
0.675258 0.647868 0.462959
0.825681 0.655283 0.439765
0.947021 0.671839 0.411322
0.983047 0.708034 0.428809
0.468833 0.696574 0.399908
0.493629 0.715816 0.43537
0.510689 0.740719 0.465049
0.549081 0.759441 0.479149
0.667979 0.747753 0.513497
0.744274 0.761944 0.519921
0.822187 0.787518 0.515084
0.949722 0.798123 0.495125
1 0.820737 0.528466
0.776532 0.784604 0.522133
0.769909 0.797803 0.560494
0.765515 0.814893 0.598123
0.778561 0.830304 0.619547
0.777737 0.855436 0.599634
0.821561 0.871855 0.588952
0.877867 0.894514 0.580987
0.94464 0.914961 0.596796
1 0.926757 0.648203
0.980774 0.872404 0.657679
0.962966 0.882963 0.693507
0.952514 0.893904 0.736324
0.941268 0.909804 0.758328
0.950759 0.921172 0.77583
0.951736 0.940154 0.764111
0.962203 0.961883 0.744427
0.985946 0.978241 0.757382
1 0.989868 0.801282
0 0.0122683 0.259068
0.0239567 0.0190127 0.292165
0.105394 0.0267491 0.310262
0.204547 0.0377508 0.317205
0.302495 0.0520333 0.318761
0.39202 0.0662547 0.318135
0.473259 0.0816205 0.320089
0.556863 0.0965744 0.329458
0.645731 0.110002 0.344228
0 0.0989395 0.290654
0.0409094 0.115175 0.342626
0.159869 0.12462 0.392752
0.288411 0.129946 0.41915
0.403067 0.13959 0.413748
0.488838 0.157259 0.395895
0.572183 0.174716 0.393057
0.649165 0.193912 0.394583
0.728695 0.212634 0.403235
0 0.220066 0.302739
0.0489967 0.237583 0.384573
0.181918 0.2421 0.476844
0.340169 0.240208 0.507118
0.492103 0.239307 0.516472
0.628885 0.24239 0.509499
0.699001 0.267903 0.47335
0.750881 0.297765 0.455436
0.815641 0.322225 0.45713
0.0149233 0.350179 0.323674
0.0768902 0.372778 0.405631
0.186587 0.382101 0.495094
0.354376 0.377844 0.51313
0.504799 0.377905 0.520455
0.658564 0.375555 0.528832
0.81181 0.372259 0.533242
0.875914 0.398581 0.513268
0.899001 0.437278 0.502892
0.0866407 0.481498 0.351873
0.153201 0.503639 0.407935
0.213901 0.526589 0.483345
0.366674 0.523033 0.505714
0.520104 0.51986 0.52108
0.666835 0.519219 0.531228
0.819104 0.518303 0.533791
0.94963 0.52369 0.541329
0.980713 0.560021 0.544991
0.175479 0.604608 0.37499
0.239124 0.627207 0.414633
0.267231 0.663569 0.46421
0.384863 0.671016 0.492561
0.535302 0.668559 0.515511
0.683742 0.667903 0.533013
0.81828 0.674754 0.516182
0.939941 0.684367 0.50103
1 0.705867 0.497276
0.255283 0.728405 0.401343
0.322454 0.751537 0.435111
0.381765 0.781933 0.467216
0.410346 0.819471 0.48481
0.576272 0.806607 0.526513
0.745144 0.78265 0.576883
0.826429 0.802319 0.581598
0.951339 0.812772 0.56318
1 0.834302 0.542321
0.463035 0.842435 0.463462
0.540017 0.856413 0.503395
0.59089 0.87483 0.546349
0.639582 0.892775 0.580041
0.693263 0.905638 0.597574
0.814832 0.891646 0.632517
0.88603 0.90312 0.640497
0.946944 0.925689 0.6383
1 0.936553 0.620783
0.84741 0.914229 0.586404
0.839841 0.927031 0.625879
0.849241 0.938338 0.67483
0.875273 0.947173 0.714458
0.905715 0.953475 0.739864
0.911635 0.970352 0.722301
0.946838 0.979553 0.712276
0.981506 0.993057 0.70425
1 1 0.717693
0 0.0170138 0.298436
0.0191958 0.0258183 0.324681
0.0958877 0.0371252 0.345418
0.191638 0.0513008 0.358221
0.287007 0.0646525 0.366445
0.379065 0.0776226 0.373114
0.467994 0.0912795 0.381689
0.557626 0.104494 0.395132
0.646479 0.117769 0.409201
0 0.106874 0.326192
0.0414282 0.124758 0.372656
0.150423 0.138109 0.407172
0.26009 0.148653 0.428687
0.367376 0.159518 0.443244
0.467826 0.172 0.451667
0.558404 0.186908 0.456138
0.644099 0.203784 0.460685
0.731044 0.220417 0.470634
0 0.227024 0.348028
0.0677653 0.245029 0.412314
0.191852 0.254078 0.465156
0.321447 0.257969 0.52018
0.455009 0.260502 0.554894
0.570642 0.269932 0.552789
0.659815 0.288731 0.533791
0.743832 0.307942 0.528176
0.815579 0.330404 0.527276
0.0252537 0.356664 0.377722
0.112093 0.374838 0.443519
0.222889 0.384573 0.52108
0.355474 0.383337 0.613397
0.509255 0.37998 0.645335
0.66067 0.378149 0.652491
0.794476 0.382071 0.642786
0.857527 0.410605 0.603571
0.901396 0.443854 0.583902
0.0995651 0.487511 0.408942
0.17908 0.505516 0.463966
0.258564 0.522301 0.539315
0.36173 0.528328 0.626108
0.520577 0.5234 0.643
0.66894 0.522576 0.650736
0.818418 0.522255 0.658549
0.948882 0.527504 0.668498
0.993378 0.561471 0.65304
0.180316 0.612406 0.433234
0.251499 0.63238 0.477226
0.319936 0.655314 0.532799
0.376989 0.678355 0.606973
0.526833 0.67602 0.632303
0.678782 0.673228 0.658824
0.823117 0.674907 0.658167
0.950912 0.680674 0.664836
1 0.695369 0.680293
0.252995 0.739422 0.458671
0.329015 0.759182 0.495506
0.400351 0.784649 0.538582
0.425772 0.820188 0.589044
0.540566 0.826871 0.618204
0.691341 0.82266 0.639048
0.833173 0.820783 0.655207
0.945052 0.829358 0.641413
1 0.845304 0.632013
0.327489 0.864347 0.491615
0.408453 0.881636 0.526482
0.485725 0.904799 0.565164
0.541375 0.929534 0.59762
0.573281 0.96025 0.620523
0.731975 0.944808 0.653864
0.886244 0.920699 0.70074
0.949462 0.936172 0.708202
1 0.944854 0.690486
0.42269 0.972549 0.540993
0.53518 0.985534 0.58378
0.643259 0.993988 0.633967
0.727169 1 0.678248
0.786679 1 0.712154
0.840833 1 0.727825
0.940505 0.991135 0.756237
0.984573 0.99649 0.76408
1 1 0.759686
0 0.0216068 0.347768
0.0150301 0.0323796 0.373068
0.0911116 0.0473335 0.39086
0.185946 0.0620127 0.404089
0.279515 0.0748608 0.416159
0.373342 0.0876783 0.428702
0.46627 0.100298 0.442863
0.556649 0.113176 0.457862
0.643122 0.127504 0.469764
0 0.114931 0.374929
0.0408179 0.134051 0.41181
0.146715 0.149203 0.440497
0.251301 0.161242 0.463859
0.353094 0.173495 0.483131
0.452018 0.18613 0.498665
0.545937 0.199725 0.511101
0.639139 0.214145 0.52221
0.732296 0.228687 0.53576
0 0.234791 0.400076
0.0776074 0.253254 0.451514
0.196719 0.264012 0.497765
0.313726 0.272694 0.536187
0.427558 0.281376 0.564111
0.535103 0.292058 0.582238
0.638224 0.304646 0.590204
0.730236 0.321004 0.591592
0.810162 0.340475 0.593561
0.0313726 0.364462 0.434073
0.130129 0.380697 0.488869
0.244755 0.390723 0.548791
0.366125 0.39617 0.60061
0.491585 0.398901 0.656718
0.622568 0.400443 0.690486
0.738094 0.41001 0.685618
0.820935 0.431052 0.664851
0.894621 0.453986 0.65919
0.105577 0.495262 0.466392
0.195727 0.510582 0.514748
0.292729 0.523079 0.57644
0.39707 0.530068 0.651133
0.521721 0.528603 0.742016
0.673884 0.525109 0.772671
0.82034 0.525811 0.780743
0.936202 0.536751 0.775769
0.980789 0.572717 0.742947
0.18024 0.621942 0.490959
0.262867 0.638315 0.532464
0.346868 0.656855 0.589364
0.422629 0.673838 0.664485
0.521996 0.68217 0.75079
0.680781 0.678203 0.766812
0.82298 0.679332 0.776791
0.949767 0.684688 0.78819
1 0.698634 0.805478
0.250889 0.750149 0.51519
0.332464 0.767697 0.553597
0.412695 0.789609 0.603494
0.478401 0.811734 0.660075
0.533013 0.833463 0.734554
0.683162 0.82884 0.7579
0.828611 0.824201 0.78172
0.947845 0.828794 0.783505
1 0.840223 0.795148
0.328817 0.873671 0.54609
0.404196 0.891844 0.584482
0.492439 0.911086 0.628656
0.559838 0.930678 0.671763
0.587976 0.958892 0.726329
0.702861 0.960266 0.7523
0.841993 0.952056 0.766964
0.952712 0.947524 0.779065
1 0.953201 0.766079
0.424323 0.980758 0.594095
0.491905 0.997162 0.634638
0.589288 1 0.678553
0.66099 1 0.713893
0.71342 1 0.741314
0.73669 1 0.755764
0.87303 1 0.776226
0.982116 1 0.819257
1 1 0.824292
0 0.0273594 0.379309
0.0117189 0.0405585 0.413565
0.0881514 0.0572213 0.439368
0.184771 0.0711223 0.456382
0.277989 0.0841077 0.47071
0.371389 0.0969558 0.484642
0.46305 0.109911 0.499184
0.550988 0.123598 0.512901
0.634073 0.139101 0.522637
0 0.1234 0.415854
0.0388342 0.142962 0.461006
0.145037 0.158572 0.489708
0.248707 0.171649 0.510216
0.348333 0.184634 0.529519
0.445609 0.197208 0.54931
0.541161 0.210208 0.568444
0.638086 0.223331 0.585153
0.731517 0.237781 0.599283
0 0.242863 0.45182
0.081239 0.261677 0.503471
0.200443 0.273472 0.540246
0.312856 0.284031 0.572198
0.420417 0.294545 0.600839
0.522133 0.306706 0.623468
0.621973 0.319814 0.638392
0.717266 0.334432 0.647837
0.804776 0.350942 0.656687
0.0360723 0.372747 0.490929
0.13962 0.388067 0.542031
0.256794 0.398322 0.588983
0.371984 0.406195 0.634821
0.484886 0.414054 0.672663
0.594522 0.422812 0.698909
0.702174 0.433066 0.714076
0.800641 0.446998 0.720729
0.882551 0.467201 0.722881
0.110872 0.503502 0.523354
0.204532 0.517525 0.570504
0.30985 0.528405 0.622126
0.4177 0.536004 0.679362
0.531991 0.541833 0.729564
0.65597 0.545174 0.782712
0.784863 0.549035 0.815
0.889982 0.563394 0.813657
0.955795 0.59115 0.798505
0.183474 0.630686 0.546029
0.266651 0.646372 0.590494
0.363104 0.66212 0.64213
0.456397 0.675258 0.70248
0.557443 0.684535 0.774304
0.6822 0.684657 0.857176
0.827527 0.683238 0.88632
0.950545 0.689097 0.898482
1 0.707805 0.902922
0.254856 0.758663 0.568689
0.331487 0.7776 0.613657
0.425177 0.795575 0.661494
0.504677 0.813092 0.716945
0.579629 0.82855 0.788296
0.679271 0.834379 0.865904
0.829084 0.829313 0.878141
0.946365 0.832792 0.891676
1 0.843336 0.90692
0.335134 0.881193 0.598032
0.401968 0.90135 0.643824
0.497337 0.917876 0.689662
0.572427 0.934234 0.737423
0.639719 0.949569 0.79176
0.696605 0.964416 0.86157
0.83447 0.954803 0.877424
0.947601 0.947402 0.893462
1 0.94934 0.893431
0.41738 0.991302 0.651331
0.494789 1 0.691752
0.586633 1 0.739162
0.666285 1 0.775738
0.728862 1 0.809766
0.74844 1 0.852171
0.84567 1 0.865599
0.951644 1 0.873899
1 1 0.886503
