src/colors/film_stock_&_vintage/warm_roast_film.cube
TITLE "Generated by Resolve"
LUT_3D_SIZE 33
0.000579843 0 0
0.0102083 0.000244144 0
0.0227665 0.00108339 0
0.0369573 0.00172427 0
0.0557412 0.00198367 0
0.0772869 0.0016022 0
0.102159 0.000579843 0
0.128328 0 0
0.155596 0 0
0.183536 0 0
0.212146 0 0
0.238346 0 0
0.255634 0 0
0.264164 0.00363165 0
0.264332 0.0107424 0
0.263539 0.0180972 0
0.268498 0.0244602 0
0.280003 0.0302129 0
0.293599 0.0358587 0
0.30695 0.0412909 0
0.320134 0.0465858 0
0.333135 0.0517128 0
0.347692 0.057084 0
0.362692 0.062211 0
0.379019 0.0671855 0
0.396368 0.0719615 0
0.414267 0.0770886 0
0.431891 0.0819562 0
0.448707 0.0870832 0
0.464317 0.0925612 0
0.478752 0.0986038 0
0.49163 0.104875 0
0.502678 0.111574 0
0.00852979 0.00946059 0.00657664
0.0137331 0.0132143 0.00715648
0.0268101 0.0151217 0.00480659
0.0420539 0.0165103 0.00158694
0.0624399 0.0175174 0
0.0844129 0.0177157 0
0.108354 0.0172732 0
0.133486 0.0167697 0
0.16022 0.0163272 0
0.188373 0.0162509 0
0.21825 0.0165408 0
0.249027 0.0168154 0
0.27097 0.0191043 0
0.285405 0.0233921 0
0.290471 0.0304875 0
0.290608 0.0388495 0
0.293141 0.0462654 0
0.301289 0.0522621 0
0.314473 0.057496 0
0.328267 0.0631113 0
0.341085 0.0687419 0
0.353826 0.0745403 0
0.367071 0.0802472 0
0.381247 0.0862593 0
0.396567 0.0918288 0
0.413291 0.0970169 0
0.430701 0.10222 0
0.448661 0.107469 0
0.465919 0.112917 0
0.4822 0.118471 0
0.497002 0.124331 0
0.510521 0.130953 0
0.522759 0.137819 0
0.0146181 0.0227665 0.0131228
0.0203098 0.0260624 0.014435
0.027039 0.0301518 0.0141909
0.0416876 0.0320745 0.0113832
0.0638132 0.0328069 0.007187
0.0899977 0.0329442 0.002121
0.116701 0.0337682 0
0.144518 0.0352789 0
0.173678 0.0359197 0
0.203265 0.0365454 0
0.233494 0.0373236 0
0.264363 0.0386053 0
0.291569 0.0410163 0
0.310094 0.0453651 0
0.318837 0.0510414 0
0.319921 0.0585336 0
0.320027 0.0670481 0
0.324758 0.0745708 0
0.335729 0.0808118 0
0.348547 0.0867628 0
0.361212 0.092958 0
0.373724 0.0992447 0
0.386374 0.105486 0
0.400107 0.111513 0
0.414755 0.117357 0
0.43093 0.123308 0
0.448447 0.128603 0
0.466209 0.133852 0
0.483589 0.139269 0
0.500435 0.144961 0
0.516182 0.151324 0
0.530724 0.157565 0
0.54377 0.164446 0
0.019028 0.0375982 0.0189517
0.0260166 0.0402838 0.0205234
0.031693 0.0449226 0.0201572
0.0403906 0.0490883 0.0194553
0.0623026 0.0513313 0.0162356
0.0900435 0.0526741 0.0115816
0.120836 0.0533303 0.00634775
0.151995 0.0543374 0.00131228
0.182681 0.0563973 0
0.21323 0.0593271 0
0.245182 0.0611734 0
0.277577 0.0623178 0
0.309026 0.0636759 0
0.331533 0.0668193 0
0.345159 0.0723735 0
0.34844 0.0800946 0
0.347784 0.0889296 0
0.350774 0.0970932 0
0.359945 0.104341 0
0.3729 0.110399 0
0.385245 0.116747 0
0.39762 0.12311 0
0.410285 0.129656 0
0.423346 0.136202 0
0.437247 0.142428 0
0.452476 0.148394 0
0.469001 0.154101 0
0.48658 0.159686 0
0.504265 0.165408 0
0.521324 0.171099 0
0.537469 0.177035 0
0.55256 0.18323 0
0.566354 0.190021 0
0.0227207 0.0564126 0.0247349
0.0308537 0.0588235 0.0264897
0.037705 0.0635386 0.026688
0.0451362 0.0687266 0.025864
0.0601205 0.0733349 0.0252537
0.0878309 0.0756542 0.0213474
0.120043 0.0772717 0.016144
0.153536 0.0788739 0.0111086
0.187594 0.0805066 0.0055848
0.221927 0.0823529 0
0.255528 0.0849165 0
0.287724 0.0880293 0
0.320348 0.0899214 0
0.34464 0.0928969 0
0.361929 0.0974289 0
0.369863 0.104341 0
0.37229 0.112917 0
0.375555 0.121141 0
0.3841 0.128191 0
0.397116 0.134371 0.000656138
0.411048 0.140688 0.00148013
0.42385 0.147066 0.00199893
0.4365 0.153613 0.00215152
0.449577 0.160052 0.0024567
0.463081 0.1664 0.00260929
0.478141 0.172946 0.00274662
0.493919 0.178927 0.00231937
0.510903 0.184588 0.00199893
0.528252 0.190326 0.00140383
0.545525 0.195987 0.00102235
0.562844 0.202121 0.0011902
0.57818 0.208484 0.00114443
0.592218 0.214984 0.00148013
0.0285801 0.0792706 0.0320134
0.0383001 0.0817121 0.0344396
0.0454871 0.0859541 0.033875
0.05449 0.0909895 0.0332494
0.0660716 0.0972457 0.032105
0.0858778 0.102632 0.0312657
0.118624 0.105028 0.0271305
0.152728 0.106981 0.0213931
0.187747 0.108507 0.0152743
0.223453 0.109834 0.00903334
0.25948 0.111131 0.00303655
0.295216 0.112718 0
0.330068 0.11516 0
0.357733 0.119417 0
0.377478 0.124331 0
0.388785 0.130449 0
0.393256 0.138415 0
0.397116 0.146761 0.002121
0.405249 0.154253 0.00570687
0.418708 0.160327 0.00770581
0.43357 0.166155 0.00895705
0.447684 0.172259 0.0101472
0.461692 0.17879 0.0117952
0.475395 0.185153 0.0130007
0.489342 0.191485 0.0135653
0.504189 0.197696 0.0141909
0.520119 0.203677 0.0144503
0.537408 0.209751 0.0145418
0.555322 0.21529 0.0143587
0.573129 0.22092 0.0138552
0.590341 0.226688 0.0137026
0.606394 0.232868 0.0137942
0.621378 0.239567 0.0140078
0.0369879 0.106584 0.0405585
0.0495155 0.108629 0.0438544
0.0590372 0.112871 0.0439155
0.0684062 0.117205 0.0430304
0.07953 0.122621 0.0414588
0.094316 0.129168 0.0395209
0.117388 0.133989 0.0383001
0.151644 0.136217 0.0333562
0.187427 0.13785 0.0270085
0.22388 0.139132 0.0203708
0.260746 0.1402 0.0138094
0.297551 0.141344 0.007187
0.334295 0.142611 0.000793469
0.365866 0.145235 0
0.390631 0.149798 0
0.40647 0.157046 0
0.414221 0.165072 0.000701915
0.419165 0.173053 0.00700389
0.427115 0.180438 0.0116426
0.439551 0.186862 0.0144045
0.454704 0.193149 0.0161135
0.46952 0.19913 0.018143
0.483925 0.205341 0.0203708
0.498314 0.211597 0.0222171
0.5131 0.217731 0.0243229
0.52903 0.224094 0.0263523
0.545647 0.229938 0.0272374
0.563378 0.235508 0.0277867
0.581735 0.240879 0.0278172
0.600397 0.246311 0.0279545
0.618463 0.25211 0.0282139
0.635279 0.258213 0.0283818
0.651026 0.26453 0.0288396
0.0509194 0.136355 0.0517128
0.0664988 0.137606 0.0554665
0.0760052 0.141176 0.0557107
0.0856489 0.144656 0.0548257
0.0970626 0.149462 0.0533761
0.110582 0.15491 0.0510567
0.126101 0.161425 0.0485389
0.150958 0.166003 0.0469978
0.186587 0.168002 0.0411231
0.223529 0.169467 0.0344854
0.261036 0.170657 0.0274052
0.298878 0.171817 0.0203708
0.336416 0.172763 0.0133211
0.369879 0.174594 0.00920119
0.397543 0.177905 0.00758373
0.41799 0.183154 0.00843824
0.430854 0.190585 0.011429
0.439368 0.199603 0.014313
0.44947 0.207691 0.0184329
0.462394 0.214008 0.022797
0.477287 0.220127 0.0253147
0.492149 0.226215 0.0278782
0.506691 0.232471 0.0304723
0.521431 0.239109 0.0335088
0.536614 0.245319 0.0360571
0.55227 0.251392 0.0383154
0.569192 0.25716 0.0403601
0.58732 0.262699 0.0418097
0.606241 0.268025 0.0426795
0.625834 0.273457 0.0435645
0.644388 0.278935 0.0439002
0.662257 0.28452 0.0445563
0.67863 0.290639 0.0454871
0.0700084 0.166888 0.0640574
0.0869306 0.167071 0.0679332
0.0964828 0.16997 0.0682841
0.10576 0.173236 0.0677958
0.116274 0.177081 0.0664378
0.128878 0.181872 0.064622
0.143343 0.188067 0.0625772
0.160082 0.194751 0.0598154
0.18674 0.198932 0.0587778
0.223407 0.200839 0.0527657
0.26125 0.202304 0.0449683
0.299489 0.203326 0.0368048
0.337743 0.20412 0.029221
0.372076 0.2056 0.0255894
0.401923 0.208484 0.0239109
0.425284 0.212634 0.0251316
0.442069 0.218631 0.0292515
0.454841 0.225986 0.0338903
0.467704 0.233768 0.0361181
0.482231 0.241611 0.034638
0.499504 0.247913 0.0353857
0.51603 0.253758 0.0399023
0.53135 0.26009 0.0438392
0.546441 0.26627 0.047425
0.561273 0.272526 0.0505989
0.576944 0.27863 0.0533303
0.593423 0.28455 0.0554818
0.611246 0.290562 0.0572519
0.629984 0.295872 0.0583352
0.649088 0.301137 0.0589609
0.668284 0.306401 0.0598306
0.686641 0.311894 0.0609903
0.703822 0.318074 0.0623178
0.0927138 0.197421 0.0781567
0.109972 0.197086 0.0825818
0.118685 0.199481 0.0830091
0.127459 0.202319 0.0827192
0.137285 0.205646 0.0816052
0.149371 0.210117 0.0803998
0.162554 0.215366 0.0783551
0.178119 0.221424 0.0757916
0.19556 0.228336 0.0731365
0.223636 0.232242 0.072282
0.261234 0.234089 0.0664836
0.300084 0.235615 0.0592203
0.338537 0.236805 0.0522621
0.373693 0.2383 0.0492256
0.404974 0.240513 0.0490883
0.430655 0.243931 0.0528878
0.450187 0.248875 0.0591592
0.465919 0.254917 0.0650492
0.481697 0.261433 0.06804
0.499336 0.268193 0.0674907
0.518578 0.274693 0.0628672
0.536751 0.281804 0.0568704
0.554253 0.288121 0.0569162
0.570962 0.293751 0.0621042
0.586908 0.299687 0.0661631
0.603021 0.30602 0.069749
0.619165 0.312047 0.0721904
0.636225 0.317861 0.0738689
0.654475 0.323354 0.0749371
0.672999 0.328771 0.0754253
0.691936 0.334173 0.0761883
0.710155 0.340017 0.0772717
0.727443 0.345861 0.0786297
0.117281 0.228214 0.0947738
0.134585 0.227436 0.099855
0.142428 0.229541 0.100206
0.150729 0.232029 0.100145
0.15996 0.234928 0.0993515
0.171023 0.238941 0.0986038
0.183566 0.243549 0.0967575
0.198245 0.249226 0.0951095
0.21471 0.255543 0.092668
0.232639 0.262684 0.0899519
0.262364 0.266133 0.0898756
0.300649 0.26775 0.0840162
0.338476 0.269184 0.0805676
0.374304 0.270726 0.0796674
0.406897 0.272648 0.0821088
0.434485 0.275471 0.088777
0.456779 0.279759 0.0984054
0.475456 0.284855 0.107301
0.493614 0.290364 0.111543
0.512749 0.296025 0.110155
0.533455 0.301762 0.104463
0.554208 0.307744 0.0975052
0.573648 0.314366 0.090135
0.592096 0.321813 0.0816815
0.609827 0.328374 0.0802625
0.627253 0.333761 0.0858625
0.644511 0.339345 0.0894636
0.66212 0.344839 0.0923171
0.679744 0.350545 0.0935836
0.698054 0.356191 0.0943618
0.716503 0.361898 0.0950484
0.734035 0.367651 0.0954452
0.750957 0.373465 0.0967269
0.149874 0.257359 0.117922
0.161822 0.257694 0.119677
0.167956 0.259983 0.119005
0.175341 0.262318 0.119203
0.184085 0.264881 0.118791
0.194705 0.26836 0.118273
0.206424 0.27245 0.116884
0.220035 0.277638 0.115633
0.235264 0.28333 0.113619
0.252247 0.289769 0.111467
0.270985 0.296834 0.10985
0.301656 0.299748 0.113573
0.338903 0.301167 0.114321
0.375174 0.302785 0.116136
0.408743 0.304677 0.121614
0.437659 0.307225 0.130266
0.461967 0.310658 0.141085
0.483467 0.31487 0.15079
0.503914 0.319722 0.155962
0.524849 0.324788 0.156649
0.547143 0.3299 0.152087
0.569146 0.335409 0.14583
0.589914 0.341436 0.137636
0.610071 0.347662 0.128923
0.629404 0.354376 0.119112
0.648035 0.361639 0.108003
0.666453 0.367956 0.104021
0.685344 0.373129 0.108415
0.704158 0.3785 0.111299
0.722866 0.383734 0.112947
0.741024 0.389212 0.113771
0.758495 0.394934 0.114473
0.775067 0.400854 0.115679
0.193988 0.283268 0.151583
0.201007 0.284398 0.150652
0.201572 0.288426 0.146441
0.2047 0.291829 0.143191
0.210758 0.294942 0.141054
0.219715 0.298268 0.139681
0.230945 0.302083 0.138872
0.243824 0.306493 0.13785
0.257862 0.311666 0.136416
0.274311 0.317205 0.136492
0.292439 0.323705 0.138247
0.31107 0.330465 0.142046
0.341878 0.332967 0.150103
0.377356 0.334401 0.155627
0.410574 0.336187 0.163409
0.440391 0.338506 0.173739
0.466789 0.341497 0.185077
0.490562 0.345205 0.19472
0.513283 0.349493 0.199924
0.53637 0.354162 0.201312
0.560052 0.358892 0.198428
0.582788 0.363867 0.19411
0.604562 0.369238 0.188418
0.625742 0.374899 0.180743
0.646174 0.38088 0.170413
0.66601 0.387228 0.159152
0.685969 0.394232 0.146502
0.705608 0.401282 0.132113
0.725063 0.407401 0.125231
0.744884 0.41207 0.128496
0.763806 0.417136 0.130739
0.78201 0.422461 0.132418
0.79881 0.428168 0.13434
0.249897 0.304936 0.196002
0.250904 0.308064 0.191745
0.245808 0.313649 0.18468
0.244373 0.318196 0.179034
0.246357 0.322087 0.174487
0.252872 0.325933 0.171649
0.261631 0.330083 0.16994
0.27274 0.334157 0.169009
0.285374 0.338872 0.168688
0.300633 0.344259 0.169833
0.316777 0.350011 0.171862
0.334081 0.356283 0.176455
0.352026 0.362829 0.185168
0.381338 0.365286 0.197498
0.414054 0.366995 0.208042
0.444236 0.369238 0.219638
0.471962 0.37203 0.230991
0.497627 0.375494 0.239368
0.522377 0.379629 0.244678
0.547189 0.383734 0.245609
0.571694 0.388083 0.243198
0.595712 0.392523 0.240101
0.618189 0.397498 0.236088
0.640238 0.40267 0.230823
0.661295 0.408316 0.223774
0.682353 0.414435 0.215045
0.70277 0.420508 0.202808
0.722957 0.426856 0.187625
0.743481 0.433356 0.171069
0.763561 0.440284 0.153414
0.783398 0.446311 0.144411
0.802472 0.45156 0.147982
0.82031 0.45687 0.150988
0.3131 0.324468 0.247333
0.310765 0.328283 0.242908
0.300801 0.33518 0.233738
0.293873 0.341283 0.225315
0.291142 0.346441 0.217838
0.293278 0.351293 0.212879
0.298833 0.355642 0.209567
0.307271 0.360281 0.207889
0.318151 0.364858 0.207752
0.33106 0.370047 0.208972
0.345266 0.375387 0.212284
0.360739 0.381277 0.217426
0.376699 0.387701 0.226078
0.392447 0.39443 0.239658
0.419944 0.397024 0.255146
0.449866 0.39942 0.26746
0.478325 0.402335 0.278035
0.505089 0.405798 0.285054
0.531212 0.409461 0.288762
0.557321 0.413275 0.289158
0.582849 0.417334 0.28719
0.607721 0.421485 0.284993
0.631037 0.426062 0.2822
0.654047 0.430915 0.27834
0.675608 0.436362 0.273411
0.697063 0.441779 0.266484
0.718227 0.447425 0.257725
0.738811 0.453498 0.246143
0.759731 0.459556 0.231662
0.780575 0.465858 0.213504
0.80087 0.472847 0.194415
0.820432 0.48011 0.174792
0.83888 0.486763 0.164889
0.373648 0.344839 0.29604
0.371649 0.348135 0.294636
0.361212 0.354711 0.288075
0.351202 0.361105 0.279622
0.344198 0.367681 0.271275
0.342168 0.373526 0.264515
0.343435 0.378775 0.259129
0.348745 0.383948 0.256352
0.356237 0.388861 0.255329
0.366567 0.394141 0.256794
0.378256 0.399451 0.260075
0.391257 0.405142 0.265919
0.405325 0.411536 0.274815
0.419242 0.41857 0.285481
0.432471 0.425772 0.301167
0.458091 0.428885 0.315175
0.486015 0.43183 0.324331
0.513344 0.435233 0.330327
0.540337 0.438911 0.332784
0.567208 0.442634 0.332494
0.593317 0.446494 0.331167
0.618555 0.450507 0.329702
0.643061 0.45481 0.327352
0.666636 0.459586 0.324651
0.689189 0.464408 0.320729
0.711223 0.469505 0.315404
0.732525 0.474983 0.308644
0.753918 0.480659 0.299657
0.775128 0.486671 0.288838
0.796277 0.493187 0.275303
0.817182 0.499794 0.259403
0.837201 0.50663 0.239826
0.856031 0.514015 0.219303
0.429328 0.366995 0.338766
0.428168 0.369635 0.340536
0.419211 0.375097 0.337987
0.408988 0.381186 0.333104
0.40029 0.387808 0.32723
0.395407 0.39408 0.321386
0.393545 0.399863 0.315755
0.395407 0.405585 0.312596
0.399847 0.41088 0.310933
0.406714 0.416632 0.31165
0.415595 0.422095 0.314321
0.425849 0.428275 0.3196
0.437018 0.434577 0.32668
0.448508 0.441505 0.335622
0.460121 0.449195 0.345754
0.471138 0.457191 0.359045
0.495735 0.460777 0.369207
0.52253 0.464302 0.373922
0.549844 0.467948 0.375738
0.576989 0.471733 0.375479
0.603754 0.47567 0.374945
0.629755 0.479744 0.374044
0.654765 0.483864 0.372213
0.678798 0.488243 0.370123
0.702007 0.492973 0.366918
0.724666 0.497978 0.362799
0.746807 0.503304 0.357382
0.768444 0.508949 0.350454
0.790127 0.514778 0.341665
0.811475 0.52134 0.331167
0.832334 0.527794 0.318853
0.852567 0.534554 0.304662
0.87158 0.541802 0.288121
0.479438 0.390951 0.377234
0.479072 0.39266 0.381155
0.472389 0.397086 0.381643
0.462821 0.402823 0.380133
0.45333 0.409232 0.377188
0.447318 0.415335 0.374014
0.443946 0.420935 0.37113
0.443397 0.426886 0.368582
0.445121 0.432471 0.367132
0.448997 0.438529 0.367453
0.454994 0.444297 0.36936
0.46247 0.450706 0.373022
0.470588 0.457374 0.378164
0.479774 0.464439 0.384222
0.489448 0.472145 0.391333
0.499336 0.480583 0.398901
0.509148 0.489052 0.409598
0.53312 0.493156 0.415381
0.56022 0.496956 0.417578
0.58735 0.500893 0.418326
0.614221 0.504799 0.418585
0.640482 0.508827 0.417975
0.665965 0.513069 0.416938
0.690898 0.517494 0.415152
0.714794 0.522194 0.412741
0.737881 0.527245 0.409201
0.760464 0.532509 0.404746
0.782696 0.538216 0.398856
0.804562 0.544228 0.391577
0.825833 0.550408 0.382605
0.846708 0.556771 0.372519
0.866896 0.563439 0.361517
0.885771 0.570687 0.348882
0.529442 0.41445 0.415183
0.527443 0.416785 0.418952
0.521675 0.420661 0.420706
0.5122 0.426108 0.42063
0.502846 0.432059 0.420478
0.495567 0.437705 0.419333
0.49131 0.443519 0.41854
0.489158 0.449393 0.417792
0.488762 0.45507 0.417227
0.490822 0.461112 0.418021
0.494224 0.467079 0.419333
0.499321 0.473701 0.421927
0.505379 0.480385 0.425513
0.512612 0.487526 0.42977
0.520287 0.495338 0.434424
0.528786 0.503975 0.439246
0.53782 0.5131 0.444297
0.546838 0.522011 0.45333
0.57171 0.52607 0.458076
0.598276 0.530083 0.459998
0.625086 0.534173 0.460975
0.651316 0.538476 0.461006
0.67718 0.542855 0.460533
0.70248 0.547402 0.45919
0.726696 0.552239 0.457481
0.750271 0.557305 0.454368
0.773526 0.562509 0.450401
0.796002 0.568414 0.445441
0.818143 0.574136 0.43917
0.839277 0.580285 0.43125
0.860273 0.586572 0.422721
0.880323 0.593164 0.41352
0.898909 0.600275 0.403616
0.580316 0.437583 0.452842
0.577478 0.440131 0.456931
0.571374 0.44387 0.459037
0.560449 0.449622 0.459052
0.549798 0.455741 0.458915
0.541634 0.461372 0.458854
0.536171 0.46717 0.459236
0.532952 0.472938 0.45977
0.531319 0.478523 0.460365
0.531533 0.484657 0.461494
0.532998 0.490715 0.463066
0.536477 0.497307 0.465476
0.540719 0.504112 0.467613
0.546014 0.511345 0.470649
0.552239 0.519188 0.474052
0.55993 0.527764 0.477562
0.567834 0.536751 0.481743
0.576455 0.546349 0.486152
0.584939 0.555596 0.495949
0.61001 0.559747 0.50013
0.636393 0.563943 0.502358
0.662409 0.56846 0.503227
0.688289 0.573053 0.503319
0.713558 0.577813 0.502403
0.738308 0.582712 0.500816
0.762325 0.587945 0.498116
0.785946 0.593393 0.494972
0.808499 0.599008 0.490105
0.830732 0.604685 0.484504
0.852125 0.610697 0.477791
0.872786 0.616968 0.470283
0.892821 0.623438 0.462547
0.911192 0.630457 0.454154
0.632349 0.460304 0.490074
0.627955 0.463233 0.49424
0.622629 0.466499 0.497154
0.610468 0.47248 0.497368
0.597925 0.478691 0.497185
0.588266 0.484977 0.4972
0.581048 0.491066 0.497475
0.576349 0.496773 0.497917
0.573175 0.50277 0.498726
0.571984 0.508934 0.500221
0.572305 0.514992 0.501823
0.573983 0.521798 0.503914
0.576959 0.528603 0.50605
0.58085 0.535897 0.508827
0.586419 0.543893 0.512215
0.592325 0.552209 0.51545
0.599191 0.561013 0.519448
0.606729 0.570459 0.523445
0.614984 0.580407 0.528527
0.62327 0.589822 0.538705
0.64828 0.594156 0.542412
0.674022 0.598688 0.544488
0.699565 0.603449 0.54519
0.72462 0.608438 0.544732
0.749615 0.613428 0.543496
0.773922 0.618921 0.54168
0.797345 0.624308 0.538247
0.82034 0.629816 0.533928
0.842527 0.635569 0.528389
0.864149 0.641474 0.522545
0.884581 0.647684 0.515892
0.904311 0.654078 0.508873
0.922362 0.660945 0.502098
0.683543 0.483452 0.526818
0.678737 0.486366 0.531624
0.673777 0.489326 0.535286
0.661067 0.495018 0.535744
0.64715 0.5019 0.535943
0.636469 0.50837 0.536263
0.628107 0.514702 0.53669
0.621515 0.520714 0.536767
0.617243 0.527001 0.537682
0.614511 0.533333 0.53901
0.613016 0.539788 0.540322
0.61326 0.546517 0.542153
0.614923 0.553536 0.544564
0.617731 0.560769 0.54728
0.621347 0.568933 0.55053
0.626245 0.577127 0.553658
0.631708 0.58587 0.557549
0.638041 0.595132 0.561547
0.645304 0.604852 0.566155
0.652903 0.615198 0.570993
0.661387 0.624552 0.581353
0.685924 0.629084 0.585306
0.711147 0.634134 0.587167
0.73611 0.6392 0.587686
0.760464 0.64445 0.586618
0.784802 0.649699 0.584634
0.808087 0.655222 0.581323
0.83122 0.660685 0.577371
0.853361 0.666438 0.572305
0.874846 0.672328 0.566705
0.895613 0.67837 0.5608
0.914794 0.684779 0.554879
0.932143 0.6916 0.54902
0.73341 0.507729 0.564202
0.727993 0.510353 0.569146
0.722713 0.513298 0.573648
0.711482 0.518669 0.575174
0.697368 0.525521 0.575952
0.68513 0.532357 0.576349
0.675303 0.538872 0.576669
0.667765 0.545113 0.577035
0.662272 0.551583 0.577844
0.65774 0.557992 0.578607
0.655482 0.564752 0.580011
0.654154 0.57145 0.581674
0.654154 0.578866 0.583841
0.65539 0.586191 0.586358
0.657908 0.594232 0.589517
0.661311 0.602396 0.592706
0.665675 0.610986 0.596353
0.670771 0.620111 0.600153
0.676616 0.629694 0.604547
0.683558 0.640009 0.609262
0.690501 0.650568 0.61416
0.699138 0.659831 0.624445
0.722988 0.664729 0.627649
0.747341 0.669718 0.62884
0.771267 0.675013 0.628382
0.795483 0.680201 0.627039
0.818647 0.685786 0.624109
0.84152 0.691371 0.620356
0.864027 0.696895 0.616037
0.885252 0.702754 0.611017
0.905531 0.708812 0.605646
0.924269 0.715206 0.600488
0.940764 0.722286 0.595865
0.780789 0.533013 0.601083
0.77583 0.535775 0.606943
0.770199 0.538766 0.611841
0.760586 0.543374 0.614771
0.745983 0.550271 0.615808
0.733272 0.556832 0.616632
0.722774 0.563394 0.617151
0.714046 0.570092 0.617685
0.707408 0.576745 0.618372
0.702266 0.583078 0.619074
0.698283 0.590082 0.620539
0.695445 0.596963 0.621836
0.694499 0.604318 0.624002
0.694286 0.611719 0.626245
0.695308 0.619821 0.628946
0.697414 0.627909 0.631968
0.700252 0.636469 0.635218
0.703944 0.645472 0.638621
0.70898 0.655039 0.642893
0.714199 0.665064 0.647196
0.720439 0.675319 0.651514
0.726909 0.686061 0.656352
0.735775 0.695094 0.666056
0.759045 0.700008 0.668589
0.782513 0.705165 0.669474
0.80592 0.710475 0.668269
0.829068 0.715877 0.666346
0.85156 0.721508 0.662974
0.87361 0.727138 0.659129
0.89485 0.73286 0.654566
0.914641 0.738811 0.650278
0.932448 0.745251 0.646021
0.94847 0.752117 0.642176
0.825223 0.560052 0.637491
0.820447 0.562661 0.6439
0.815122 0.565469 0.649317
0.806897 0.56939 0.653346
0.792752 0.575799 0.655085
0.779751 0.582345 0.656367
0.768734 0.589075 0.657099
0.759747 0.595666 0.657923
0.751781 0.60209 0.658595
0.745602 0.608927 0.659571
0.741039 0.615808 0.660929
0.73724 0.62269 0.662287
0.73489 0.630091 0.66424
0.73344 0.637522 0.666072
0.733181 0.645472 0.668284
0.733974 0.653651 0.671077
0.735561 0.662089 0.674037
0.738247 0.670954 0.677104
0.741604 0.680461 0.680873
0.745785 0.690074 0.684642
0.750607 0.70016 0.68838
0.756283 0.710552 0.692515
0.76231 0.721386 0.696544
0.771206 0.730144 0.705913
0.794125 0.734997 0.708125
0.816678 0.740291 0.708156
0.839292 0.745586 0.706844
0.861524 0.751019 0.704585
0.883162 0.756603 0.701228
0.90396 0.76231 0.697581
0.923293 0.768215 0.693996
0.940124 0.774746 0.690837
0.955428 0.781628 0.687938
0.867109 0.588144 0.673259
0.862028 0.590814 0.679545
0.85687 0.593423 0.685817
0.850263 0.596216 0.690364
0.836622 0.602502 0.692882
0.823713 0.609064 0.694713
0.812863 0.615503 0.696056
0.803189 0.621912 0.6972
0.795132 0.628351 0.698131
0.788144 0.635172 0.699321
0.782544 0.641718 0.700496
0.778058 0.648859 0.702052
0.774807 0.656245 0.703609
0.77232 0.663584 0.70515
0.770871 0.671214 0.707179
0.770657 0.679438 0.709758
0.771237 0.687709 0.712322
0.772564 0.696406 0.71487
0.775051 0.705684 0.718212
0.777768 0.715129 0.721462
0.781537 0.724849 0.724666
0.785992 0.734966 0.728344
0.791135 0.745449 0.731884
0.796674 0.75613 0.735943
0.805982 0.764553 0.744289
0.828077 0.769406 0.745983
0.849744 0.774685 0.745739
0.871305 0.779995 0.744335
0.892409 0.785412 0.741894
0.912581 0.790997 0.739391
0.930571 0.797116 0.736721
0.947204 0.803677 0.734844
0.961913 0.810224 0.732586
0.906554 0.616876 0.708888
0.900755 0.619348 0.714916
0.895888 0.621851 0.720546
0.890166 0.624582 0.726238
0.877623 0.630335 0.729076
0.864866 0.636698 0.731472
0.854154 0.642802 0.733471
0.844144 0.648981 0.734646
0.835843 0.655436 0.736065
0.829114 0.661891 0.737591
0.822675 0.668406 0.738842
0.817594 0.675441 0.740246
0.813352 0.682368 0.74165
0.810575 0.689799 0.74342
0.808209 0.697261 0.745251
0.807065 0.705287 0.747539
0.806531 0.713375 0.749706
0.806622 0.72192 0.75169
0.808011 0.731014 0.754528
0.809949 0.740093 0.75729
0.81236 0.749584 0.759991
0.815808 0.759304 0.762844
0.820035 0.769345 0.766186
0.824918 0.779706 0.769207
0.829892 0.790173 0.773388
0.83949 0.798199 0.780957
0.860426 0.803098 0.782208
0.881239 0.80824 0.782162
0.901747 0.813474 0.781201
0.920989 0.819013 0.779446
0.937896 0.825116 0.778195
0.953506 0.831495 0.776822
0.96788 0.837964 0.775708
0.941604 0.646097 0.745724
0.936217 0.648798 0.750896
0.931151 0.651377 0.755886
0.926116 0.65391 0.761151
0.915358 0.658869 0.764416
0.903288 0.664744 0.766827
0.892317 0.670588 0.768887
0.882856 0.676677 0.770703
0.874647 0.682826 0.77232
