src/colors/utility_&_correction/clean_&_denoise.cube
TITLE "Generated by Resolve"
LUT_3D_SIZE 5
0 0 0
0.273091 0 0
0.545998 0 0
0.801526 0 0
1 0 0
0 0.269352 0
0.262074 0.262074 0
0.524468 0.26421 0
0.773739 0.268315 0
1 0.273289 0
0 0.536385 0
0.264729 0.525017 0
0.523796 0.523796 0
0.770397 0.525048 0
1 0.527596 0
0 0.787915 0
0.268849 0.774319 0
0.52578 0.77113 0
0.770626 0.770626 0
1 0.771542 0
0 1 0
0.273411 1 0
0.528832 1 0
0.772335 1 0
1 1 0
0 0 0.262058
0.274907 0 0.274907
0.545312 0 0.285084
0.799741 0 0.294362
1 0 0.303212
0 0.267124 0.267124
0.259236 0.259236 0.259236
0.521477 0.260868 0.260868
0.770306 0.264652 0.264652
1 0.269352 0.269352
0 0.532677 0.272404
0.260441 0.52108 0.260441
0.519554 0.519554 0.2589
0.766079 0.520546 0.260243
1 0.522927 0.262806
0 0.783398 0.277928
0.26392 0.76965 0.26392
0.520745 0.766293 0.260395
0.765576 0.765576 0.259831
1 0.766354 0.260838
0 1 0.283497
0.268025 1 0.268025
0.523354 1 0.263188
0.766796 1 0.26125
1 1 0.261021
0 0 0.531548
0.278889 0 0.539117
0.547662 0 0.547662
0.801297 0 0.555962
1 0 0.564126
0 0.268299 0.528557
0.259937 0.259937 0.520531
0.521752 0.261158 0.521752
0.770382 0.264576 0.524865
1 0.269017 0.529122
0 0.532509 0.532509
0.259998 0.520638 0.520638
0.518883 0.518883 0.518883
0.765484 0.519631 0.519631
1 0.521859 0.521859
0 0.782498 0.537148
0.262715 0.768582 0.523049
0.519265 0.765133 0.519265
0.764218 0.764218 0.518334
1 0.764813 0.519249
0 1 0.542077
0.266361 1 0.526513
0.521492 1 0.521508
0.764889 1 0.51931
1 1 0.518929
0 0 0.786542
0.283268 0 0.788647
0.550652 0 0.795972
0.803571 0 0.803571
1 0 0.81117
0 0.27042 0.775814
0.261616 0.261616 0.767254
0.522759 0.262486 0.768277
0.771206 0.265538 0.771206
1 0.269688 0.775128
0 0.533288 0.778622
0.260838 0.521141 0.766659
0.519203 0.519203 0.765042
0.765606 0.519753 0.765606
1 0.521798 0.767346
0 0.782559 0.782559
0.262745 0.768475 0.768475
0.51899 0.764858 0.764858
0.763806 0.763806 0.763806
1 0.764248 0.764248
0 1 0.786938
0.265827 1 0.771344
0.520729 1 0.766308
0.763897 1 0.763897
1 1 0.76321
0 0 1
0.2878 0 1
0.554009 0 1
0.806241 0 1
1 0 1
0 0.273014 1
0.263783 0.263783 1
0.524422 0.264332 1
0.772519 0.267094 1
1 0.270939 1
0 0.534615 1
0.262135 0.52224 1
0.52015 0.52015 1
0.766125 0.520592 1
1 0.522408 1
0 0.78323 1
0.263462 0.768963 1
0.519615 0.765164 1
0.764035 0.764035 1
1 0.764309 1
0 1 1
0.266011 1 1
0.52079 1 1
0.763699 1 1
0.999969 0.999969 0.999969
