src/colors/utility_&_correction/clean_&_denoise.cube
TITLE "Generated by Resolve"
LUT_3D_SIZE 33
0 0 0
0 0 0
0.038941 0 0
0.0798657 0 0
0.119387 0 0
0.158694 0 0
0.198993 0 0
0.236606 0 0
0.273091 0 0
0.308797 0 0
0.343893 0 0
0.378485 0 0
0.412665 0 0
0.446464 0 0
0.479927 0 0
0.5131 0 0
0.545998 0 0
0.578637 0 0
0.611048 0 0
0.643259 0 0
0.675258 0 0
0.707088 0 0
0.73872 0 0
0.770199 0 0
0.801526 0 0
0.8327 0 0
0.863737 0 0
0.894636 0 0
0.925414 0 0
0.956054 0 0
0.986572 0 0
1 0 0
1 0 0
0 0 0
0 0 0
0.0413672 0 0
0.0846113 0 0
0.124422 0 0
0.162615 0 0
0.19971 0.000610361 0
0.235981 0.00202945 0
0.27158 0.0033875 0
0.30663 0.0047303 0
0.341207 0.00602731 0
0.375372 0.00730907 0
0.409186 0.00856031 0
0.442649 0.00979629 0
0.475837 0.011017 0
0.508751 0.0122225 0
0.541421 0.0134279 0
0.573846 0.0146181 0
0.606073 0.0157931 0
0.638086 0.0169528 0
0.669932 0.0180972 0
0.701595 0.0192569 0
0.733089 0.0204013 0
0.764431 0.0215305 0
0.795621 0.0226596 0
0.826673 0.0237736 0
0.857588 0.0249027 0
0.88838 0.0260014 0
0.919036 0.0271153 0
0.949584 0.0281987 0
0.980011 0.0292821 0
1 0.0303655 0
1 0.0314336 0
0 0.0415656 0
0 0.0418402 0
0.0407263 0.0407263 0
0.0815442 0.0410773 0
0.120272 0.0417487 0
0.157702 0.0425269 0
0.194217 0.0433967 0
0.230015 0.0443275 0
0.265217 0.0452735 0
0.299916 0.0462501 0
0.334188 0.0472419 0
0.368078 0.0482185 0
0.401633 0.0492256 0
0.434897 0.050248 0
0.467872 0.0512551 0
0.500587 0.0522774 0
0.533074 0.0532845 0
0.565347 0.0543069 0
0.597421 0.0553292 0
0.629297 0.0563516 0
0.661006 0.0573587 0
0.692531 0.058381 0
0.723918 0.0594034 0
0.755138 0.0604257 0
0.786221 0.0614328 0
0.817166 0.0624552 0
0.847974 0.0634623 0
0.878676 0.0644846 0
0.909239 0.0654917 0
0.939696 0.0664988 0
0.970031 0.0674907 0
1 0.0684825 0
1 0.0694743 0
0 0.084123 0
0 0.0834363 0
0.0411841 0.0816663 0
0.0814527 0.0814527 0
0.119753 0.0816358 0
0.156832 0.0820325 0
0.193042 0.0825513 0
0.22855 0.0831769 0
0.263493 0.0838483 0
0.297963 0.0845655 0
0.332021 0.0853285 0
0.365728 0.0861219 0
0.3991 0.0869459 0
0.432181 0.0877699 0
0.465003 0.0886244 0
0.497581 0.0894789 0
0.529931 0.0903639 0
0.562066 0.091249 0
0.594018 0.092134 0
0.625772 0.0930343 0
0.657359 0.0939345 0
0.688792 0.0948501 0
0.720058 0.0957504 0
0.751186 0.0966812 0
0.782177 0.0975967 0
0.813031 0.0985122 0
0.843763 0.099443 0
0.874372 0.100374 0
0.90486 0.101305 0
0.935241 0.10222 0
0.965499 0.103151 0
0.995651 0.104067 0
1 0.104982 0
0 0.123598 0
0 0.122515 0
0.0417945 0.120363 0
0.0817273 0.119844 0
0.119753 0.119753 0
0.156588 0.119875 0
0.192584 0.120165 0
0.227893 0.120562 0
0.262669 0.121035 0
0.296971 0.121584 0
0.330877 0.122164 0
0.364416 0.122789 0
0.39765 0.123461 0
0.43061 0.124163 0
0.463294 0.12488 0
0.49575 0.125612 0
0.527977 0.12636 0
0.560006 0.127123 0
0.591852 0.127916 0
0.623514 0.12871 0
0.655009 0.129519 0
0.686351 0.130327 0
0.717525 0.131151 0
0.748577 0.131991 0
0.779477 0.132815 0
0.810254 0.133654 0
0.840894 0.134508 0
0.871443 0.135363 0
0.901854 0.136202 0
0.932158 0.137072 0
0.962356 0.137926 0
0.992447 0.138781 0
1 0.139635 0
0 0.161456 0
0 0.160098 0
0.0424964 0.157717 0
0.0821698 0.156985 0
0.119966 0.15668 0
0.156634 0.156634 0
0.192447 0.156741 0
0.227619 0.15697 0
0.262242 0.157275 0
0.296407 0.157671 0
0.33019 0.158114 0
0.363622 0.158618 0
0.396735 0.159167 0
0.429572 0.159731 0
0.462165 0.160342 0
0.494514 0.160967 0
0.52665 0.161624 0
0.558587 0.162295 0
0.590341 0.162982 0
0.621912 0.163684 0
0.65333 0.164401 0
0.684581 0.165133 0
0.715679 0.165866 0
0.746654 0.166629 0
0.777478 0.167391 0
0.808194 0.168154 0
0.838773 0.168933 0
0.869245 0.169711 0
0.899596 0.170504 0
0.929839 0.171298 0
0.959976 0.172076 0
0.990005 0.172869 0
1 0.173678 0
0 0.198199 0
0 0.196658 0
0.0431678 0.194064 0
0.0826429 0.193164 0
0.120287 0.192706 0
0.156786 0.192508 0
0.192462 0.192462 0
0.227512 0.192569 0
0.262028 0.192752 0
0.296071 0.193011 0
0.329747 0.193347 0
0.363088 0.193744 0
0.396109 0.194171 0
0.428855 0.194644 0
0.461357 0.195163 0
0.493614 0.195682 0
0.525673 0.196246 0
0.557534 0.196841 0
0.589197 0.197452 0
0.620706 0.198077 0
0.652033 0.198718 0
0.683223 0.199359 0
0.71426 0.200031 0
0.745159 0.200717 0
0.775921 0.201419 0
0.806561 0.202121 0
0.837079 0.202823 0
0.867491 0.20354 0
0.897795 0.204273 0
0.927977 0.205005 0
0.958053 0.205737 0
0.988037 0.206485 0
1 0.207233 0
0 0.234104 0
0 0.23241 0
0.0439155 0.229694 0
0.083238 0.228656 0
0.120714 0.228077 0
0.157092 0.227756 0
0.192645 0.227604 0
0.227573 0.227573 0
0.261997 0.227665 0
0.295964 0.227832 0
0.329534 0.228061 0
0.362783 0.228351 0
0.395712 0.228687 0
0.428382 0.229084 0
0.460807 0.229496 0
0.493004 0.229953 0
0.524987 0.230442 0
0.556756 0.230945 0
0.588373 0.231479 0
0.619791 0.232029 0
0.651072 0.232609 0
0.682185 0.233188 0
0.713161 0.233799 0
0.743999 0.234409 0
0.774716 0.23505 0
0.805295 0.235691 0
0.835767 0.236347 0
0.866117 0.237018 0
0.896361 0.237675 0
0.926482 0.238361 0
0.956512 0.239033 0
0.98645 0.239734 0
1 0.240421 0
0 0.269352 0
0 0.267536 0
0.0446632 0.264714 0
0.0838636 0.263569 0
0.121218 0.262867 0
0.157458 0.26244 0
0.19292 0.262196 0
0.227756 0.262089 0
0.262074 0.262074 0
0.295949 0.26215 0
0.329458 0.262287 0
0.362615 0.262501 0
0.395483 0.26276 0
0.428092 0.263066 0
0.460426 0.263416 0
0.492561 0.263798 0
0.524468 0.26421 0
0.556191 0.264652 0
0.587732 0.26511 0
0.619104 0.265599 0
0.650324 0.266102 0
0.681376 0.266636 0
0.712306 0.267185 0
0.743084 0.267735 0
0.773739 0.268315 0
0.804273 0.268894 0
0.834684 0.269505 0
0.864988 0.270115 0
0.895171 0.270726 0
0.925261 0.271351 0
0.955245 0.271992 0
0.985122 0.272633 0
1 0.273289 0
0 0.304051 0
0 0.302129 0
0.0454108 0.299199 0
0.0844892 0.297948 0
0.121752 0.297185 0
0.157885 0.296666 0
0.193256 0.29633 0
0.228 0.296132 0
0.262242 0.29604 0
0.29604 0.29604 0
0.329473 0.296117 0
0.36257 0.296239 0
0.395361 0.296437 0
0.427909 0.296666 0
0.460182 0.296941 0
0.492241 0.297261 0
0.524102 0.297612 0
0.555764 0.297978 0
0.587259 0.29839 0
0.61857 0.298817 0
0.649729 0.29926 0
0.680751 0.299748 0
0.711604 0.300237 0
0.742336 0.30074 0
0.772946 0.301259 0
0.803433 0.301793 0
0.833799 0.302342 0
0.864057 0.302907 0
0.894194 0.303487 0
0.924239 0.304067 0
0.954177 0.304646 0
0.984024 0.305257 0
1 0.305867 0
0 0.338277 0
0.000823987 0.336263 0
0.0461738 0.333257 0
0.0851606 0.33193 0
0.122316 0.33106 0
0.158373 0.33048 0
0.193652 0.330068 0
0.228305 0.329793 0
0.26247 0.329641 0
0.296208 0.329564 0
0.329564 0.329564 0
0.3626 0.329625 0
0.395331 0.329763 0
0.427817 0.329931 0
0.460044 0.330144 0
0.492058 0.330404 0
0.523857 0.330694 0
0.555459 0.330999 0
0.586892 0.33135 0
0.618173 0.331731 0
0.649271 0.332128 0
0.680232 0.332555 0
0.711055 0.332982 0
0.741741 0.33344 0
0.772305 0.333913 0
0.802747 0.334401 0
0.833066 0.33492 0
0.863279 0.335424 0
0.893385 0.335958 0
0.923384 0.336507 0
0.953292 0.337057 0
0.983093 0.337606 0
1 0.33817 0
0 0.372107 0
0.00166323 0.370001 0
0.0469215 0.366918 0
0.085832 0.365515 0
0.122911 0.364584 0
0.158877 0.363912 0
0.19408 0.363439 0
0.228672 0.363119 0
0.26276 0.36289 0
0.296422 0.362753 0
0.329732 0.362692 0
0.362707 0.362707 0
0.395392 0.362768 0
0.427802 0.36289 0
0.459983 0.363043 0
0.491936 0.363241 0
0.52369 0.36347 0
0.555261 0.363745 0
0.586648 0.36405 0
0.617868 0.36437 0
0.648936 0.364706 0
0.67985 0.365087 0
0.710628 0.365484 0
0.741268 0.365896 0
0.771786 0.366323 0
0.802182 0.366766 0
0.832471 0.367224 0
0.862638 0.367697 0
0.892699 0.368185 0
0.922667 0.368688 0
0.952529 0.369192 0
0.9823 0.369711 0
1 0.370245 0
0 0.405554 0
0.00250248 0.403388 0
0.0476844 0.400229 0
0.0865034 0.398764 0
0.123491 0.397742 0
0.159411 0.397024 0
0.194537 0.39649 0
0.229053 0.396094 0
0.263081 0.395819 0
0.296696 0.395636 0
0.329931 0.395514 0
0.362844 0.395468 0
0.395483 0.395483 0
0.427848 0.395544 0
0.459983 0.395651 0
0.49189 0.395804 0
0.523598 0.395987 0
0.555108 0.396201 0
0.586465 0.39646 0
0.617639 0.396735 0
0.648661 0.39704 0
0.67953 0.39736 0
0.710277 0.397711 0
0.740871 0.398077 0
0.771359 0.398459 0
0.801709 0.398871 0
0.831952 0.399298 0
0.862089 0.399725 0
0.892119 0.400183 0
0.922042 0.400641 0
0.951873 0.401114 0
0.981613 0.401587 0
1 0.40209 0
0 0.438666 0
0.00329595 0.436439 0
0.0484169 0.433219 0
0.0871748 0.431693 0
0.124117 0.43064 0
0.15996 0.429862 0
0.195026 0.429267 0
0.22948 0.428824 0
0.263447 0.428489 0
0.297002 0.428244 0
0.33019 0.428077 0
0.363058 0.427985 0
0.395636 0.427955 0
0.427955 0.427955 0
0.460044 0.428016 0
0.491905 0.428122 0
0.523583 0.42826 0
0.555047 0.428443 0
0.586358 0.428641 0
0.617487 0.42887 0
0.648478 0.429145 0
0.679316 0.429419 0
0.710002 0.429725 0
0.740581 0.43006 0
0.771023 0.430411 0
0.801343 0.430777 0
0.831556 0.431159 0
0.861646 0.431556 0
0.891646 0.431968 0
0.921538 0.432395 0
0.951339 0.432837 0
0.981033 0.43328 0
1 0.433738 0
0 0.471504 0
0.00410468 0.46923 0
0.0491646 0.46595 0
0.0878767 0.464363 0
0.124758 0.463249 0
0.16054 0.462425 0
0.195544 0.461769 0
0.229953 0.46128 0
0.263859 0.460899 0
0.297353 0.460609 0
0.330495 0.460395 0
0.363302 0.460258 0
0.39585 0.460166 0
0.428122 0.460136 0
0.460166 0.460166 0
0.491981 0.460227 0
0.523598 0.460319 0
0.555047 0.460441 0
0.586313 0.460609 0
0.617411 0.460807 0
0.648356 0.461036 0
0.679149 0.46128 0
0.709819 0.46154 0
0.740353 0.46183 0
0.770764 0.46215 0
0.801038 0.46247 0
0.83122 0.462821 0
0.86128 0.463172 0
0.891234 0.463554 0
0.921111 0.463951 0
0.950866 0.464347 0
0.980529 0.464759 0
1 0.465187 0
0 0.504067 0
0.00489815 0.501732 0
0.0499123 0.498405 0
0.0885481 0.496757 0
0.125383 0.495613 0
0.161105 0.494728 0
0.196063 0.494041 0
0.230411 0.493492 0
0.264286 0.493065 0
0.297719 0.492729 0
0.330816 0.49247 0
0.363592 0.492287 0
0.396078 0.492164 0
0.428305 0.492103 0
0.460304 0.492073 0
0.492088 0.492088 0
0.523674 0.492149 0
0.555077 0.492241 0
0.586297 0.492363 0
0.617365 0.492531 0
0.64828 0.492699 0
0.679042 0.492912 0
0.709667 0.493156 0
0.740169 0.493416 0
0.77055 0.49369 0
0.800809 0.49398 0
0.830945 0.494285 0
0.860975 0.494621 0
0.890913 0.494972 0
0.920745 0.495323 0
0.950484 0.495689 0
0.980117 0.496071 0
1 0.496483 0
0 0.536385 0
0.00570687 0.534005 0
0.0506447 0.530617 0
0.0892653 0.528954 0
0.126024 0.527733 0
0.1617 0.526802 0
0.196612 0.526085 0
0.230915 0.52549 0
0.264729 0.525017 0
0.298131 0.524651 0
0.331182 0.524361 0
0.363912 0.524132 0
0.396353 0.523964 0
0.428534 0.523857 0
0.460502 0.523796 0
0.492256 0.523781 0
0.523796 0.523796 0
0.555154 0.523842 0
0.586343 0.523934 0
0.61738 0.524056 0
0.648264 0.524208 0
0.678996 0.524392 0
0.70959 0.52459 0
0.740063 0.524804 0
0.770397 0.525048 0
0.800626 0.525307 0
0.830747 0.525597 0
0.860746 0.525887 0
0.890654 0.526207 0
0.920455 0.526528 0
0.950164 0.526879 0
0.979767 0.52723 0
1 0.527596 0
0 0.56849 0
0.00648508 0.566064 0
0.0514076 0.562631 0
0.0899519 0.560906 0
0.12668 0.559655 0
0.16231 0.558694 0
0.197177 0.557916 0
0.231434 0.55729 0
0.265202 0.556786 0
0.298558 0.556359 0
0.331563 0.556039 0
0.364248 0.555779 0
0.396658 0.555566 0
0.428809 0.555428 0
0.460731 0.555337 0
0.492439 0.555276 0
0.523949 0.555261 0
0.555276 0.555276 0
0.586435 0.555337 0
0.617441 0.555428 0
0.64828 0.555535 0
0.678981 0.555688 0
0.70956 0.555856 0
0.739986 0.556039 0
0.770306 0.556252 0
0.800504 0.556481 0
0.830594 0.556725 0
0.860563 0.557 0
0.89044 0.55729 0
0.920226 0.557595 0
0.949889 0.5579 0
0.979477 0.558221 0
1 0.558556 0
0 0.600381 0
0.00727855 0.59791 0
0.0521553 0.59443 0
0.0906539 0.59266 0
0.127337 0.591379 0
0.162936 0.590372 0
0.197757 0.589563 0
0.231968 0.588891 0
0.26569 0.588357 0
0.299016 0.5879 0
0.331975 0.587533 0
0.364614 0.587243 0
0.396979 0.586999 0
0.429099 0.586816 0
0.46099 0.586694 0
0.492668 0.586603 0
0.524147 0.586557 0
0.555444 0.586542 0
0.586572 0.586572 0
0.617533 0.586618 0
0.648356 0.586709 0
0.679026 0.586816 0
0.70956 0.586954 0
0.739971 0.587106 0
0.77026 0.587289 0
0.800427 0.587503 0
0.830488 0.587716 0
0.860441 0.587961 0
0.890288 0.58822 0
0.920027 0.588479 0
0.949691 0.588769 0
0.979248 0.589075 0
1 0.58938 0
0 0.632059 0
0.00807202 0.629557 0
0.0528878 0.626047 0
0.0913558 0.624231 0
0.127993 0.622904 0
0.163546 0.621866 0
0.198337 0.621027 0
0.232502 0.620325 0
0.266194 0.61973 0
0.299474 0.619257 0
0.332387 0.618845 0
0.365011 0.618524 0
0.397345 0.61825 0
0.429419 0.618051 0
0.46128 0.617884 0
0.492912 0.617761 0
0.524361 0.617685 0
0.555627 0.617639 0
0.586725 0.617639 0
0.61767 0.61767 0
0.648447 0.617716 0
0.679088 0.617792 0
0.709606 0.617899 0
0.739986 0.618036 0
0.770245 0.618189 0
0.800381 0.618357 0
0.830411 0.618555 0
0.860349 0.618769 0
0.890166 0.618997 0
0.91989 0.619242 0
0.949508 0.619501 0
0.979049 0.619776 0
1 0.620066 0
0 0.663569 0
0.00883497 0.661021 0
0.0536202 0.657465 0
0.0920577 0.655619 0
0.128664 0.654261 0
0.164172 0.653178 0
0.198917 0.652308 0
0.233051 0.651576 0
0.266712 0.650965 0
0.299947 0.650446 0
0.332845 0.650004 0
0.365423 0.649653 0
0.397711 0.649348 0
0.429755 0.649104 0
0.461585 0.648905 0
0.493187 0.648768 0
0.524605 0.648661 0
0.55584 0.648585 0
0.586908 0.648554 0
0.617807 0.648539 0
0.648569 0.648569 0
0.679194 0.64863 0
0.709682 0.648707 0
0.740017 0.648814 0
0.77026 0.648936 0
0.800381 0.649088 0
0.830381 0.649241 0
0.860288 0.649439 0
0.890089 0.649638 0
0.919783 0.649851 0
0.949386 0.65008 0
0.978897 0.650339 0
1 0.650599 0
0 0.694881 0
0.00959792 0.692302 0
0.0543526 0.688716 0
0.0927443 0.686839 0
0.129305 0.685435 0
0.164782 0.684321 0
0.199496 0.683421 0
0.2336 0.682658 0
0.267216 0.682002 0
0.30042 0.681453 0
0.333272 0.680995 0
0.36582 0.680598 0
0.398077 0.680278 0
0.430106 0.680003 0
0.461891 0.679774 0
0.493477 0.679606 0
0.524849 0.679469 0
0.556054 0.679362 0
0.587106 0.679301 0
0.617975 0.679271 0
0.648707 0.679271 0
0.679301 0.679301 0
0.709758 0.679347 0
0.740093 0.679438 0
0.770306 0.67953 0
0.800397 0.679652 0
0.830381 0.679805 0
0.860243 0.679957 0
0.890028 0.68014 0
0.919707 0.680339 0
0.949294 0.680552 0
0.978775 0.680766 0
1 0.68101 0
0 0.72604 0
0.0103609 0.72343 0
0.0550851 0.719814 0
0.0934462 0.717906 0
0.129976 0.716472 0
0.165423 0.715328 0
0.200092 0.714382 0
0.234165 0.713588 0
0.26775 0.712917 0
0.300923 0.712337 0
0.333745 0.711849 0
0.366262 0.711421 0
0.398489 0.71107 0
0.430488 0.710781 0
0.462242 0.710521 0
0.493782 0.710323 0
0.525139 0.710155 0
0.556329 0.710033 0
0.587335 0.709941 0
0.618189 0.70988 0
0.64889 0.70985 0
0.679454 0.709865 0
0.709895 0.709895 0
0.7402 0.709941 0
0.770382 0.710018 0
0.800443 0.710109 0
0.830411 0.710231 0
0.860258 0.710369 0
0.890013 0.710536 0
0.919676 0.710704 0
0.949233 0.710887 0
0.978698 0.711086 0
1 0.711299 0
0 0.757061 0
0.0111391 0.754406 0
0.0558175 0.750759 0
0.0941482 0.748821 0
0.130648 0.747356 0
0.166064 0.746181 0
0.200702 0.74522 0
0.234745 0.744396 0
0.268299 0.743694 0
0.301427 0.743084 0
0.334234 0.742565 0
0.366705 0.742107 0
0.398917 0.741726 0
0.430869 0.741405 0
0.462608 0.741131 0
0.494118 0.740902 0
0.525444 0.740703 0
0.556603 0.740551 0
0.587594 0.740444 0
0.618418 0.740368 0
0.649104 0.740322 0
0.679637 0.740291 0
0.710033 0.740291 0
0.740322 0.740322 0
0.770489 0.740383 0
0.800534 0.740444 0
0.830472 0.740551 0
0.860304 0.740658 0
0.890028 0.740795 0
0.919661 0.740948 0
0.949203 0.741115 0
0.978653 0.741283 0
1 0.741482 0
0 0.787915 0
0.011902 0.785245 0
0.0565499 0.781567 0
0.0948501 0.779599 0
0.131319 0.778103 0
0.166705 0.776898 0
0.201297 0.775891 0
0.235309 0.775051 0
0.268849 0.774319 0
0.301961 0.773693 0
0.334722 0.773144 0
0.367163 0.772671 0
0.399344 0.772259 0
0.431281 0.771908 0
0.462989 0.771603 0
0.494484 0.771359 0
0.52578 0.77113 0
0.556909 0.770962 0
0.587869 0.770825 0
0.618662 0.770718 0
0.649317 0.770657 0
0.679835 0.770596 0
0.710216 0.770581 0
0.740475 0.770581 0
0.770626 0.770626 0
0.800641 0.770672 0
0.830564 0.770748 0
0.860365 0.77084 0
0.890074 0.770947 0
0.919692 0.771069 0
0.949203 0.771221 0
0.978637 0.771374 0
1 0.771542 0
0 0.818647 0
0.012665 0.81593 0
0.0572824 0.812222 0
0.0955673 0.810239 0
0.131991 0.808713 0
0.167346 0.807492 0
0.201923 0.806455 0
0.235904 0.805585 0
0.269398 0.804822 0
0.30248 0.804166 0
0.335225 0.803601 0
0.367651 0.803098 0
0.399802 0.80267 0
0.431693 0.802289 0
0.463371 0.801953 0
0.494835 0.801678 0
0.526116 0.80145 0
0.557229 0.801251 0
0.588159 0.801099 0
0.618936 0.800961 0
0.649561 0.800855 0
0.680049 0.800793 0
0.710414 0.800763 0
0.740658 0.800732 0
0.770764 0.800748 0
0.800778 0.800778 0
0.830671 0.800824 0
0.860456 0.8009 0
0.89015 0.800992 0
0.919738 0.801099 0
0.949248 0.801221 0
0.978653 0.801358 0
1 0.801511 0
0 0.849226 0
0.0134279 0.846494 0
0.0580301 0.842771 0
0.0962539 0.840742 0
0.132662 0.8392 0
0.167987 0.837949 0
0.202548 0.836896 0
0.2365 0.835981 0
0.269963 0.835203 0
0.303014 0.834516 0
0.335729 0.833921 0
0.368124 0.833402 0
0.400244 0.832944 0
0.432135 0.832547 0
0.463783 0.832197 0
0.495232 0.831891 0
0.526467 0.831632 0
0.557549 0.831418 0
0.588464 0.831235 0
0.619211 0.831083 0
0.649836 0.830961 0
0.680293 0.830869 0
0.710628 0.830808 0
0.740856 0.830777 0
0.770947 0.830762 0
0.800931 0.830777 0
0.830808 0.830808 0
0.860578 0.830854 0
0.890242 0.83093 0
0.919814 0.831006 0
0.949294 0.831113 0
0.978683 0.831235 0
1 0.831357 0
0 0.879683 0
0.0141604 0.876921 0
0.058732 0.873167 0
0.0969406 0.871107 0
0.133318 0.869535 0
0.168612 0.868254 0
0.203143 0.867185 0
0.237064 0.866255 0
0.270512 0.865446 0
