src/colors/utility_&_correction/clean_&_denoise.cube
TITLE "Generated by Resolve"
LUT_3D_SIZE 9
0 0 0
0.119387 0 0
0.273091 0 0
0.412665 0 0
0.545998 0 0
0.675258 0 0
0.801526 0 0
0.925414 0 0
1 0 0
0 0.123598 0
0.119753 0.119753 0
0.262669 0.121035 0
0.39765 0.123461 0
0.527977 0.12636 0
0.655009 0.129519 0
0.779477 0.132815 0
0.901854 0.136202 0
1 0.139635 0
0 0.269352 0
0.121218 0.262867 0
0.262074 0.262074 0
0.395483 0.26276 0
0.524468 0.26421 0
0.650324 0.266102 0
0.773739 0.268315 0
0.895171 0.270726 0
1 0.273289 0
0 0.405554 0
0.123491 0.397742 0
0.263081 0.395819 0
0.395483 0.395483 0
0.523598 0.395987 0
0.648661 0.39704 0
0.771359 0.398459 0
0.892119 0.400183 0
1 0.40209 0
0 0.536385 0
0.126024 0.527733 0
0.264729 0.525017 0
0.396353 0.523964 0
0.523796 0.523796 0
0.648264 0.524208 0
0.770397 0.525048 0
0.890654 0.526207 0
1 0.527596 0
0 0.663569 0
0.128664 0.654261 0
0.266712 0.650965 0
0.397711 0.649348 0
0.524605 0.648661 0
0.648569 0.648569 0
0.77026 0.648936 0
0.890089 0.649638 0
1 0.650599 0
0 0.787915 0
0.131319 0.778103 0
0.268849 0.774319 0
0.399344 0.772259 0
0.52578 0.77113 0
0.649317 0.770657 0
0.770626 0.770626 0
0.890074 0.770947 0
1 0.771542 0
0 0.910018 0
0.133989 0.899779 0
0.271077 0.895582 0
0.401175 0.893156 0
0.527199 0.891661 0
0.650385 0.890837 0
0.771328 0.890471 0
0.890471 0.890471 0
1 0.890776 0
0 1 0
0.13669 1 0
0.273411 1 0
0.403143 1 0
0.528832 1 0
0.651682 1 0
0.772335 1 0
0.891188 1 0
1 1 0
0 0 0.1187
0.122103 0 0.122103
0.273259 0 0.13167
0.411872 0 0.137713
0.544701 0 0.143114
0.67364 0 0.148165
0.799649 0 0.153017
0.923323 0 0.157702
1 0 0.162249
0 0.122438 0.122438
0.118196 0.118196 0.118196
0.261051 0.119158 0.119158
0.395758 0.12137 0.12137
0.525887 0.124102 0.124102
0.652735 0.127123 0.127123
0.777066 0.130297 0.130297
0.899321 0.133577 0.133577
1 0.136919 0.136919
0 0.267262 0.125612
0.118715 0.26067 0.118715
0.259663 0.259663 0.117708
0.393072 0.260197 0.118517
0.52195 0.26154 0.120012
0.647684 0.26334 0.12192
0.770993 0.265461 0.124102
0.892348 0.267811 0.126482
1 0.270314 0.12903
0 0.402991 0.128756
0.120653 0.395117 0.120653
0.260197 0.393088 0.118486
0.39263 0.39263 0.118151
0.520729 0.393042 0.118746
0.645731 0.394003 0.119875
0.768368 0.395377 0.12137
0.889067 0.397024 0.12311
1 0.398886 0.125048
0 0.533516 0.131823
0.122942 0.524819 0.122942
0.261585 0.522026 0.120027
0.393194 0.520897 0.118883
0.520653 0.520653 0.118746
0.64509 0.520989 0.119234
0.767208 0.521782 0.120165
0.887419 0.522896 0.121401
1 0.524239 0.12285
0 0.660456 0.134859
0.125368 0.651118 0.125368
0.263371 0.647761 0.121889
0.394339 0.646082 0.120165
0.521233 0.645335 0.119448
0.645197 0.645197 0.119417
0.766873 0.645502 0.119844
0.886671 0.646159 0.120638
1 0.647089 0.12166
0 0.784634 0.13785
0.127886 0.774777 0.127886
0.265354 0.770947 0.123934
0.395819 0.768841 0.121752
0.52224 0.767681 0.120577
0.645762 0.767132 0.120089
0.767056 0.767056 0.120104
0.886519 0.767346 0.120516
1 0.76791 0.121187
0 0.906584 0.14081
0.130404 0.8963 0.130404
0.26746 0.892073 0.126085
0.397513 0.889601 0.123537
0.523537 0.888075 0.121981
0.646693 0.887205 0.121111
0.767636 0.886793 0.12076
0.886763 0.886763 0.120821
1 0.887037 0.121202
0 1 0.14374
0.132998 1 0.132998
0.269688 1 0.128344
0.39939 1 0.125475
0.525063 1 0.123598
0.647883 1 0.122408
0.768521 1 0.121752
0.887373 1 0.121508
1 1 0.121584
0 0 0.262058
0.126833 0 0.268421
0.274907 0 0.274907
0.412879 0 0.280171
0.545312 0 0.285084
0.673961 0 0.289784
0.799741 0 0.294362
0.923247 0 0.298833
1 0 0.303212
0 0.123186 0.264805
0.118608 0.118608 0.260502
0.261204 0.119295 0.261204
0.395819 0.121309 0.262959
0.525765 0.123888 0.26537
0.652476 0.126757 0.268162
0.776669 0.129809 0.271153
0.898817 0.132998 0.274296
1 0.136248 0.277516
0 0.267124 0.267124
0.118425 0.26038 0.26038
0.259236 0.259236 0.259236
0.392752 0.259617 0.259617
0.521477 0.260868 0.260868
0.647089 0.262608 0.262608
0.770306 0.264652 0.264652
0.891569 0.266926 0.266926
1 0.269352 0.269352
0 0.402426 0.269703
0.119905 0.394476 0.261601
0.259251 0.392401 0.259251
0.391821 0.391821 0.258656
0.519951 0.392111 0.25922
0.644892 0.393011 0.260273
0.767452 0.394324 0.261662
0.888075 0.395926 0.263325
1 0.397742 0.265171
0 0.532677 0.272404
0.12192 0.523919 0.263478
0.260441 0.52108 0.260441
0.39205 0.51989 0.259129
0.519554 0.519554 0.2589
0.644007 0.519829 0.259358
0.766079 0.520546 0.260243
0.886244 0.521614 0.261418
1 0.522927 0.262806
0 0.659403 0.275166
0.124163 0.650019 0.265629
0.262058 0.646601 0.262058
0.392996 0.644892 0.260227
0.519905 0.644083 0.259419
0.643885 0.643885 0.259327
0.76556 0.644144 0.259724
0.885328 0.644755 0.260471
1 0.64564 0.261463
0 0.783398 0.277928
0.126513 0.77351 0.267918
0.26392 0.76965 0.26392
0.394339 0.767498 0.261662
0.520745 0.766293 0.260395
0.644282 0.765698 0.259846
0.765576 0.765576 0.259831
0.885023 0.765835 0.260197
1 0.766354 0.260838
0 0.905211 0.280705
0.128908 0.894896 0.270283
0.265904 0.890639 0.265904
0.395926 0.888136 0.26331
0.52192 0.88658 0.261692
0.645075 0.885664 0.260761
0.766018 0.885222 0.260365
0.885145 0.885145 0.260395
1 0.88539 0.260731
0 1 0.283497
0.131395 1 0.272725
0.268025 1 0.268025
0.397711 1 0.265126
0.523354 1 0.263188
0.646159 1 0.261967
0.766796 1 0.26125
0.885634 1 0.260975
1 1 0.261021
0 0 0.397955
0.130175 0 0.404303
0.276814 0 0.409506
0.414252 0 0.414252
0.54638 0 0.418784
0.6748 0 0.423209
0.800381 0 0.427543
0.92372 0 0.431815
1 0 0.436027
0 0.124453 0.398627
0.119615 0.119615 0.393973
0.261738 0.120104 0.394598
0.396262 0.121874 0.396262
0.526146 0.124254 0.398474
0.65275 0.126986 0.401053
0.776852 0.129931 0.403891
0.898894 0.133013 0.406882
1 0.136156 0.409964
0 0.267552 0.400259
0.118959 0.260624 0.393484
0.259403 0.259403 0.392538
0.392798 0.259663 0.392798
0.521523 0.260822 0.393698
0.647059 0.26247 0.395209
0.770199 0.264439 0.397086
0.891371 0.266651 0.399237
1 0.269017 0.401572
0 0.402457 0.402457
0.119921 0.3944 0.3944
0.259068 0.392233 0.392233
0.391562 0.391562 0.391562
0.519844 0.39176 0.39176
0.644663 0.392615 0.392615
0.767132 0.393881 0.393881
0.887694 0.395422 0.395422
1 0.397192 0.397192
0 0.532433 0.404822
0.121599 0.523598 0.395895
0.259968 0.520714 0.392874
0.391409 0.519509 0.391409
0.519066 0.519066 0.390967
0.643565 0.519249 0.391394
0.765606 0.519936 0.392218
0.88571 0.520943 0.393317
1 0.52221 0.394644
0 0.658946 0.407324
0.123613 0.649516 0.397772
0.261402 0.646067 0.394171
0.392248 0.644327 0.392248
0.519142 0.643473 0.391272
0.643198 0.643198 0.391104
0.764889 0.643381 0.391485
0.884627 0.643946 0.392187
1 0.6448 0.393149
0 0.782788 0.409873
0.12578 0.772854 0.399847
0.263111 0.768948 0.395804
0.393484 0.766781 0.393484
0.519844 0.76553 0.392126
0.643397 0.764904 0.39147
0.764721 0.764721 0.391409
0.884169 0.76492 0.391745
1 0.765408 0.39237
0 0.904448 0.412482
0.128054 0.894102 0.402029
0.264988 0.889815 0.39762
0.394965 0.887282 0.394965
0.520912 0.885695 0.393271
0.644053 0.884749 0.392279
0.765011 0.88426 0.391821
0.884153 0.884153 0.391806
1 0.884352 0.392126
0 1 0.415122
0.130419 1 0.404334
0.267018 1 0.399603
0.396643 1 0.396643
0.522255 1 0.394659
0.645045 1 0.393378
0.765682 1 0.392615
0.88452 1 0.392279
1 1 0.392309
0 0 0.531548
0.133242 0 0.534813
0.278889 0 0.539117
0.415839 0 0.543435
0.547662 0 0.547662
0.675868 0 0.551843
0.801297 0 0.555962
0.924483 0 0.560067
1 0 0.564126
0 0.126024 0.527611
0.120897 0.120897 0.522637
0.262669 0.121187 0.523049
0.396979 0.122774 0.524651
0.526772 0.124987 0.526772
0.6533 0.127565 0.529213
0.77731 0.130388 0.531899
0.89926 0.133364 0.534768
1 0.136431 0.537743
0 0.268299 0.528557
0.119738 0.26125 0.521645
0.259937 0.259937 0.520531
0.393027 0.260136 0.520851
0.521752 0.261158 0.521752
0.647288 0.262684 0.523125
0.770382 0.264576 0.524865
0.891493 0.266712 0.526894
1 0.269017 0.529122
0 0.402792 0.530388
0.120363 0.394629 0.522316
0.259464 0.392355 0.520195
0.391653 0.391653 0.519738
0.51986 0.391775 0.51986
0.644724 0.392569 0.520409
0.767147 0.393774 0.521477
0.887648 0.39527 0.522896
1 0.396994 0.524559
0 0.532509 0.532509
0.121706 0.523583 0.523583
0.259998 0.520638 0.520638
0.391272 0.519371 0.519371
0.518883 0.518883 0.518883
0.643534 0.518975 0.518975
0.765484 0.519631 0.519631
0.885512 0.520623 0.520623
1 0.521859 0.521859
0 0.658824 0.534768
0.123461 0.649332 0.525231
0.261173 0.645838 0.521645
0.391882 0.644068 0.519738
0.518624 0.643198 0.518624
0.642847 0.642847 0.518273
0.764599 0.642969 0.518639
0.884306 0.643488 0.519295
1 0.644297 0.520195
0 0.782498 0.537148
0.12546 0.772534 0.527092
0.262715 0.768582 0.523049
0.392981 0.766384 0.520699
0.519265 0.765133 0.519265
0.642817 0.764446 0.518471
0.764218 0.764218 0.518334
0.883696 0.76437 0.518669
1 0.764813 0.519249
0 0.904036 0.539574
0.127565 0.89366 0.529107
0.264454 0.889326 0.524681
0.394354 0.886778 0.521996
0.520241 0.885176 0.520241
0.643366 0.884199 0.519158
0.76434 0.883665 0.518624
0.883513 0.883513 0.518578
1 0.88368 0.518868
0 1 0.542077
0.129809 1 0.531258
0.266361 1 0.526513
0.395941 1 0.523522
0.521492 1 0.521508
0.644266 1 0.52015
0.764889 1 0.51931
0.883757 1 0.518944
1 1 0.518929
0 0 0.661173
0.136187 0 0.661616
0.281056 0 0.665217
0.417563 0 0.669154
0.549096 0 0.673136
0.677104 0 0.677104
0.802365 0 0.681056
0.925429 0 0.685008
1 0 0.688914
0 0.127718 0.653178
0.122347 0.122347 0.647929
0.263844 0.122454 0.648142
0.397925 0.123873 0.649622
0.527565 0.125933 0.651652
0.654017 0.128374 0.654017
0.777951 0.131075 0.656596
0.89984 0.133944 0.659358
1 0.136919 0.662226
0 0.269291 0.653468
0.120684 0.262089 0.646418
0.2607 0.2607 0.645167
0.393561 0.260822 0.645411
0.522164 0.261738 0.646326
0.647669 0.263172 0.647669
0.770733 0.264973 0.649317
0.891814 0.267018 0.651255
1 0.269261 0.653391
0 0.403357 0.654963
0.121004 0.395117 0.64683
0.260014 0.392752 0.644617
0.392004 0.392004 0.644053
0.519951 0.392111 0.644266
0.644862 0.392798 0.644862
0.7673 0.393927 0.645808
0.88777 0.395377 0.647105
1 0.39704 0.648676
0 0.532799 0.65684
0.122087 0.523812 0.647913
0.260334 0.52079 0.644968
0.391592 0.519448 0.643763
0.518929 0.518929 0.643488
0.643549 0.518975 0.643549
0.76553 0.519585 0.6439
0.885527 0.520531 0.644724
1 0.521737 0.645838
0 0.658915 0.658915
0.123613 0.649378 0.649378
0.26128 0.645823 0.645823
0.391913 0.644007 0.644007
0.518517 0.643091 0.643091
0.64268 0.64268 0.64268
0.764614 0.642741 0.642741
0.884245 0.643244 0.643244
1 0.644038 0.644038
0 0.782437 0.661112
0.125414 0.772427 0.651072
0.262608 0.768444 0.647028
0.392798 0.766217 0.644709
0.518959 0.764935 0.64329
0.64239 0.764263 0.64239
0.763943 0.763943 0.642069
0.883482 0.764019 0.64239
1 0.764446 0.642939
0 0.903853 0.663401
0.127367 0.893431 0.652918
0.264195 0.889082 0.648493
0.394034 0.886488 0.645808
0.519844 0.884871 0.644038
0.642878 0.883879 0.642878
0.763867 0.88333 0.642206
0.883116 0.883116 0.6421
1 0.883223 0.64239
0 1 0.665766
0.129488 1 0.654932
0.26598 1 0.650172
0.395499 1 0.647181
0.521004 1 0.645121
0.643717 1 0.643717
0.764309 1 0.642802
0.883192 1 0.642344
1 1 0.642313
0 0 0.786542
0.139025 0 0.785626
0.283268 0 0.788647
0.419394 0 0.792233
0.550652 0 0.795972
0.678462 0 0.799771
0.803571 0 0.803571
0.926497 0 0.80737
1 0 0.81117
0 0.129519 0.776135
0.123903 0.123903 0.770642
0.265171 0.123827 0.770657
0.399054 0.125109 0.772
0.528542 0.127031 0.773938
0.654871 0.129351 0.776211
0.778714 0.131945 0.778714
0.900542 0.134707 0.781384
1 0.137591 0.784176
0 0.27042 0.775814
0.121767 0.263111 0.768627
0.261616 0.261616 0.767254
0.394308 0.261662 0.767391
0.522759 0.262486 0.768277
0.648188 0.263844 0.769589
0.771206 0.265538 0.771206
0.892256 0.267521 0.773068
1 0.269688 0.775128
0 0.404105 0.776974
0.121798 0.395773 0.76875
0.260685 0.393347 0.766445
0.392554 0.392554 0.765789
0.520302 0.392615 0.765972
0.645121 0.39324 0.766598
0.767559 0.394293 0.767559
0.888029 0.395666 0.768795
1 0.397269 0.770275
0 0.533288 0.778622
0.122637 0.524224 0.769635
0.260838 0.521141 0.766659
0.392035 0.519738 0.765408
0.519203 0.519203 0.765042
0.643565 0.519249 0.765194
0.765606 0.519753 0.765606
0.885634 0.520638 0.766323
1 0.521798 0.767346
0 0.65919 0.780514
0.123964 0.649592 0.770947
0.261585 0.645991 0.767391
0.392203 0.644099 0.765591
0.518807 0.643137 0.764767
0.642725 0.642725 0.764584
0.764599 0.642725 0.764599
0.884291 0.643198 0.764828
1 0.643961 0.765469
0 0.782559 0.782559
0.125582 0.772503 0.772503
0.262745 0.768475 0.768475
0.392889 0.766186 0.766186
0.51899 0.764858 0.764858
0.642283 0.764157 0.764157
0.763806 0.763806 0.763806
0.883513 0.763821 0.763821
1 0.764248 0.764248
0 0.903838 0.78471
0.127382 0.893385 0.774227
0.264164 0.888991 0.769802
0.393942 0.886381 0.767132
0.519692 0.884718 0.765393
0.642618 0.883726 0.764263
0.76347 0.883177 0.76347
0.882887 0.882887 0.76318
1 0.882933 0.76347
0 1 0.786938
0.129366 1 0.776104
0.265827 1 0.771344
0.3953 1 0.768353
0.520729 1 0.766308
0.643366 1 0.764874
0.763897 1 0.763897
0.88278 1 0.763317
1 1 0.76321
0 0 0.909224
0.141787 0 0.907378
0.285527 0 0.909911
0.421286 0 0.913191
0.552285 0 0.916701
0.679896 0 0.920317
0.804868 0 0.92398
0.927672 0 0.927672
1 0 0.93135
0 0.131395 0.896986
0.125566 0.125566 0.891264
0.266606 0.125322 0.891096
0.400305 0.126452 0.892302
0.529641 0.128252 0.894133
0.655848 0.130449 0.89633
0.779614 0.132937 0.898756
0.90135 0.135592 0.90135
1 0.138384 0.904051
0 0.271672 0.896086
0.122942 0.26424 0.888762
0.262654 0.262654 0.887266
0.395193 0.262608 0.887327
0.523537 0.263371 0.888136
0.648859 0.264637 0.889418
0.771817 0.266255 0.89099
0.892821 0.268162 0.892821
1 0.270268 0.89482
0 0.404974 0.89691
0.122683 0.396567 0.888594
0.261479 0.39408 0.886213
0.393225 0.393225 0.885481
0.520851 0.39324 0.885588
0.645548 0.393805 0.886213
0.767926 0.394797 0.887175
0.88838 0.396109 0.88838
1 0.39765 0.88983
0 0.533898 0.898329
0.123323 0.524773 0.889296
0.261448 0.52163 0.886259
0.392554 0.52018 0.884932
0.519615 0.519615 0.884504
0.643824 0.519646 0.884627
0.765789 0.520104 0.8851
0.885817 0.520928 0.885817
1 0.522026 0.886793
0 0.659617 0.900053
0.124468 0.649958 0.890455
0.262028 0.646296 0.88687
0.392615 0.644373 0.885039
0.519158 0.643351 0.884169
0.642939 0.642939 0.883925
0.764584 0.642954 0.884031
0.884337 0.643336 0.884337
1 0.644053 0.884871
0 0.782818 0.901946
0.125917 0.772717 0.891875
0.263035 0.768643 0.887831
0.393149 0.766323 0.885557
0.519249 0.764935 0.88426
0.642542 0.764172 0.883635
0.763836 0.763836 0.883528
0.883497 0.763806 0.883497
1 0.764187 0.88365
0 0.90396 0.90396
0.127565 0.893477 0.893477
0.264302 0.889052 0.889052
0.394049 0.886381 0.886381
0.519768 0.884703 0.884703
0.642649 0.883665 0.883665
0.763378 0.883085 0.883085
0.88278 0.88278 0.88278
1 0.882765 0.882765
0 1 0.906081
0.129412 1 0.895247
0.265827 1 0.890486
0.39527 1 0.887495
0.520668 1 0.885466
0.643244 1 0.884077
0.763653 1 0.883131
0.882429 1 0.882429
1 1 0.88217
0 0 1
0.144503 0 1
0.2878 0 1
0.423239 0 1
0.554009 0 1
0.681422 0 1
0.806241 0 1
0.928923 0 1
1 0 1
0 0.133318 1
0.127275 0.127275 1
0.268132 0.126879 1
0.401663 0.127871 1
0.530846 0.129549 1
0.656931 0.13164 1
0.780591 0.13402 1
0.902266 0.136599 1
1 0.1393 1
0 0.273014 1
0.124208 0.265476 1
0.263783 0.263783 1
0.396201 0.263645 1
0.524422 0.264332 1
0.649653 0.265538 1
0.772519 0.267094 1
0.893477 0.268925 1
1 0.270939 1
0 0.405982 1
0.123674 0.397482 1
0.262364 0.394919 1
0.394003 0.394003 1
0.521523 0.393973 1
0.646128 0.394507 1
0.768429 0.395438 1
0.888853 0.396689 1
1 0.398184 1
0 0.534615 1
0.124086 0.525444 1
0.262135 0.52224 1
0.393179 0.520745 1
0.52015 0.52015 1
0.644251 0.520134 1
0.766125 0.520592 1
0.886122 0.52137 1
1 0.522408 1
0 0.660182 1
0.125078 0.650462 1
0.262608 0.646754 1
0.393133 0.64477 1
0.519631 0.643732 1
0.64329 0.64329 1
0.764797 0.64329 1
0.884459 0.643641 1
1 0.644297 1
0 0.78323 1
0.12639 0.773068 1
0.263462 0.768963 1
0.393561 0.766583 1
0.519615 0.765164 1
0.642878 0.76437 1
0.764035 0.764035 1
0.883482 0.764019 1
1 0.764309 1
0 0.904219 1
0.127886 0.89369 1
0.264607 0.889235 1
0.394324 0.886534 1
0.520027 0.88481 1
0.642893 0.883726 1
0.763638 0.883101 1
0.882795 0.882795 1
1 0.882734 1
0 1 1
0.12961 1 1
0.266011 1 1
0.395407 1 1
0.52079 1 1
0.64332 1 1
0.763699 1 1
0.882368 1 1
0.999969 0.999969 0.999969
