src/colors/utility_&_correction/protect_highlights.cube
TITLE "Generated by Resolve"
LUT_3D_SIZE 5
0 0 0
0 0 0
0 0 0
0.0574807 0.00988785 0.00988785
0.388312 0.0338598 0.0338598
0 0 0
6.10361e-05 0.000106813 0
0.129961 0.0475013 0.0106813
0.393774 0.0900282 0.0206302
0.699107 0.117556 0.0276799
0 0.337072 0
0.0624552 0.359396 0
0.380087 0.380102 0
0.647089 0.407034 0.0395514
0.871504 0.447059 0.118959
0.110277 0.665949 0.110277
0.208698 0.687617 0.0995651
0.465827 0.706172 0.0978866
0.694301 0.694301 0.138262
0.910658 0.70042 0.157366
0.192813 0.946197 0.192813
0.306798 0.959579 0.206027
0.515511 0.940612 0.186892
0.717876 0.928298 0.17438
0.942901 0.942901 0.188556
0 0 0
0 0 0
0 0 0
0.0975509 0.0149996 0.0303044
0.429603 0.0341955 0.0870832
0 0 0
0.000854505 0.00103761 0.000854505
0.159945 0.0527352 0.0524453
0.438254 0.0878157 0.0876478
0.718532 0.119936 0.11986
0 0.348302 0.0652781
0.0473335 0.369528 0.0473182
0.385107 0.385107 0.0531014
0.674495 0.407416 0.123964
0.876554 0.451865 0.224247
0.0914168 0.679393 0.200534
0.187366 0.701991 0.187366
0.452689 0.720073 0.168917
0.703746 0.703746 0.188861
0.915831 0.705425 0.262806
0.197299 0.950744 0.298054
0.311269 0.964111 0.311269
0.519951 0.945327 0.291997
0.722362 0.932937 0.279347
0.947341 0.947341 0.293797
0 0 0
0 0 0
0 0 0
0.187289 0.0217899 0.121843
0.516381 0.0334936 0.244099
6.10361e-05 0.000442512 0.00106813
0.0139162 0.0141451 0.0372168
0.213275 0.0623026 0.213062
0.512581 0.0843519 0.304723
0.7561 0.125856 0.345769
0 0.357961 0.357671
0.0461433 0.376394 0.376364
0.389258 0.389273 0.389258
0.721447 0.404196 0.404181
0.95079 0.446159 0.446159
0.0844129 0.692515 0.452247
0.16701 0.718059 0.450721
0.413642 0.731197 0.413642
0.701579 0.701579 0.383948
0.958618 0.691966 0.419913
0.191257 0.944747 0.519783
0.305058 0.958282 0.532998
0.456489 0.961868 0.456489
0.684138 0.951034 0.411841
0.95555 0.95555 0.449622
0 0 0
0 0 0
0.0103304 0.00151064 0.0167849
0.255268 0.0299992 0.255131
0.592004 0.0322881 0.435843
0.00209049 0.00614939 0.0234073
0.0394751 0.0396735 0.140703
0.240604 0.0770275 0.394553
0.535683 0.0944533 0.535592
0.783215 0.134478 0.574197
0.000732433 0.358175 0.595178
0.0926223 0.375372 0.641749
0.394415 0.394415 0.711482
0.726436 0.40911 0.726436
0.985336 0.447028 0.718883
0.130968 0.686778 0.686778
0.199191 0.713924 0.713924
0.405188 0.722789 0.722789
0.689265 0.689265 0.689265
0.985733 0.673014 0.673014
0.185992 0.939544 0.729229
0.299687 0.953048 0.742535
0.423911 0.962982 0.696147
0.648356 0.961395 0.648356
0.964141 0.964141 0.650813
0 0 0
0 0 0
0.0656291 0.0170443 0.127962
0.32224 0.0333715 0.433783
0.656062 0.0313878 0.656062
0.0178988 0.034165 0.137835
0.0615396 0.0616922 0.276448
0.254704 0.0983291 0.546258
0.526146 0.118791 0.719707
0.797253 0.147387 0.797253
0.038468 0.365423 0.788342
0.153262 0.380392 0.804196
0.408881 0.408881 0.9131
0.702388 0.430625 0.968765
0.969451 0.464637 0.969451
0.149203 0.691936 0.902068
0.264073 0.706493 0.916793
0.440497 0.712459 0.979034
0.68368 0.68368 0.995331
0.980636 0.667857 0.980636
0.188251 0.941894 0.941894
0.302083 0.955108 0.955108
0.449332 0.954894 0.954894
0.648035 0.961181 0.961181
0.967666 0.967666 0.967666
