src/colors/utility_&_correction/protect_highlights.cube
TITLE "Generated by Resolve"
LUT_3D_SIZE 33
0 0 0
0 0 0
0 0 0
0 0 0
0 0 0
0 0 0
0 0 0
0 0 0
0 0 0
0 0 0
0 0 0
0 0 0
0 0 0
0 0 0
0 0 0
0 0 0
0 0 0
0 0 0
0 0 0
0 0 0
0 0 0
0 0 0
0.00440986 4.57771e-05 4.57771e-05
0.026154 0.00328069 0.00328069
0.0574807 0.00988785 0.00988785
0.0906539 0.0155947 0.0155947
0.126909 0.0202335 0.0202335
0.16585 0.0239872 0.0239872
0.206714 0.0271 0.0271
0.249714 0.0295415 0.0295415
0.294453 0.0314488 0.0314488
0.340719 0.0328679 0.0328679
0.388312 0.0338598 0.0338598
0 0 0
0 0 0
0 0 0
0 0 0
0 0 0
0 0 0
0 0 0
0 0 0
0 0 0
0 0 0
0 0 0
0 0 0
0 0 0
0 0 0
0 0 0
0 0 0
0 0 0
0 0 0
0 0 0
0 0 0
0 0 0
0 0 0
0.00440986 4.57771e-05 4.57771e-05
0.026154 0.00328069 0.00328069
0.0574807 0.00988785 0.00988785
0.0906539 0.0155947 0.0155947
0.126909 0.0202335 0.0202335
0.16585 0.0239872 0.0239872
0.206714 0.0271 0.0271
0.249714 0.0295415 0.0295415
0.294453 0.0314488 0.0314488
0.340719 0.0328679 0.0328679
0.388312 0.0338598 0.0338598
0 0 0
0 0 0
0 0 0
0 0 0
0 0 0
0 0 0
0 0 0
0 0 0
0 0 0
0 0 0
0 0 0
0 0 0
0 0 0
0 0 0
0 0 0
0 0 0
0 0 0
0 0 0
0 0 0
0 0 0
0 0 0
0 0 0
0.00440986 4.57771e-05 4.57771e-05
0.026154 0.00328069 0.00328069
0.0574807 0.00988785 0.00988785
0.0906539 0.0155947 0.0155947
0.126909 0.0202335 0.0202335
0.16585 0.0239872 0.0239872
0.206714 0.0271 0.0271
0.249714 0.0295415 0.0295415
0.294453 0.0314488 0.0314488
0.340719 0.0328679 0.0328679
0.388312 0.0338598 0.0338598
0 0 0
0 0 0
0 0 0
0 0 0
0 0 0
0 0 0
0 0 0
0 0 0
0 0 0
0 0 0
0 0 0
0 0 0
0 0 0
0 0 0
0 0 0
0 0 0
0 0 0
0 0 0
0 0 0
0 0 0
0 0 0
0 0 0
0.00440986 4.57771e-05 4.57771e-05
0.026154 0.00328069 0.00328069
0.0574807 0.00988785 0.00988785
0.0906539 0.0155947 0.0155947
0.126909 0.0202335 0.0202335
0.16585 0.0239872 0.0239872
0.206714 0.0271 0.0271
0.249714 0.0295415 0.0295415
0.294453 0.0314488 0.0314488
0.340719 0.0328679 0.0328679
0.388312 0.0338598 0.0338598
0 0 0
0 0 0
0 0 0
0 0 0
0 0 0
0 0 0
0 0 0
0 0 0
0 0 0
0 0 0
0 0 0
0 0 0
0 0 0
0 0 0
0 0 0
0 0 0
0 0 0
0 0 0
0 0 0
0 0 0
0 0 0
0 0 0
0.00440986 4.57771e-05 4.57771e-05
0.026154 0.00328069 0.00328069
0.0574807 0.00988785 0.00988785
0.0906539 0.0155947 0.0155947
0.126909 0.0202335 0.0202335
0.16585 0.0239872 0.0239872
0.206714 0.0271 0.0271
0.249714 0.0295415 0.0295415
0.294453 0.0314488 0.0314488
0.340719 0.0328679 0.0328679
0.388312 0.0338598 0.0338598
0 0 0
0 0 0
0 0 0
0 0 0
0 0 0
0 0 0
0 0 0
0 0 0
0 0 0
0 0 0
0 0 0
0 0 0
0 0 0
0 0 0
0 0 0
0 0 0
0 0 0
0 0 0
0 0 0
0.00062562 0 0
0.0120394 0.00177005 0.00117494
0.0290684 0.00582895 0.00454719
0.0487678 0.00946059 0.0075227
0.0766003 0.0141604 0.0115816
0.108995 0.0200961 0.016907
0.142473 0.0254826 0.0217441
0.17998 0.0296483 0.0252232
0.22005 0.03299 0.0279088
0.26186 0.0357671 0.0300145
0.305379 0.0380255 0.0316167
0.350347 0.0398108 0.0327764
0.396536 0.0412146 0.0335546
0.443778 0.0422675 0.0340276
0 0 0
0 0 0
0 0 0
0 0 0
0 0 0
0 0 0
0 0 0
0 0 0
0 0 0
0 0 0
0 0 0
0 0 0
0 0 0
0 0 0
0 0 0
0 0 0
0.00117494 0 0
0.0119326 0.00247196 0.00125124
0.0317845 0.00798047 0.00454719
0.0533761 0.0132143 0.0078584
0.0812695 0.0187533 0.0112459
0.11284 0.024918 0.0153048
0.145388 0.0306096 0.0190127
0.17879 0.0359503 0.0224765
0.212558 0.0410468 0.025864
0.246387 0.0460517 0.0292973
0.283696 0.0500496 0.0315709
0.325093 0.052903 0.0324559
0.367742 0.0553445 0.0330053
0.41146 0.0574502 0.0332494
0.456077 0.059266 0.0332952
0.501427 0.0608225 0.0331579
0.547326 0.0621958 0.0329137
0 0 0
0 0 0
0 0 0
0 0 0
0 0 0
0 0 0
0 0 0
0 0 0
0 0 0
0 0 0
0 0 0
0 0 0
0 0 0
0 0 0
0.00953689 0.00239567 0.000167849
0.0310369 0.0106355 0.00410468
0.054551 0.0179294 0.00750744
0.081239 0.0248264 0.0103914
0.110857 0.0315557 0.0130617
0.141939 0.0377508 0.0154879
0.17435 0.0434577 0.0176089
0.207752 0.0487678 0.0196078
0.241611 0.0538491 0.0216678
0.275624 0.0588083 0.0239109
0.309407 0.0637217 0.0264591
0.342657 0.0686961 0.0293889
0.376104 0.073579 0.0323796
0.417395 0.0763714 0.0322118
0.459495 0.0789044 0.0319066
0.502235 0.0812085 0.0315099
0.54548 0.0833295 0.0310826
0.589029 0.0853285 0.0306554
0.632776 0.0872206 0.0302892
0 0 0
0 0 0
0 0 0
0 0 0
0 0 0
0 0 0
0 0 0
0 0 0
6.10361e-05 0.000106813 0
0.000946059 0.000885023 0.000122072
0.00196841 0.00158694 0.000274662
0.00979629 0.00567636 0.000732433
0.0280919 0.0149538 0.00329595
0.0499428 0.0244144 0.0062562
0.0743114 0.0329137 0.00831617
0.101167 0.0405432 0.00968948
0.129961 0.0475013 0.0106813
0.16051 0.0538491 0.0113832
0.192462 0.0597086 0.0119478
0.225452 0.0651713 0.0125734
0.259144 0.0703441 0.0133516
0.293187 0.075288 0.0144503
0.327169 0.0801862 0.0159762
0.3608 0.085069 0.0180209
0.393774 0.0900282 0.0206302
0.425803 0.0951858 0.0239261
0.456718 0.100557 0.0279088
0.49369 0.104372 0.0290227
0.534432 0.107195 0.0285039
0.575479 0.10988 0.0280613
0.616709 0.11249 0.0277562
0.657954 0.115023 0.0276188
0.699107 0.117556 0.0276799
0 0 0
0 0 0
0 0 0
0 0 0
0 0 0
7.62951e-05 0.000823987 0
0.00129702 0.00344854 0.000411994
0.00352483 0.00643931 0.000915541
0.00733959 0.0105287 0.00117494
0.0219883 0.0226596 0.00251774
0.0392309 0.0335241 0.00416571
0.0592813 0.0433967 0.00488289
0.0820478 0.0523537 0.00495918
0.107301 0.0604715 0.00492866
0.134905 0.0678264 0.00459297
0.164614 0.074464 0.00407416
0.195911 0.0805676 0.00354009
0.228428 0.0861982 0.00306706
0.261845 0.0914931 0.0027924
0.295827 0.0965133 0.00277714
0.330022 0.101366 0.00314336
0.36408 0.106142 0.00396735
0.397665 0.110933 0.00531014
0.430518 0.115846 0.00738537
0.462394 0.120928 0.0106813
0.493019 0.126253 0.0150607
0.522225 0.131884 0.0203403
0.553307 0.137026 0.0245823
0.59202 0.140291 0.024567
0.631006 0.14345 0.0246281
0.669902 0.146593 0.0249485
0.708568 0.149737 0.0255894
0.746975 0.152911 0.0265202
0.00215152 0.0147402 0.00215152
0.00215152 0.0147402 0.00215152
0.00215152 0.0147402 0.00215152
0.00215152 0.0147402 0.00215152
0.00215152 0.0147402 0.00215152
0.00375372 0.0195926 0.00222782
0.0105745 0.0317998 0.00320439
0.0214237 0.0446021 0.0039826
0.0357366 0.0562448 0.00350958
0.054078 0.0666209 0.00273136
0.0751812 0.0760967 0.00207523
0.0990616 0.0846876 0.00112917
0.125444 0.0924544 0.000198367
0.15407 0.0994888 0
0.184649 0.105852 0
0.216861 0.111635 0
0.250187 0.116976 0
0.284276 0.121996 0
0.318822 0.126772 0
0.35346 0.131395 0
0.387915 0.135958 0
0.42179 0.140566 0
0.454871 0.145281 0
0.4869 0.150179 0.000442512
0.517678 0.155322 0.00257877
0.547005 0.160769 0.00756847
0.57467 0.166583 0.0145571
0.601877 0.172488 0.0217594
0.636835 0.176577 0.0238651
0.67364 0.180194 0.024918
0.709468 0.184009 0.0267491
0.744289 0.188022 0.0293278
0.778714 0.192111 0.0322271
0.00549325 0.063035 0.00549325
0.00549325 0.063035 0.00549325
0.00549325 0.063035 0.00549325
0.00549325 0.063035 0.00549325
0.00549325 0.063035 0.00549325
0.00976577 0.0695354 0.00476081
0.020325 0.0822461 0.00282292
0.0343938 0.0938888 0.00172427
0.0525978 0.104311 0.000595102
0.075349 0.113344 0
0.100496 0.121569 0
0.128145 0.128985 0
0.157992 0.135653 0
0.189715 0.141649 0
0.222965 0.147097 0
0.257359 0.152056 0
0.292439 0.156695 0
0.327855 0.161135 0
0.363287 0.165408 0
0.398459 0.16965 0
0.433036 0.173922 0
0.466697 0.178332 0
0.49926 0.182925 0
0.530526 0.187762 0
0.560311 0.19292 0
0.588434 0.198444 0.00326543
0.614771 0.204349 0.0119326
0.639246 0.210681 0.0220951
0.668009 0.216068 0.0287938
0.701228 0.220462 0.0321202
0.73344 0.225055 0.0361486
0.764752 0.229847 0.0407568
0.79588 0.234653 0.0454719
0.00154116 0.117357 0.00154116
0.00154116 0.117357 0.00154116
0.00154116 0.117357 0.00154116
0.00154116 0.117357 0.00154116
0.00154116 0.117357 0.00154116
0.00683604 0.123354 0.00112917
0.0204471 0.135027 0.000213626
0.0383307 0.145525 0
0.0606546 0.154726 0
0.0877241 0.162448 0
0.116701 0.169497 0
0.147845 0.175784 0
0.180819 0.181399 0
0.21529 0.186435 0
0.250874 0.191012 0
0.287175 0.195224 0
0.323751 0.199207 0
0.360281 0.203052 0
0.396475 0.206867 0
0.432044 0.210712 0
0.466697 0.214679 0
0.500145 0.21886 0
0.532204 0.223316 0
0.562783 0.228061 0
0.591043 0.233295 0
0.616663 0.239109 0.00517281
0.64036 0.24538 0.0172427
0.662211 0.252094 0.0306859
0.686931 0.258259 0.0410468
0.71809 0.26305 0.0457313
0.749187 0.267857 0.0504463
0.780209 0.272648 0.0551919
0.811185 0.27744 0.0599222
0 0.17322 0
0 0.17322 0
0 0.17322 0
0 0.17322 0
0 0.17322 0
0.00154116 0.178683 0
0.0147555 0.189197 0
0.0365454 0.198535 0
0.0627909 0.206516 0
0.0937819 0.213031 0
0.126177 0.218952 0
0.160342 0.224216 0
0.196002 0.22887 0
0.232807 0.233036 0
0.270359 0.23682 0
0.308232 0.24033 0
0.346044 0.243702 0
0.383474 0.247028 0
0.420233 0.250385 0
0.456077 0.253864 0
0.490745 0.257542 0
0.523598 0.26154 0
0.553643 0.266072 0
0.582025 0.270985 0
0.608743 0.27631 0.00335698
0.633768 0.282032 0.0145571
0.657237 0.288151 0.0286717
0.679011 0.294713 0.0433814
0.702739 0.300938 0.0553902
0.733486 0.305776 0.0603952
0.764477 0.310552 0.0651255
0.795438 0.315312 0.0698405
0.826337 0.320073 0.0745708
0 0.229297 0
0 0.229297 0
0 0.229297 0
0 0.229297 0
0 0.229297 0
0 0.23418 0
0.00881971 0.243549 0
0.0321813 0.251743 0
0.0619059 0.258595 0
0.0962387 0.263996 0
0.131472 0.26894 0
0.168109 0.273289 0
0.205921 0.277119 0
0.244541 0.280522 0
0.283589 0.283635 0
0.322652 0.286534 0
0.361318 0.289372 0
0.399313 0.292226 0
0.436164 0.295201 0
0.471092 0.298451 0
0.504326 0.302022 0
0.535988 0.305974 0
0.566201 0.310277 6.10361e-05
0.594934 0.314946 0.00251774
0.622217 0.319966 0.0127871
0.648005 0.325368 0.0268559
0.672312 0.331151 0.0414282
0.694987 0.337331 0.0565042
0.718791 0.343404 0.0693675
0.74873 0.348348 0.0752117
0.779675 0.353079 0.0799115
0.810575 0.357824 0.0846113
0.841428 0.362554 0.0893111
0 0.284199 0
0 0.284199 0
0 0.284199 0
0 0.284199 0
0 0.284199 0
0 0.288548 0
0.0043183 0.296818 0
0.0284276 0.30396 0
0.0610208 0.309819 0
0.0979477 0.314275 0
0.135363 0.318379 0
0.173831 0.321965 0
0.213184 0.325124 0
0.253101 0.327855 0
0.293111 0.330358 0
0.332738 0.332753 0
0.371466 0.335103 0
0.409033 0.337606 0
0.445411 0.340352 0
0.480522 0.343389 0
0.514275 0.346731 0
0.546532 0.350439 0.00015259
0.577386 0.354467 0.00259403
0.606836 0.358846 0.0119326
0.634867 0.363561 0.0257267
0.661463 0.368658 0.0400549
0.68658 0.374105 0.0549172
0.710109 0.379965 0.0703136
0.73434 0.385809 0.0836957
0.763882 0.390753 0.0900893
0.794797 0.395453 0.0947585
0.82565 0.400168 0.099443
0.856474 0.404868 0.104112
0 0.337072 0
0 0.337072 0
0 0.337072 0
0 0.337072 0
0 0.337072 0
0 0.340917 0
0.00231937 0.34818 0
0.0276188 0.354391 0
0.0624552 0.359396 0
0.101366 0.363043 0
0.140612 0.366323 0
0.180591 0.369131 0
0.220981 0.371618 0
0.261631 0.373739 0
0.3019 0.375769 0
0.341421 0.377859 0
0.380087 0.380102 0
0.417777 0.382513 0
0.454398 0.385153 0
0.489845 0.388037 0
0.524041 0.391196 6.10361e-05
0.556817 0.394659 0.00311284
0.588266 0.398459 0.0122377
0.618357 0.402579 0.0255894
0.647089 0.407034 0.0395514
0.674418 0.411841 0.0540627
0.700313 0.416983 0.0691386
0.724651 0.422538 0.0847944
0.749462 0.428138 0.0984512
0.779004 0.433036 0.104997
0.809873 0.437705 0.109636
0.840711 0.44239 0.114305
0.871504 0.447059 0.118959
0 0.387213 0
0 0.387213 0
0 0.387213 0
0 0.387213 0
0 0.387213 0
0 0.390616 0
0.00407416 0.397009 0
0.0321813 0.402136 0
0.0694591 0.406027 0
0.110079 0.40882 0
0.150408 0.411414 0
0.190951 0.413733 0
0.231403 0.41593 0
0.271656 0.418051 0
0.311513 0.420172 0
0.350744 0.422324 0
0.389273 0.424567 0
0.426947 0.426963 0
0.463676 0.429526 0
0.499352 0.432288 0
0.533883 0.435309 0.00447089
0.567086 0.438636 0.0141451
0.599023 0.442237 0.0268711
0.629694 0.446128 0.0402686
0.659037 0.450355 0.0543069
0.687022 0.454902 0.0689555
0.713634 0.459785 0.084184
0.738705 0.465049 0.100053
0.764248 0.47039 0.11368
0.794095 0.475181 0.119921
0.824933 0.479835 0.124544
0.855741 0.484474 0.129168
0.886503 0.489128 0.133806
0 0.433448 0
0 0.433448 0
0 0.433448 0
0 0.433448 0
0 0.433448 0
0 0.436179 0
0.0132753 0.441382 0
0.045716 0.445716 0
0.08365 0.449149 0
0.124254 0.451743 0
0.163943 0.454414 0
0.203601 0.456947 0
0.243244 0.459373 0
0.282795 0.461677 0
0.322087 0.46392 0
0.360922 0.466194 0
0.399176 0.468498 0
0.436728 0.470909 0
0.473442 0.473442 0.00177005
0.509224 0.476158 0.00791943
0.543969 0.479088 0.0180667
0.577478 0.482277 0.0299687
0.609842 0.48571 0.0426337
0.64097 0.489433 0.0560159
0.670832 0.493462 0.0700847
0.699413 0.49778 0.0847791
0.726665 0.502419 0.100114
0.752407 0.507439 0.116121
0.778744 0.51252 0.129427
0.809125 0.517189 0.134813
0.839918 0.521782 0.139391
0.870695 0.526406 0.143984
0.901427 0.531029 0.148592
0 0.474937 0
0 0.474937 0
0 0.474937 0
0 0.474937 0
0 0.474937 0
0.00540169 0.477546 0
0.0298161 0.482567 0
0.0641184 0.487022 0
0.100908 0.490761 0
0.140307 0.493675 0
0.178927 0.496635 0
0.217578 0.499443 0
0.256336 0.502098 0
0.295094 0.504616 0
0.33373 0.507057 0
0.372045 0.509453 0
0.409934 0.511864 0.00123598
0.447227 0.514336 0.00668345
0.483818 0.516899 0.0147555
0.5196 0.519585 0.0244907
0.554437 0.522469 0.0353094
0.588159 0.525582 0.0470588
0.620813 0.528893 0.0596017
0.652323 0.532479 0.0729076
0.682643 0.536324 0.0869154
0.711727 0.540459 0.101625
0.739452 0.544793 0.116899
0.765316 0.548989 0.132219
0.791653 0.552804 0.143374
0.82153 0.556481 0.147112
0.85214 0.560906 0.151522
0.882872 0.565484 0.156085
0.913558 0.570047 0.160632
0.00411994 0.514656 0.00411994
0.00411994 0.514656 0.00411994
0.00411994 0.514656 0.00411994
0.00411994 0.514656 0.00411994
0.00411994 0.514656 0.00411994
0.0191501 0.517403 0.00280766
0.0507515 0.522728 0.0009308
0.0841077 0.527489 0.000564584
0.119661 0.531563 0.000488289
0.157794 0.534829 0.000427253
0.195285 0.538094 0.000427253
0.232883 0.541207 0.000442512
0.27068 0.544137 0.000503548
0.308598 0.546883 0.00111391
0.346517 0.549523 0.00523384
0.384237 0.552102 0.0108034
0.421637 0.55465 0.0174258
0.458579 0.557214 0.0250858
0.494942 0.559838 0.0337377
0.530587 0.562554 0.0433509
0.565423 0.565423 0.0539254
0.599237 0.56846 0.0654459
0.632059 0.571679 0.0777752
0.663661 0.57496 0.0907607
0.693706 0.578058 0.104082
0.722057 0.580865 0.117571
0.748669 0.583459 0.131228
0.773663 0.585794 0.144411
0.799771 0.587777 0.151537
0.828611 0.590356 0.154101
0.859037 0.594598 0.158328
0.889723 0.599115 0.162829
0.920363 0.603647 0.16733
0.0286259 0.553521 0.0286259
0.0286259 0.553521 0.0286259
0.0286259 0.553521 0.0286259
0.0286259 0.553521 0.0286259
0.0286259 0.553521 0.0286259
0.0430762 0.556435 0.0272374
0.0734722 0.562081 0.0245518
0.105592 0.567193 0.0221256
0.13991 0.571588 0.019913
0.176776 0.575204 0.0179599
0.213107 0.578805 0.0176242
0.249638 0.582223 0.0184329
0.286458 0.585428 0.020325
0.323476 0.588449 0.0232853
0.360571 0.591333 0.0273289
0.39762 0.594095 0.0325475
0.43444 0.596796 0.0388037
0.470924 0.599481 0.0460975
0.506844 0.602121 0.0543221
0.542092 0.6047 0.063447
0.576455 0.607248 0.0733806
0.609445 0.609445 0.0838178
0.641001 0.611276 0.0945907
0.671077 0.612802 0.105714
0.699657 0.614069 0.117159
0.726696 0.615137 0.128908
0.752163 0.616037 0.141024
0.776486 0.6168 0.151751
0.802609 0.61735 0.154299
0.830579 0.619058 0.156008
0.860868 0.623133 0.160082
0.891524 0.627634 0.164553
0.922133 0.632136 0.169024
0.0545052 0.591684 0.0545052
0.0545052 0.591684 0.0545052
0.0545052 0.591684 0.0545052
0.0545052 0.591684 0.0545052
0.0545052 0.591684 0.0545052
0.0683604 0.594751 0.0530404
0.0975509 0.600732 0.0501717
0.12845 0.606165 0.0475471
0.161517 0.610925 0.0451209
0.197101 0.614908 0.0429389
0.232242 0.618845 0.0423438
0.267689 0.622568 0.0428931
0.303487 0.626062 0.04448
0.339559 0.629358 0.0471199
0.375814 0.632471 0.0508278
0.411963 0.635309 0.0555428
0.447807 0.637858 0.0611124
0.483177 0.640116 0.0674754
0.517769 0.641962 0.0744488
0.551369 0.64332 0.0818952
0.583841 0.644236 0.0898451
0.61503 0.644755 0.0982986
0.644984 0.644984 0.10724
0.673655 0.644984 0.11664
0.700999 0.644785 0.126497
0.72697 0.64445 0.136812
0.751553 0.644022 0.147509
0.775952 0.64361 0.153887
0.80174 0.643107 0.153368
0.829038 0.644175 0.154421
0.859205 0.648142 0.158358
0.889845 0.652613 0.162814
0.920424 0.657084 0.167254
0.0817273 0.62916 0.0817273
0.0817273 0.62916 0.0817273
0.0817273 0.62916 0.0817273
0.0817273 0.62916 0.0817273
0.0817273 0.62916 0.0817273
0.0950027 0.632395 0.0801709
0.122972 0.638712 0.0771191
0.152651 0.64448 0.0743267
0.184451 0.649607 0.0716869
0.218738 0.653956 0.0692607
0.252705 0.658228 0.0684215
0.287022 0.662257 0.0686961
0.321599 0.665873 0.0698253
0.356252 0.668986 0.0716869
0.390875 0.671611 0.0743267
0.425162 0.673609 0.0776226
0.458915 0.674968 0.0814527
0.492058 0.675776 0.085832
0.524483 0.676097 0.0907912
0.5561 0.67599 0.0963302
0.586816 0.675532 0.10248
0.616449 0.674739 0.10927
0.645029 0.673716 0.116655
0.672511 0.672511 0.124636
0.698848 0.671199 0.133196
0.72398 0.66981 0.142321
0.74815 0.668452 0.150439
0.773083 0.667338 0.150973
0.798138 0.666102 0.149737
0.824994 0.666712 0.150317
0.855085 0.670604 0.154192
0.885695 0.675059 0.158618
0.916274 0.679515 0.163043
0.110277 0.665949 0.110277
0.110277 0.665949 0.110277
0.110277 0.665949 0.110277
0.110277 0.665949 0.110277
0.110277 0.665949 0.110277
0.122957 0.669352 0.108644
0.149722 0.676005 0.105409
0.178149 0.682139 0.102419
0.208698 0.687617 0.0995651
0.241505 0.692149 0.0967269
0.273701 0.696178 0.0950637
0.305959 0.69958 0.0941329
0.338247 0.702296 0.0937667
0.370474 0.704265 0.093904
0.402548 0.705531 0.0946059
0.434363 0.706127 0.0959335
0.465827 0.706172 0.0978866
0.496864 0.705745 0.100481
0.527382 0.70489 0.103731
0.557275 0.70367 0.107668
0.586465 0.702159 0.112322
0.614771 0.700374 0.117754
0.642222 0.698451 0.123873
0.668742 0.696391 0.130724
0.694301 0.694301 0.138262
0.718868 0.692226 0.145953
0.743435 0.690547 0.147631
0.768185 0.688975 0.146044
0.792828 0.687312 0.144381
0.81944 0.687694 0.144732
0.8495 0.691539 0.148547
0.880095 0.695979 0.152972
0.910658 0.70042 0.157366
0.131838 0.702068 0.131838
0.131838 0.702068 0.131838
0.131838 0.702068 0.131838
0.131838 0.702068 0.131838
0.131838 0.702068 0.131838
0.147189 0.704372 0.133364
0.175402 0.710384 0.132616
0.202777 0.716915 0.12961
0.232059 0.722789 0.126574
0.262425 0.726543 0.122362
0.291905 0.729381 0.118944
0.321401 0.731502 0.116136
0.351019 0.732921 0.113893
0.380697 0.733654 0.11223
0.410422 0.733791 0.111208
0.44004 0.733333 0.110903
0.46949 0.732387 0.111284
0.498695 0.731044 0.112398
0.52755 0.729335 0.11429
0.555978 0.727337 0.116945
0.583871 0.725109 0.120409
0.611109 0.722698 0.124758
0.637644 0.72018 0.129931
0.663447 0.717617 0.135912
0.688457 0.715114 0.142184
0.7131 0.7131 0.143511
0.737713 0.711315 0.141878
0.76228 0.709529 0.140093
0.786801 0.707744 0.138293
0.813382 0.70808 0.138613
0.843412 0.71191 0.142428
0.874006 0.71635 0.146822
0.904555 0.720775 0.151232
0.140429 0.735958 0.140429
0.140429 0.735958 0.140429
0.140429 0.735958 0.140429
0.140429 0.735958 0.140429
0.140429 0.735958 0.140429
0.156283 0.738064 0.142535
0.188846 0.742351 0.146777
0.221836 0.746563 0.150973
0.251514 0.752224 0.14963
0.279377 0.755032 0.14403
0.306172 0.756725 0.138903
0.33315 0.757778 0.134478
0.360388 0.758221 0.130678
0.387839 0.758068 0.12755
0.415473 0.757382 0.125124
0.443198 0.756191 0.123507
0.470924 0.754589 0.122667
0.498573 0.752667 0.122637
0.52604 0.750439 0.123445
0.553231 0.747997 0.125124
0.580102 0.745388 0.127718
0.606485 0.742641 0.131334
0.632349 0.739895 0.135744
0.657618 0.737331 0.139528
0.682399 0.735271 0.139437
0.707042 0.73344 0.137591
0.73167 0.73167 0.135805
0.756329 0.729976 0.134096
0.781018 0.728389 0.132479
0.807767 0.728878 0.132952
0.837842 0.732738 0.136797
0.868421 0.737163 0.141192
0.898955 0.741604 0.145571
0.142962 0.764889 0.142962
0.142962 0.764889 0.142962
0.142962 0.764889 0.142962
0.142962 0.764889 0.142962
0.142962 0.764889 0.142962
0.158846 0.76701 0.145083
0.19144 0.771344 0.149371
0.224491 0.775601 0.153613
0.258213 0.779553 0.157534
