src/colors/utility_&_correction/protect_highlights.cube
TITLE "Generated by Resolve"
LUT_3D_SIZE 9
0 0 0
0 0 0
0 0 0
0 0 0
0 0 0
0 0 0
0.0574807 0.00988785 0.00988785
0.206714 0.0271 0.0271
0.388312 0.0338598 0.0338598
0 0 0
0 0 0
0 0 0
0 0 0
0 0 0
0 0 0
0.0574807 0.00988785 0.00988785
0.206714 0.0271 0.0271
0.388312 0.0338598 0.0338598
0 0 0
0 0 0
6.10361e-05 0.000106813 0
0.0280919 0.0149538 0.00329595
0.129961 0.0475013 0.0106813
0.259144 0.0703441 0.0133516
0.393774 0.0900282 0.0206302
0.534432 0.107195 0.0285039
0.699107 0.117556 0.0276799
0.00154116 0.117357 0.00154116
0.00154116 0.117357 0.00154116
0.0606546 0.154726 0
0.180819 0.181399 0
0.323751 0.199207 0
0.466697 0.214679 0
0.591043 0.233295 0
0.686931 0.258259 0.0410468
0.811185 0.27744 0.0599222
0 0.337072 0
0 0.337072 0
0.0624552 0.359396 0
0.220981 0.371618 0
0.380087 0.380102 0
0.524041 0.391196 6.10361e-05
0.647089 0.407034 0.0395514
0.749462 0.428138 0.0984512
0.871504 0.447059 0.118959
0.00411994 0.514656 0.00411994
0.00411994 0.514656 0.00411994
0.119661 0.531563 0.000488289
0.27068 0.544137 0.000503548
0.421637 0.55465 0.0174258
0.565423 0.565423 0.0539254
0.693706 0.578058 0.104082
0.799771 0.587777 0.151537
0.920363 0.603647 0.16733
0.110277 0.665949 0.110277
0.110277 0.665949 0.110277
0.208698 0.687617 0.0995651
0.338247 0.702296 0.0937667
0.465827 0.706172 0.0978866
0.586465 0.702159 0.112322
0.694301 0.694301 0.138262
0.792828 0.687312 0.144381
0.910658 0.70042 0.157366
0.142107 0.790356 0.142107
0.142107 0.790356 0.142107
0.257282 0.804959 0.156603
0.368444 0.79881 0.150393
0.469993 0.791684 0.13994
0.571405 0.783505 0.134981
0.672007 0.777539 0.128954
0.774838 0.774838 0.126177
0.893858 0.78912 0.140322
0.192813 0.946197 0.192813
0.192813 0.946197 0.192813
0.306798 0.959579 0.206027
0.414374 0.949798 0.196155
0.515511 0.940612 0.186892
0.615915 0.932952 0.179156
0.717876 0.928298 0.17438
0.82327 0.928084 0.174029
0.942901 0.942901 0.188556
0 0 0
0 0 0
0 0 0
0 0 0
0 0 0
0 0 0
0.0574807 0.00988785 0.00988785
0.206714 0.0271 0.0271
0.388312 0.0338598 0.0338598
0 0 0
0 0 0
0 0 0
0 0 0
0 0 0
0 0 0
0.0574807 0.00988785 0.00988785
0.206714 0.0271 0.0271
0.388312 0.0338598 0.0338598
0 0 0
0 0 0
6.10361e-05 0.000106813 0
0.0280919 0.0149538 0.00329595
0.129961 0.0475013 0.0106813
0.259144 0.0703441 0.0133516
0.393774 0.0900282 0.0206302
0.534432 0.107195 0.0285039
0.699107 0.117556 0.0276799
0.00154116 0.117357 0.00154116
0.00154116 0.117357 0.00154116
0.0606546 0.154726 0
0.180819 0.181399 0
0.323751 0.199207 0
0.466697 0.214679 0
0.591043 0.233295 0
0.686931 0.258259 0.0410468
0.811185 0.27744 0.0599222
0 0.337072 0
0 0.337072 0
0.0624552 0.359396 0
0.220981 0.371618 0
0.380087 0.380102 0
0.524041 0.391196 6.10361e-05
0.647089 0.407034 0.0395514
0.749462 0.428138 0.0984512
0.871504 0.447059 0.118959
0.00411994 0.514656 0.00411994
0.00411994 0.514656 0.00411994
0.119661 0.531563 0.000488289
0.27068 0.544137 0.000503548
0.421637 0.55465 0.0174258
0.565423 0.565423 0.0539254
0.693706 0.578058 0.104082
0.799771 0.587777 0.151537
0.920363 0.603647 0.16733
0.110277 0.665949 0.110277
0.110277 0.665949 0.110277
0.208698 0.687617 0.0995651
0.338247 0.702296 0.0937667
0.465827 0.706172 0.0978866
0.586465 0.702159 0.112322
0.694301 0.694301 0.138262
0.792828 0.687312 0.144381
0.910658 0.70042 0.157366
0.142107 0.790356 0.142107
0.142107 0.790356 0.142107
0.257282 0.804959 0.156603
0.368444 0.79881 0.150393
0.469993 0.791684 0.13994
0.571405 0.783505 0.134981
0.672007 0.777539 0.128954
0.774838 0.774838 0.126177
0.893858 0.78912 0.140322
0.192813 0.946197 0.192813
0.192813 0.946197 0.192813
0.306798 0.959579 0.206027
0.414374 0.949798 0.196155
0.515511 0.940612 0.186892
0.615915 0.932952 0.179156
0.717876 0.928298 0.17438
0.82327 0.928084 0.174029
0.942901 0.942901 0.188556
0 0 0
0 0 0
0 0 0
0 0 0
0 0 0
6.10361e-05 0 0
0.0975509 0.0149996 0.0303044
0.247211 0.0297246 0.0634775
0.429603 0.0341955 0.0870832
0 0 0
0 0 0
0 0 0
0 0 0
0 0 0
6.10361e-05 0 0
0.0975509 0.0149996 0.0303044
0.247211 0.0297246 0.0634775
0.429603 0.0341955 0.0870832
0 0 0
0 0 0
0.000854505 0.00103761 0.000854505
0.0497444 0.0255131 0.0251926
0.159945 0.0527352 0.0524453
0.297047 0.0712444 0.0710155
0.438254 0.0878157 0.0876478
0.563836 0.108034 0.107912
0.718532 0.119936 0.11986
0.000228885 0.132036 0.0568704
0.000228885 0.132036 0.0568704
0.0562448 0.166308 0.0561837
0.187472 0.188067 0.0484016
0.342809 0.20119 0.0494087
0.495445 0.213535 0.0614481
0.625238 0.230823 0.0881361
0.721447 0.256306 0.129396
0.816312 0.282429 0.165331
0 0.348302 0.0652781
0 0.348302 0.0652781
0.0473335 0.369528 0.0473182
0.21416 0.379278 0.0383917
0.385107 0.385107 0.0531014
0.541009 0.393606 0.0830701
0.674495 0.407416 0.123964
0.784192 0.427253 0.173281
0.876554 0.451865 0.224247
0.000289921 0.525048 0.113313
0.000289921 0.525048 0.113313
0.102876 0.542855 0.102876
0.256748 0.555337 0.0962387
0.416617 0.564187 0.105776
0.572396 0.572396 0.13193
0.712764 0.582498 0.171908
0.826551 0.590372 0.216449
0.925704 0.608484 0.272374
0.0914168 0.679393 0.200534
0.0914168 0.679393 0.200534
0.187366 0.701991 0.187366
0.318456 0.717037 0.174411
0.452689 0.720073 0.168917
0.583795 0.714107 0.173068
0.703746 0.703746 0.188861
0.807111 0.693248 0.21593
0.915831 0.705425 0.262806
0.146944 0.795224 0.247639
0.146944 0.795224 0.247639
0.25481 0.812924 0.25481
0.348302 0.815045 0.220966
0.451484 0.808804 0.197238
0.562051 0.798306 0.187945
0.673671 0.787549 0.196246
0.780545 0.780545 0.222736
0.898726 0.793973 0.245899
0.197299 0.950744 0.298054
0.197299 0.950744 0.298054
0.311269 0.964111 0.311269
0.418982 0.954452 0.301534
0.519951 0.945327 0.291997
0.620203 0.937743 0.283726
0.722362 0.932937 0.279347
0.827817 0.932647 0.279347
0.947341 0.947341 0.293797
0 0 0
0 0 0
0 0 0
0 0 0
0 0 0
0.0119783 0.00015259 0.00573739
0.143999 0.0187686 0.0690623
0.292058 0.031632 0.119203
0.474281 0.0339055 0.161471
0 0 0
0 0 0
0 0 0
0 0 0
0 0 0
0.0119783 0.00015259 0.00573739
0.143999 0.0187686 0.0690623
0.292058 0.031632 0.119203
0.474281 0.0339055 0.161471
0 0 0
0 0 0
0.00207523 0.00230411 0.0039826
0.072221 0.0356756 0.0719921
0.19028 0.0572213 0.125597
0.334539 0.0713359 0.163256
0.481544 0.0849165 0.190082
0.611337 0.103502 0.212268
0.738247 0.122591 0.23331
0 0.145052 0.144167
0 0.145052 0.144167
0.0545357 0.175326 0.174456
0.191913 0.192493 0.19176
0.35993 0.200916 0.200412
0.521569 0.210666 0.210376
0.656107 0.227405 0.227375
0.75903 0.252415 0.252415
0.836789 0.283986 0.283986
0 0.35523 0.213489
0 0.35523 0.213489
0.0390173 0.375219 0.212299
0.206104 0.384512 0.206104
0.388113 0.388113 0.209461
0.557351 0.39382 0.226932
0.701717 0.405768 0.25362
0.820966 0.424231 0.28751
0.915633 0.449149 0.328054
0.000106813 0.531411 0.258167
0.000106813 0.531411 0.258167
0.091722 0.550668 0.252186
0.242481 0.564309 0.242481
0.408606 0.57229 0.24155
0.577676 0.577676 0.25565
0.730358 0.583352 0.282109
0.853864 0.586526 0.31133
0.961074 0.602625 0.355688
0.0804608 0.688823 0.32488
0.0804608 0.688823 0.32488
0.170428 0.713008 0.314458
0.296239 0.72726 0.296239
0.431739 0.728008 0.279438
0.571496 0.718547 0.270176
0.704219 0.704219 0.273045
0.820951 0.690242 0.28777
0.937575 0.699886 0.332738
0.144945 0.793256 0.362951
0.144945 0.793256 0.362951
0.226596 0.82063 0.353918
0.315648 0.823758 0.315648
0.420401 0.817533 0.283543
0.53872 0.806165 0.263386
0.663081 0.79382 0.260502
0.785107 0.785107 0.276799
0.909545 0.794614 0.32256
0.194049 0.947509 0.412207
0.194049 0.947509 0.412207
0.308125 0.960983 0.425559
0.402075 0.95639 0.402075
0.487495 0.954681 0.366201
0.590036 0.948867 0.342824
0.704402 0.94229 0.336934
0.823835 0.938842 0.351415
0.949294 0.949294 0.394339
0 0 0
0 0 0
0 0 0
0 0 0
0 0 0
0.0507973 0.00726329 0.0400854
0.187289 0.0217899 0.121843
0.336248 0.0324407 0.186267
0.516381 0.0334936 0.244099
0 0 0
0 0 0
0 0 0
0 0 0
0 0 0
0.0507973 0.00726329 0.0400854
0.187289 0.0217899 0.121843
0.336248 0.0324407 0.186267
0.516381 0.0334936 0.244099
6.10361e-05 0.000442512 0.00106813
6.10361e-05 0.000442512 0.00106813
0.0139162 0.0141451 0.0372168
0.090898 0.0451667 0.133715
0.213275 0.0623026 0.213062
0.361913 0.0729686 0.26891
0.512581 0.0843519 0.304723
0.645396 0.101778 0.327703
0.7561 0.125856 0.345769
0.000137331 0.15555 0.23711
0.000137331 0.15555 0.23711
0.0599527 0.181903 0.295018
0.195789 0.196292 0.342657
0.366598 0.202182 0.366491
0.535073 0.21001 0.374075
0.673564 0.226734 0.378439
0.783688 0.251118 0.38761
0.86894 0.282017 0.402975
0 0.357961 0.357671
0 0.357961 0.357671
0.0461433 0.376394 0.376364
0.207263 0.385779 0.385763
0.389258 0.389273 0.389258
0.56878 0.39321 0.39321
0.721447 0.404196 0.404181
0.848493 0.421912 0.421912
0.95079 0.446159 0.446159
0.000411994 0.533303 0.400397
0.000411994 0.533303 0.400397
0.0953689 0.553582 0.406104
0.238025 0.568689 0.405035
0.401816 0.577539 0.401816
0.58088 0.58088 0.405081
0.743496 0.581521 0.417365
0.874708 0.580606 0.430869
0.990326 0.59501 0.460304
0.0844129 0.692515 0.452247
0.0844129 0.692515 0.452247
0.16701 0.718059 0.450721
0.28304 0.731579 0.43534
0.413642 0.731197 0.413642
0.557443 0.719448 0.39324
0.701579 0.701579 0.383948
0.830793 0.684535 0.387106
0.958618 0.691966 0.419913
0.140475 0.792065 0.470451
0.140475 0.792065 0.470451
0.210925 0.822446 0.465141
0.292653 0.826612 0.429496
0.394369 0.821347 0.394369
0.516121 0.810346 0.366323
0.65098 0.797269 0.353491
0.787427 0.787442 0.360311
0.9252 0.794537 0.395407
0.191257 0.944747 0.519783
0.191257 0.944747 0.519783
0.305058 0.958282 0.532998
0.37377 0.962203 0.495048
0.456489 0.961868 0.456489
0.56141 0.957168 0.426581
0.684138 0.951034 0.411841
0.816678 0.947448 0.417227
0.95555 0.95555 0.449622
0 0 0
0 0 0
0 0 0
0 0 0
1.5259e-05 0 3.0518e-05
0.087129 0.0135805 0.0870985
0.225086 0.0251164 0.185687
0.376135 0.0333715 0.263905
0.555657 0.0329137 0.335821
0 0 0
0 0 0
0 0 0
0 0 0
1.5259e-05 0 3.0518e-05
0.087129 0.0135805 0.0870985
0.225086 0.0251164 0.185687
0.376135 0.0333715 0.263905
0.555657 0.0329137 0.335821
0.000518807 0.00144961 0.00373846
0.000518807 0.00144961 0.00373846
0.0271763 0.0273899 0.0851606
0.106767 0.0544137 0.203952
0.22945 0.0688182 0.305409
0.378531 0.077348 0.378515
0.530358 0.0872358 0.423484
0.664759 0.103944 0.447593
0.771832 0.129549 0.459983
0.00184634 0.164569 0.32842
0.00184634 0.164569 0.32842
0.0692149 0.188098 0.40737
0.200885 0.201297 0.477287
0.364965 0.207172 0.519738
0.533181 0.214359 0.533165
0.677012 0.230106 0.530449
0.794766 0.253315 0.527962
0.887694 0.283207 0.529778
0 0.358358 0.487785
0 0.358358 0.487785
0.065919 0.37557 0.52253
0.21886 0.385565 0.548913
0.390631 0.390631 0.56614
0.570123 0.394476 0.570123
0.730327 0.40444 0.568475
0.864973 0.421378 0.571023
0.974701 0.444938 0.579553
0.0211948 0.532235 0.532235
0.0211948 0.532235 0.532235
0.112856 0.553063 0.553063
0.246998 0.568917 0.568917
0.402945 0.578729 0.578729
0.581384 0.581399 0.581384
0.751263 0.577539 0.577539
0.888319 0.573541 0.573541
1 0.586831 0.586831
0.101808 0.691417 0.575769
0.101808 0.691417 0.575769
0.17702 0.717922 0.587655
0.281956 0.730282 0.583246
0.403143 0.729335 0.56733
0.543328 0.717083 0.543328
0.696559 0.696559 0.522835
0.837644 0.676905 0.514458
0.975296 0.682689 0.534325
0.14081 0.789151 0.577127
0.14081 0.789151 0.577127
0.208881 0.81915 0.582925
0.281621 0.824338 0.556924
0.376654 0.820645 0.526452
0.496391 0.811307 0.496391
0.637964 0.798733 0.475486
0.78819 0.78819 0.473228
0.938857 0.793072 0.497841
0.188586 0.942107 0.625193
0.188586 0.942107 0.625193
0.301915 0.955779 0.6383
0.357137 0.963073 0.604288
0.434165 0.964706 0.568994
0.537377 0.962142 0.537377
0.664668 0.95758 0.516167
0.808606 0.954528 0.513146
0.960479 0.960479 0.535317
0 0 0
0 0 0
0 0 0
0 0 0
0.0103304 0.00151064 0.0167849
0.119066 0.0198825 0.143282
0.255268 0.0299992 0.255131
0.414771 0.0334325 0.352636
0.592004 0.0322881 0.435843
0 0 0
0 0 0
0 0 0
0 0 0
0.0103304 0.00151064 0.0167849
0.119066 0.0198825 0.143282
0.255268 0.0299992 0.255131
0.414771 0.0334325 0.352636
0.592004 0.0322881 0.435843
0.00209049 0.00614939 0.0234073
0.00209049 0.00614939 0.0234073
0.0394751 0.0396735 0.140703
0.120394 0.0639048 0.276616
0.240604 0.0770275 0.394553
0.386145 0.084947 0.481773
0.535683 0.0944533 0.535592
0.669535 0.110948 0.561898
0.783215 0.134478 0.574197
0.0117189 0.172915 0.411399
0.0117189 0.172915 0.411399
0.0816052 0.19472 0.505745
0.207492 0.207813 0.591959
0.362051 0.214954 0.648524
0.523156 0.223392 0.669444
0.668391 0.238468 0.668391
0.792264 0.260166 0.661814
0.892485 0.28867 0.655207
0.000732433 0.358175 0.595178
0.000732433 0.358175 0.595178
0.0926223 0.375372 0.641749
0.235004 0.386954 0.682536
0.394415 0.394415 0.711482
0.56408 0.400076 0.725902
0.726436 0.40911 0.726436
0.867994 0.424643 0.721843
0.985336 0.447028 0.718883
0.0563821 0.5299 0.645441
0.0563821 0.5299 0.645441
0.140932 0.551263 0.681437
0.266667 0.567788 0.714733
0.414267 0.578378 0.740307
0.581003 0.581003 0.754696
0.748226 0.574533 0.748226
0.890684 0.56759 0.729992
1 0.579767 0.728084
0.130968 0.686778 0.686778
0.130968 0.686778 0.686778
0.199191 0.713924 0.713924
0.29366 0.724758 0.724758
0.405188 0.722789 0.722789
0.536614 0.710338 0.710338
0.689265 0.689265 0.689265
0.840101 0.66804 0.66804
0.985733 0.673014 0.673014
0.138582 0.786938 0.681437
0.138582 0.786938 0.681437
0.220569 0.811749 0.697887
0.284428 0.817639 0.686915
0.371603 0.815335 0.669062
0.484947 0.808179 0.647425
0.625742 0.797864 0.625757
0.787457 0.787457 0.61532
0.950393 0.790417 0.629328
0.185992 0.939544 0.729229
0.185992 0.939544 0.729229
0.299687 0.953048 0.742535
0.354131 0.959319 0.721508
0.423911 0.962982 0.696147
0.521813 0.963134 0.670283
0.648356 0.961395 0.648356
0.799954 0.960067 0.638727
0.964141 0.964141 0.650813
0 0 0
0 0 0
0 0 0
0 0 0
0.0378729 0.00978103 0.0649119
0.146838 0.026566 0.20531
0.287831 0.0327459 0.337224
0.450996 0.0331884 0.450874
0.625467 0.031754 0.542992
0 0 0
0 0 0
0 0 0
0 0 0
0.0378729 0.00978103 0.0649119
0.146838 0.026566 0.20531
0.287831 0.0327459 0.337224
0.450996 0.0331884 0.450874
0.625467 0.031754 0.542992
0.0110475 0.0209354 0.0733654
0.0110475 0.0209354 0.0733654
0.0514229 0.0515755 0.198062
0.132326 0.0741436 0.345495
0.248157 0.0871901 0.47422
0.387228 0.0957961 0.571405
0.531228 0.10605 0.632593
0.661952 0.123033 0.661906
0.790234 0.140917 0.686046
0.0264591 0.181384 0.485634
0.0264591 0.181384 0.485634
0.0970169 0.202213 0.585885
0.215824 0.216068 0.683894
0.35964 0.225315 0.749874
0.510323 0.236164 0.776669
0.652674 0.25124 0.783047
0.779065 0.271855 0.779065
0.884764 0.298894 0.770047
0.0307927 0.358968 0.678798
0.0307927 0.358968 0.678798
0.123369 0.376761 0.732891
0.25391 0.390463 0.786679
0.400534 0.400534 0.826795
0.55819 0.408591 0.852018
0.715343 0.418189 0.861479
0.859312 0.432639 0.859312
0.982635 0.453407 0.85211
0.0930953 0.528908 0.740703
0.0930953 0.528908 0.740703
0.176074 0.549752 0.785748
0.292363 0.567452 0.834653
0.429831 0.579522 0.873533
0.582025 0.582025 0.896742
0.737331 0.574945 0.898009
0.88011 0.565347 0.88011
1 0.575891 0.870893
0.143709 0.686412 0.791882
0.143709 0.686412 0.791882
0.230671 0.707851 0.821668
0.314916 0.717311 0.84799
0.417075 0.714458 0.860685
0.539452 0.701885 0.862608
0.682017 0.682017 0.854078
0.833082 0.661006 0.833082
0.986084 0.665171 0.826185
0.136278 0.784665 0.784665
0.136278 0.784665 0.784665
0.244099 0.801724 0.801724
0.299901 0.808072 0.808072
0.379828 0.806851 0.806851
0.486549 0.801434 0.801434
0.621546 0.793652 0.793667
0.785412 0.785412 0.785412
0.958419 0.787305 0.787305
0.18349 0.937057 0.832319
0.18349 0.937057 0.832319
0.297475 0.950454 0.84567
0.364797 0.951949 0.836988
0.42742 0.957397 0.826688
0.518868 0.960082 0.814221
0.640421 0.961685 0.801602
0.792462 0.963745 0.792462
0.966613 0.966613 0.795209
0 0 0
0 0 0
0 0 0
0 0 0.00015259
0.0656291 0.0170443 0.127962
0.179141 0.0296635 0.287602
0.32224 0.0333715 0.433783
0.484703 0.0327459 0.557488
0.656062 0.0313878 0.656062
0 0 0
0 0 0
0 0 0
0 0 0.00015259
0.0656291 0.0170443 0.127962
0.179141 0.0296635 0.287602
0.32224 0.0333715 0.433783
0.484703 0.0327459 0.557488
0.656062 0.0313878 0.656062
0.0178988 0.034165 0.137835
0.0178988 0.034165 0.137835
0.0615396 0.0616922 0.276448
0.144396 0.0834516 0.422202
0.254704 0.0983291 0.546258
0.385107 0.109102 0.64567
0.526146 0.118791 0.719707
0.668696 0.129839 0.771634
0.797253 0.147387 0.797253
0.0255741 0.19089 0.594827
0.0255741 0.19089 0.594827
0.108949 0.210269 0.670176
0.226078 0.226276 0.750454
0.358343 0.238437 0.820478
0.49781 0.251698 0.8551
0.633844 0.267613 0.870939
0.758892 0.287877 0.873564
0.867155 0.313817 0.867155
0.038468 0.365423 0.788342
0.038468 0.365423 0.788342
0.153262 0.380392 0.804196
0.275196 0.396139 0.862028
0.408881 0.408881 0.9131
0.554055 0.419501 0.949004
0.702388 0.430625 0.968765
0.843641 0.444999 0.974136
0.969451 0.464637 0.969451
0.099443 0.535317 0.851713
0.099443 0.535317 0.851713
0.213916 0.549783 0.866728
0.321935 0.568734 0.926986
0.448127 0.582773 0.977935
0.587198 0.587198 1
0.730297 0.58201 1
0.867628 0.572656 1
1 0.582177 1
0.149203 0.691936 0.902068
0.149203 0.691936 0.902068
0.264073 0.706493 0.916793
0.347524 0.714549 0.952132
0.440497 0.712459 0.979034
0.552926 0.701259 0.993652
0.68368 0.68368 0.995331
0.825483 0.6645 0.985367
0.980636 0.667857 0.980636
0.141024 0.789441 0.894133
0.141024 0.789441 0.894133
0.256443 0.804273 0.908965
0.332158 0.804013 0.918883
0.404471 0.803449 0.934051
0.503777 0.798886 0.944625
0.63122 0.792264 0.952178
0.786023 0.786023 0.957122
0.959182 0.787991 0.959182
0.188251 0.941894 0.941894
0.188251 0.941894 0.941894
0.302083 0.955108 0.955108
0.394232 0.948745 0.948745
0.449332 0.954894 0.954894
0.533578 0.958465 0.958465
0.648035 0.961181 0.961181
0.793362 0.964706 0.964706
0.967666 0.967666 0.967666
