src/colors/utility_&_correction/warm_correction.cube
LUT_3D_SIZE 6
0.000000 0.000000 0.000000
0.000000 0.000000 0.000000
0.534541 0.000000 0.000000
0.922335 0.156941 0.098195
1.000000 0.300006 0.212694
1.000000 0.318371 0.236816
0.000000 0.000000 0.000000
0.000000 0.000000 0.000000
0.512266 0.065597 0.000000
0.911263 0.148940 0.094466
1.000000 0.296613 0.209519
1.000000 0.318372 0.236672
0.011946 0.490975 0.025090
0.010933 0.482955 0.019311
0.479571 0.462426 0.019818
0.880086 0.419855 0.104271
1.000000 0.318101 0.210577
1.000000 0.318372 0.236569
0.315960 0.787013 0.217897
0.313903 0.784876 0.216368
0.398745 0.778615 0.220482
0.838364 0.766003 0.236707
1.000000 0.707851 0.277333
1.000000 0.470554 0.248795
0.471105 0.937727 0.343419
0.470453 0.937160 0.342444
0.473653 0.935643 0.342505
0.772339 0.927856 0.362165
0.995103 0.923021 0.373506
1.000000 0.896492 0.380151
0.510029 0.970408 0.530599
0.510015 0.970408 0.530204
0.549193 0.970408 0.533677
0.836480 0.970523 0.572897
0.990122 0.970408 0.560693
1.000000 0.970448 0.469037
0.000000 0.000000 0.000000
0.000000 0.000000 0.000000
0.532451 0.000000 0.055829
0.921258 0.156295 0.129106
1.000000 0.299682 0.213799
1.000000 0.318371 0.236815
0.000000 0.000000 0.000000
0.000000 0.000000 0.000000
0.507828 0.000000 0.032665
0.911155 0.148858 0.119920
1.000000 0.296459 0.210633
1.000000 0.318372 0.236663
0.006093 0.485554 0.064333
0.003045 0.478314 0.055704
0.474327 0.456777 0.047167
0.877662 0.412576 0.120534
1.000000 0.316279 0.212806
1.000000 0.318372 0.236550
0.314273 0.785383 0.219091
0.312453 0.783689 0.217162
0.391579 0.777421 0.220850
0.837658 0.764528 0.240237
1.000000 0.709630 0.276352
1.000000 0.463783 0.247740
0.469444 0.936347 0.364512
0.469093 0.936137 0.360236
0.471616 0.934591 0.358590
0.771993 0.926813 0.378346
0.994923 0.922088 0.380450
1.000000 0.895707 0.379734
0.509921 0.970408 0.544923
0.509985 0.970408 0.542337
0.544590 0.970408 0.544832
0.836438 0.970503 0.585125
0.990187 0.970408 0.575236
1.000000 0.970408 0.486456
0.000000 0.000000 0.269065
0.000000 0.000000 0.278219
0.529898 0.000000 0.332121
0.918757 0.160194 0.356786
1.000000 0.298897 0.341116
1.000000 0.318375 0.239843
0.000000 0.000000 0.269846
0.000000 0.000000 0.265989
0.510755 0.000000 0.320863
0.910122 0.153703 0.346367
1.000000 0.295891 0.333771
1.000000 0.318347 0.241840
0.000000 0.452412 0.342374
0.000000 0.444336 0.337168
0.455347 0.417353 0.333806
0.885308 0.367660 0.340510
1.000000 0.300283 0.324712
1.000000 0.318352 0.242000
0.303015 0.774983 0.395270
0.301215 0.773316 0.389258
0.364125 0.768247 0.380607
0.834632 0.754310 0.407193
1.000000 0.705902 0.383021
1.000000 0.485803 0.267617
0.462661 0.930269 0.480554
0.462361 0.930033 0.476673
0.463236 0.929151 0.467160
0.787152 0.921081 0.508710
0.994662 0.916242 0.496750
1.000000 0.895633 0.398106
0.509919 0.970408 0.606459
0.509899 0.970408 0.603964
0.533031 0.970408 0.599522
0.828240 0.970408 0.631275
0.990351 0.970039 0.635079
1.000000 0.970408 0.585451
0.000000 0.000000 0.635521
0.000000 0.000000 0.635627
0.487465 0.012535 0.651437
0.908816 0.183498 0.669928
1.000000 0.307891 0.637738
1.000000 0.325533 0.592784
0.000000 0.000000 0.631454
0.000000 0.000000 0.628959
0.462584 0.001066 0.641784
0.900087 0.177110 0.662242
1.000000 0.304613 0.630739
1.000000 0.325131 0.585754
0.000000 0.305315 0.640119
0.000000 0.284807 0.637233
0.358287 0.209556 0.635641
0.882352 0.209973 0.656658
1.000000 0.301249 0.626268
1.000000 0.324831 0.581060
0.287116 0.739479 0.655290
0.284858 0.737469 0.653497
0.321662 0.731532 0.651557
0.825888 0.726460 0.648477
1.000000 0.693388 0.641448
1.000000 0.395634 0.586238
0.453263 0.918401 0.662523
0.453050 0.918030 0.660518
0.452459 0.917094 0.656487
0.778354 0.909171 0.668132
0.993612 0.902863 0.679451
1.000000 0.886363 0.644157
0.511053 0.970408 0.720922
0.511047 0.970408 0.719182
0.529717 0.970408 0.715648
0.814083 0.970408 0.725850
0.990828 0.968492 0.738298
1.000000 0.968612 0.724145
0.032595 0.066287 0.836463
0.032234 0.065934 0.835782
0.375484 0.092815 0.838589
0.842175 0.222669 0.838589
1.000000 0.324460 0.838589
1.000000 0.345251 0.838589
0.029786 0.063634 0.832377
0.028670 0.062628 0.831076
0.334234 0.083940 0.833791
0.828896 0.216352 0.838589
1.000000 0.321626 0.838589
1.000000 0.344778 0.838589
0.026788 0.089552 0.831612
0.024896 0.071136 0.830222
0.217121 0.070372 0.829596
0.805480 0.206285 0.838589
1.000000 0.317928 0.838589
1.000000 0.344261 0.838589
0.277750 0.652321 0.827140
0.274307 0.647958 0.826310
0.279508 0.635878 0.825096
0.797652 0.676107 0.820967
0.999752 0.626108 0.830539
1.000000 0.357215 0.838589
0.442457 0.881034 0.832616
0.441982 0.880465 0.832287
0.440529 0.878823 0.831862
0.752110 0.878928 0.827053
0.990362 0.882030 0.828401
1.000000 0.863182 0.826133
0.510574 0.970408 0.838589
0.510436 0.970408 0.838589
0.519695 0.970279 0.838589
0.799474 0.964683 0.838589
0.987865 0.960530 0.838589
1.000000 0.959322 0.838589
0.106553 0.130495 0.838589
0.106315 0.130303 0.838589
0.255670 0.134706 0.838589
0.829021 0.244059 0.838589
1.000000 0.338211 0.838589
1.000000 0.357990 0.838589
0.105406 0.129565 0.838589
0.105280 0.129407 0.838589
0.214007 0.131730 0.838589
0.813498 0.238478 0.838589
1.000000 0.335404 0.838589
1.000000 0.357827 0.838589
0.104673 0.145636 0.838589
0.104172 0.139574 0.838589
0.148035 0.130042 0.838589
0.778589 0.226903 0.838589
1.000000 0.329505 0.838589
1.000000 0.357700 0.838589
0.286323 0.633843 0.838589
0.282408 0.627775 0.838589
0.273433 0.611431 0.838589
0.775685 0.655683 0.838589
0.996828 0.605229 0.838589
1.000000 0.375273 0.838589
0.440802 0.864511 0.838589
0.439890 0.863155 0.838589
0.437484 0.859315 0.838589
0.735549 0.861419 0.838589
0.987291 0.870192 0.838589
1.000000 0.849564 0.838589
0.506665 0.960963 0.838589
0.506478 0.960919 0.838589
0.510300 0.960005 0.838589
0.793572 0.953017 0.838589
0.986063 0.950653 0.838589
1.000000 0.949644 0.838589
