src/colors/utility_&_correction/warm_correction.cube
LUT_3D_SIZE 16
0.000000 0.000000 0.000000
0.000000 0.000000 0.000000
0.000000 0.000000 0.000000
0.000000 0.000000 0.000000
0.096976 0.000000 0.000000
0.329610 0.000000 0.000000
0.534541 0.000000 0.000000
0.700826 0.003144 0.014084
0.825844 0.087677 0.054505
0.922335 0.156941 0.098195
0.983384 0.214108 0.139837
1.000000 0.261052 0.177093
1.000000 0.300006 0.212694
1.000000 0.316566 0.230297
1.000000 0.318396 0.234707
1.000000 0.318371 0.236816
0.000000 0.000000 0.000000
0.000000 0.000000 0.000000
0.000000 0.000000 0.000000
0.000000 0.000000 0.000000
0.085684 0.000000 0.000000
0.324275 0.000000 0.000000
0.530987 0.000000 0.000000
0.698438 0.001727 0.013865
0.823986 0.086445 0.053963
0.921116 0.156048 0.097709
0.982908 0.213440 0.139397
1.000000 0.260555 0.176627
1.000000 0.299602 0.212300
1.000000 0.316451 0.230163
1.000000 0.318397 0.234701
1.000000 0.318371 0.236813
0.000000 0.000000 0.000000
0.000000 0.000000 0.000000
0.000000 0.000000 0.000000
0.000000 0.000000 0.000000
0.067741 0.000000 0.000000
0.312467 0.000000 0.000000
0.522586 0.000000 0.000000
0.690946 0.000000 0.012821
0.818419 0.082570 0.052213
0.916639 0.152828 0.096328
0.981199 0.211239 0.138106
1.000000 0.258789 0.175263
1.000000 0.298155 0.210944
1.000000 0.316305 0.229955
1.000000 0.318402 0.234630
1.000000 0.318372 0.236753
0.000000 0.000000 0.000000
0.000000 0.000000 0.000000
0.000000 0.000000 0.000000
0.000000 0.000000 0.000000
0.074306 0.034285 0.000000
0.307793 0.070597 0.000000
0.512266 0.065597 0.000000
0.678314 0.014818 0.000153
0.812244 0.081300 0.049362
0.911263 0.148940 0.094466
0.978915 0.208674 0.136791
1.000000 0.256454 0.173921
1.000000 0.296613 0.209519
1.000000 0.316122 0.229667
1.000000 0.318405 0.234526
1.000000 0.318372 0.236672
0.000000 0.150468 0.000000
0.000000 0.147715 0.000000
0.000000 0.139476 0.000000
0.000000 0.129723 0.000000
0.081584 0.122991 0.000000
0.301699 0.181599 0.000000
0.496677 0.194860 0.000000
0.661036 0.176507 0.000000
0.803625 0.145217 0.037726
0.905231 0.157824 0.090672
0.976765 0.206264 0.135302
1.000000 0.254526 0.173120
1.000000 0.295434 0.208380
1.000000 0.316026 0.229484
1.000000 0.318414 0.234440
1.000000 0.318372 0.236603
0.000000 0.331336 0.000000
0.000000 0.329884 0.000000
0.000000 0.325210 0.000000
0.000000 0.318701 0.000000
0.131551 0.310311 0.000000
0.294310 0.303139 0.000000
0.488448 0.323661 0.000000
0.658692 0.315591 0.004627
0.787006 0.296386 0.041585
0.895365 0.264689 0.089113
0.972152 0.251373 0.137867
1.000000 0.257419 0.171843
1.000000 0.294396 0.207632
1.000000 0.316236 0.229601
1.000000 0.318390 0.234385
1.000000 0.318372 0.236546
0.011946 0.490975 0.025090
0.011048 0.490161 0.024695
0.008305 0.487183 0.023289
0.010933 0.482955 0.019311
0.094319 0.476861 0.010187
0.281354 0.469011 0.010325
0.479571 0.462426 0.019818
0.646592 0.460096 0.041749
0.774482 0.445904 0.071134
0.880086 0.419855 0.104271
0.961049 0.382940 0.139007
0.999617 0.342518 0.177251
1.000000 0.318101 0.210577
1.000000 0.316640 0.229770
1.000000 0.318405 0.234371
1.000000 0.318372 0.236569
0.138991 0.616903 0.096585
0.138371 0.616432 0.096203
0.136252 0.614457 0.094983
0.133382 0.611663 0.093176
0.135749 0.608700 0.090963
0.246911 0.603342 0.085592
0.449023 0.596214 0.087696
0.629970 0.590625 0.099469
0.764636 0.579507 0.120543
0.864631 0.562222 0.144113
0.949592 0.533575 0.167472
0.995564 0.490907 0.190099
1.000000 0.430994 0.215695
1.000000 0.358155 0.238161
1.000000 0.324394 0.234917
1.000000 0.318372 0.236559
0.238048 0.712372 0.162335
0.237865 0.712061 0.162121
0.236486 0.710815 0.161237
0.234555 0.708862 0.159840
0.233058 0.706857 0.158390
0.261019 0.704313 0.158098
0.406997 0.698955 0.158065
0.597201 0.693074 0.162668
0.746377 0.688702 0.173387
0.856127 0.675567 0.190557
0.936649 0.656833 0.208886
0.989238 0.627898 0.225887
1.000000 0.589881 0.240147
1.000000 0.519044 0.246187
1.000000 0.408338 0.245082
1.000000 0.338551 0.240358
0.315960 0.787013 0.217897
0.315799 0.786819 0.217743
0.315037 0.786085 0.217217
0.313903 0.784876 0.216368
0.312629 0.783764 0.215396
0.318098 0.781963 0.214936
0.398745 0.778615 0.220482
0.561452 0.773466 0.220501
0.714216 0.769578 0.227042
0.838364 0.766003 0.236707
0.929947 0.753665 0.251005
0.983000 0.733364 0.265097
1.000000 0.707851 0.277333
1.000000 0.674594 0.283519
1.000000 0.610387 0.267535
1.000000 0.470554 0.248795
0.379443 0.847778 0.265143
0.379272 0.847553 0.265068
0.378599 0.847019 0.264581
0.377747 0.846292 0.263925
0.376834 0.845361 0.263193
0.376730 0.844408 0.262679
0.411291 0.842744 0.268011
0.536252 0.838524 0.272303
0.686492 0.834502 0.274797
0.807841 0.831549 0.281753
0.911383 0.828772 0.290604
0.977286 0.818659 0.302265
1.000000 0.798990 0.313060
1.000000 0.777825 0.319927
1.000000 0.747333 0.314024
1.000000 0.686584 0.293743
0.429518 0.896320 0.304650
0.429384 0.896293 0.304596
0.429090 0.895949 0.304417
0.428430 0.895429 0.304067
0.427819 0.894844 0.303534
0.427759 0.894075 0.303209
0.448068 0.892891 0.306969
0.532330 0.890192 0.317213
0.666140 0.886321 0.317176
0.785933 0.883655 0.320964
0.886327 0.881532 0.327117
0.965873 0.879475 0.335131
0.999405 0.870762 0.344811
1.000000 0.855415 0.352273
1.000000 0.839151 0.352121
1.000000 0.815278 0.342762
0.471105 0.937727 0.343419
0.471030 0.937678 0.343390
0.470860 0.937483 0.343096
0.470453 0.937160 0.342444
0.469862 0.936636 0.341554
0.469528 0.936198 0.341533
0.473653 0.935643 0.342505
0.544682 0.933693 0.359188
0.659474 0.930337 0.360626
0.772339 0.927856 0.362165
0.867919 0.926128 0.365044
0.949164 0.924469 0.368183
0.995103 0.923021 0.373506
1.000000 0.918172 0.380217
1.000000 0.907413 0.383048
1.000000 0.896492 0.380151
0.500517 0.966558 0.401179
0.500439 0.966526 0.401066
0.500272 0.966562 0.400735
0.500203 0.966659 0.400402
0.499839 0.966411 0.399656
0.499532 0.966267 0.399082
0.507435 0.966336 0.399742
0.562294 0.965283 0.410271
0.679493 0.961941 0.426443
0.778230 0.959538 0.425115
0.865050 0.957896 0.423224
0.941457 0.956820 0.420020
0.988625 0.956016 0.414096
1.000000 0.955401 0.406724
1.000000 0.955356 0.406405
1.000000 0.950158 0.406479
0.509966 0.970408 0.465317
0.509953 0.970408 0.465296
0.509900 0.970408 0.465151
0.509892 0.970408 0.464748
0.509862 0.970408 0.464427
0.509814 0.970408 0.463897
0.513975 0.970408 0.464243
0.576995 0.970408 0.473816
0.717576 0.970486 0.501128
0.804077 0.970408 0.501794
0.878863 0.970251 0.498787
0.946741 0.969608 0.493684
0.987502 0.969397 0.482985
1.000000 0.969382 0.463519
1.000000 0.969736 0.438335
1.000000 0.970045 0.421020
0.510029 0.970408 0.530599
0.510033 0.970408 0.530601
0.510053 0.970408 0.530411
0.510015 0.970408 0.530204
0.510368 0.970408 0.529981
0.516751 0.970408 0.530352
0.549193 0.970408 0.533677
0.642434 0.970408 0.545520
0.755991 0.970408 0.563669
0.836480 0.970523 0.572897
0.901032 0.970408 0.571040
0.957106 0.970408 0.567555
0.990122 0.970408 0.560693
1.000000 0.970408 0.545642
1.000000 0.970408 0.517257
1.000000 0.970448 0.469037
0.000000 0.000000 0.000000
0.000000 0.000000 0.000000
0.000000 0.000000 0.000000
0.000000 0.000000 0.000000
0.095293 0.000000 0.000000
0.329153 0.000000 0.000000
0.534004 0.000000 0.000000
0.700293 0.002794 0.018924
0.825616 0.087502 0.057075
0.922203 0.156864 0.100121
0.983313 0.213968 0.140610
1.000000 0.260971 0.177235
1.000000 0.299926 0.212637
1.000000 0.316539 0.230281
1.000000 0.318397 0.234725
1.000000 0.318371 0.236814
0.000000 0.000000 0.000000
0.000000 0.000000 0.000000
0.000000 0.000000 0.000000
0.000000 0.000000 0.000000
0.084137 0.000000 0.000000
0.323831 0.000000 0.000000
0.530353 0.000000 0.000000
0.697986 0.001290 0.018153
0.823902 0.086357 0.056273
0.920985 0.156008 0.099467
0.982887 0.213412 0.140070
1.000000 0.260560 0.176845
1.000000 0.299591 0.212320
1.000000 0.316454 0.230169
1.000000 0.318398 0.234703
1.000000 0.318371 0.236814
0.000000 0.000000 0.000000
0.000000 0.000000 0.000000
0.000000 0.000000 0.000000
0.000000 0.000000 0.000000
0.066051 0.000000 0.000000
0.311696 0.000000 0.000000
0.521426 0.000000 0.000000
0.689339 0.000000 0.016289
0.818066 0.082347 0.054254
0.916492 0.152694 0.097813
0.981030 0.211225 0.138685
1.000000 0.258727 0.175593
1.000000 0.298146 0.210942
1.000000 0.316304 0.229955
1.000000 0.318404 0.234633
1.000000 0.318372 0.236753
0.000000 0.000000 0.000000
0.000000 0.000000 0.000000
0.000000 0.000000 0.000000
0.000000 0.000000 0.000000
0.072361 0.032236 0.000000
0.305228 0.067315 0.000000
0.508172 0.060168 0.000000
0.674820 0.013575 0.001492
0.811429 0.080596 0.051562
0.910383 0.148291 0.095440
0.978870 0.208555 0.137311
1.000000 0.256289 0.174138
1.000000 0.296611 0.209493
1.000000 0.316119 0.229661
1.000000 0.318407 0.234526
1.000000 0.318372 0.236671
0.000000 0.148737 0.000000
0.000000 0.145790 0.000000
0.000000 0.137539 0.000000
0.000000 0.127783 0.000000
0.079154 0.121302 0.000000
0.297785 0.180028 0.000000
0.492312 0.194295 0.000000
0.660737 0.173963 0.000000
0.801920 0.144773 0.038587
0.904010 0.157483 0.091225
0.976432 0.205803 0.136106
1.000000 0.254288 0.173275
1.000000 0.295346 0.208358
1.000000 0.316019 0.229476
1.000000 0.318414 0.234436
1.000000 0.318372 0.236602
0.000000 0.330550 0.000000
0.000000 0.329083 0.000000
0.000000 0.324455 0.000000
0.000000 0.318024 0.000000
0.130115 0.309588 0.000000
0.293286 0.302396 0.000000
0.488175 0.322678 0.000000
0.656987 0.315440 0.005263
0.784533 0.297410 0.041662
0.894687 0.264691 0.090323
0.971698 0.251741 0.138368
1.000000 0.257310 0.171937
1.000000 0.294246 0.207624
1.000000 0.316243 0.229581
1.000000 0.318389 0.234381
1.000000 0.318372 0.236545
0.011404 0.490443 0.025947
0.010618 0.489676 0.025523
0.007805 0.486730 0.024076
0.010465 0.482576 0.020149
0.092957 0.476539 0.010489
0.280628 0.468517 0.010523
0.478934 0.462159 0.019979
0.646316 0.459544 0.042949
0.774334 0.445335 0.071782
0.879006 0.420463 0.104329
0.960501 0.383294 0.139181
0.999506 0.342884 0.177533
1.000000 0.318296 0.210628
1.000000 0.316638 0.229768
1.000000 0.318403 0.234367
1.000000 0.318372 0.236568
0.138637 0.616660 0.096724
0.138129 0.616189 0.096467
0.136054 0.614294 0.095208
0.133065 0.611499 0.093346
0.135260 0.608432 0.091150
0.246222 0.603117 0.085692
0.448652 0.596009 0.087747
0.629739 0.590315 0.099433
0.764195 0.579501 0.120510
0.864631 0.561875 0.144430
0.949153 0.534065 0.167445
0.995384 0.491501 0.189995
1.000000 0.431366 0.215706
1.000000 0.357788 0.238080
1.000000 0.324321 0.234920
1.000000 0.318372 0.236559
0.237910 0.712088 0.162215
0.237671 0.711850 0.162015
0.236355 0.710713 0.161119
0.234392 0.708716 0.159766
0.232823 0.706643 0.158361
0.260639 0.704063 0.158079
0.406442 0.698775 0.158034
0.597112 0.692903 0.162607
0.746380 0.688602 0.173306
0.855814 0.675585 0.190432
0.936627 0.656522 0.208877
0.989091 0.628058 0.225774
1.000000 0.590281 0.240136
1.000000 0.518672 0.246152
1.000000 0.407978 0.245098
1.000000 0.338378 0.240324
0.315916 0.786963 0.217870
0.315720 0.786664 0.217697
0.314998 0.785950 0.217147
0.313736 0.784757 0.216233
0.312469 0.783682 0.215292
0.317887 0.781928 0.214853
0.398282 0.778660 0.220409
0.561115 0.773296 0.220484
0.713990 0.769390 0.226984
0.838168 0.765760 0.236640
0.929687 0.753703 0.250945
0.982790 0.733579 0.264994
1.000000 0.708025 0.277263
1.000000 0.674760 0.283476
1.000000 0.610132 0.267527
1.000000 0.470366 0.248754
0.379297 0.847585 0.265096
0.379234 0.847537 0.265027
0.378608 0.846893 0.264571
0.377672 0.846055 0.263879
0.376699 0.845224 0.263176
0.376548 0.844249 0.262632
0.410925 0.842655 0.267941
0.535912 0.838567 0.272221
0.686219 0.834376 0.274693
0.807708 0.831583 0.281843
0.911285 0.828785 0.290593
0.977152 0.818669 0.302237
1.000000 0.799001 0.312981
1.000000 0.777701 0.319983
1.000000 0.747313 0.314079
1.000000 0.686276 0.293621
0.429360 0.896338 0.305015
0.429304 0.896246 0.304976
0.428963 0.895956 0.304816
0.428428 0.895258 0.304412
0.427668 0.894811 0.303883
0.427607 0.893981 0.303461
0.447628 0.892812 0.307045
0.532097 0.890130 0.317402
0.665962 0.886364 0.317262
0.785907 0.883600 0.320966
0.886244 0.881408 0.327117
0.966011 0.879318 0.335274
0.999361 0.870755 0.344775
1.000000 0.855363 0.352227
1.000000 0.839034 0.352012
1.000000 0.815161 0.342757
0.470949 0.937550 0.343867
0.470898 0.937523 0.343765
0.470736 0.937459 0.343492
0.470279 0.937193 0.343078
0.469895 0.936573 0.342864
0.469447 0.936216 0.342771
0.473373 0.935659 0.343700
0.543988 0.933738 0.360057
0.659463 0.930123 0.361780
0.772302 0.927599 0.363043
0.867742 0.926020 0.365445
0.948997 0.924659 0.368352
0.995093 0.923045 0.373469
1.000000 0.918091 0.380266
1.000000 0.907573 0.383020
1.000000 0.896384 0.380142
0.500371 0.966690 0.402651
0.500350 0.966462 0.402317
0.500241 0.966579 0.402067
0.500053 0.966577 0.401636
0.499742 0.966440 0.400913
0.499478 0.966287 0.400193
0.507121 0.966184 0.400798
0.561825 0.965191 0.411240
0.679772 0.961964 0.428305
0.778294 0.959461 0.426931
0.865080 0.957893 0.425022
0.941470 0.956564 0.421534
0.988652 0.955945 0.415078
1.000000 0.955294 0.406943
1.000000 0.955311 0.406830
1.000000 0.950077 0.406469
0.509918 0.970408 0.466675
0.509920 0.970408 0.466498
0.509883 0.970408 0.466310
0.509851 0.970408 0.465911
0.509826 0.970408 0.465586
0.509814 0.970408 0.465052
0.513849 0.970408 0.465372
0.576458 0.970408 0.474876
0.717149 0.970482 0.502019
0.804159 0.970408 0.503065
0.878980 0.970220 0.500254
0.946784 0.969636 0.495110
0.987544 0.969402 0.484628
1.000000 0.969536 0.465018
1.000000 0.969660 0.439139
1.000000 0.970163 0.421097
0.510019 0.970408 0.531586
0.510025 0.970408 0.531462
0.510044 0.970408 0.531341
0.510006 0.970408 0.531197
0.510346 0.970408 0.530841
0.516707 0.970408 0.531194
0.548980 0.970408 0.534553
0.641921 0.970408 0.546336
0.755607 0.970408 0.564378
0.836449 0.970522 0.573616
0.900800 0.970408 0.571953
0.957236 0.970408 0.568445
0.990263 0.970408 0.561712
1.000000 0.970408 0.546919
1.000000 0.970408 0.518710
1.000000 0.970439 0.470307
0.000000 0.000000 0.000000
0.000000 0.000000 0.000000
0.000000 0.000000 0.000000
0.000000 0.000000 0.000000
0.093301 0.000000 0.000000
0.328380 0.000000 0.000000
0.533068 0.000000 0.013794
0.699357 0.002263 0.036766
0.824904 0.087063 0.069417
0.921702 0.156539 0.107161
0.983088 0.213794 0.144941
1.000000 0.260722 0.178863
1.000000 0.299852 0.212636
1.000000 0.316495 0.230240
1.000000 0.318400 0.234712
1.000000 0.318372 0.236824
0.000000 0.000000 0.000000
0.000000 0.000000 0.000000
0.000000 0.000000 0.000000
0.000000 0.000000 0.000000
0.083110 0.000000 0.000000
0.323056 0.000000 0.000000
0.529143 0.000000 0.012785
0.696442 0.001006 0.035676
0.823184 0.085878 0.068604
0.920477 0.155596 0.106376
0.982572 0.213164 0.144385
1.000000 0.260218 0.178434
1.000000 0.299477 0.212291
1.000000 0.316442 0.230154
1.000000 0.318403 0.234692
1.000000 0.318372 0.236805
0.000000 0.000000 0.000000
0.000000 0.000000 0.000000
0.000000 0.000000 0.000000
0.000000 0.000000 0.000000
0.062109 0.000000 0.000000
0.309009 0.000000 0.000000
0.517822 0.000000 0.007605
0.687424 0.000000 0.031162
0.817701 0.082148 0.064914
0.915965 0.152293 0.103487
0.981079 0.211022 0.142413
1.000000 0.258714 0.177048
1.000000 0.298175 0.211072
1.000000 0.316325 0.229966
1.000000 0.318410 0.234649
1.000000 0.318372 0.236748
0.000000 0.000000 0.000000
0.000000 0.000000 0.000000
0.000000 0.000000 0.000000
0.000000 0.000000 0.000000
0.059784 0.023270 0.000000
0.292887 0.050241 0.000000
0.500694 0.013470 0.000000
0.675103 0.010160 0.019197
0.809365 0.077742 0.060712
0.908295 0.146725 0.100365
0.978480 0.207990 0.141085
1.000000 0.255908 0.175224
1.000000 0.296540 0.209695
1.000000 0.316108 0.229636
1.000000 0.318415 0.234504
1.000000 0.318372 0.236668
0.000000 0.142437 0.000000
0.000000 0.139700 0.000000
0.000000 0.132132 0.000000
0.000000 0.122006 0.000000
0.071517 0.115341 0.000000
0.290604 0.172294 0.000000
0.490944 0.182757 0.000000
0.662792 0.160246 0.000000
0.796836 0.140209 0.043549
0.902937 0.155908 0.097675
0.975476 0.204558 0.139218
1.000000 0.253502 0.174124
1.000000 0.294985 0.208518
1.000000 0.316029 0.229459
1.000000 0.318412 0.234426
1.000000 0.318372 0.236605
0.000000 0.327529 0.000587
0.000000 0.326008 0.000344
0.000000 0.321799 0.000000
0.000000 0.314998 0.000000
0.117840 0.306443 0.000000
0.290537 0.299638 0.000000
0.487397 0.318834 0.000000
0.653271 0.311948 0.010745
0.784438 0.291821 0.049555
0.892288 0.263149 0.094910
0.970044 0.251813 0.140612
1.000000 0.256630 0.173991
1.000000 0.293652 0.207702
1.000000 0.316190 0.229571
1.000000 0.318384 0.234365
1.000000 0.318372 0.236538
0.009545 0.488672 0.032026
0.008733 0.487919 0.031598
0.006135 0.485253 0.029181
0.008223 0.481277 0.026581
0.082958 0.475067 0.014606
0.275646 0.466929 0.015393
0.477208 0.460350 0.025810
0.646075 0.457057 0.047485
0.773593 0.443062 0.074298
0.876409 0.420154 0.107121
0.960007 0.381761 0.142945
0.999199 0.343393 0.178691
1.000000 0.318105 0.210794
1.000000 0.316654 0.229767
1.000000 0.318396 0.234317
1.000000 0.318372 0.236562
0.137472 0.615595 0.097588
0.137038 0.615155 0.097315
0.135332 0.613629 0.096124
0.132357 0.610675 0.094209
0.133940 0.607561 0.091721
0.242435 0.602398 0.086127
0.446438 0.595154 0.088577
0.629104 0.589413 0.101537
0.763865 0.578018 0.122874
0.864740 0.559893 0.145214
0.946745 0.534910 0.167090
0.994812 0.492043 0.190413
1.000000 0.432116 0.215736
1.000000 0.355364 0.237350
1.000000 0.324168 0.234906
1.000000 0.318372 0.236556
0.237079 0.711217 0.162112
0.236729 0.711049 0.161894
0.235771 0.710147 0.161138
0.233926 0.708230 0.159800
0.232327 0.706192 0.158347
0.258984 0.703451 0.157905
0.403293 0.698282 0.157910
0.595705 0.692343 0.162411
0.745866 0.687940 0.173031
0.854992 0.674833 0.190816
0.936595 0.655354 0.208880
0.988315 0.628474 0.225376
1.000000 0.591550 0.239803
1.000000 0.520156 0.245956
1.000000 0.405983 0.245180
1.000000 0.337585 0.240170
0.315455 0.786431 0.217867
0.315274 0.786312 0.217700
0.314710 0.785738 0.217156
0.313317 0.784310 0.216189
0.312001 0.783126 0.215265
0.316639 0.781575 0.214856
0.395895 0.778127 0.220492
0.558874 0.772886 0.220358
0.713229 0.769054 0.226899
0.838137 0.765474 0.236474
0.928800 0.753403 0.250487
0.982274 0.733366 0.264671
1.000000 0.708627 0.276942
1.000000 0.675550 0.283294
1.000000 0.608311 0.267093
1.000000 0.468029 0.248355
0.378874 0.847242 0.264941
0.378724 0.847154 0.264859
0.378271 0.846655 0.264470
0.377260 0.845929 0.263735
0.376382 0.844956 0.263023
0.376226 0.843936 0.262459
0.408492 0.842244 0.267420
0.533818 0.838018 0.272822
0.685009 0.834072 0.275513
0.806924 0.831180 0.282268
0.911119 0.828432 0.290688
0.976732 0.818574 0.301837
1.000000 0.799376 0.312786
1.000000 0.778136 0.319874
1.000000 0.746834 0.313731
1.000000 0.684858 0.293161
0.428847 0.895790 0.306839
0.428870 0.895734 0.306686
0.428598 0.895594 0.306215
0.427965 0.894944 0.305762
0.427325 0.894413 0.305142
0.427244 0.893670 0.304552
0.446344 0.892537 0.307741
0.530745 0.889816 0.318386
0.664339 0.885979 0.317797
0.785092 0.883348 0.321917
0.885910 0.880986 0.329264
0.965660 0.879029 0.336099
0.999342 0.870596 0.344564
1.000000 0.855395 0.352023
1.000000 0.838876 0.351905
1.000000 0.814605 0.342482
0.470315 0.937210 0.350687
0.470267 0.937168 0.350524
0.470273 0.937085 0.349166
0.469877 0.936788 0.348804
0.469522 0.936324 0.348478
0.468995 0.935956 0.348181
0.472923 0.935236 0.348755
0.540953 0.933237 0.363456
0.658896 0.929955 0.366828
0.771926 0.927414 0.366447
0.867214 0.925758 0.367266
0.948876 0.924312 0.369485
0.995084 0.922663 0.375641
1.000000 0.918053 0.380450
1.000000 0.906981 0.382865
1.000000 0.896104 0.379913
0.499981 0.966415 0.409202
0.499961 0.966433 0.408732
0.499869 0.966434 0.407377
0.499713 0.966348 0.406741
0.499452 0.966270 0.406125
0.499186 0.966214 0.405712
0.506211 0.966055 0.406489
0.559811 0.964952 0.416830
0.680752 0.961560 0.436252
0.778822 0.959147 0.434624
0.865392 0.957387 0.432173
0.941407 0.956433 0.427494
0.988599 0.955710 0.419201
1.000000 0.955062 0.408771
1.000000 0.955108 0.408239
1.000000 0.949800 0.406263
0.509857 0.970408 0.472467
0.509860 0.970408 0.472265
0.509814 0.970408 0.471078
0.509770 0.970408 0.470713
0.509741 0.970408 0.470292
0.509659 0.970408 0.469722
0.513667 0.970408 0.469951
0.573496 0.970408 0.478770
0.714945 0.970454 0.505437
0.804487 0.970408 0.508745
0.879181 0.970195 0.506272
0.946965 0.969494 0.501404
0.987591 0.969183 0.491117
1.000000 0.969350 0.471303
1.000000 0.969479 0.442896
1.000000 0.970001 0.422535
0.509983 0.970408 0.536220
0.509988 0.970408 0.536000
0.510010 0.970408 0.535027
0.510047 0.970408 0.534910
0.510307 0.970408 0.534553
0.516347 0.970408 0.534900
0.547380 0.970408 0.537947
0.639351 0.970408 0.549311
0.753770 0.970408 0.567007
0.836452 0.970516 0.577493
0.900795 0.970408 0.575815
0.957100 0.970408 0.572390
0.990201 0.970408 0.566268
1.000000 0.970408 0.551868
1.000000 0.970408 0.524528
1.000000 0.970408 0.475680
0.000000 0.000000 0.000000
0.000000 0.000000 0.000000
0.000000 0.000000 0.000000
0.000000 0.000000 0.000000
0.096649 0.000000 0.000000
0.327749 0.000000 0.023011
0.532451 0.000000 0.055829
0.699359 0.002803 0.077577
0.824453 0.086750 0.100849
0.921258 0.156295 0.129106
0.982895 0.213513 0.158976
1.000000 0.260332 0.185754
1.000000 0.299682 0.213799
1.000000 0.316488 0.230343
1.000000 0.318412 0.234701
1.000000 0.318371 0.236815
0.000000 0.000000 0.000000
0.000000 0.000000 0.000000
0.000000 0.000000 0.000000
0.000000 0.000000 0.000000
0.087503 0.000000 0.000000
0.322859 0.000000 0.021414
0.528827 0.000000 0.054510
0.696919 0.001244 0.076514
0.822570 0.085514 0.099904
0.920337 0.155469 0.128408
0.982319 0.212848 0.158426
1.000000 0.259959 0.185371
1.000000 0.299319 0.213452
1.000000 0.316419 0.230267
1.000000 0.318413 0.234673
1.000000 0.318371 0.236796
0.000000 0.000000 0.000000
0.000000 0.000000 0.000000
0.000000 0.000000 0.000000
0.000000 0.000000 0.000000
0.061781 0.000000 0.000000
0.310128 0.000000 0.016989
0.520569 0.000000 0.050368
0.689981 0.000000 0.072120
0.817653 0.082059 0.095986
0.916577 0.152795 0.125525
0.980704 0.210709 0.156140
1.000000 0.258275 0.183815
1.000000 0.298089 0.212265
1.000000 0.316310 0.230104
1.000000 0.318414 0.234633
1.000000 0.318371 0.236774
0.000000 0.000000 0.000000
0.000000 0.000000 0.000000
0.000000 0.000000 0.000000
0.000000 0.000000 0.000000
0.056610 0.000000 0.000000
0.297989 0.000000 0.004072
0.507828 0.000000 0.032665
0.681158 0.005129 0.061370
0.811123 0.078306 0.089156
0.911155 0.148858 0.119920
0.978262 0.207821 0.152476
1.000000 0.255871 0.181245
1.000000 0.296459 0.210633
1.000000 0.316076 0.229761
1.000000 0.318415 0.234503
1.000000 0.318372 0.236663
0.000000 0.130279 0.001596
0.000000 0.127451 0.000901
0.000000 0.119536 0.000000
0.000000 0.110072 0.000000
0.060160 0.103274 0.000000
0.290606 0.144694 0.000000
0.494915 0.142503 0.000000
0.667729 0.118102 0.025470
0.800885 0.125678 0.075911
0.904297 0.153495 0.117092
0.975353 0.204302 0.150965
1.000000 0.252830 0.179848
1.000000 0.294407 0.209699
1.000000 0.315845 0.229394
1.000000 0.318398 0.234428
1.000000 0.318372 0.236600
0.000000 0.321308 0.038281
0.000000 0.319831 0.037676
0.000000 0.315618 0.034922
0.000000 0.309329 0.023880
0.076000 0.300626 0.000000
0.284558 0.293296 0.000000
0.487149 0.307063 0.009409
0.654830 0.297836 0.036434
0.787059 0.277644 0.074154
0.892917 0.255247 0.115895
0.970504 0.243951 0.151205
1.000000 0.255507 0.179670
1.000000 0.292802 0.209693
1.000000 0.315943 0.229446
1.000000 0.318373 0.234300
1.000000 0.318372 0.236573
0.006093 0.485554 0.064333
0.005406 0.484670 0.063786
0.002736 0.481952 0.061027
0.003045 0.478314 0.055704
0.058150 0.472121 0.040820
0.262971 0.463973 0.036602
0.474327 0.456777 0.047167
0.645561 0.451594 0.068244
0.774102 0.436689 0.093653
0.877662 0.412576 0.120534
0.959687 0.377459 0.154227
0.999069 0.341686 0.188367
1.000000 0.316279 0.212806
1.000000 0.316596 0.229819
1.000000 0.318379 0.234279
1.000000 0.318372 0.236550
0.135151 0.613536 0.111122
0.134670 0.613084 0.110667
0.132992 0.611602 0.108911
0.130695 0.609221 0.106092
0.131292 0.605896 0.103872
0.233251 0.600602 0.097600
0.441795 0.593512 0.099461
0.628003 0.587554 0.109973
