src/colors/teal_&_orange_vibes/moonlight_orange.cube
# VEGAS Pro LUT
TITLE "LUNA COLOR"
LUT_3D_SIZE 33
0.03227818 0.03929515 0.05076497
0.04161938 0.04083957 0.05223488
0.05139085 0.04231638 0.05370282
0.06187559 0.04368108 0.05516746
0.07679789 0.04557884 0.05715681
0.09297308 0.04769995 0.05936490
0.11349674 0.05056522 0.06233877
0.13765274 0.05420411 0.06584909
0.16555271 0.05863899 0.06995410
0.19831787 0.06425513 0.07483022
0.23601572 0.07062183 0.08033684
0.27726534 0.07759972 0.08618441
0.32600960 0.08585090 0.09309733
0.37620351 0.09451456 0.10032958
0.42648703 0.10340291 0.10763189
0.47225708 0.11216146 0.11497348
0.51677001 0.12086798 0.12222634
0.55724478 0.12966616 0.12965335
0.59780854 0.13870661 0.13739322
0.63597500 0.14816004 0.14548984
0.67196649 0.15802774 0.15352148
0.70471448 0.16755500 0.16151854
0.73429197 0.17637414 0.16890118
0.76024437 0.18390557 0.17565809
0.78369987 0.19114895 0.18194284
0.80513173 0.19748314 0.18766734
0.82540262 0.20323159 0.19321045
0.84640652 0.20927146 0.19882408
0.86536503 0.21411264 0.20365468
0.88326573 0.21839875 0.20802180
0.89756125 0.22193541 0.21143059
0.90710270 0.22448248 0.21393663
0.91673833 0.22699519 0.21651644
0.03558917 0.05105854 0.05429251
0.04198544 0.04956123 0.05345578
0.05254094 0.04969393 0.05482984
0.06217884 0.04616652 0.05552654
0.07696448 0.04726063 0.05733201
0.09319057 0.04937643 0.05951938
0.11384117 0.05219663 0.06243872
0.13795847 0.05578384 0.06593169
0.16597959 0.06021081 0.07001655
0.19864808 0.06575464 0.07486416
0.23632036 0.07210086 0.08035733
0.27769202 0.07918021 0.08629643
0.32638615 0.08743368 0.09320029
0.37670550 0.09612660 0.10045904
0.42702356 0.10501596 0.10775913
0.47282386 0.11379220 0.11512553
0.51737726 0.12249986 0.12238638
0.55783904 0.13131924 0.12983407
0.59840268 0.14034805 0.13757257
0.63659269 0.15041405 0.14581020
0.67256075 0.16026124 0.15383242
0.70525789 0.16970994 0.16183396
0.73475921 0.17847115 0.16919251
0.76067114 0.18594207 0.17594546
0.78410673 0.19312151 0.18221694
0.80550522 0.19944169 0.18793726
0.82579476 0.20509410 0.19346930
0.84680420 0.21113558 0.19908439
0.86566567 0.21590383 0.20387296
0.88356602 0.22012758 0.20823041
0.89787143 0.22366692 0.21164182
0.90744328 0.22623245 0.21417189
0.91707987 0.22874542 0.21675196
0.03904444 0.06300659 0.05795565
0.04019430 0.06249425 0.05768108
0.05184250 0.05986139 0.05618131
0.06479786 0.06021065 0.05770837
0.08029450 0.06032102 0.05925449
0.09599741 0.05966420 0.06101020
0.11390805 0.05542702 0.06275130
0.13718335 0.05728101 0.06593714
0.16528362 0.06173251 0.07003129
0.19789977 0.06719306 0.07485116
0.23550670 0.07353139 0.08032922
0.27682900 0.08056190 0.08623870
0.32552761 0.08881227 0.09313525
0.37606728 0.09753012 0.10041124
0.42656273 0.10645828 0.10774671
0.47254270 0.11525799 0.11512973
0.51723641 0.12399002 0.12242921
0.55785567 0.13284004 0.12990235
0.59852624 0.14222984 0.13772739
0.63682139 0.15255877 0.14604267
0.67284328 0.16241291 0.15407610
0.70556432 0.17179273 0.16208974
0.73505419 0.18051670 0.16944063
0.76097250 0.18799031 0.17620176
0.78441781 0.19506545 0.18246570
0.80580688 0.20137960 0.18818720
0.82612252 0.20693813 0.19371092
0.84714741 0.21298403 0.19933011
0.86592716 0.21768631 0.20408177
0.88383323 0.22184798 0.20843084
0.89816785 0.22539532 0.21185011
0.90777165 0.22797921 0.21440388
0.91741097 0.23049289 0.21698467
0.04354165 0.07712812 0.06266215
0.04468879 0.07657071 0.06234737
0.05152331 0.07411991 0.06087479
0.06352774 0.07100681 0.05908472
0.08136873 0.07205442 0.06117319
0.09916289 0.07285903 0.06316105
0.12121906 0.07390911 0.06583846
0.14357853 0.07412472 0.06837913
0.16972238 0.07405511 0.07162799
0.19722800 0.07073887 0.07498326
0.23353492 0.07479575 0.08015279
0.27481869 0.08174718 0.08601595
0.32342055 0.08998445 0.09290040
0.37425762 0.09871940 0.10018132
0.42508546 0.10772660 0.10759195
0.47138268 0.11654729 0.11498366
0.51634669 0.12532859 0.12234943
0.55728543 0.13422647 0.12985641
0.59816658 0.14430167 0.13784675
0.63665813 0.15459335 0.14618659
0.67281210 0.16448222 0.15425213
0.70563310 0.17380315 0.16228570
0.73519903 0.18252569 0.16965254
0.76114309 0.19000039 0.17642277
0.78465152 0.19700307 0.18269762
0.80603552 0.20329657 0.18841691
0.82638061 0.20885262 0.19394508
0.84743547 0.21481660 0.19956112
0.86620152 0.21950728 0.20430754
0.88406825 0.22356021 0.20862335
0.89845097 0.22712067 0.21205553
0.90808731 0.22972269 0.21463245
0.91773158 0.23223768 0.21721460
0.04909802 0.09375659 0.06821623
0.05017646 0.09328289 0.06786509
0.05116192 0.09234188 0.06738675
0.06423439 0.08793427 0.06447608
0.07828891 0.08461098 0.06279005
0.10061478 0.08677405 0.06584363
0.12472095 0.08892621 0.06878060
0.14935467 0.09057718 0.07179358
0.17878628 0.09259584 0.07531866
0.20856848 0.09380557 0.07885861
0.24388483 0.09507813 0.08315630
0.28032479 0.09564015 0.08755752
0.32209367 0.09403564 0.09292988
0.37122619 0.09968528 0.09976146
0.42255884 0.10880274 0.10728829
0.46947601 0.11768304 0.11470883
0.51467943 0.12651831 0.12214700
0.55617428 0.13605316 0.12980711
0.59729940 0.14625369 0.13786870
0.63609678 0.15651606 0.14624058
0.67252338 0.16649082 0.15437171
0.70546162 0.17574044 0.16242117
0.73526561 0.18454587 0.16985068
0.76118207 0.19197209 0.17660831
0.78480685 0.19893441 0.18291257
0.80619079 0.20519246 0.18862624
0.82657057 0.21075742 0.19416313
0.84766918 0.21663357 0.19977760
0.86644322 0.22132510 0.20452702
0.88427013 0.22526404 0.20880772
0.89873952 0.22885838 0.21227305
0.90839064 0.23146291 0.21485774
0.91804194 0.23397973 0.21744175
0.05565808 0.11130705 0.07450429
0.05675117 0.11087357 0.07416749
0.05775933 0.11012847 0.07374339
0.06114849 0.10851298 0.07274024
0.07919569 0.10285630 0.06874558
0.09635914 0.10040827 0.06761437
0.12488502 0.10450920 0.07164478
0.15283236 0.10788920 0.07533779
0.18590072 0.11188088 0.07942443
0.21865183 0.11479259 0.08339933
0.25514483 0.11804916 0.08772454
0.29470488 0.12120699 0.09256348
0.33896840 0.12496568 0.09800276
0.38565391 0.12836245 0.10413502
0.43074477 0.12910984 0.10986813
0.46899045 0.12313063 0.11490699
0.51225191 0.12771589 0.12184368
0.55444849 0.13777533 0.12964471
0.59593743 0.14809227 0.13779223
0.63512886 0.15832451 0.14620270
0.67193085 0.16842186 0.15442544
0.70504546 0.17760323 0.16249509
0.73515731 0.18651788 0.17000678
0.76108813 0.19390504 0.17675804
0.78486609 0.20083772 0.18310222
0.80627257 0.20706730 0.18881518
0.82669443 0.21264550 0.19436376
0.84784770 0.21843469 0.19997934
0.86664593 0.22313467 0.20473725
0.88444024 0.22698683 0.20898843
0.89902061 0.23059791 0.21249238
0.90868163 0.23319997 0.21507969
0.91834164 0.23571903 0.21766603
0.06326843 0.13201542 0.08159922
0.06438173 0.13161127 0.08129833
0.06537294 0.13083500 0.08087599
0.06624894 0.12968138 0.08033690
0.07906537 0.12456582 0.07689460
0.09661099 0.11900475 0.07346015
0.11666317 0.11706394 0.07280330
0.15313360 0.12471158 0.07849346
0.19021548 0.13098988 0.08348505
0.22736163 0.13652009 0.08815560
0.26714715 0.14151323 0.09286715
0.30983663 0.14671576 0.09809678
0.35445720 0.15131344 0.10331291
0.40260732 0.15611811 0.10973480
0.44837660 0.15957080 0.11548747
0.48887232 0.16201045 0.12164403
0.52900010 0.16386478 0.12749901
0.56356990 0.16291228 0.13347061
0.59402353 0.14979899 0.13761154
0.63374096 0.16001497 0.14606996
0.67101008 0.17026708 0.15440834
0.70439446 0.17949265 0.16251278
0.73487395 0.18843770 0.17011851
0.76085871 0.19579846 0.17687120
0.78482676 0.20271221 0.18326592
0.80628020 0.20892085 0.18898360
0.82675219 0.21451683 0.19454700
0.84797072 0.22021984 0.20016624
0.86681020 0.22493605 0.20493835
0.88457865 0.22874185 0.20916754
0.89928651 0.23233320 0.21270771
0.90895998 0.23493369 0.21529830
0.91863102 0.23745565 0.21788760
0.07160109 0.15372868 0.08912322
0.07270268 0.15334259 0.08880877
0.07373260 0.15268175 0.08842558
0.07470013 0.15174443 0.08798081
0.07555792 0.15052056 0.08743723
0.09818865 0.14318633 0.08228147
0.11672410 0.13801284 0.07894417
0.14415847 0.13988362 0.08017270
0.18892896 0.15156181 0.08726072
0.23178566 0.16011654 0.09316391
0.27674851 0.16818200 0.09889710
0.32358736 0.17603548 0.10489879
0.37040240 0.18224287 0.11053838
0.42036393 0.18908192 0.11727120
0.46790433 0.19409260 0.12376986
0.51019132 0.19762641 0.13001500
0.54771978 0.19932747 0.13563457
0.58196574 0.19970241 0.14125788
0.61473054 0.19720805 0.14615291
0.64542139 0.19262558 0.15135942
0.67221987 0.17897679 0.15540029
0.70348996 0.18131459 0.16246697
0.73440933 0.19030555 0.17018545
0.76049161 0.19765174 0.17694724
0.78468782 0.20455764 0.18340345
0.80621189 0.21075258 0.18913092
0.82674271 0.21637116 0.19471253
0.84803694 0.22198974 0.20033821
0.86693496 0.22672905 0.20513009
0.88469058 0.23049514 0.20934188
0.89953762 0.23406428 0.21291903
0.90922570 0.23666413 0.21551350
0.91890967 0.23918945 0.21810627
0.08108498 0.17838462 0.09750681
0.08221408 0.17806900 0.09725705
0.08326396 0.17745541 0.09693437
0.08418138 0.17639701 0.09644964
0.08497740 0.17502704 0.09585731
0.09774072 0.17058642 0.09314107
0.11850325 0.16208328 0.08756030
0.14242275 0.15930896 0.08555745
0.17483394 0.16411594 0.08799496
0.22982821 0.18167850 0.09712905
0.28154290 0.19424874 0.10449930
0.33418956 0.20560962 0.11181524
0.38544112 0.21525259 0.11863274
0.43777651 0.22353230 0.12575094
0.48686108 0.23014571 0.13299677
0.53117537 0.23432212 0.13926615
0.56704545 0.23550992 0.14483081
0.60151362 0.23593563 0.15020873
0.63255936 0.23418546 0.15526369
0.66255957 0.23130850 0.16040243
0.69063127 0.22650929 0.16507542
0.71416396 0.21620724 0.16855374
0.73375988 0.19212034 0.17020673
0.76008278 0.19953071 0.17701782
0.78444749 0.20637347 0.18351431
0.80610067 0.21260671 0.18927389
0.82666606 0.21820851 0.19486038
0.84803253 0.22376455 0.20049779
0.86702031 0.22851370 0.20531249
0.88482225 0.23228961 0.20953523
0.89977348 0.23579112 0.21312626
0.90947872 0.23839127 0.21572533
0.91917765 0.24092048 0.21832207
0.09145196 0.20500317 0.10649481
0.09258737 0.20470376 0.10625053
0.09367555 0.20414500 0.10596043
0.09468129 0.20332104 0.10559697
0.09558228 0.20222859 0.10514272
0.09654035 0.20087504 0.10461134
0.12110727 0.19387770 0.10001167
0.14422639 0.18568228 0.09449057
0.17198026 0.18530214 0.09356170
0.21290854 0.19621353 0.09852174
0.27750707 0.21949667 0.10965344
0.33716708 0.23610443 0.11878819
0.39535484 0.24931185 0.12728044
0.45155293 0.26012757 0.13530315
0.50311774 0.26834852 0.14349566
0.54912555 0.27330396 0.15043819
0.58669519 0.27541661 0.15652265
0.62141246 0.27575943 0.16190697
0.65220809 0.27397603 0.16694850
0.68151224 0.27005935 0.17114736
0.70655036 0.26372263 0.17479783
0.72928095 0.25485703 0.17759120
0.75073373 0.24503280 0.18070625
0.76631731 0.22542572 0.18147238
0.78411382 0.20825890 0.18360613
0.80591381 0.21444112 0.18939629
0.82652003 0.22002830 0.19498998
0.84797007 0.22552305 0.20064193
0.86706567 0.23028988 0.20548542
0.88492036 0.23407698 0.20972066
0.89999402 0.23751362 0.21332943
0.90971893 0.24011506 0.21593370
0.91943514 0.24264878 0.21853508
0.10273247 0.23405285 0.11622261
0.10390734 0.23382527 0.11601125
0.10530651 0.23332809 0.11579924
0.10671119 0.23247205 0.11546399
0.10794610 0.23124714 0.11499093
0.10901137 0.22971457 0.11441176
0.11663191 0.22717172 0.11324716
0.14709882 0.21726933 0.10650449
0.17418426 0.21253352 0.10252291
0.20805137 0.21591097 0.10344478
0.25671959 0.23190536 0.11016347
0.33157027 0.26252854 0.12432475
0.39756820 0.28250217 0.13542736
0.45948425 0.29710695 0.14523196
0.51530862 0.30735812 0.15467662
0.56316286 0.31310815 0.16233219
0.60297227 0.31615719 0.16882040
0.63793778 0.31584781 0.17423269
0.67018378 0.31417143 0.17920344
0.69871253 0.30960143 0.18323180
0.72411495 0.30301180 0.18677336
0.74616778 0.29461220 0.18926555
0.76478887 0.28323895 0.19094372
0.77962029 0.26776117 0.19089872
0.79481703 0.24961127 0.19151303
0.80564785 0.21625346 0.18949690
0.82630438 0.22183047 0.19510126
0.84785146 0.22728272 0.20077270
0.86707067 0.23205748 0.20564874
0.88498467 0.23585716 0.20989804
0.90019906 0.23923178 0.21352842
0.90994644 0.24183552 0.21613868
0.91968167 0.24437420 0.21874516
0.11567526 0.26683545 0.12751567
0.11720043 0.26664498 0.12724549
0.11881262 0.26619890 0.12705225
0.12031604 0.26548585 0.12676716
0.12170940 0.26450273 0.12638912
0.12299170 0.26324707 0.12591730
0.12416127 0.26171479 0.12535031
0.14834149 0.25643679 0.12200072
0.17775096 0.24683398 0.11542400
0.21008156 0.24410909 0.11259904
0.24953055 0.25267330 0.11589076
0.30572486 0.27572671 0.12519298
0.38642371 0.30969399 0.14104633
0.45631719 0.33111617 0.15377699
0.51940370 0.34535530 0.16522653
0.57304060 0.35328799 0.17452846
0.61574703 0.35725921 0.18179992
0.65232575 0.35711923 0.18785575
0.68718797 0.35575646 0.19330306
0.71485007 0.35045588 0.19715200
0.74143410 0.34433690 0.20053467
0.76144826 0.33384717 0.20171583
0.78006810 0.32215500 0.20251435
0.79444855 0.30717441 0.20226772
0.80793202 0.29036838 0.20168243
0.81821698 0.26696864 0.19946697
0.82616580 0.22382949 0.19526665
0.84782636 0.22931045 0.20096797
0.86711681 0.23400167 0.20585288
0.88510519 0.23787646 0.21013683
0.90054315 0.24128431 0.21384120
0.91031498 0.24388935 0.21645793
0.92007166 0.24643362 0.21907018
0.12903149 0.29996717 0.13863158
0.13076951 0.29992339 0.13857464
0.13244009 0.29960352 0.13846147
0.13399431 0.29899630 0.13824880
0.13535681 0.29793015 0.13783889
0.13660151 0.29657313 0.13732810
0.13772689 0.29492152 0.13671514
0.13879859 0.29314959 0.13606746
0.18111289 0.28620765 0.13091865
0.21417218 0.27975607 0.12572919
0.25198573 0.28273517 0.12556286
0.29588819 0.29448640 0.13024908
0.35955274 0.32306400 0.14203703
0.44370896 0.36029571 0.16073321
0.51495957 0.38119763 0.17523646
0.57526231 0.39301124 0.18681695
0.62418252 0.39851868 0.19543758
0.66248083 0.39842334 0.20176455
0.69858223 0.39696026 0.20734873
0.72832793 0.39145312 0.21112286
0.75591701 0.38482609 0.21427377
0.77651906 0.37467846 0.21565217
0.79585493 0.36278233 0.21642436
0.80948019 0.34786138 0.21523511
0.82151067 0.32967728 0.21305554
0.83140689 0.30790910 0.21036725
0.84085900 0.28199807 0.20719200
0.84779114 0.23159845 0.20123240
0.86720639 0.23637947 0.20618726
0.88524532 0.24025865 0.21048020
0.90092880 0.24368973 0.21425696
0.91072041 0.24623860 0.21687080
0.92050028 0.24878892 0.21948925
0.14427102 0.33753005 0.15148059
0.14609468 0.33750081 0.15147179
0.14781219 0.33721191 0.15137365
0.14942430 0.33666506 0.15118676
0.15089688 0.33585691 0.15090543
0.15225503 0.33478722 0.15053307
0.15350336 0.33345231 0.15006925
0.15464105 0.33185038 0.14951333
0.17866740 0.32941362 0.14820595
0.21723388 0.32151628 0.14241070
0.25514448 0.31819004 0.13863035
0.29857662 0.32557055 0.14093812
0.34699827 0.34198055 0.14817603
0.41225213 0.37257031 0.16126335
0.49615356 0.40905473 0.18074082
0.56665456 0.42837408 0.19591606
0.62316465 0.43769938 0.20731899
0.66879272 0.43990844 0.21570455
0.70714200 0.43837094 0.22184758
0.73953038 0.43295908 0.22620326
0.76825851 0.42596242 0.22946408
0.78929192 0.41557035 0.23038602
0.80938935 0.40409225 0.23087718
0.82271856 0.38834372 0.22875085
0.83547187 0.37045574 0.22650973
0.84585696 0.34984174 0.22324815
0.85480595 0.32429761 0.21883979
0.86279541 0.29423681 0.21426614
0.86726677 0.23877168 0.20653586
0.88533789 0.24261646 0.21081971
0.90129399 0.24612541 0.21468098
0.91110522 0.24857704 0.21728536
0.92091072 0.25113407 0.21991067
0.15907316 0.37404138 0.16376266
0.16095603 0.37413755 0.16382176
0.16274574 0.37400305 0.16380413
0.16444200 0.37363711 0.16370949
0.16601315 0.37297335 0.16350076
0.16746108 0.37201521 0.16318057
0.16881232 0.37081835 0.16278005
0.17006573 0.36937997 0.16229832
0.17122060 0.36769825 0.16173474
0.21647976 0.36512801 0.15987960
0.25840646 0.35992739 0.15539970
0.30282465 0.36235046 0.15470709
0.34858128 0.37326023 0.15895940
0.39813456 0.39081785 0.16668366
0.46552530 0.42298180 0.18203659
0.54716080 0.45798126 0.20314078
0.61361170 0.47380084 0.21833007
0.66609174 0.48005566 0.22903866
0.71194130 0.48024052 0.23700483
0.74667317 0.47507569 0.24156480
0.77659488 0.46716774 0.24442120
0.79988623 0.45650885 0.24536681
0.82025510 0.44448763 0.24544923
0.83497238 0.42924944 0.24358885
0.84820014 0.41224495 0.24102236
0.85940421 0.39164221 0.23703028
0.86816341 0.36689472 0.23202854
0.87583286 0.33774731 0.22606440
0.88200474 0.30176228 0.21967307
0.88538736 0.24495710 0.21115313
0.90163398 0.24854565 0.21510379
0.91147095 0.25090623 0.21770051
0.92130446 0.25347057 0.22033332
0.17562366 0.41249907 0.17782691
0.17751370 0.41260752 0.17789286
0.17930268 0.41248381 0.17787248
0.18099059 0.41212794 0.17776577
0.18257666 0.41153809 0.17757204
0.18406041 0.41071323 0.17729092
0.18544149 0.40965250 0.17692208
0.18671905 0.40835395 0.17646481
0.18789029 0.40681162 0.17591624
0.20453720 0.40597686 0.17582153
0.25755814 0.40371117 0.17372286
0.30356255 0.40250549 0.17115681
0.35070765 0.40841609 0.17268659
0.39812830 0.42151964 0.17881577
0.44881934 0.44061598 0.18856178
0.51349181 0.47037300 0.20376900
0.59124821 0.50216496 0.22418702
0.65376258 0.51553762 0.23888874
0.70836616 0.52050364 0.25026804
0.75087267 0.51709116 0.25700495
0.78304809 0.50895768 0.26019931
0.80883497 0.49804154 0.26136857
0.82949072 0.48502129 0.26078063
0.84479868 0.47011134 0.25861749
0.85889435 0.45313928 0.25567147
0.87067682 0.43339503 0.25164104
0.88037074 0.40963671 0.24612461
0.88939339 0.38166350 0.23980457
0.89583498 0.34780192 0.23239124
0.89930654 0.30383772 0.22340420
0.90195781 0.25096199 0.21552235
0.91182327 0.25323191 0.21811208
0.92168671 0.25580403 0.22075288
0.19098414 0.44829601 0.19083159
0.19290023 0.44847640 0.19094332
0.19475068 0.44847703 0.19098200
0.19652155 0.44829112 0.19095322
0.19820543 0.44790453 0.19084941
0.19978322 0.44728068 0.19065101
0.20127755 0.44646156 0.19038177
0.20303853 0.44546232 0.19007634
0.20483999 0.44426692 0.18971027
0.20654655 0.44286320 0.18926810
0.25009555 0.44429556 0.19016486
0.29906529 0.44323918 0.18858108
0.35032949 0.44650593 0.18868424
0.40020409 0.45623046 0.19291279
0.44751000 0.47043693 0.20008560
0.49744233 0.48912147 0.20977767
0.56078148 0.51736176 0.22639635
0.63286036 0.54504490 0.24636674
0.69622570 0.55625069 0.26142454
0.74674881 0.55749875 0.27122316
0.78637242 0.55087650 0.27624950
0.81443983 0.53986442 0.27750915
0.83643919 0.52610326 0.27647585
0.85336864 0.51064074 0.27413404
0.86825174 0.49394095 0.27116966
0.88009006 0.47414726 0.26628146
0.89084810 0.45185059 0.26082659
0.90197343 0.42556226 0.25470364
0.91044980 0.39388612 0.24723235
0.91565025 0.35349387 0.23794940
0.91427207 0.29965565 0.22609133
0.91216600 0.25560609 0.21852894
0.92205793 0.25813463 0.22116950
0.20600653 0.48200804 0.20355771
0.20793483 0.48219639 0.20368409
0.20978816 0.48223311 0.20374557
0.21156561 0.48211658 0.20374145
0.21326675 0.48184580 0.20367131
0.21517226 0.48143345 0.20356874
0.21711962 0.48086995 0.20341161
0.21911752 0.48016009 0.20318204
0.22103393 0.47928646 0.20288180
0.22283176 0.47819099 0.20247486
0.22453877 0.47691551 0.20198861
0.29092968 0.48094863 0.20438443
0.34339067 0.48358446 0.20474239
0.39564395 0.49002698 0.20715712
0.44444558 0.50070506 0.21282394
0.49139118 0.51521736 0.22137058
0.54040498 0.53355050 0.23242733
0.60122162 0.55966377 0.24840958
0.67314893 0.58543169 0.26812857
0.73419434 0.59433550 0.28252488
0.78254169 0.59291089 0.29131150
0.81807703 0.58348876 0.29462743
0.84219015 0.56942463 0.29372451
0.86092675 0.55369550 0.29126504
0.87558866 0.53602535 0.28732353
0.88839674 0.51704228 0.28247219
0.90034455 0.49514723 0.27680367
0.91332835 0.47096315 0.27107295
0.92465878 0.44240835 0.26447082
0.93297482 0.40539581 0.25536010
0.93364346 0.35748377 0.24297631
0.91928345 0.28537947 0.22455327
0.92240703 0.26045945 0.22158021
0.22149843 0.51370478 0.21682638
0.22343360 0.51394272 0.21698487
0.22530980 0.51405948 0.21709308
0.22728340 0.51406217 0.21716970
0.22944203 0.51393950 0.21721354
0.23154059 0.51367337 0.21719150
0.23357575 0.51328111 0.21711664
0.23554744 0.51276284 0.21698898
0.23745362 0.51211435 0.21680680
0.23929386 0.51133478 0.21656969
0.24106652 0.51042092 0.21627636
0.26706946 0.51226664 0.21768762
0.32734239 0.51650834 0.22007342
0.38240501 0.52188206 0.22215413
0.43614700 0.53120977 0.22675656
0.48497206 0.54340583 0.23397304
0.53204644 0.55864394 0.24326017
0.58338952 0.57830489 0.25500673
0.64201939 0.60138762 0.27102411
0.71234709 0.62454736 0.29048052
0.77009857 0.63000697 0.30347827
0.81404179 0.62586385 0.31025359
0.84490258 0.61396736 0.31149277
0.86599648 0.59921259 0.30959633
0.88207185 0.58219010 0.30566320
0.89596742 0.56331706 0.30068716
0.90911686 0.54242671 0.29504809
0.92353094 0.51955456 0.28949285
0.93721330 0.49337465 0.28342560
0.94876802 0.45991221 0.27490583
0.95434582 0.41769305 0.26347551
0.94350541 0.35988662 0.24563529
0.92271888 0.26277456 0.22198093
0.23665310 0.54503345 0.22984940
0.23859054 0.54528034 0.23001198
0.24087857 0.54544616 0.23018087
0.24312095 0.54550916 0.23030721
0.24531220 0.54546905 0.23039028
0.24745193 0.54532486 0.23042975
0.24954018 0.54507691 0.23042567
0.25157565 0.54472244 0.23037697
0.25355759 0.54425997 0.23028293
0.25549048 0.54365432 0.23011822
0.25736871 0.54293388 0.22990431
0.25925910 0.54214203 0.22965159
0.30315775 0.54648858 0.23276818
0.36185062 0.55225462 0.23610309
0.41867468 0.56047386 0.24017970
0.47197986 0.57114321 0.24597889
0.52033174 0.58328164 0.25389472
0.56926477 0.59866792 0.26451030
0.62073731 0.61782479 0.27723300
0.68050873 0.64085174 0.29371229
0.74743390 0.65991503 0.31119370
0.80208915 0.66290486 0.32259539
0.84082198 0.65598857 0.32731494
0.86856967 0.64309216 0.32735258
0.88672149 0.62733835 0.32417914
0.90183938 0.61014116 0.31965473
0.91576582 0.59169602 0.31467646
0.93249959 0.57154667 0.31018484
0.94792759 0.54724908 0.30433589
0.96060526 0.51635027 0.29562572
0.96477437 0.47795740 0.28263184
0.96113497 0.42907563 0.26694295
0.95254511 0.36122751 0.24775521
0.25136635 0.57442838 0.24263805
0.25353783 0.57469612 0.24287152
0.25566801 0.57488972 0.24306980
0.25788811 0.57501465 0.24323395
0.26011163 0.57505393 0.24335346
0.26230276 0.57500994 0.24343124
0.26445407 0.57488918 0.24347258
0.26656511 0.57469118 0.24347711
0.26863593 0.57441574 0.24344483
0.27066544 0.57406092 0.24337479
0.27265316 0.57362574 0.24326652
0.27467561 0.57314336 0.24312370
0.27666715 0.57258326 0.24294195
0.33103472 0.57828939 0.24735638
0.39114448 0.58564192 0.25204736
0.44872305 0.59516436 0.25766876
0.50141221 0.60632676 0.26472095
0.55245942 0.61990970 0.27405849
0.60645193 0.63789278 0.28654900
0.66108590 0.65891129 0.30064464
0.71767056 0.67828250 0.31589231
0.78149289 0.69353884 0.33150280
0.82901525 0.69230169 0.33980989
0.86425132 0.68362755 0.34270865
0.88832831 0.67006338 0.34168103
0.90484387 0.65426219 0.33776462
0.92013007 0.63766474 0.33335567
0.93851882 0.62103367 0.33037698
0.95631421 0.60138744 0.32622927
0.96794271 0.57522386 0.31763577
0.97392613 0.54077500 0.30489251
0.97252709 0.49858522 0.28968441
0.96796781 0.44169274 0.27081519
0.26658121 0.60179359 0.25561821
0.26875591 0.60206717 0.25585443
0.27089560 0.60227776 0.25606081
0.27300039 0.60242563 0.25623742
0.27506971 0.60250962 0.25638375
0.27710405 0.60253078 0.25650024
0.27910265 0.60248768 0.25658628
0.28106514 0.60237956 0.25664145
0.28309369 0.60221189 0.25666717
0.28517649 0.60196257 0.25664762
0.28722501 0.60164422 0.25659493
0.28931597 0.60129356 0.25651476
0.29138309 0.60087883 0.25640216
0.29341379 0.60039395 0.25625625
0.35252106 0.60728341 0.26149449
0.41370627 0.61601120 0.26725692
0.47275457 0.62713444 0.27415195
0.52874982 0.64001280 0.28266567
0.58609617 0.65627891 0.29427385
0.64167482 0.67464703 0.30802611
0.69622850 0.69516820 0.32270345
0.75355875 0.71383244 0.33800668
0.81018966 0.72332615 0.34960333
0.85434270 0.71990705 0.35594806
0.88412899 0.70953953 0.35692316
0.90562737 0.69546378 0.35464072
0.92245734 0.68067682 0.35119548
0.94155216 0.66602814 0.34878880
0.96098942 0.64970678 0.34600711
0.97368228 0.62941480 0.33931655
0.98164350 0.60348624 0.32915691
0.98224503 0.56956035 0.31572595
