src/colors/teal_&_orange_vibes/moonlight_orange.cube
# VEGAS Pro LUT
TITLE "LUNA COLOR"
LUT_3D_SIZE 9
0.03227818 0.03929515 0.05076497
0.07679789 0.04557884 0.05715681
0.16555271 0.05863899 0.06995410
0.32600960 0.08585090 0.09309733
0.51677001 0.12086798 0.12222634
0.67196649 0.15802774 0.15352148
0.78369987 0.19114895 0.18194284
0.86536503 0.21411264 0.20365468
0.91673833 0.22699519 0.21651644
0.04909802 0.09375659 0.06821623
0.07828891 0.08461098 0.06279005
0.17878628 0.09259584 0.07531866
0.32209367 0.09403564 0.09292988
0.51467943 0.12651831 0.12214700
0.67252338 0.16649082 0.15437171
0.78480685 0.19893441 0.18291257
0.86644322 0.22132510 0.20452702
0.91804194 0.23397973 0.21744175
0.08108498 0.17838462 0.09750681
0.08497740 0.17502704 0.09585731
0.17483394 0.16411594 0.08799496
0.38544112 0.21525259 0.11863274
0.56704545 0.23550992 0.14483081
0.69063127 0.22650929 0.16507542
0.78444749 0.20637347 0.18351431
0.86702031 0.22851370 0.20531249
0.91917765 0.24092048 0.21832207
0.12903149 0.29996717 0.13863158
0.13535681 0.29793015 0.13783889
0.18111289 0.28620765 0.13091865
0.35955274 0.32306400 0.14203703
0.62418252 0.39851868 0.19543758
0.75591701 0.38482609 0.21427377
0.82151067 0.32967728 0.21305554
0.86720639 0.23637947 0.20618726
0.92050028 0.24878892 0.21948925
0.19098414 0.44829601 0.19083159
0.19820543 0.44790453 0.19084941
0.20483999 0.44426692 0.18971027
0.35032949 0.44650593 0.18868424
0.56078148 0.51736176 0.22639635
0.78637242 0.55087650 0.27624950
0.86825174 0.49394095 0.27116966
0.91044980 0.39388612 0.24723235
0.92205793 0.25813463 0.22116950
0.25136635 0.57442838 0.24263805
0.26011163 0.57505393 0.24335346
0.26863593 0.57441574 0.24344483
0.27666715 0.57258326 0.24294195
0.50141221 0.60632676 0.26472095
0.71767056 0.67828250 0.31589231
0.88832831 0.67006338 0.34168103
0.95631421 0.60138744 0.32622927
0.96796781 0.44169274 0.27081519
0.30754986 0.67641389 0.29197022
0.31564835 0.67725623 0.29279435
0.32393426 0.67766494 0.29342771
0.33211175 0.67764461 0.29383370
0.34040642 0.67714423 0.29400134
0.61364752 0.73313600 0.33702570
0.84464025 0.80459970 0.39629948
0.95545912 0.76730710 0.39235547
1.00149679 0.71582055 0.37565556
0.35463253 0.75968486 0.33538610
0.36207482 0.76050156 0.33619836
0.36987135 0.76113617 0.33692431
0.37770587 0.76162875 0.33759651
0.38607514 0.76205659 0.33830965
0.39419535 0.76199210 0.33875975
0.72824287 0.84112728 0.40722221
0.92662871 0.89175224 0.45545480
0.99643636 0.85714328 0.44013807
0.39179006 0.83010012 0.37187156
0.39870858 0.83090842 0.37264982
0.40586805 0.83166999 0.37342650
0.41341090 0.83245468 0.37425721
0.42132971 0.83327073 0.37514949
0.42918274 0.83394396 0.37597752
0.43721381 0.83443004 0.37673083
0.83433867 0.93860251 0.46969840
0.99112701 0.97114664 0.50232369
0.04596709 0.05904743 0.09449818
0.08381075 0.05557188 0.09285041
0.16114458 0.05908425 0.10047907
0.31265515 0.08466238 0.12693657
0.50007629 0.11955325 0.15915836
0.65888333 0.15590711 0.18555462
0.77810824 0.18856190 0.20076233
0.86353528 0.21304481 0.20979838
0.91494817 0.22616790 0.22264396
0.06148068 0.11122596 0.11087999
0.09006762 0.10522664 0.10651282
0.17067893 0.08458854 0.09971003
0.30654147 0.08906873 0.12321696
0.49736765 0.12320619 0.15542227
0.65909797 0.16077925 0.18133159
0.78007483 0.19415466 0.19509113
0.86466092 0.21964359 0.20983398
0.91624391 0.23285477 0.22311780
0.09371708 0.19852777 0.13998933
0.09720273 0.19566689 0.13783303
0.18034545 0.16996178 0.11307988
0.37890130 0.20869632 0.13826254
0.55871123 0.22701403 0.16192602
0.68477970 0.22085957 0.17876810
0.78197551 0.20377411 0.18816769
0.86523056 0.22677535 0.21055841
0.91737962 0.23979554 0.22399814
0.13878371 0.31535518 0.16814382
0.14125519 0.31049779 0.16342987
0.18156600 0.29312304 0.14831580
0.35906202 0.32366619 0.15208478
0.62251866 0.39772230 0.20037578
0.75485182 0.38408428 0.21931317
0.82065707 0.32881382 0.21815993
0.86551100 0.23465444 0.21136479
0.91875893 0.24779510 0.22521158
0.19259050 0.45179838 0.19958574
0.19665304 0.44874868 0.19653717
0.20315172 0.44516626 0.19541879
0.34940869 0.44788668 0.19480848
0.55954003 0.51688117 0.23140454
0.78543812 0.55082846 0.28157827
0.86767441 0.49388370 0.27653149
0.90945512 0.39350185 0.25270298
0.92043459 0.25739938 0.22693105
0.25225189 0.57670873 0.25047559
0.25854048 0.57545358 0.24885094
0.26706919 0.57482713 0.24894771
0.27557480 0.57323700 0.24862635
0.50049931 0.60684860 0.27030841
0.71706730 0.67824286 0.32111928
0.88787442 0.67036283 0.34739307
0.95538491 0.60153848 0.33183947
0.96719319 0.44193408 0.27728948
0.30807638 0.67791039 0.29957932
0.31441516 0.67754054 0.29849929
0.32270205 0.67795074 0.29914233
0.33123159 0.67808473 0.29968524
0.34008259 0.67779946 0.30002674
0.61301136 0.73339087 0.34234661
0.84463334 0.80486149 0.40233585
0.95507306 0.76786965 0.39905837
1.00106406 0.71641839 0.38303503
0.35497233 0.76063454 0.34264469
0.36128923 0.76076537 0.34218022
0.36908618 0.76139975 0.34291276
0.37716481 0.76200277 0.34369263
0.38590363 0.76257360 0.34453484
0.39402676 0.76251000 0.34498703
0.72802514 0.84128755 0.41300288
0.92679447 0.89208865 0.46182206
0.99648625 0.85775739 0.44739601
0.39223298 0.83091593 0.37893695
0.39874679 0.83149034 0.37923813
0.40588862 0.83225125 0.38002297
0.41353792 0.83308053 0.38090587
0.42158303 0.83394730 0.38185433
0.42943713 0.83462059 0.38268575
0.43745127 0.83508736 0.38342321
0.83442092 0.93878531 0.47571483
0.99150991 0.97159749 0.50951391
0.06402966 0.08872264 0.16225497
0.10027748 0.08671156 0.16105245
0.16957480 0.07303839 0.15085754
0.30420226 0.08540784 0.17565595
0.48530653 0.11767744 0.21987505
0.64505297 0.15297285 0.25385162
0.76784045 0.18674617 0.27107802
0.85213238 0.21084169 0.27508935
0.90671164 0.22476640 0.26074907
0.07971394 0.14531067 0.17992958
0.10511918 0.14184782 0.18099990
0.17800960 0.10404895 0.15804882
0.29710779 0.08864380 0.17278193
0.48189485 0.12129143 0.21739066
0.64448655 0.15791862 0.25118524
0.76834249 0.19196847 0.26869342
0.85295308 0.21642365 0.27294427
0.90806103 0.23074172 0.25868496
0.10887289 0.22436872 0.20697233
0.11300280 0.22187151 0.20568630
0.19580875 0.21238324 0.19676816
0.35578588 0.17711025 0.18088783
0.52974433 0.18510672 0.20637709
0.66203052 0.19381407 0.23803701
0.76761097 0.19683787 0.26279882
0.85331124 0.22147244 0.26798338
0.90979844 0.23666529 0.25211373
0.15805686 0.34988424 0.25589657
0.16225162 0.34789717 0.25446990
0.19340137 0.34233803 0.24511668
0.37704554 0.33915401 0.21937659
0.61644971 0.37956765 0.25736240
0.74669170 0.36227989 0.26740846
0.81106567 0.30695605 0.26063189
0.85376531 0.22695974 0.25975296
0.91450244 0.24479714 0.23784202
0.21411414 0.48497537 0.29920805
0.21969402 0.48381007 0.29750717
0.22383432 0.47966281 0.29392201
0.34026805 0.47059825 0.26271486
0.56415421 0.52145469 0.28245065
0.78376496 0.54698271 0.32825410
0.86558574 0.48872304 0.31676859
0.90571666 0.38795993 0.28323609
0.91865420 0.25626954 0.23264186
0.26780945 0.59513330 0.32326543
0.27367479 0.59477252 0.32192776
0.27883205 0.59304643 0.31909001
0.28271315 0.58944815 0.31366509
0.49406239 0.61043364 0.30774027
0.71730882 0.67928851 0.35263175
0.88744569 0.67091417 0.37522927
0.95449364 0.60165071 0.33791122
0.96640438 0.44191763 0.28363201
0.30902287 0.67964274 0.30806941
0.31522208 0.67926663 0.30685514
0.32151377 0.67825723 0.30532265
0.33004302 0.67839074 0.30586535
0.33925551 0.67827678 0.30635446
0.61080813 0.73323351 0.34807539
0.84435213 0.80501485 0.40836373
0.95460856 0.76836616 0.40567607
1.00063169 0.71695071 0.39053455
0.35550579 0.76170987 0.35022163
0.36181265 0.76184022 0.34975615
0.36827633 0.76163924 0.34899285
0.37631357 0.76223755 0.34976605
0.38537934 0.76293635 0.35072181
0.39389035 0.76302230 0.35130233
0.72691315 0.84118146 0.41850924
0.92689669 0.89240539 0.46815503
0.99648958 0.85836208 0.45467517
0.39268824 0.83172977 0.38604662
0.39920205 0.83230424 0.38634783
0.40591508 0.83282959 0.38664293
0.41356248 0.83365881 0.38752559
0.42171097 0.83456933 0.38851595
0.42968938 0.83529282 0.38939181
0.43770352 0.83575964 0.39012927
0.83416718 0.93888140 0.48207265
0.99187440 0.97207129 0.51689392
0.08218579 0.12623516 0.25933042
0.11119221 0.11905911 0.25678799
0.19834392 0.11976208 0.25620362
0.32213455 0.10305540 0.24900629
0.49032840 0.12506293 0.29981631
0.64185309 0.15629435 0.34046769
0.76331598 0.18746527 0.35933435
0.84686679 0.21042600 0.35936993
0.89941150 0.22341695 0.34555075
0.09974522 0.18908253 0.27720165
0.11828081 0.18366754 0.27916509
0.20059229 0.16142412 0.27213478
0.31599608 0.10849292 0.24767803
0.48704454 0.12928210 0.29777670
0.64126259 0.16134484 0.33883280
0.76383829 0.19276439 0.35773635
0.84788877 0.21618271 0.35802302
0.90088516 0.22963208 0.34428662
0.12722945 0.26890621 0.30068347
0.13159764 0.26712209 0.30015901
0.20200767 0.26429027 0.30707726
0.37049592 0.22355483 0.29338023
0.52885348 0.19582686 0.31072223
0.65561146 0.19626741 0.33614373
0.76295835 0.19762856 0.35368478
0.84798390 0.22129793 0.35411006
0.90218455 0.23567171 0.34037635
0.17158192 0.37866911 0.34121320
0.17580044 0.37687126 0.34005731
0.20257355 0.37320191 0.33772513
0.37671450 0.38322785 0.34598196
0.59635997 0.36186388 0.35215336
0.73136878 0.33869177 0.35875058
0.80179071 0.29037562 0.34834695
0.84782958 0.22662529 0.34748217
0.90376127 0.24281450 0.33417875
0.23023085 0.51051950 0.39180112
0.23583202 0.50943112 0.39086732
0.24014337 0.50560528 0.38838893
0.33661708 0.51059097 0.38013795
0.57798374 0.53706300 0.38283134
0.78091598 0.54403341 0.42605513
0.86328840 0.48883402 0.40929961
0.89814997 0.38821971 0.37349620
0.90579098 0.25172722 0.32622093
0.28324506 0.61666286 0.41967601
0.28910139 0.61630070 0.41891637
0.29440975 0.61475277 0.41719267
0.29900441 0.61188310 0.41431814
0.47792751 0.62617677 0.39680091
0.72583139 0.68793452 0.43102098
0.88922077 0.67536396 0.46124628
0.95230675 0.60768986 0.44030043
0.96272498 0.45602694 0.38155586
0.32868350 0.70229429 0.42376006
0.33466822 0.70231301 0.42323774
0.34043866 0.70177114 0.42187926
0.34599221 0.70056802 0.41948444
0.35168961 0.69862771 0.41630071
0.59816194 0.73563433 0.41950235
0.84823412 0.80888939 0.47428131
0.95571381 0.77193069 0.46873206
0.99860466 0.72402853 0.45155564
0.35884950 0.76546240 0.37602520
0.36483952 0.76568085 0.37509400
0.37057012 0.76541942 0.37209409
0.37572023 0.76388735 0.36522919
0.38387394 0.76283300 0.35633063
0.39271274 0.76304662 0.35702425
0.72470421 0.84059751 0.42345050
0.92690629 0.89275223 0.47477946
0.99642140 0.85897076 0.46240485
0.39338794 0.83264428 0.39344880
0.39978525 0.83323759 0.39372042
0.40648881 0.83376253 0.39401451
0.41370302 0.83432573 0.39439350
0.42185152 0.83523625 0.39538386
0.42993203 0.83600390 0.39630276
0.43799987 0.83648241 0.39705497
0.83367753 0.93891031 0.48878685
0.99222845 0.97258401 0.52451599
0.10362038 0.17242879 0.38506383
0.12513140 0.16550130 0.38346574
0.21231499 0.15834591 0.38557205
0.36330777 0.16675389 0.39108625
0.52615374 0.16536669 0.41261289
0.65783930 0.17744701 0.44299743
0.76843894 0.19851156 0.46040857
0.84709734 0.21637048 0.45880401
0.89753121 0.22742155 0.44456160
0.12152107 0.23901273 0.40082103
0.12536544 0.23469396 0.40034646
0.20219889 0.19725521 0.39784697
0.35640162 0.17393216 0.39164418
0.52321005 0.17251967 0.41180563
0.65724832 0.18289018 0.44241062
0.76907182 0.20406814 0.45980909
0.84828216 0.22232333 0.45822087
0.89910519 0.23385523 0.44416198
0.14689060 0.31983140 0.42092302
0.15121800 0.31770968 0.42060781
0.21243839 0.30976006 0.42985424
0.36724320 0.30174544 0.44099417
0.55230582 0.26174355 0.43888158
0.66912073 0.22397907 0.44779697
0.76814812 0.20893352 0.45716667
0.84837008 0.22749338 0.45542559
0.90043104 0.24000418 0.44163999
0.18366188 0.41549671 0.44623953
0.18800440 0.41400963 0.44583866
0.20298202 0.40971240 0.44541010
0.34621581 0.42079660 0.46781057
0.58603531 0.43206677 0.49684781
0.72447693 0.37788218 0.49404663
0.80319548 0.30765054 0.47117093
0.84818488 0.23406765 0.45093203
0.90194881 0.24823041 0.43760976
0.24057755 0.53304356 0.48467642
0.24627352 0.53205907 0.48412618
0.25057068 0.52837867 0.48219734
0.33414081 0.53169996 0.48658982
0.55653191 0.57252097 0.52858466
0.76013446 0.57163090 0.56491286
0.85478008 0.52000624 0.54851079
0.89302301 0.40334719 0.49039388
0.90372849 0.25683284 0.43170586
0.29475713 0.63558656 0.51321608
0.30072793 0.63531148 0.51294684
0.30609691 0.63391417 0.51202971
0.31092945 0.63133466 0.51021916
0.46794975 0.65014243 0.51945299
0.73476487 0.70283800 0.56254166
0.88764364 0.69985402 0.60940260
0.94227636 0.65661985 0.60495114
0.95934951 0.49255922 0.51673234
0.33722100 0.71755278 0.51820260
0.34325275 0.71757293 0.51796508
0.34897268 0.71709388 0.51726466
0.35481909 0.71612030 0.51599997
0.36100867 0.71460301 0.51418996
0.58843333 0.74661934 0.52398765
0.85917461 0.82110000 0.58335555
0.96087307 0.79295838 0.60164696
0.99782759 0.75589967 0.61359370
0.37293574 0.78398657 0.49554938
0.37899452 0.78417146 0.49539602
0.38489866 0.78409094 0.49476862
0.39149591 0.78376091 0.49374393
0.39774343 0.78305167 0.49197310
0.40369269 0.78176486 0.48923245
0.71538460 0.84219772 0.51983064
0.93197286 0.89872301 0.56964791
1.00017571 0.87458795 0.58199656
0.39430004 0.83368033 0.40128103
0.40066266 0.83430153 0.40160891
0.40713799 0.83482814 0.40174201
0.41439989 0.83539319 0.40211317
0.42208278 0.83600223 0.40256858
0.43016878 0.83677024 0.40348336
0.43826613 0.83725494 0.40425047
0.83292866 0.93891299 0.49577692
0.99255419 0.97310847 0.53239363
0.12118102 0.20700878 0.50286382
0.12662713 0.20522892 0.50266302
0.21382158 0.18175769 0.50053382
0.35554460 0.19752897 0.51390868
0.53555435 0.22013400 0.53385645
0.66882342 0.22872315 0.55154008
0.77362365 0.22658297 0.55955333
0.84932494 0.23365630 0.55684060
0.89899063 0.24203961 0.54756910
0.13852821 0.27376425 0.51419085
0.14217611 0.26874623 0.51374400
0.20691322 0.22520718 0.51026738
0.34749922 0.20585863 0.51399082
0.53201675 0.22920814 0.53450519
0.66820258 0.23704645 0.55214536
0.77412730 0.23425026 0.56001788
0.85042131 0.24192584 0.55750841
0.90050876 0.25088757 0.54839790
0.16414380 0.35752636 0.53078723
0.16834877 0.35504362 0.53054482
0.21781531 0.34360826 0.53849691
0.33116147 0.31812665 0.54227483
0.54017842 0.32717052 0.56073034
0.67490309 0.28933129 0.56170356
0.77331591 0.24156098 0.55960232
0.85070240 0.24914955 0.55700821
0.90187991 0.25956014 0.54832196
0.19713178 0.44805956 0.55142331
0.20150200 0.44636774 0.55115843
0.20519297 0.44175759 0.55002004
0.33338112 0.43658185 0.56406736
0.53507483 0.46754450 0.59618473
0.71089059 0.45416290 0.61484122
0.79871535 0.35636863 0.58527189
0.85058492 0.25645936 0.55585051
0.90329802 0.26829886 0.54744327
0.24272789 0.54981190 0.57731658
0.24826410 0.54881805 0.57720423
0.25291666 0.54560584 0.57632858
0.32003495 0.54375774 0.58239543
0.50508535 0.57431740 0.61634380
0.72816110 0.61425185 0.66606462
0.84102297 0.55849051 0.65786189
0.88738132 0.43806157 0.60464817
0.90470606 0.27724245 0.54579806
0.29691580 0.64990139 0.60292995
0.30298206 0.64967453 0.60294515
0.30844921 0.64837343 0.60251510
0.31325755 0.64595491 0.60160208
0.44311833 0.65672791 0.61393327
0.69177639 0.71268839 0.67634320
0.87439895 0.74003685 0.73581952
0.93587005 0.69991773 0.72296154
0.95006925 0.52230114 0.62976032
0.34031233 0.72962868 0.61157691
0.34637323 0.72965115 0.61156565
0.35223526 0.72928447 0.61139327
0.35775182 0.72850406 0.61094564
0.36355504 0.72732246 0.61035055
0.55858481 0.75103074 0.63226032
0.86571050 0.83600801 0.73395485
0.96273381 0.83519334 0.77087891
0.99988502 0.80852979 0.76707351
0.37369651 0.79491144 0.60145861
0.37962493 0.79500055 0.60140318
0.38551381 0.79493231 0.60117966
0.39110932 0.79463023 0.60063732
0.39717001 0.79412895 0.59989095
0.40342647 0.79320675 0.59866375
0.71644658 0.85350323 0.66164809
0.94666082 0.91814053 0.73603123
1.01311910 0.91121149 0.76879275
0.40630397 0.85350770 0.55459249
0.41249269 0.85374874 0.55463982
0.41867265 0.85395414 0.55440784
0.42572835 0.85412157 0.55412573
0.43332002 0.85427296 0.55354232
0.44088176 0.85427636 0.55233467
0.44869414 0.85394889 0.54962122
0.85298866 0.95319521 0.66469806
1.00485897 0.98850012 0.69349027
0.13480215 0.22951628 0.59868443
0.14020485 0.22768952 0.59856153
0.19824262 0.20022839 0.59721929
0.32733113 0.20930660 0.60066509
0.48898599 0.23615254 0.62116218
0.64948779 0.26820886 0.64779562
0.76570952 0.27866191 0.65765107
0.84412181 0.26825732 0.64687163
0.89495975 0.27416831 0.63817263
0.14960916 0.28921783 0.60578263
0.15299192 0.28326711 0.60538006
0.19902015 0.24291046 0.60225308
0.31936777 0.21792798 0.60115618
0.48374695 0.24446771 0.62120426
0.64795709 0.27721861 0.64847118
0.76608121 0.28850096 0.65878236
0.84491527 0.27727693 0.64790231
0.89608920 0.28305662 0.63928735
0.17480135 0.37431878 0.61884481
0.17900500 0.37169686 0.61863989
0.20260568 0.36142135 0.62061083
0.31063193 0.32934406 0.62452906
0.47443694 0.33029836 0.63613802
0.64724606 0.32772216 0.65591872
0.76512158 0.29836804 0.65968019
0.84507674 0.28694215 0.64864445
0.89729965 0.29399005 0.64055049
0.20571986 0.46149176 0.63556975
0.21013963 0.45977807 0.63536823
0.21423669 0.45529920 0.63451153
0.31742433 0.44586709 0.64517140
0.47088605 0.45412138 0.65970957
0.66054398 0.47906023 0.69503236
0.78380364 0.42553511 0.68871891
0.84473020 0.29670280 0.64923459
0.89847690 0.30525222 0.64166486
0.24528293 0.55583096 0.65698385
0.25010005 0.55472457 0.65689111
0.25496203 0.55150956 0.65621442
0.29986653 0.54618412 0.65921164
0.46103272 0.55909187 0.67953932
0.65610361 0.60455829 0.71929532
0.81874901 0.60628843 0.74743438
0.87633646 0.48342529 0.69794989
0.89969790 0.31678724 0.64261985
0.29079950 0.65090054 0.67932606
0.29679793 0.65052462 0.67941964
0.30232224 0.64906937 0.67918414
0.30716389 0.64646703 0.67860985
0.40923274 0.64934856 0.68802547
0.62982565 0.69504362 0.73335338
0.84508747 0.75196755 0.79716110
0.92427653 0.71797651 0.79205573
0.93801177 0.55665487 0.71709627
0.33812317 0.74002248 0.69644088
0.34402114 0.74004912 0.69658875
0.34985951 0.73970032 0.69667512
0.35529295 0.73894799 0.69660705
0.36036143 0.73778939 0.69644344
0.51251543 0.74943465 0.71042186
0.82572919 0.83239430 0.80540109
0.95790797 0.86359024 0.86026949
1.00016189 0.83700943 0.85110998
0.37538800 0.80521196 0.69371057
0.38112572 0.80531949 0.69379514
0.38680199 0.80523771 0.69379508
0.39224011 0.80494046 0.69362646
0.39738235 0.80444074 0.69337058
0.40289688 0.80354065 0.69297349
0.66935652 0.84569299 0.74220330
0.95372140 0.93429744 0.86388803
1.02220702 0.93767691 0.88587445
0.40634328 0.86568731 0.67888361
0.41210672 0.86583352 0.67893058
0.41787961 0.86589396 0.67884183
0.42367947 0.86591488 0.67868435
0.42998829 0.86589909 0.67849046
0.43671912 0.86575437 0.67819732
0.44363055 0.86526310 0.67733777
0.87700373 0.97087592 0.82934368
1.02393472 1.01167619 0.87930661
0.14397624 0.24063836 0.67828757
0.14933871 0.23884167 0.67822176
0.15471357 0.23703460 0.67811698
0.29020509 0.21629535 0.67743975
0.42838696 0.23348039 0.68661302
0.58452135 0.26649728 0.71219277
0.74205053 0.30776531 0.74355119
0.83293110 0.31603655 0.73930639
0.88526326 0.31775302 0.72656709
0.15367897 0.28332958 0.68220294
0.15640657 0.27434158 0.68154716
0.15641873 0.24873234 0.67923206
0.28084284 0.22524694 0.67832011
0.42270705 0.24191304 0.68688834
0.58195019 0.27524447 0.71256989
0.74204558 0.31903410 0.74461567
0.83365369 0.32606027 0.74054700
0.88635451 0.32858840 0.72800732
0.17976204 0.37570259 0.69340384
0.18398650 0.37299356 0.69330853
0.18732733 0.36621332 0.69266057
0.27806795 0.33570793 0.69773638
0.41131717 0.31746563 0.69911164
0.57599145 0.30965450 0.71546000
0.73946089 0.32959545 0.74499208
0.83382630 0.33760053 0.74197918
0.88737804 0.34002292 0.72943926
0.20895690 0.46081296 0.70716554
0.21340008 0.45905551 0.70704895
0.21765353 0.45466325 0.70639825
0.27546820 0.44335976 0.71300840
0.42167506 0.44149151 0.72110099
0.58491284 0.45798865 0.74353248
0.75163031 0.44786373 0.76797414
0.83350092 0.34916890 0.74351442
0.88843054 0.35320154 0.73135531
0.24479565 0.54997891 0.72496003
0.24945480 0.54880160 0.72485453
0.25435129 0.54567814 0.72428930
0.25846410 0.54030663 0.72336632
0.41711131 0.54446089 0.73946452
0.59622210 0.58008152 0.76566124
0.77233410 0.60873967 0.80705410
0.86094737 0.52281082 0.78523499
0.88950235 0.36696559 0.73329633
0.28504223 0.63985509 0.74446893
0.29007664 0.63937479 0.74449986
0.29567438 0.63790590 0.74431068
0.30070999 0.63535142 0.74390990
0.36360291 0.63303262 0.74962598
0.58377361 0.67246354 0.78383332
0.78603405 0.73348880 0.83691281
0.91115129 0.73254359 0.85800523
0.92374492 0.58829212 0.79182732
0.33019277 0.73135710 0.76495868
0.33559439 0.73133516 0.76510650
0.34131598 0.73078585 0.76506865
0.34663579 0.72970551 0.76490039
0.35148153 0.72804868 0.76459020
0.46665305 0.73275375 0.77511108
0.77455425 0.81493241 0.85182798
0.94819748 0.86797088 0.91474247
0.99864155 0.84717011 0.90939641
0.37761700 0.81373769 0.77856612
0.38328770 0.81397784 0.77892339
0.38899624 0.81401366 0.77920765
0.39447862 0.81386203 0.77944565
0.39964941 0.81348395 0.77962893
0.40458742 0.81270713 0.77975649
0.60439652 0.83522356 0.80553561
0.94363534 0.93678552 0.92759025
1.02388787 0.94916016 0.95490408
0.40921611 0.87440646 0.76592404
0.41495165 0.87475049 0.76631159
0.42079028 0.87503833 0.76665825
0.42662415 0.87522715 0.76690316
0.43255186 0.87541080 0.76719236
0.43911228 0.87543309 0.76743555
0.44570884 0.87512106 0.76748794
0.85280192 0.96511781 0.88755983
1.03078544 1.02503538 0.96321589
0.14974549 0.24464658 0.74837106
0.15510030 0.24293195 0.74833077
0.16045457 0.24121734 0.74828190
0.19581404 0.22655836 0.74794745
0.35537505 0.22829360 0.74898261
0.52348191 0.25758395 0.76795232
0.69376326 0.30125961 0.79874313
0.82128859 0.33326012 0.82220137
0.88296759 0.33710995 0.81495488
0.15245038 0.25756326 0.74930459
0.15754388 0.25545165 0.74922246
0.16289814 0.25373703 0.74917352
0.18771325 0.24639444 0.74904960
0.34908038 0.23808832 0.74969637
0.52001280 0.26714665 0.76823550
0.69328684 0.31336644 0.79982388
0.82203507 0.34626746 0.82371300
0.88409752 0.34934837 0.81670135
0.17965876 0.36317098 0.75956410
0.18442722 0.36041519 0.75931853
0.18850586 0.35308501 0.75856328
0.19229716 0.33961439 0.75722122
0.33856946 0.30061156 0.75599718
0.50982481 0.27550796 0.76730812
0.68982977 0.32487610 0.80025232
0.82181925 0.35911682 0.82508558
0.88514161 0.36213616 0.81845313
0.20784649 0.44920787 0.77127457
0.21284825 0.44753772 0.77112687
0.21798509 0.44332555 0.77061951
0.22271158 0.43615997 0.76966554
0.35111994 0.42742932 0.77250427
0.52267241 0.43820047 0.78660309
0.69415450 0.43319759 0.81381184
0.82065421 0.37203163 0.82633275
0.88615513 0.37540534 0.82045448
0.24150749 0.53576249 0.78628230
0.24668813 0.53462684 0.78620136
0.25228962 0.53156286 0.78576183
0.25736535 0.52653027 0.78498238
0.33282539 0.52133250 0.78684992
0.54555863 0.55769718 0.80868018
0.71448296 0.58636487 0.84189117
0.83918834 0.53655648 0.85538107
0.88711327 0.38911706 0.82269102
0.27978253 0.62393034 0.80364686
0.28515154 0.62343109 0.80370575
0.29139355 0.62206817 0.80359578
0.29733551 0.61968780 0.80330712
0.30294666 0.61620384 0.80280936
0.52752566 0.64680892 0.82478136
0.74173874 0.71446985 0.87180412
0.88428634 0.72976255 0.90862411
0.91633189 0.58938235 0.86896157
0.32197070 0.71289796 0.82203799
0.32736820 0.71282315 0.82218921
0.33362895 0.71228290 0.82224053
0.33967775 0.71126252 0.82218140
0.34567720 0.70969337 0.82198977
0.39882225 0.70963001 0.82371193
0.74058545 0.79783285 0.89292324
0.92726684 0.86080980 0.95858943
0.99575323 0.84808916 0.97147214
0.36951837 0.80008382 0.84162325
0.37540588 0.80031306 0.84196526
0.38132602 0.80022931 0.84215772
0.38722113 0.79996872 0.84235620
0.39310518 0.79947329 0.84246784
0.39868972 0.79842478 0.84241295
0.55860084 0.81448752 0.85754752
0.93333745 0.93430132 0.98336112
1.02453291 0.95052218 1.01760471
0.41152403 0.87864894 0.85100293
0.41731215 0.87903714 0.85146230
0.42313856 0.87937486 0.85191453
0.42909622 0.87967551 0.85237616
0.43511569 0.87993574 0.85285056
0.44160196 0.88008970 0.85332704
0.44830200 0.87989950 0.85377812
0.80452615 0.95134270 0.93476981
1.03214693 1.02810252 1.03331518
