src/colors/teal_&_orange_vibes/moonlight_orange.cube
# VEGAS Pro LUT
TITLE "LUNA COLOR"
LUT_3D_SIZE 5
0.03227818 0.03929515 0.05076497
0.16555271 0.05863899 0.06995410
0.51677001 0.12086798 0.12222634
0.78369987 0.19114895 0.18194284
0.91673833 0.22699519 0.21651644
0.08108498 0.17838462 0.09750681
0.17483394 0.16411594 0.08799496
0.56704545 0.23550992 0.14483081
0.78444749 0.20637347 0.18351431
0.91917765 0.24092048 0.21832207
0.19098414 0.44829601 0.19083159
0.20483999 0.44426692 0.18971027
0.56078148 0.51736176 0.22639635
0.86825174 0.49394095 0.27116966
0.92205793 0.25813463 0.22116950
0.30754986 0.67641389 0.29197022
0.32393426 0.67766494 0.29342771
0.34040642 0.67714423 0.29400134
0.84464025 0.80459970 0.39629948
1.00149679 0.71582055 0.37565556
0.39179006 0.83010012 0.37187156
0.40586805 0.83166999 0.37342650
0.42132971 0.83327073 0.37514949
0.43721381 0.83443004 0.37673083
0.99112701 0.97114664 0.50232369
0.06402966 0.08872264 0.16225497
0.16957480 0.07303839 0.15085754
0.48530653 0.11767744 0.21987505
0.76784045 0.18674617 0.27107802
0.90671164 0.22476640 0.26074907
0.10887289 0.22436872 0.20697233
0.19580875 0.21238324 0.19676816
0.52974433 0.18510672 0.20637709
0.76761097 0.19683787 0.26279882
0.90979844 0.23666529 0.25211373
0.21411414 0.48497537 0.29920805
0.22383432 0.47966281 0.29392201
0.56415421 0.52145469 0.28245065
0.86558574 0.48872304 0.31676859
0.91865420 0.25626954 0.23264186
0.30902287 0.67964274 0.30806941
0.32151377 0.67825723 0.30532265
0.33925551 0.67827678 0.30635446
0.84435213 0.80501485 0.40836373
1.00063169 0.71695071 0.39053455
0.39268824 0.83172977 0.38604662
0.40591508 0.83282959 0.38664293
0.42171097 0.83456933 0.38851595
0.43770352 0.83575964 0.39012927
0.99187440 0.97207129 0.51689392
0.10362038 0.17242879 0.38506383
0.21231499 0.15834591 0.38557205
0.52615374 0.16536669 0.41261289
0.76843894 0.19851156 0.46040857
0.89753121 0.22742155 0.44456160
0.14689060 0.31983140 0.42092302
0.21243839 0.30976006 0.42985424
0.55230582 0.26174355 0.43888158
0.76814812 0.20893352 0.45716667
0.90043104 0.24000418 0.44163999
0.24057755 0.53304356 0.48467642
0.25057068 0.52837867 0.48219734
0.55653191 0.57252097 0.52858466
0.85478008 0.52000624 0.54851079
0.90372849 0.25683284 0.43170586
0.33722100 0.71755278 0.51820260
0.34897268 0.71709388 0.51726466
0.36100867 0.71460301 0.51418996
0.85917461 0.82110000 0.58335555
0.99782759 0.75589967 0.61359370
0.39430004 0.83368033 0.40128103
0.40713799 0.83482814 0.40174201
0.42208278 0.83600223 0.40256858
0.43826613 0.83725494 0.40425047
0.99255419 0.97310847 0.53239363
0.13480215 0.22951628 0.59868443
0.19824262 0.20022839 0.59721929
0.48898599 0.23615254 0.62116218
0.76570952 0.27866191 0.65765107
0.89495975 0.27416831 0.63817263
0.17480135 0.37431878 0.61884481
0.20260568 0.36142135 0.62061083
0.47443694 0.33029836 0.63613802
0.76512158 0.29836804 0.65968019
0.89729965 0.29399005 0.64055049
0.24528293 0.55583096 0.65698385
0.25496203 0.55150956 0.65621442
0.46103272 0.55909187 0.67953932
0.81874901 0.60628843 0.74743438
0.89969790 0.31678724 0.64261985
0.33812317 0.74002248 0.69644088
0.34985951 0.73970032 0.69667512
0.36036143 0.73778939 0.69644344
0.82572919 0.83239430 0.80540109
1.00016189 0.83700943 0.85110998
0.40634328 0.86568731 0.67888361
0.41787961 0.86589396 0.67884183
0.42998829 0.86589909 0.67849046
0.44363055 0.86526310 0.67733777
1.02393472 1.01167619 0.87930661
0.14974549 0.24464658 0.74837106
0.16045457 0.24121734 0.74828190
0.35537505 0.22829360 0.74898261
0.69376326 0.30125961 0.79874313
0.88296759 0.33710995 0.81495488
0.17965876 0.36317098 0.75956410
0.18850586 0.35308501 0.75856328
0.33856946 0.30061156 0.75599718
0.68982977 0.32487610 0.80025232
0.88514161 0.36213616 0.81845313
0.24150749 0.53576249 0.78628230
0.25228962 0.53156286 0.78576183
0.33282539 0.52133250 0.78684992
0.71448296 0.58636487 0.84189117
0.88711327 0.38911706 0.82269102
0.32197070 0.71289796 0.82203799
0.33362895 0.71228290 0.82224053
0.34567720 0.70969337 0.82198977
0.74058545 0.79783285 0.89292324
0.99575323 0.84808916 0.97147214
0.41152403 0.87864894 0.85100293
0.42313856 0.87937486 0.85191453
0.43511569 0.87993574 0.85285056
0.44830200 0.87989950 0.85377812
1.03214693 1.02810252 1.03331518
