src/colors/teal_&_orange_vibes/signature_teal_&_orange.cube
TITLE "Generated by Resolve"
LUT_3D_SIZE 5
0 0.00616464 0.0301671
0.196872 0 0.0195315
0.473579 0 0.0145876
0.737316 0 0.0128481
0.979507 0 0.0121767
0 0.258701 0.0334936
0.204715 0.247883 0.0236973
0.484367 0.241901 0.0202335
0.749065 0.239689 0.0194095
0.987839 0.238697 0.0192721
0 0.511055 0.0360266
0.209964 0.50132 0.0264897
0.489509 0.495781 0.0224765
0.755489 0.4934 0.0220798
0.99295 0.492195 0.0223545
0 0.764248 0.037644
0.216587 0.754818 0.0283513
0.494011 0.750011 0.0243839
0.759869 0.747768 0.0234836
0.99649 0.746426 0.0236667
0 1 0.0381933
0.222843 1 0.029099
0.498314 0.999985 0.0253147
0.763363 1 0.0241398
0.998795 0.999832 0.0240024
0 0.00642405 0.26479
0.197711 0 0.253895
0.475639 0 0.246937
0.739315 0 0.244129
0.980209 0 0.242908
0 0.259037 0.268132
0.205631 0.248234 0.258137
0.487785 0.241825 0.252338
0.751797 0.239948 0.250675
0.988464 0.239155 0.25005
0 0.512001 0.268482
0.208392 0.5028 0.258061
0.490822 0.496635 0.252659
0.757992 0.493874 0.252384
0.993622 0.492683 0.252628
0 0.765255 0.268971
0.215991 0.756161 0.259251
0.49395 0.751263 0.254246
0.761212 0.748653 0.253086
0.997131 0.747082 0.253391
0 1 0.26894
0.222675 1 0.259632
0.498283 1 0.255207
0.763928 1 0.253529
0.999329 1 0.253269
0 0.00700389 0.499153
0.196139 0.000122072 0.489418
0.475578 0 0.48278
0.740353 0 0.47924
0.980758 0 0.477333
0 0.258824 0.504479
0.206516 0.248493 0.496574
0.488563 0.242161 0.490547
0.753689 0.240223 0.486671
0.989044 0.23949 0.484794
0 0.512215 0.505043
0.209339 0.503136 0.496239
0.491646 0.496986 0.490578
0.761212 0.493858 0.487892
0.994171 0.492927 0.487083
0 0.765927 0.504631
0.216007 0.757031 0.494957
0.492729 0.752636 0.488746
0.762387 0.749462 0.486107
0.997742 0.747509 0.486595
0 1 0.5037
0.222782 1 0.494057
0.497734 1 0.488853
0.763882 1 0.486107
0.999924 1 0.485512
0 0.00759899 0.734722
0.196017 0.000350958 0.725444
0.475013 0 0.719509
0.740459 0 0.716365
0.981338 0 0.714351
0 0.259037 0.740917
0.207996 0.249119 0.732738
0.487404 0.243442 0.728176
0.75375 0.241047 0.725017
0.989639 0.240101 0.722606
0 0.512306 0.74255
0.213489 0.502846 0.734646
0.492439 0.497337 0.731594
0.761975 0.494209 0.728878
0.994766 0.493202 0.725856
0 0.766217 0.742306
0.218387 0.757229 0.733684
0.493538 0.752956 0.729702
0.763149 0.749859 0.727092
0.99826 0.747433 0.725139
0 1 0.741054
0.224048 1 0.731975
0.497704 1 0.727245
0.762707 1 0.723568
1 1 0.721706
0 0.00822461 0.970443
0.196674 0.00062562 0.961318
0.474845 0 0.955764
0.740383 0 0.953201
0.981888 0 0.951385
0 0.259449 0.977081
0.209476 0.249775 0.96875
0.487266 0.244572 0.964614
0.753246 0.242191 0.962325
0.990219 0.241016 0.960311
0 0.51252 0.979385
0.216571 0.502998 0.971435
0.493645 0.498085 0.968307
0.760845 0.495506 0.966873
0.995361 0.494041 0.964736
0 0.766461 0.979675
0.221775 0.757229 0.971527
0.496925 0.75285 0.968673
0.763851 0.750179 0.96846
0.998825 0.747753 0.966506
0 1 0.978515
0.22652 1 0.970047
0.499672 1 0.966491
0.763363 1 0.964996
1 1 0.963088
