src/colors/teal_&_orange_vibes/signature_teal_&_orange.cube
TITLE "Generated by Resolve"
LUT_3D_SIZE 9
0 0.00616464 0.0301671
0.0871138 0.00210575 0.0256352
0.196872 0 0.0195315
0.338323 0 0.0163729
0.473579 0 0.0145876
0.606226 0 0.0135195
0.737316 0 0.0128481
0.867094 0 0.0125124
0.979507 0 0.0121767
0 0.132662 0.031632
0.0871138 0.128069 0.0275578
0.20264 0.120989 0.0223087
0.344854 0.117479 0.0198215
0.480369 0.11548 0.0184024
0.613138 0.114199 0.0175326
0.744244 0.113359 0.0170291
0.874128 0.112963 0.016907
0.984298 0.112505 0.0166018
0 0.258701 0.0334936
0.0871138 0.254932 0.0296635
0.204715 0.247883 0.0236973
0.34815 0.244083 0.0213169
0.484367 0.241901 0.0202335
0.617655 0.240543 0.0196841
0.749065 0.239689 0.0194095
0.879133 0.239277 0.0194553
0.987839 0.238697 0.0192721
0 0.384848 0.0349126
0.0871138 0.381384 0.031342
0.207019 0.374762 0.0251926
0.350454 0.371099 0.0225528
0.487205 0.368841 0.0214237
0.620905 0.367422 0.0209964
0.752667 0.366506 0.0209049
0.882963 0.366033 0.021088
0.990662 0.365423 0.0210727
0 0.511055 0.0360266
0.0871138 0.507668 0.0326085
0.209964 0.50132 0.0264897
0.352758 0.497963 0.0237278
0.489509 0.495781 0.0224765
0.623438 0.494316 0.021973
0.755489 0.4934 0.0220798
0.886015 0.492897 0.0223697
0.99295 0.492195 0.0223545
0 0.637568 0.0369726
0.0871138 0.63418 0.0335699
0.21326 0.628046 0.0275425
0.355291 0.624918 0.0248112
0.491768 0.622873 0.0234836
0.62565 0.621454 0.0229496
0.757839 0.620539 0.0228885
0.888533 0.619959 0.0231479
0.994888 0.619226 0.0231479
0 0.764248 0.037644
0.0871138 0.760784 0.034226
0.216587 0.754818 0.0283513
0.357931 0.751919 0.0257115
0.494011 0.750011 0.0243839
0.627741 0.748669 0.0236515
0.759869 0.747768 0.0234836
0.890654 0.747173 0.023682
0.99649 0.746426 0.0236667
0 0.891066 0.0380407
0.0871138 0.887495 0.0345922
0.219837 0.881682 0.0289006
0.36054 0.87895 0.0263371
0.496193 0.87715 0.0249943
0.62974 0.875898 0.0242161
0.761685 0.875013 0.0239567
0.892439 0.874449 0.0240635
0.997757 0.873655 0.0240024
0 1 0.0381933
0.0871138 1 0.0346075
0.222843 1 0.029099
0.362997 1 0.0267796
0.498314 0.999985 0.0253147
0.631601 0.999908 0.024506
0.763363 1 0.0241398
0.894026 1 0.0241703
0.998795 0.999832 0.0240024
0 0.00616464 0.148821
0.0871138 0.00205997 0.144244
0.198215 0 0.136538
0.339635 0 0.132677
0.474861 0 0.13051
0.607416 0 0.129152
0.738415 0 0.128252
0.868208 0 0.127779
0.979843 0 0.127306
0 0.132662 0.150317
0.0871138 0.128115 0.146227
0.205295 0.120562 0.139101
0.346731 0.117372 0.136019
0.48188 0.115465 0.134249
0.614542 0.11429 0.13315
0.745525 0.113542 0.132494
0.875319 0.113161 0.132143
0.984604 0.112734 0.131746
0 0.259129 0.1505
0.0871138 0.255802 0.146166
0.205432 0.248188 0.139116
0.349874 0.244114 0.136873
0.48603 0.241947 0.135775
0.619165 0.24065 0.135103
0.750439 0.239857 0.134752
0.88043 0.239414 0.134661
0.988174 0.238972 0.134463
0 0.385382 0.151186
0.0871138 0.382147 0.147356
0.206485 0.375448 0.14049
0.351156 0.371542 0.137575
0.488426 0.36907 0.136538
0.622293 0.367575 0.136156
0.754025 0.366735 0.13608
0.884291 0.366247 0.136233
0.990951 0.365667 0.136141
0 0.51165 0.151934
0.0871138 0.5084 0.148318
0.209415 0.502037 0.141787
0.352819 0.498573 0.138689
0.490196 0.496254 0.137346
0.624521 0.494682 0.136904
0.756664 0.49369 0.136904
0.887251 0.493156 0.137194
0.993286 0.492485 0.137179
0 0.638117 0.152575
0.0871138 0.634836 0.14905
0.212848 0.628733 0.142779
0.355138 0.625574 0.139773
0.492027 0.623407 0.138201
0.626352 0.621927 0.137591
0.758785 0.620874 0.137514
0.889586 0.620325 0.137835
0.995224 0.619547 0.137881
0 0.764797 0.153063
0.0871138 0.761456 0.149584
0.216342 0.755505 0.143526
0.357778 0.752575 0.140612
0.494118 0.750637 0.138994
0.628138 0.749203 0.138201
0.760555 0.748211 0.138003
0.891493 0.7476 0.138247
0.996811 0.746777 0.138247
0 0.89163 0.153368
0.0871138 0.888121 0.149859
0.219699 0.882368 0.143999
0.360464 0.879622 0.141283
0.496269 0.877836 0.139666
0.629999 0.876448 0.13872
0.762173 0.875547 0.138399
0.893111 0.874907 0.138506
0.998077 0.874052 0.13843
0 1 0.153368
0.0871138 1 0.149737
0.222782 1 0.144137
0.362982 1 0.141588
0.498375 1 0.139986
0.631769 1 0.139025
0.763714 1 0.138613
0.894514 1 0.138598
0.999054 0.999954 0.13843
0 0.00642405 0.26479
0.0871138 0.00263981 0.26128
0.197711 0 0.253895
0.340078 0 0.249531
0.475639 0 0.246937
0.608301 0 0.245243
0.739315 0 0.244129
0.869169 0 0.243488
0.980209 0 0.242908
0 0.132296 0.267704
0.0871138 0.12813 0.265385
0.205447 0.120562 0.258167
0.347875 0.117266 0.253498
0.483101 0.115496 0.250935
0.615702 0.114351 0.249363
0.746639 0.11368 0.248432
0.876402 0.113313 0.247868
0.984878 0.112932 0.247333
0 0.259037 0.268132
0.0871138 0.255863 0.265293
0.205631 0.248234 0.258137
0.352178 0.243763 0.254139
0.487785 0.241825 0.252338
0.620661 0.24065 0.25127
0.751797 0.239948 0.250675
0.881666 0.239567 0.250385
0.988464 0.239155 0.25005
0 0.38558 0.268254
0.0871138 0.382635 0.264744
0.204807 0.376272 0.257237
0.351751 0.371832 0.253285
0.490043 0.369116 0.252399
0.623896 0.367651 0.252003
0.755474 0.366812 0.25185
0.885618 0.366384 0.251865
0.991272 0.365866 0.251698
0 0.512001 0.268482
0.0871138 0.508934 0.264912
0.208392 0.5028 0.258061
0.352346 0.499245 0.254261
0.490822 0.496635 0.252659
0.625711 0.494881 0.252293
0.757992 0.493874 0.252384
0.888563 0.493339 0.252659
0.993622 0.492683 0.252628
0 0.638575 0.268757
0.0871138 0.635401 0.265187
0.212238 0.629404 0.258732
0.35465 0.626276 0.255329
0.492058 0.624002 0.253452
0.627008 0.622339 0.252766
0.759762 0.62121 0.252766
0.89073 0.620569 0.253117
0.99556 0.619791 0.253162
0 0.765255 0.268971
0.0871138 0.762005 0.265431
0.215991 0.756161 0.259251
0.357412 0.753292 0.256123
0.49395 0.751263 0.254246
0.628412 0.749752 0.2533
0.761212 0.748653 0.253086
0.892363 0.747951 0.253361
0.997131 0.747082 0.253391
0 0.892103 0.269139
0.0871138 0.888685 0.265553
0.219501 0.882963 0.259571
0.360204 0.880278 0.256657
0.496147 0.878431 0.254826
0.63006 0.877073 0.253773
0.76257 0.876051 0.253361
0.893767 0.875349 0.253468
0.998398 0.874449 0.253422
0 1 0.26894
0.0871138 1 0.265324
0.222675 1 0.259632
0.362829 1 0.256931
0.498283 1 0.255207
0.631785 1 0.254078
0.763928 1 0.253529
0.894972 1 0.253468
0.999329 1 0.253269
0 0.00671397 0.381353
0.0871138 0.00311284 0.378027
0.196719 4.57771e-05 0.371191
0.339742 0 0.366964
0.475776 0 0.364233
0.608804 0 0.362264
0.739956 0 0.360906
0.869917 0 0.360098
0.980453 0 0.35935
0 0.132235 0.384817
0.0871138 0.128389 0.382223
0.203754 0.121355 0.375982
0.347463 0.117632 0.37174
0.483528 0.115679 0.368734
0.616449 0.114504 0.366705
0.747494 0.113848 0.365393
0.877317 0.113527 0.364614
0.985153 0.113115 0.363836
0 0.258869 0.385901
0.0871138 0.255314 0.38349
0.205829 0.248234 0.37821
0.352377 0.243793 0.374105
0.488914 0.241749 0.370718
0.621851 0.240665 0.368826
0.752941 0.240024 0.367773
0.882795 0.239765 0.367193
0.988739 0.239292 0.366583
0 0.38558 0.386084
0.0871138 0.382483 0.383185
0.204974 0.376318 0.377234
0.351949 0.371878 0.37319
0.492226 0.368795 0.370504
0.625605 0.367544 0.369406
0.756954 0.366827 0.368841
0.886946 0.366506 0.368551
0.991562 0.366003 0.368154
0 0.512169 0.386053
0.0871138 0.509148 0.382773
0.207935 0.503227 0.376196
0.350912 0.500053 0.371771
0.491463 0.496986 0.369131
0.627253 0.494926 0.368902
0.759548 0.493965 0.368978
0.889982 0.493416 0.369116
0.993881 0.492821 0.368963
0 0.638865 0.386007
0.0871138 0.635782 0.382544
0.211887 0.629938 0.376089
0.353796 0.627008 0.372274
0.491646 0.624659 0.369619
0.627619 0.622721 0.368688
0.760891 0.621454 0.368795
0.892027 0.620752 0.369177
0.995834 0.619959 0.369223
0 0.765667 0.385977
0.0871138 0.762448 0.382422
0.215763 0.756695 0.37615
0.356878 0.753902 0.372778
0.493507 0.751934 0.370443
0.628458 0.750317 0.369116
0.761807 0.749081 0.368811
0.893324 0.748272 0.369131
0.997452 0.747356 0.369207
0 0.892515 0.385885
0.0871138 0.889158 0.382223
0.219394 0.883528 0.37615
0.359854 0.880873 0.373053
0.495766 0.879088 0.370932
0.629923 0.877699 0.369574
0.762844 0.87657 0.368994
0.894347 0.875776 0.36907
0.998703 0.8748 0.369024
0 1 0.385504
0.0871138 1 0.381826
0.222644 1 0.376013
0.362646 1 0.373129
0.498054 1 0.37116
0.631647 1 0.369787
0.764019 1 0.36907
0.895308 1 0.368917
0.999619 1 0.368719
0 0.00700389 0.499153
0.0871138 0.00354009 0.495964
0.196139 0.000122072 0.489418
0.339178 0 0.485405
0.475578 0 0.48278
0.608957 0 0.480751
0.740353 0 0.47924
0.870436 0 0.478248
0.980758 0 0.477333
0 0.132357 0.502907
0.0871138 0.128679 0.500206
0.203189 0.121981 0.49424
0.346624 0.118288 0.490593
0.483253 0.116106 0.48777
0.616678 0.114855 0.485588
0.747997 0.114107 0.484001
0.877974 0.113756 0.482948
0.985443 0.113359 0.481956
0 0.258824 0.504479
0.0871138 0.255207 0.501991
0.206516 0.248493 0.496574
0.350958 0.244526 0.493462
0.488563 0.242161 0.490547
0.622293 0.240894 0.488212
0.753689 0.240223 0.486671
0.88365 0.239933 0.48571
0.989044 0.23949 0.484794
0 0.385534 0.504997
0.0871138 0.382193 0.502373
0.207706 0.375875 0.497093
0.352193 0.371908 0.494926
0.492454 0.368826 0.492149
0.626688 0.367498 0.489387
0.758129 0.366903 0.487938
0.888106 0.366598 0.48716
0.991867 0.36614 0.486397
0 0.512215 0.505043
0.0871138 0.509071 0.502037
0.209339 0.503136 0.496239
0.351156 0.500069 0.493339
0.491646 0.496986 0.490578
0.629374 0.494591 0.488563
0.761212 0.493858 0.487892
0.891432 0.493492 0.487587
0.994171 0.492927 0.487083
0 0.639017 0.50486
0.0871138 0.635904 0.501579
0.212406 0.630137 0.495415
0.353445 0.62739 0.491905
0.490379 0.625467 0.488563
0.628229 0.623072 0.486549
0.762417 0.62153 0.486839
0.893538 0.620783 0.48719
0.996109 0.620066 0.487053
0 0.765927 0.504631
0.0871138 0.762707 0.501122
0.216007 0.757031 0.494957
0.356573 0.754421 0.491524
0.492729 0.752636 0.488746
0.628077 0.750973 0.486656
0.762387 0.749462 0.486107
0.894453 0.748486 0.486488
0.997742 0.747509 0.486595
0 0.892866 0.504265
0.0871138 0.889525 0.500618
0.219577 0.883955 0.49456
0.35967 0.881437 0.491371
0.495277 0.879728 0.488914
0.629496 0.87837 0.487068
0.762875 0.87715 0.486076
0.894926 0.876188 0.48603
0.998993 0.87509 0.48603
0 1 0.5037
0.0871138 1 0.499901
0.222782 1 0.494057
0.362509 1 0.491066
0.497734 1 0.488853
0.631296 1 0.48719
0.763882 1 0.486107
0.895552 1 0.485756
0.999924 1 0.485512
0 0.00729381 0.616953
0.0871138 0.00395209 0.61384
0.195941 0.000228885 0.607492
0.33875 0 0.603677
0.475273 0 0.601282
0.608865 0 0.599374
0.740475 0 0.597894
0.870771 0 0.596857
0.981048 0 0.595834
0 0.13254 0.62089
0.0871138 0.128969 0.618128
0.203189 0.122499 0.612284
0.34612 0.118883 0.608988
0.482826 0.116716 0.606561
0.61651 0.115312 0.604517
0.74815 0.114488 0.60293
0.878355 0.114107 0.601785
0.985748 0.11368 0.600656
0 0.258869 0.622797
0.0871138 0.255268 0.620188
0.207233 0.248814 0.61474
0.350454 0.245136 0.611917
0.487831 0.242832 0.609689
0.622034 0.241382 0.607645
0.753902 0.240558 0.605997
0.884123 0.240208 0.604822
0.989349 0.23975 0.603677
0 0.385534 0.623652
0.0871138 0.382086 0.621073
0.209644 0.375799 0.615839
0.352789 0.372198 0.613596
0.491142 0.369574 0.611826
0.626352 0.367895 0.609674
0.758556 0.367086 0.607828
0.888838 0.366796 0.606607
0.992172 0.366323 0.605478
0 0.512245 0.62388
0.0871138 0.508949 0.621103
0.211521 0.502922 0.615778
0.353506 0.499702 0.613642
0.491875 0.497047 0.612787
0.629602 0.494667 0.610742
0.76231 0.493828 0.608484
0.892592 0.493507 0.607324
0.994476 0.493004 0.606332
0 0.639109 0.623758
0.0871138 0.635889 0.620722
0.213916 0.630121 0.615106
0.354665 0.627344 0.612467
0.490593 0.625483 0.610742
0.628428 0.623102 0.608713
0.764492 0.621241 0.607202
0.895186 0.620752 0.606821
0.996399 0.620066 0.606241
0 0.766094 0.623514
0.0871138 0.762829 0.620172
0.216922 0.757244 0.614343
0.357076 0.754665 0.611383
0.492409 0.753063 0.608988
0.626825 0.751751 0.606287
0.762936 0.749813 0.604746
0.895933 0.748547 0.605325
0.997986 0.747555 0.605386
0 0.893095 0.623041
0.0871138 0.889708 0.619547
0.220157 0.884276 0.613703
0.359915 0.881788 0.610681
0.495003 0.880217 0.608301
0.628763 0.879011 0.606104
0.762432 0.877791 0.60444
0.895491 0.876585 0.604181
0.999283 0.875288 0.604257
0 1 0.622293
0.0871138 1 0.618647
0.223224 1 0.612924
0.362631 1 0.610025
0.497505 1 0.607797
0.630808 1 0.605951
0.763455 1 0.60444
0.895567 1 0.603708
1 1 0.603418
0 0.00759899 0.734722
0.0871138 0.00434882 0.73164
0.196017 0.000350958 0.725444
0.338521 0 0.721736
0.475013 0 0.719509
0.608682 0 0.717769
0.740459 0 0.716365
0.870863 0 0.715389
0.981338 0 0.714351
0 0.132784 0.738781
0.0871138 0.129305 0.735973
0.203464 0.122957 0.730205
0.345968 0.119448 0.727092
0.482475 0.117327 0.724941
0.61622 0.115846 0.723156
0.748104 0.114977 0.721675
0.878477 0.114549 0.720562
0.986053 0.114061 0.719371
0 0.259037 0.740917
0.0871138 0.255436 0.738186
0.207996 0.249119 0.732738
0.3505 0.245686 0.730053
0.487404 0.243442 0.728176
0.621576 0.241947 0.726513
0.75375 0.241047 0.725017
0.88423 0.240604 0.723827
0.989639 0.240101 0.722606
0 0.385611 0.742077
0.0871138 0.382116 0.739422
0.211093 0.375891 0.734188
0.353445 0.372534 0.731899
0.490715 0.370199 0.730404
0.625605 0.368582 0.728908
0.758312 0.36759 0.727337
0.889021 0.367147 0.72604
0.992462 0.366613 0.724697
0 0.512306 0.74255
0.0871138 0.508858 0.739834
0.213489 0.502846 0.734646
0.355215 0.499702 0.732586
0.492439 0.497337 0.731594
0.628305 0.49543 0.730571
0.761975 0.494209 0.728878
0.893019 0.493767 0.727337
0.994766 0.493202 0.725856
0 0.6392 0.74258
0.0871138 0.635859 0.739666
0.215793 0.63003 0.734356
0.356573 0.627176 0.732204
0.492775 0.625147 0.731228
0.628611 0.623163 0.731121
0.764675 0.621256 0.729534
0.896223 0.620706 0.727535
0.996689 0.620096 0.726085
0 0.766217 0.742306
0.0871138 0.762829 0.739147
0.218387 0.757229 0.733684
0.358404 0.754681 0.731243
0.493538 0.752956 0.729702
0.627054 0.751766 0.728634
0.763149 0.749859 0.727092
0.897932 0.748257 0.725841
0.99826 0.747433 0.725139
0 0.893278 0.741833
0.0871138 0.88983 0.738415
0.221225 0.884382 0.732876
0.360739 0.881941 0.73022
0.495445 0.880461 0.728298
0.628428 0.879438 0.726513
0.761196 0.878553 0.724193
0.896025 0.876905 0.722942
0.999542 0.875319 0.723232
0 1 0.741054
0.0871138 1 0.737484
0.224048 1 0.731975
0.363195 1 0.729274
0.497704 1 0.727245
0.630518 1 0.725414
0.762707 1 0.723568
0.89514 1 0.722194
1 1 0.721706
0 0.00791943 0.852613
0.0871138 0.00469978 0.849531
0.196307 0.000488289 0.843381
0.338567 0 0.839857
0.474861 0 0.83769
0.608545 0 0.836088
0.740368 0 0.834821
0.870893 0 0.833921
0.981613 0 0.832914
0 0.133043 0.856733
0.0871138 0.12961 0.85391
0.203891 0.123339 0.848157
0.346029 0.119936 0.845136
0.482322 0.117845 0.843168
0.615976 0.116426 0.841596
0.747967 0.115511 0.840299
0.878477 0.115038 0.839277
0.986343 0.114473 0.838087
0 0.25922 0.858991
0.0871138 0.255695 0.856229
0.208728 0.24947 0.850767
0.350744 0.246128 0.848112
0.487236 0.244007 0.846448
0.621225 0.242557 0.845045
0.753491 0.241596 0.843793
0.88423 0.241154 0.842832
0.989944 0.240543 0.84155
0 0.385748 0.860319
0.0871138 0.382223 0.857618
0.212314 0.376089 0.852338
0.354116 0.372869 0.85005
0.49073 0.370748 0.848646
0.625162 0.369207 0.847486
0.75787 0.36817 0.846326
0.888838 0.367636 0.845228
0.992767 0.36701 0.8439
0 0.512383 0.861006
0.0871138 0.508873 0.858244
0.215152 0.502876 0.853086
0.356466 0.499855 0.851041
0.49305 0.497704 0.849973
0.627878 0.496071 0.84918
0.761273 0.494865 0.848142
0.892699 0.49424 0.846952
0.995071 0.493538 0.845426
0 0.639277 0.861234
0.0871138 0.635813 0.858351
0.217624 0.629984 0.853193
0.358312 0.627146 0.851179
0.494362 0.625177 0.850294
0.629129 0.623499 0.849943
0.763439 0.622003 0.849348
0.895918 0.621088 0.84799
0.996979 0.62031 0.846159
0 0.766323 0.861082
0.0871138 0.762844 0.857984
0.220066 0.757198 0.85275
0.360067 0.754604 0.850629
0.495308 0.752865 0.849561
0.629129 0.751446 0.849241
0.763317 0.749844 0.8495
0.898116 0.748302 0.848264
0.998535 0.747372 0.845914
0 0.8934 0.860594
0.0871138 0.889845 0.857282
0.222614 0.884398 0.852018
0.362036 0.881987 0.849714
0.496681 0.880446 0.84828
0.629511 0.879362 0.847318
0.761379 0.878553 0.846632
0.896193 0.876905 0.845365
0.999756 0.874983 0.843824
0 1 0.8598
0.0871138 1 0.856245
0.225162 1 0.851011
0.364141 1 0.848585
0.498451 1 0.846906
0.630945 1 0.845548
0.762341 1 0.844114
0.893889 1 0.842023
1 1 0.840574
0 0.00822461 0.970443
0.0871138 0.00500496 0.967361
0.196674 0.00062562 0.961318
0.33872 0 0.957885
0.474845 0 0.955764
0.608438 0 0.954299
0.740383 0 0.953201
0.870878 0 0.952331
0.981888 0 0.951385
0 0.133318 0.974624
0.0871138 0.129915 0.971771
0.204395 0.123751 0.966079
0.346242 0.120439 0.963149
0.482292 0.118379 0.961303
0.6159 0.11696 0.959869
0.747829 0.116045 0.958709
0.878431 0.115541 0.957794
0.986633 0.114961 0.956695
0 0.259449 0.977081
0.0871138 0.255909 0.974243
0.209476 0.249775 0.96875
0.351095 0.246571 0.966171
0.487266 0.244572 0.964614
0.621073 0.243122 0.963363
0.753246 0.242191 0.962325
0.884092 0.241688 0.961501
0.990219 0.241016 0.960311
0 0.385916 0.978561
0.0871138 0.382361 0.975753
0.213428 0.376318 0.970489
0.354742 0.373266 0.9682
0.490944 0.371237 0.966873
0.625025 0.369772 0.96585
0.757504 0.36878 0.964965
0.888609 0.368215 0.964141
0.993057 0.367514 0.962905
0 0.51252 0.979385
0.0871138 0.508949 0.976577
0.216571 0.502998 0.971435
0.357534 0.500099 0.96939
0.493645 0.498085 0.968307
0.627894 0.496605 0.967559
0.760845 0.495506 0.966873
0.892287 0.494835 0.966079
0.995361 0.494041 0.964736
0 0.639399 0.979736
0.0871138 0.635828 0.976806
0.219287 0.630045 0.97174
0.359762 0.627268 0.969833
0.495521 0.625391 0.968917
0.629725 0.62385 0.968475
0.763043 0.622599 0.968124
0.895171 0.621729 0.967437
0.997269 0.620798 0.965942
0 0.766461 0.979675
0.0871138 0.762829 0.976593
0.221775 0.757229 0.971527
0.361669 0.754635 0.969604
0.496925 0.75285 0.968673
0.63061 0.751446 0.968383
0.763851 0.750179 0.96846
0.896925 0.748974 0.9682
0.998825 0.747753 0.966506
0 0.893553 0.979355
0.0871138 0.889845 0.976013
0.224186 0.884474 0.970932
0.363531 0.882017 0.968887
0.498222 0.880446 0.967758
0.631189 0.87924 0.967254
0.763394 0.878218 0.967315
0.896376 0.876921 0.967895
0.999985 0.874983 0.966293
0 1 0.978515
0.0871138 1 0.975052
0.22652 1 0.970047
0.365393 1 0.967849
0.499672 1 0.966491
0.632105 1 0.965621
0.763363 1 0.964996
0.894057 1 0.964569
1 1 0.963088
