src/colors/teal_&_orange_vibes/signature_teal_&_orange.cube
TITLE "Generated by Resolve"
LUT_3D_SIZE 33
0 0.00616464 0.0301671
0.0217746 0.00474556 0.0287938
0.0435492 0.00390631 0.0279393
0.0653391 0.00303655 0.0268864
0.0871138 0.00210575 0.0256352
0.108904 0.00134279 0.0243839
0.130678 0.000686656 0.0229343
0.159503 0.000106813 0.0208896
0.196872 0 0.0195315
0.233082 0 0.0184939
0.268589 0 0.0176547
0.303655 0 0.0169375
0.338323 0 0.0163729
0.372549 0 0.0158083
0.406378 0 0.0153658
0.440055 0 0.0149538
0.473579 0 0.0145876
0.506981 0 0.0142824
0.540154 0 0.013962
0.573251 0 0.0137484
0.606226 0 0.0135195
0.639124 0 0.0133059
0.671916 0 0.013138
0.704646 0 0.0129702
0.737316 0 0.0128481
0.769848 0 0.0127413
0.802319 0 0.0126345
0.834745 0 0.0125887
0.867094 0 0.0125124
0.899413 0 0.0125277
0.931685 0 0.0124819
0.957732 0 0.0123445
0.979507 0 0.0121767
0 0.0382696 0.0298619
0.0217746 0.0368505 0.0285801
0.0435492 0.0355383 0.0281682
0.0653391 0.0343023 0.0274968
0.0871138 0.0329137 0.0264134
0.108904 0.0315862 0.0252689
0.130678 0.0300755 0.0239109
0.16173 0.0279698 0.0219272
0.199145 0.0266728 0.0206912
0.235355 0.0256199 0.0197147
0.270848 0.0247501 0.0188754
0.305852 0.0242161 0.0182193
0.340444 0.0237583 0.0175784
0.37464 0.0234379 0.0170596
0.408438 0.0231327 0.016556
0.442054 0.0229038 0.0161135
0.475502 0.0227665 0.0157473
0.508797 0.0225986 0.0153811
0.541985 0.0224918 0.0150759
0.575036 0.022385 0.0147707
0.60798 0.0222934 0.0144961
0.640818 0.0222019 0.0142824
0.673594 0.0221256 0.0140536
0.706264 0.0220645 0.013901
0.738872 0.0219883 0.0137484
0.77142 0.0219272 0.0135805
0.803891 0.0218509 0.0134737
0.836255 0.0217746 0.0133516
0.868574 0.0217746 0.0132601
0.900832 0.0217746 0.0131991
0.933013 0.0217746 0.013138
0.958465 0.0217746 0.0130159
0.980209 0.0217746 0.0128481
0 0.0697337 0.030457
0.0217746 0.0687266 0.0292515
0.0435492 0.0674754 0.0284886
0.0653391 0.0660868 0.0278172
0.0871138 0.0645609 0.0268406
0.108904 0.0630808 0.025803
0.130678 0.0614481 0.0244755
0.163195 0.0593118 0.0225834
0.200641 0.057969 0.0214237
0.236957 0.0569314 0.0205386
0.272541 0.0560616 0.0198062
0.307576 0.0552834 0.0191348
0.342214 0.0546426 0.0186007
0.376455 0.0540475 0.0180819
0.4103 0.0535592 0.0176394
0.443946 0.0531014 0.017258
0.477409 0.0526589 0.0168917
0.510765 0.0522927 0.0165713
0.543999 0.0519722 0.0162966
0.577081 0.0516518 0.0160372
0.610086 0.0514229 0.0158236
0.642939 0.0511635 0.01561
0.675731 0.0509804 0.0154421
0.708431 0.0507973 0.0153048
0.741054 0.0506447 0.0151827
0.773571 0.0505074 0.0150607
0.806027 0.0504005 0.0149691
0.838453 0.0502632 0.0148775
0.870802 0.0501869 0.0148013
0.903059 0.0501259 0.0147707
0.935302 0.0501106 0.0147707
0.960098 0.049958 0.0146181
0.981842 0.0497597 0.0144656
0 0.101167 0.0310216
0.0217746 0.100328 0.0299687
0.0435492 0.0992752 0.0290532
0.0653391 0.0979324 0.0282292
0.0871138 0.0962997 0.0272068
0.108904 0.0947433 0.0261692
0.130678 0.093019 0.0248875
0.164218 0.0907912 0.0230259
0.201801 0.0894331 0.0219272
0.238193 0.088365 0.021088
0.273838 0.0874495 0.0204013
0.308949 0.0866712 0.0198215
0.343633 0.0859998 0.0192874
0.37792 0.0853895 0.0188296
0.411765 0.0849012 0.0184329
0.445457 0.0844282 0.0180667
0.478996 0.0840009 0.0177462
0.512367 0.0836347 0.0174563
0.545602 0.083299 0.0171969
0.578714 0.0829938 0.016968
0.611719 0.0827344 0.0167849
0.644617 0.0825055 0.0166171
0.677409 0.0823072 0.0164492
0.71014 0.0821241 0.0163272
0.742748 0.0819562 0.0162203
0.775296 0.0818036 0.0160983
0.807797 0.0817121 0.0160372
0.840162 0.0816052 0.0159762
0.872496 0.0814832 0.0159152
0.904891 0.0814832 0.0159304
0.937087 0.0814069 0.0158999
0.961379 0.081239 0.0157626
0.983139 0.0810559 0.01561
0 0.132662 0.031632
0.0217746 0.131899 0.0306249
0.0435492 0.130953 0.0296788
0.0653391 0.129747 0.028748
0.0871138 0.128069 0.0275578
0.108904 0.126482 0.0264897
0.130678 0.124666 0.0251926
0.16492 0.122454 0.0233768
0.20264 0.120989 0.0223087
0.239124 0.11989 0.0215305
0.274891 0.118975 0.0208591
0.310048 0.118166 0.0202945
0.344854 0.117479 0.0198215
0.379126 0.116915 0.0194095
0.413062 0.116365 0.019028
0.446799 0.115892 0.018677
0.480369 0.11548 0.0184024
0.513726 0.115099 0.0181582
0.546975 0.114763 0.0179294
0.580118 0.114458 0.0177157
0.613138 0.114199 0.0175326
0.646036 0.113924 0.0173953
0.678859 0.113756 0.017258
0.711574 0.113542 0.0171359
0.744244 0.113359 0.0170291
0.776837 0.113237 0.0169833
0.809323 0.113115 0.0169223
0.841764 0.113024 0.0168917
0.874128 0.112963 0.016907
0.906401 0.112886 0.0168612
0.938674 0.112856 0.0168765
0.962539 0.112703 0.0167697
0.984298 0.112505 0.0166018
0 0.164126 0.0320897
0.0217746 0.163409 0.0311742
0.0435492 0.162539 0.0302739
0.0653391 0.161456 0.0293278
0.0871138 0.159869 0.0281376
0.108904 0.158236 0.0269169
0.130678 0.156405 0.0255283
0.165423 0.154147 0.0236973
0.203265 0.152667 0.0226291
0.239902 0.151522 0.0218509
0.275761 0.150546 0.0211948
0.311025 0.149737 0.0206912
0.3458 0.14905 0.0202487
0.380224 0.14847 0.0198825
0.414206 0.147906 0.0195163
0.447929 0.147417 0.0192264
0.481514 0.14699 0.018967
0.514946 0.146624 0.0187228
0.548241 0.146273 0.0185245
0.581399 0.145953 0.0183413
0.61442 0.145678 0.0181735
0.647379 0.145449 0.0180362
0.680201 0.14519 0.0178988
0.712932 0.145052 0.0178225
0.745617 0.1449 0.0177615
0.77818 0.144717 0.0176699
0.810712 0.144625 0.0176089
0.843183 0.144549 0.0176242
0.875532 0.144442 0.0175937
0.907835 0.144411 0.0176089
0.940093 0.14435 0.0176242
0.9635 0.144183 0.0175021
0.98526 0.143999 0.0173648
0 0.195621 0.0325628
0.0217746 0.194949 0.0317388
0.0435492 0.194141 0.030869
0.0653391 0.193133 0.0299382
0.0871138 0.191562 0.0286564
0.108904 0.190005 0.0274205
0.130678 0.188128 0.0259403
0.165835 0.18587 0.0240482
0.203784 0.18439 0.0229801
0.240497 0.1832 0.0221866
0.276448 0.182254 0.0215915
0.311803 0.181399 0.0210575
0.3467 0.180697 0.0206455
0.381155 0.180056 0.020264
0.415152 0.179507 0.0199588
0.448966 0.179065 0.0196841
0.482582 0.178592 0.0194095
0.51603 0.17818 0.0192111
0.549355 0.177844 0.019028
0.582528 0.177523 0.0188449
0.615625 0.177249 0.0187228
0.648554 0.176989 0.0185855
0.681407 0.17673 0.0184787
0.714199 0.176593 0.0184329
0.746853 0.176425 0.0183566
0.779461 0.176303 0.0183413
0.811963 0.176181 0.0183108
0.844434 0.176074 0.0182803
0.876829 0.175998 0.0182803
0.909148 0.175921 0.0182803
0.94139 0.17586 0.0183108
0.964401 0.175708 0.018204
0.98616 0.175494 0.0180819
0 0.227115 0.0330205
0.0217746 0.226474 0.0322271
0.0435492 0.225711 0.0313878
0.0653391 0.224765 0.0304875
0.0871138 0.22327 0.0291752
0.108904 0.221729 0.0278782
0.130678 0.219913 0.0263828
0.166308 0.217624 0.024445
0.204257 0.216114 0.0233463
0.241077 0.214939 0.0225528
0.277104 0.213962 0.0219272
0.312505 0.213138 0.0214389
0.347494 0.21239 0.0210117
0.381964 0.211749 0.0206607
0.416022 0.211185 0.0203555
0.449882 0.210681 0.0200809
0.483543 0.210224 0.019852
0.517052 0.209827 0.0196536
0.550378 0.209461 0.0194705
0.583581 0.209171 0.0193484
0.616648 0.208881 0.0192111
0.649668 0.208637 0.0191501
0.682536 0.208408 0.0190433
0.715312 0.208209 0.018967
0.748028 0.208057 0.0189364
0.780621 0.207889 0.0189059
0.813153 0.207782 0.0188907
0.845594 0.207675 0.0188907
0.877989 0.207584 0.0188907
0.910369 0.207523 0.0189059
0.942626 0.207446 0.0189517
0.96527 0.207279 0.0188449
0.98703 0.20708 0.0187076
0 0.258701 0.0334936
0.0217746 0.258045 0.0327306
0.0435492 0.257313 0.0319066
0.0653391 0.256397 0.0310216
0.0871138 0.254932 0.0296635
0.108904 0.253422 0.0283513
0.130678 0.251591 0.0267796
0.166735 0.249332 0.0248264
0.204715 0.247883 0.0236973
0.241581 0.246677 0.0228733
0.277653 0.245701 0.0222477
0.3131 0.244846 0.0217441
0.34815 0.244083 0.0213169
0.382666 0.243427 0.0209964
0.4168 0.242893 0.0206912
0.450721 0.242359 0.0204471
0.484367 0.241901 0.0202335
0.517906 0.241505 0.0200504
0.551293 0.241138 0.019913
0.584512 0.240818 0.0197604
0.617655 0.240543 0.0196841
0.650645 0.240269 0.0195773
0.683543 0.240085 0.0195315
0.716335 0.239872 0.0194705
0.749065 0.239689 0.0194095
0.781704 0.239536 0.0194095
0.814252 0.239414 0.019379
0.846723 0.239307 0.0194095
0.879133 0.239277 0.0194553
0.911452 0.239185 0.0194705
0.943771 0.239109 0.0195163
0.966079 0.238911 0.019379
0.987839 0.238697 0.0192721
0 0.290211 0.033875
0.0217746 0.289601 0.0331121
0.0435492 0.288884 0.0323186
0.0653391 0.287999 0.0314183
0.0871138 0.28658 0.0300908
0.108904 0.285084 0.0287633
0.130922 0.283268 0.0271611
0.1673 0.281056 0.0252079
0.205203 0.279606 0.024033
0.242054 0.278462 0.023209
0.278157 0.27744 0.0225528
0.313695 0.2766 0.022034
0.348714 0.275853 0.0216068
0.383307 0.275166 0.0212253
0.417533 0.274601 0.0209506
0.451392 0.274067 0.0207065
0.485176 0.273625 0.0205386
0.51873 0.273198 0.0203555
0.552178 0.272862 0.0202335
0.585443 0.272541 0.0201114
0.618555 0.272221 0.0200046
0.651591 0.271962 0.0199588
0.684504 0.271748 0.0198978
0.717311 0.271519 0.019852
0.750042 0.271382 0.0198672
0.782681 0.271214 0.0198367
0.815274 0.271077 0.0198367
0.847791 0.270985 0.0198825
0.880186 0.270893 0.019913
0.912566 0.270878 0.0199893
0.944839 0.270817 0.0200504
0.966827 0.270619 0.0199588
0.988586 0.270405 0.0198367
0 0.321752 0.0342412
0.0217746 0.321157 0.0335088
0.0435492 0.32047 0.0327459
0.0653391 0.3196 0.0318761
0.0871138 0.318212 0.0305486
0.108904 0.316732 0.0291905
0.131258 0.314916 0.0275273
0.167956 0.312734 0.0255741
0.205768 0.311345 0.0244297
0.242603 0.310185 0.0235447
0.278691 0.309209 0.0228885
0.31426 0.308354 0.0223392
0.349325 0.307591 0.0219272
0.383978 0.30695 0.021561
0.418128 0.30634 0.0212558
0.45214 0.305852 0.0210727
0.485893 0.305348 0.0208286
0.519509 0.304936 0.0206912
0.552972 0.30457 0.0205539
0.586252 0.304219 0.0204318
0.619425 0.303929 0.0203555
0.652461 0.30367 0.0202792
0.685405 0.303426 0.0202335
0.718242 0.303258 0.0202182
0.750973 0.303059 0.0202182
0.783673 0.302937 0.0202487
0.816236 0.302815 0.020264
0.848737 0.302693 0.0202792
0.881224 0.302602 0.0203403
0.913573 0.302541 0.0204013
0.945785 0.302495 0.0204776
0.967544 0.302281 0.0203555
0.989303 0.302037 0.0202487
0 0.353292 0.0345617
0.0217746 0.352728 0.0338598
0.0435492 0.352026 0.0331121
0.0653391 0.351186 0.0322728
0.0871138 0.349813 0.0309758
0.108904 0.348394 0.0296025
0.131563 0.346532 0.0279088
0.168627 0.344457 0.0259861
0.206363 0.343038 0.0248112
0.243183 0.341924 0.0239414
0.279255 0.340948 0.0232242
0.314778 0.340108 0.0226902
0.349905 0.339345 0.0222324
0.384558 0.338689 0.0218814
0.418769 0.338125 0.0215915
0.452781 0.337575 0.0213474
0.486595 0.337102 0.021149
0.520241 0.336675 0.0209812
0.553674 0.336294 0.0208438
0.586984 0.335958 0.0207675
0.620172 0.335653 0.020676
0.653254 0.335378 0.0206149
0.686259 0.335149 0.0206149
0.719097 0.334951 0.0205844
0.751888 0.334783 0.0205844
0.784558 0.334676 0.0206302
0.817136 0.334524 0.0206455
0.849638 0.334401 0.0206912
0.882078 0.334295 0.0207523
0.914519 0.334234 0.0208133
0.946456 0.334173 0.0208591
0.968231 0.333944 0.0207675
0.98999 0.33373 0.0206607
0 0.384848 0.0349126
0.0217746 0.384268 0.0342565
0.0435492 0.383597 0.0335241
0.0653391 0.382788 0.0326848
0.0871138 0.381384 0.031342
0.108904 0.37995 0.0299992
0.131914 0.378119 0.0282597
0.16936 0.376074 0.0263523
0.207019 0.374762 0.0251926
0.243763 0.373648 0.0242924
0.27982 0.372671 0.0235904
0.315328 0.371847 0.0230106
0.350454 0.371099 0.0225528
0.385092 0.370443 0.0221866
0.419348 0.369833 0.0218662
0.453391 0.369329 0.021622
0.487205 0.368841 0.0214237
0.520821 0.368414 0.0212711
0.554314 0.368048 0.0211337
0.587686 0.367712 0.0210575
0.620905 0.367422 0.0209964
0.653986 0.367147 0.0209354
0.686976 0.366918 0.0209201
0.719875 0.36669 0.0209201
0.752667 0.366506 0.0209049
0.785382 0.366384 0.0209354
0.81799 0.366232 0.0209812
0.850507 0.366094 0.0210117
0.882963 0.366033 0.021088
0.915343 0.365957 0.0211643
0.947127 0.365881 0.0212253
0.968887 0.365652 0.0211337
0.990662 0.365423 0.0210727
0 0.416388 0.0352483
0.0217746 0.415808 0.0345769
0.0435492 0.415122 0.0338598
0.0653391 0.414313 0.0330205
0.0871138 0.412924 0.031693
0.108904 0.411521 0.0303349
0.132265 0.409644 0.0285496
0.170169 0.407691 0.0266728
0.207675 0.406378 0.0255131
0.244343 0.40531 0.0246128
0.280385 0.404364 0.0239109
0.315892 0.40354 0.0233158
0.350988 0.402808 0.022858
0.385657 0.402152 0.0224765
0.419928 0.401572 0.0221561
0.453941 0.401022 0.0218967
0.487785 0.400565 0.0217136
0.521462 0.400153 0.021561
0.554971 0.399741 0.0214084
0.588357 0.399405 0.0213321
0.621592 0.39913 0.0212558
0.654719 0.398856 0.0212253
0.687724 0.398627 0.0211948
0.720623 0.398398 0.0211948
0.753414 0.39823 0.0212253
0.786114 0.398062 0.0212406
0.818784 0.39791 0.0212711
0.851347 0.397818 0.0213474
0.883818 0.397711 0.0213931
0.916228 0.397681 0.0215457
0.947738 0.39762 0.0217136
0.969497 0.397391 0.0216526
0.991272 0.397177 0.021561
0 0.447929 0.0355077
0.0217746 0.447349 0.0348516
0.0435492 0.446677 0.0341497
0.0653391 0.445869 0.0333257
0.0871138 0.444526 0.0320287
0.108904 0.443076 0.0306401
0.132738 0.44123 0.0288396
0.170947 0.439292 0.0269932
0.208423 0.438025 0.0258335
0.245045 0.436957 0.0249332
0.280995 0.436042 0.0241855
0.316503 0.435233 0.0235904
0.351553 0.434516 0.0231022
0.386267 0.43389 0.0227359
0.420462 0.43328 0.0224002
0.454505 0.432776 0.0221408
0.48838 0.432303 0.0219425
0.522072 0.431876 0.0217746
0.555627 0.43151 0.0216526
0.588998 0.431144 0.0215457
0.622278 0.430838 0.0214847
0.655406 0.430564 0.0214542
0.688411 0.43032 0.0214237
0.72134 0.430091 0.0214389
0.754147 0.429938 0.0214542
0.786862 0.429755 0.0214847
0.819532 0.429664 0.0215915
0.852094 0.42948 0.0217136
0.884627 0.429419 0.0218051
0.917037 0.429389 0.0219272
0.948318 0.429297 0.0219883
0.970077 0.429053 0.021912
0.991852 0.428824 0.0218357
0 0.479484 0.0357824
0.0217746 0.478904 0.0351415
0.0435492 0.478264 0.0344396
0.0653391 0.477485 0.0336309
0.0871138 0.476127 0.0323186
0.108904 0.474723 0.0309606
0.133288 0.47277 0.0290837
0.171847 0.470939 0.0272984
0.209186 0.469673 0.026154
0.245747 0.468666 0.0252689
0.281636 0.467735 0.0245212
0.317067 0.466941 0.0239261
0.352163 0.466224 0.0234379
0.386801 0.465583 0.0230259
0.421042 0.46508 0.0227054
0.455116 0.46453 0.0224308
0.48896 0.464027 0.0222019
0.522683 0.463645 0.022034
0.556191 0.463233 0.021912
0.589593 0.462867 0.0217899
0.622858 0.462562 0.0217288
0.656016 0.462318 0.0216831
0.689067 0.462043 0.0216678
0.722011 0.461814 0.0217136
0.754849 0.461646 0.0218204
0.787594 0.461509 0.0218967
0.820233 0.461387 0.0219425
0.852811 0.46128 0.0220188
0.885359 0.461158 0.0220951
0.917784 0.461051 0.0221866
0.948882 0.460975 0.0222629
0.970642 0.460746 0.0221714
0.992416 0.460502 0.0220951
0 0.511055 0.0360266
0.0217746 0.510491 0.0354009
0.0435492 0.50985 0.0347143
0.0653391 0.509041 0.0339055
0.0871138 0.507668 0.0326085
0.108904 0.506294 0.0312352
0.133928 0.504326 0.0293431
0.172732 0.502556 0.0276188
0.209964 0.50132 0.0264897
0.246464 0.500328 0.0255894
0.282338 0.499443 0.0248569
0.317723 0.498665 0.0242618
0.352758 0.497963 0.0237278
0.387366 0.497353 0.023331
0.421622 0.496757 0.0229801
0.455665 0.496254 0.0226902
0.489509 0.495781 0.0224765
0.523186 0.495369 0.0222934
0.556725 0.494987 0.0221561
0.590158 0.494636 0.0220493
0.623438 0.494316 0.021973
0.656596 0.494057 0.022034
0.689647 0.493782 0.0220493
0.722637 0.493614 0.0220645
0.755489 0.4934 0.0220798
0.788266 0.493233 0.0221256
0.820935 0.493095 0.0222019
0.853513 0.492973 0.0222629
0.886015 0.492897 0.0223697
0.918502 0.49279 0.0224308
0.949416 0.492683 0.0225071
0.971176 0.492439 0.0224308
0.99295 0.492195 0.0223545
0 0.542702 0.0363165
0.0217746 0.542138 0.0357061
0.0435492 0.541482 0.0350195
0.0653391 0.540673 0.034226
0.0871138 0.539284 0.0328832
0.108904 0.53785 0.0314946
0.134676 0.535882 0.0295415
0.173632 0.534173 0.0278935
0.210758 0.532982 0.0267796
0.247166 0.531991 0.0258946
0.282994 0.531167 0.0251621
0.318364 0.530388 0.0245365
0.353338 0.529686 0.0240482
0.387945 0.529091 0.0236057
0.422187 0.528511 0.0232395
0.456184 0.527977 0.0229496
0.490028 0.52755 0.0227359
0.523751 0.527123 0.0225528
0.557305 0.526726 0.022385
0.590738 0.526375 0.0223545
0.624018 0.526101 0.0223545
0.657221 0.525811 0.0223087
0.690272 0.525597 0.0222934
0.723217 0.525353 0.0222934
0.756085 0.525185 0.0223239
0.788861 0.525002 0.0223545
0.821561 0.524834 0.0224155
0.85417 0.524758 0.0225071
0.886687 0.524605 0.0225834
0.919112 0.524529 0.0226749
0.949981 0.524468 0.0228122
0.971756 0.524239 0.0227359
0.993515 0.52398 0.0226596
0 0.574304 0.0365606
0.0217746 0.573739 0.035935
0.0435492 0.573098 0.0352636
0.0653391 0.57229 0.0344701
0.0871138 0.570932 0.0331426
0.108904 0.569467 0.0317235
0.13576 0.567452 0.0297398
0.174502 0.565805 0.0281529
0.211597 0.56463 0.0270542
0.247929 0.563668 0.0261845
0.283665 0.562844 0.025452
0.319036 0.562112 0.0248417
0.353964 0.56141 0.0243076
0.388586 0.56083 0.0238956
0.422736 0.560281 0.0235142
0.456748 0.559777 0.0231937
0.490639 0.559304 0.0229648
0.524315 0.558907 0.0227817
0.5579 0.558541 0.0227512
0.591302 0.558206 0.0226291
0.624598 0.557855 0.0225376
0.657801 0.557626 0.0225071
0.690852 0.557351 0.0224613
0.723812 0.557153 0.0224765
0.756695 0.556939 0.0225071
0.789456 0.556771 0.0225376
0.822171 0.556619 0.0225986
0.854826 0.556481 0.0226596
0.887373 0.556405 0.0227817
0.919829 0.556359 0.0229038
0.950423 0.556237 0.0229801
0.972198 0.555978 0.0229038
0.993957 0.555734 0.0228275
0 0.60592 0.0367742
0.0217746 0.605356 0.0361639
0.0435492 0.60473 0.0355077
0.0653391 0.603937 0.0347143
0.0871138 0.602548 0.0333562
0.108904 0.601114 0.0319524
0.136919 0.599008 0.0298772
0.175433 0.597467 0.0283818
0.212436 0.596338 0.0272831
0.248707 0.595407 0.0264134
0.284413 0.594553 0.0256657
0.319692 0.59382 0.0250553
0.35462 0.593164 0.0245518
0.389166 0.592599 0.0241093
0.423346 0.59205 0.023743
0.457359 0.591546 0.0234531
0.491188 0.591073 0.0231632
0.524895 0.590677 0.0231022
0.55845 0.590311 0.0229496
0.591867 0.58996 0.0228275
0.625177 0.589654 0.0227359
0.658335 0.58938 0.0226749
0.691432 0.589151 0.0226596
0.724407 0.588922 0.0226596
0.75729 0.588724 0.0226902
0.790066 0.588602 0.0227512
0.822751 0.588388 0.022797
0.85539 0.588281 0.0228733
0.887999 0.58819 0.0229801
0.920439 0.588098 0.0230564
0.950896 0.587976 0.0231327
0.972656 0.587732 0.0230716
0.99443 0.587472 0.0229953
0 0.637568 0.0369726
0.0217746 0.637003 0.0363622
0.0435492 0.636378 0.0357214
0.0653391 0.635569 0.0349432
0.0871138 0.63418 0.0335699
0.108904 0.632731 0.0321508
0.138048 0.630625 0.0300755
0.176364 0.629129 0.0286107
0.21326 0.628046 0.0275425
0.249485 0.6271 0.0266728
0.285176 0.626307 0.0259403
0.320394 0.625574 0.0253452
0.355291 0.624918 0.0248112
0.389761 0.624338 0.0243839
0.423941 0.623804 0.0240024
0.457938 0.623301 0.023682
0.491768 0.622873 0.0234836
0.525429 0.622477 0.023331
0.558968 0.622095 0.0231632
0.592371 0.621759 0.0230411
0.62565 0.621454 0.0229496
0.658854 0.621164 0.0229038
0.691951 0.620935 0.0228428
0.724941 0.620691 0.022858
0.757839 0.620539 0.0228885
0.790631 0.620325 0.0229191
0.823331 0.620203 0.0229801
0.855955 0.620081 0.0230564
0.888533 0.619959 0.0231479
0.921035 0.619867 0.0232395
0.951339 0.61973 0.0233005
0.973114 0.619486 0.0232242
0.994888 0.619226 0.0231479
0 0.669245 0.0371557
0.0217746 0.668681 0.0365606
0.0435492 0.668055 0.0358892
0.0653391 0.667247 0.0350958
0.0871138 0.665812 0.0337224
0.108904 0.664317 0.0323033
0.139193 0.662257 0.0302129
0.177264 0.660822 0.0288243
0.214115 0.659724 0.0277714
0.250248 0.658793 0.0269017
0.285878 0.658015 0.0261997
0.321065 0.657282 0.0255741
0.355886 0.656657 0.0250706
0.390372 0.656077 0.0246128
0.424521 0.655543 0.0242313
0.458503 0.655039 0.0239109
0.492256 0.654643 0.0237736
0.525933 0.654276 0.0235447
0.559472 0.653864 0.0233768
0.592874 0.653559 0.0232548
0.626184 0.653269 0.0231479
0.659373 0.652979 0.0231022
0.69247 0.652735 0.0230716
0.725429 0.652522 0.0230411
0.758358 0.652308 0.0230564
0.791165 0.65214 0.0231022
0.82388 0.651987 0.0231479
0.856504 0.651865 0.0232242
0.889067 0.651743 0.0233158
0.921553 0.651652 0.0234073
0.951797 0.65153 0.0234836
0.973571 0.651286 0.0234073
0.995346 0.651026 0.023331
0 0.700893 0.0373236
0.0217746 0.700343 0.0367285
0.0435492 0.699702 0.0360723
0.0653391 0.698894 0.0352941
0.0871138 0.697444 0.0339208
0.108904 0.695933 0.0324407
0.14023 0.693843 0.0303655
0.178164 0.692485 0.0290379
0.214939 0.691386 0.027985
0.251026 0.690532 0.0271458
0.28658 0.689754 0.0264286
0.321752 0.689021 0.0258183
0.356542 0.688396 0.0252842
0.391012 0.687831 0.0248417
0.425132 0.687327 0.0244755
0.459022 0.68687 0.0242161
0.492851 0.686442 0.0240024
0.526482 0.68603 0.0237583
0.560052 0.685725 0.0236057
0.593439 0.685359 0.0234531
0.626719 0.685054 0.0233463
0.659922 0.68481 0.0232853
0.692988 0.684535 0.0232548
0.725948 0.684321 0.0232242
0.758846 0.684138 0.0232395
0.791669 0.683955 0.0232548
0.824399 0.683757 0.0233005
0.857053 0.68368 0.0233768
0.889601 0.683543 0.0234684
0.922133 0.683513 0.0236057
0.952193 0.68336 0.023682
0.973968 0.683116 0.0236057
0.995743 0.682857 0.0235142
0 0.732555 0.0374762
0.0217746 0.732006 0.0368811
0.0435492 0.731365 0.0362402
0.0653391 0.730571 0.035462
0.0871138 0.729122 0.0340887
0.108904 0.727581 0.032578
0.141268 0.725505 0.030518
0.179065 0.724163 0.0292058
0.215778 0.72311 0.0281987
0.251804 0.722225 0.0273442
0.287327 0.721447 0.0266423
0.322423 0.720775 0.0260319
0.357229 0.72015 0.0255131
0.391669 0.7196 0.0250553
0.425696 0.719097 0.0246738
0.459663 0.718669 0.0244907
0.493416 0.718212 0.0241855
0.527062 0.717845 0.0239567
0.560601 0.717494 0.0237583
0.593973 0.717159 0.023621
0.627268 0.716838 0.0235142
0.660426 0.716594 0.0234226
0.693492 0.716335 0.0233616
0.726482 0.716106 0.0233616
0.759335 0.715892 0.0233463
0.792172 0.715785 0.0234073
0.824887 0.715618 0.0234379
0.857557 0.71545 0.0234836
0.890166 0.715373 0.0235904
0.922637 0.715282 0.023682
0.952575 0.71516 0.0237583
0.974334 0.714885 0.023682
0.996109 0.714641 0.0236057
0 0.764248 0.037644
0.0217746 0.763699 0.0370489
0.0435492 0.763073 0.0364385
0.0653391 0.762249 0.0356298
0.0871138 0.760784 0.034226
0.108904 0.759243 0.0327001
0.14229 0.757137 0.0306249
0.17998 0.755856 0.0293584
0.216587 0.754818 0.0283513
0.252583 0.753979 0.0275578
0.28809 0.753201 0.0268254
0.323125 0.752529 0.0262303
0.357931 0.751919 0.0257115
0.392264 0.751385 0.0252689
0.426337 0.750896 0.0249027
0.460243 0.750439 0.0246586
0.494011 0.750011 0.0243839
0.527642 0.74963 0.0241398
0.561105 0.749249 0.0239414
0.594476 0.748959 0.0237888
0.627741 0.748669 0.0236515
0.660914 0.748394 0.0235599
0.693996 0.748165 0.0235142
0.72697 0.747936 0.0234684
0.759869 0.747768 0.0234836
0.79266 0.74757 0.0234989
0.825391 0.747433 0.0235752
0.858045 0.747326 0.0236362
0.890654 0.747173 0.023682
0.923156 0.747082 0.0237888
0.952941 0.746944 0.0238346
0.974716 0.74667 0.0237583
0.99649 0.746426 0.0236667
0 0.795972 0.0378119
0.0217746 0.795422 0.037232
0.0435492 0.794781 0.0365911
0.0653391 0.793957 0.0357671
0.0871138 0.792477 0.0343633
0.108904 0.790875 0.0327764
0.143389 0.788861 0.0307622
0.180865 0.787533 0.0294652
0.217456 0.786542 0.0284886
0.253376 0.785672 0.0276646
0.288823 0.784955 0.026978
0.323857 0.784283 0.0263828
0.358602 0.783688 0.025864
0.392889 0.783154 0.0254215
0.426963 0.782666 0.0251469
0.460838 0.782193 0.0248112
0.494545 0.781796 0.0245212
0.528115 0.781415 0.0242924
0.561593 0.781094 0.0240787
0.594949 0.780789 0.0239261
0.628244 0.780499 0.0238041
0.661387 0.780224 0.0237125
0.694469 0.779995 0.0236667
0.727474 0.779797 0.023621
0.760357 0.779568 0.0236057
0.793164 0.779416 0.0236515
0.825864 0.779232 0.023682
0.858518 0.77911 0.023743
0.891096 0.778988 0.0238041
0.923629 0.778866 0.0238804
0.953292 0.778744 0.0239261
0.975067 0.77847 0.0238499
0.996841 0.77821 0.0237583
0 0.82768 0.0379034
0.0217746 0.827115 0.0373236
0.0435492 0.826474 0.0366827
0.0653391 0.825589 0.0358587
0.0871138 0.824125 0.0344549
0.108904 0.822507 0.0328374
0.144335 0.820523 0.0308843
0.181811 0.819272 0.0296178
0.218265 0.818265 0.0286412
0.25417 0.817426 0.0278325
0.289525 0.816678 0.0271458
