src/colors/teal_&_orange_vibes/sunset_orange.cube
#Created by: Adobe Photoshop Export Color Lookup Plugin
#Copyright: (C) Copyright 2019 © Alexander Barrels
TITLE "Alexanderbarrels_FilmicSoft.png"
#LUT size
LUT_3D_SIZE 32
#data domain
DOMAIN_MIN 0.0 0.0 0.0
DOMAIN_MAX 1.0 1.0 1.0
#LUT data points
0.003937 0.000000 0.000000
0.039734 0.000000 0.000000
0.071594 0.000244 0.000000
0.110931 0.000000 0.000000
0.139771 0.000000 0.000000
0.175720 0.000000 0.000000
0.215546 0.000763 0.000000
0.254517 0.000000 0.004791
0.286407 0.002899 0.002899
0.321045 0.002777 0.000000
0.350159 0.001251 0.000000
0.395172 0.002533 0.001404
0.429596 0.001526 0.000000
0.461456 0.002289 0.001648
0.493347 0.000000 0.001770
0.531158 0.000000 0.002014
0.563080 0.000000 0.003937
0.600769 0.000000 0.001770
0.628082 0.000000 0.000000
0.666931 0.002411 0.000000
0.700317 0.001404 0.002533
0.732208 0.002655 0.005310
0.766876 0.001129 0.000000
0.799896 0.000000 0.000000
0.828735 0.003052 0.000000
0.866791 0.003174 0.003174
0.891602 0.003296 0.007202
0.924469 0.003418 0.000519
0.959259 0.000000 0.000000
0.991150 0.000000 0.000000
0.996216 0.000122 0.000122
0.996063 0.000000 0.000000
0.011780 0.019989 0.008087
0.039337 0.024048 0.012024
0.079315 0.027832 0.003937
0.107391 0.027954 0.000000
0.143463 0.028076 0.003418
0.182404 0.027588 0.000000
0.216187 0.027954 0.000763
0.254150 0.026428 0.000000
0.282593 0.024292 0.000000
0.319519 0.019104 0.000000
0.358246 0.020111 0.001404
0.389984 0.020111 0.000122
0.429596 0.018585 0.001526
0.465393 0.012268 0.006073
0.491455 0.010101 0.000000
0.532806 0.008209 0.000122
0.561432 0.004425 0.002014
0.601044 0.000641 0.009613
0.633301 0.002014 0.000122
0.672241 0.000122 0.000122
0.704254 0.000000 0.000000
0.738800 0.000000 0.000000
0.766357 0.002777 0.000000
0.798737 0.006592 0.000122
0.834656 0.000000 0.000000
0.864532 0.000885 0.001648
0.891479 0.003174 0.000000
0.927277 0.000122 0.000000
0.955841 0.000519 0.000885
0.991516 0.000244 0.000244
0.999756 0.003662 0.003662
0.999878 0.003784 0.003784
0.031616 0.040222 0.028198
0.038971 0.047699 0.028076
0.063751 0.051727 0.015930
0.114471 0.048187 0.008087
0.150543 0.059570 0.000000
0.180267 0.063385 0.000000
0.216309 0.059326 0.000244
0.254272 0.059570 0.000244
0.289795 0.053497 0.006592
0.322205 0.052246 0.000000
0.354309 0.053253 0.002014
0.401367 0.052002 0.002533
0.427826 0.048309 0.000000
0.466766 0.047180 0.000000
0.495117 0.046539 0.001526
0.533051 0.044525 0.003662
0.559662 0.042114 0.000000
0.598877 0.032623 0.001892
0.631500 0.030609 0.005707
0.669708 0.025055 0.001526
0.700836 0.019989 0.000000
0.734619 0.015442 0.000000
0.769135 0.010254 0.001404
0.799622 0.003296 0.003662
0.833649 0.001892 0.000000
0.864655 0.001007 0.001526
0.895752 0.000244 0.000000
0.926880 0.000519 0.000000
0.958649 0.006958 0.000000
0.986969 0.003662 0.007080
0.996063 0.000000 0.000000
0.996338 0.000244 0.000244
0.050232 0.060730 0.048187
0.048584 0.067047 0.051727
0.063629 0.075378 0.047424
0.094879 0.079956 0.032501
0.135986 0.083618 0.012390
0.186951 0.087799 0.000366
0.219482 0.091705 0.000000
0.254517 0.094757 0.000366
0.291077 0.091461 0.001007
0.330048 0.087799 0.002777
0.355347 0.090820 0.000000
0.391266 0.087402 0.001770
0.426819 0.083862 0.002258
0.465393 0.080322 0.002289
0.500183 0.083862 0.001770
0.534332 0.080322 0.002014
0.563843 0.076416 0.000000
0.600769 0.074615 0.000000
0.637848 0.070587 0.000000
0.670715 0.069061 0.000366
0.703857 0.066406 0.001404
0.735229 0.058044 0.000366
0.770416 0.054382 0.002777
0.805054 0.046814 0.003540
0.829102 0.042358 0.000000
0.866791 0.034790 0.000366
0.895752 0.027435 0.003540
0.920319 0.022247 0.000000
0.962433 0.014404 0.003540
0.994934 0.003143 0.000519
0.992920 0.001892 0.000366
0.996063 0.001526 0.000000
0.055908 0.092224 0.077911
0.071228 0.087799 0.082367
0.064514 0.091949 0.064270
0.087799 0.099945 0.056915
0.134857 0.108398 0.037323
0.175568 0.104095 0.024414
0.222382 0.115997 0.007599
0.258820 0.120544 0.000000
0.297638 0.126495 0.000519
0.332306 0.121948 0.000641
0.361908 0.119659 0.004181
0.393280 0.119171 0.002533
0.426178 0.120667 0.006836
0.464233 0.115631 0.003296
0.499420 0.115479 0.000000
0.536469 0.112823 0.000000
0.567383 0.117645 0.001526
0.599640 0.109680 0.000519
0.634430 0.109558 0.001770
0.677185 0.102081 0.000000
0.705627 0.103088 0.001404
0.739532 0.100555 0.000000
0.773193 0.095490 0.001007
0.801392 0.089813 0.000000
0.828339 0.088287 0.000000
0.866302 0.087524 0.003418
0.899445 0.083862 0.000000
0.927399 0.077026 0.005829
0.954834 0.069702 0.000519
0.987488 0.062622 0.003937
0.999237 0.054657 0.003937
0.996582 0.043762 0.000000
0.075134 0.112946 0.092102
0.084381 0.107788 0.091827
0.085144 0.111328 0.084259
0.094360 0.116364 0.087158
0.118896 0.135742 0.074127
0.162689 0.135864 0.054901
0.207336 0.138000 0.034790
0.252106 0.146606 0.015808
0.297791 0.148376 0.001251
0.329529 0.157104 0.000000
0.361267 0.156097 0.001251
0.397705 0.152924 0.000000
0.436554 0.152191 0.000000
0.470947 0.148254 0.000641
0.501678 0.146088 0.001129
0.536987 0.148254 0.001251
0.569031 0.146240 0.000641
0.607117 0.145477 0.000641
0.636566 0.143066 0.001648
0.672363 0.139160 0.001770
0.698425 0.141174 0.002014
0.738800 0.137756 0.003296
0.770782 0.134094 0.002167
0.804810 0.127380 0.000000
0.829102 0.128021 0.000000
0.864899 0.125610 0.000000
0.895508 0.120178 0.000000
0.931305 0.116882 0.003418
0.958893 0.115875 0.000641
0.993805 0.109283 0.000000
0.996704 0.107788 0.006592
0.990143 0.101196 0.003296
0.085388 0.142700 0.113739
0.099792 0.134735 0.115234
0.111816 0.131439 0.110168
0.103851 0.143066 0.108521
0.118408 0.152313 0.099548
0.143066 0.162933 0.082214
0.193665 0.170898 0.072235
0.242889 0.160034 0.044525
0.289551 0.174072 0.017944
0.337891 0.175201 0.002777
0.369263 0.179504 0.000000
0.394562 0.187347 0.000763
0.432739 0.185822 0.001526
0.470947 0.183411 0.001770
0.495117 0.180511 0.006317
0.533051 0.183411 0.003540
0.568909 0.179504 0.000000
0.606079 0.177734 0.000000
0.639740 0.175568 0.000763
0.676300 0.174072 0.000000
0.706024 0.169891 0.001770
0.740051 0.170898 0.001251
0.769531 0.171661 0.001526
0.799896 0.166992 0.002899
0.837952 0.160767 0.003052
0.865143 0.163055 0.000000
0.892212 0.157990 0.000000
0.926880 0.153320 0.002655
0.963196 0.151672 0.000000
0.989258 0.148132 0.000763
1.000000 0.147369 0.000763
0.996063 0.137878 0.000000
0.104614 0.173431 0.127258
0.123322 0.163422 0.132324
0.132690 0.157104 0.139893
0.136353 0.156982 0.132935
0.128632 0.173950 0.134979
0.145721 0.183411 0.115112
0.175323 0.191650 0.097137
0.222260 0.196564 0.080200
0.270844 0.191895 0.060333
0.322693 0.195312 0.031006
0.369263 0.203918 0.003540
0.404175 0.207458 0.000000
0.436798 0.217712 0.000885
0.467163 0.215302 0.000000
0.500305 0.217468 0.002167
0.532928 0.214417 0.002899
0.568909 0.214539 0.001892
0.606079 0.210480 0.001770
0.636047 0.209106 0.001648
0.673889 0.209869 0.000000
0.705139 0.207458 0.000000
0.741302 0.204803 0.000000
0.771912 0.204407 0.000000
0.804688 0.202637 0.001770
0.829987 0.198730 0.002167
0.864532 0.196564 0.003784
0.895508 0.190002 0.000885
0.931305 0.184814 0.000000
0.959656 0.187988 0.006592
0.990265 0.187836 0.005829
0.999878 0.181030 0.006958
1.000000 0.176971 0.000000
0.124603 0.188354 0.146240
0.142181 0.190247 0.152039
0.143951 0.184174 0.152802
0.156342 0.180145 0.162567
0.148621 0.190765 0.156372
0.153046 0.200378 0.143585
0.169495 0.215302 0.128510
0.207458 0.219604 0.112091
0.259827 0.227570 0.095123
0.301178 0.217834 0.071228
0.351654 0.222900 0.036316
0.397095 0.230865 0.001007
0.442749 0.238831 0.000000
0.474609 0.242889 0.001007
0.507874 0.248322 0.005676
0.542816 0.244263 0.002014
0.568909 0.244263 0.001892
0.607849 0.243256 0.000000
0.641510 0.243256 0.005188
0.677795 0.241852 0.003021
0.710571 0.239471 0.000000
0.742950 0.236664 0.000000
0.772308 0.236420 0.005707
0.800995 0.231506 0.002899
0.834656 0.232361 0.000000
0.864655 0.224396 0.001007
0.893860 0.226929 0.003937
0.927887 0.222626 0.003418
0.957123 0.223663 0.000000
0.988739 0.217072 0.000000
0.998993 0.215790 0.000000
0.997986 0.211884 0.000000
0.149658 0.220245 0.173187
0.153564 0.216309 0.176086
0.163574 0.208466 0.176208
0.172791 0.206940 0.187714
0.173798 0.211121 0.180389
0.172028 0.220367 0.173676
0.178375 0.236816 0.163818
0.203796 0.243500 0.142059
0.239349 0.252350 0.126892
0.289673 0.259460 0.103088
0.337494 0.248077 0.096130
0.386200 0.249847 0.060089
0.430481 0.259827 0.013519
0.477661 0.265533 0.005066
0.511810 0.267914 0.004944
0.542053 0.273621 0.000000
0.573181 0.279053 0.003021
0.607880 0.277283 0.000000
0.644409 0.276276 0.001129
0.684143 0.276276 0.000000
0.709808 0.268433 0.000000
0.742828 0.265656 0.001251
0.769653 0.268433 0.002777
0.800903 0.268311 0.000000
0.833771 0.264374 0.000000
0.869446 0.260193 0.004822
0.900452 0.261597 0.006073
0.927887 0.256042 0.001129
0.958893 0.255157 0.000763
0.990265 0.250214 0.000000
0.997467 0.248810 0.000000
1.000000 0.244904 0.000000
0.164581 0.244263 0.193420
0.176453 0.246796 0.197723
0.183411 0.237427 0.200104
0.191132 0.236053 0.208221
0.204437 0.234406 0.210999
0.196564 0.242371 0.204407
0.199860 0.254761 0.194427
0.207825 0.259583 0.186829
0.237061 0.275391 0.166473
0.274750 0.280579 0.143951
0.321289 0.291321 0.127869
0.368103 0.272980 0.104614
0.420471 0.270721 0.077301
0.464752 0.282593 0.032013
0.508636 0.291840 0.002533
0.553436 0.297150 0.001251
0.576111 0.297272 0.006592
0.613434 0.305756 0.002655
0.641754 0.309662 0.001007
0.681488 0.309662 0.002777
0.712097 0.303070 0.001282
0.742706 0.299164 0.001251
0.771912 0.299164 0.001251
0.809387 0.299805 0.002899
0.837830 0.293457 0.000000
0.864899 0.293335 0.000000
0.900208 0.293213 0.001892
0.936127 0.287903 0.003937
0.959900 0.288666 0.002655
0.997742 0.283478 0.002411
1.000000 0.276886 0.001251
0.997467 0.276886 0.005310
0.187103 0.270844 0.212006
0.192657 0.270844 0.223785
0.200256 0.266907 0.227692
0.210999 0.265015 0.228699
0.227966 0.259583 0.230743
0.223785 0.263000 0.229095
0.220490 0.274109 0.225037
0.224670 0.282990 0.209473
0.236542 0.291443 0.194183
0.264771 0.303345 0.186462
0.301697 0.315369 0.166473
0.359650 0.320679 0.140289
0.402924 0.303467 0.126007
0.450439 0.302704 0.097900
0.495880 0.312592 0.048950
0.543701 0.316376 0.003418
0.583954 0.325745 0.002014
0.619232 0.328278 0.000000
0.644897 0.335205 0.003662
0.678833 0.337494 0.002411
0.710938 0.337738 0.001404
0.746613 0.332428 0.001282
0.775848 0.331024 0.005310
0.808594 0.332581 0.003540
0.841888 0.325470 0.000000
0.868958 0.327118 0.000000
0.897675 0.325226 0.000000
0.931305 0.320679 0.002014
0.967102 0.319672 0.000000
0.992798 0.313965 0.002289
1.000000 0.312592 0.000000
1.000000 0.310303 0.008972
0.210876 0.297150 0.243134
0.221008 0.294617 0.242737
0.219208 0.292328 0.245270
0.225677 0.293091 0.251221
0.241730 0.286896 0.255524
0.255524 0.282349 0.256775
0.248444 0.289185 0.253876
0.239838 0.301941 0.241974
0.246674 0.317780 0.232513
0.266541 0.321808 0.222260
0.297638 0.337616 0.205292
0.339783 0.345459 0.188995
0.392792 0.348755 0.154175
0.431854 0.333710 0.140808
0.480194 0.328766 0.117004
0.529510 0.334351 0.078552
0.573334 0.345734 0.027039
0.614716 0.353943 0.000000
0.653137 0.358246 0.000000
0.683258 0.359894 0.002411
0.712219 0.365448 0.002411
0.747894 0.367218 0.000000
0.776093 0.366852 0.000000
0.806824 0.362915 0.002533
0.838074 0.359009 0.003937
0.871490 0.357635 0.000763
0.899445 0.359009 0.000000
0.932831 0.353180 0.001892
0.967102 0.348755 0.005829
0.995331 0.348999 0.004425
0.997589 0.345734 0.000000
0.995178 0.343323 0.000000
0.232361 0.318665 0.259827
0.232361 0.321930 0.261475
0.233521 0.318024 0.265137
0.246796 0.319916 0.272858
0.263733 0.314728 0.282349
0.276154 0.308533 0.279419
0.272217 0.314606 0.281708
0.264374 0.323456 0.269836
0.264374 0.334351 0.261108
0.279053 0.342804 0.254272
0.295990 0.355194 0.236420
0.330292 0.360901 0.218323
0.376831 0.373291 0.193665
0.419983 0.379120 0.169617
0.466034 0.361542 0.157990
0.514099 0.354187 0.138489
0.563324 0.362183 0.103790
0.604065 0.374054 0.043335
0.644684 0.378113 0.002289
0.694244 0.382904 0.001526
0.717896 0.386719 0.004425
0.749908 0.389008 0.000000
0.780273 0.393158 0.000000
0.808746 0.393158 0.000000
0.841003 0.389984 0.000000
0.873108 0.387604 0.003296
0.901703 0.387604 0.000000
0.931824 0.386963 0.000000
0.965576 0.381409 0.003540
0.996704 0.383026 0.005310
0.998230 0.379242 0.001770
1.000000 0.368988 0.000000
0.244507 0.350403 0.283722
0.252991 0.352173 0.290680
0.256531 0.345856 0.288544
0.262726 0.341797 0.289795
0.272461 0.339905 0.297638
0.292206 0.336884 0.301178
0.294739 0.335480 0.299408
0.290680 0.343842 0.298157
0.286896 0.351410 0.295135
0.298035 0.362671 0.284760
0.301056 0.376099 0.264374
0.325348 0.384186 0.250977
0.350891 0.395050 0.235413
0.406189 0.406952 0.211365
0.454132 0.407471 0.189606
0.492096 0.391266 0.167480
0.547516 0.382019 0.149506
0.592926 0.388245 0.122772
0.633789 0.400238 0.069519
0.683746 0.403778 0.013397
0.719696 0.411774 0.003540
0.753204 0.414032 0.000000
0.783691 0.413147 0.000000
0.817322 0.419098 0.000000
0.845673 0.422760 0.004791
0.872223 0.422760 0.000000
0.904633 0.422516 0.002777
0.938782 0.418823 0.000000
0.965332 0.414917 0.000366
0.993164 0.412750 0.000000
0.997833 0.413147 0.001770
0.991760 0.404907 0.000000
0.270599 0.374176 0.307648
0.274231 0.374573 0.309418
0.278564 0.376343 0.302582
0.288025 0.371918 0.313080
0.293243 0.370392 0.321930
0.304993 0.365845 0.325348
0.317505 0.359772 0.326111
0.315491 0.361542 0.324341
0.306763 0.376343 0.315369
0.310425 0.379364 0.309143
0.316742 0.392517 0.303711
0.328125 0.402649 0.285492
0.354309 0.414520 0.272217
0.394562 0.423004 0.255524
0.434387 0.433136 0.229980
0.485992 0.436920 0.215546
0.529938 0.421112 0.191742
0.575867 0.413391 0.176819
0.625580 0.418091 0.137695
0.673157 0.425171 0.093689
0.709686 0.431732 0.031708
0.753693 0.436432 0.003143
0.784821 0.440979 0.001892
0.813660 0.444885 0.004791
0.845551 0.440979 0.007721
0.878815 0.448059 0.000000
0.904633 0.448944 0.003784
0.937134 0.450592 0.000000
0.965088 0.448822 0.004059
0.993439 0.443115 0.000244
0.994171 0.442871 0.000000
0.990143 0.440857 0.000000
0.280579 0.404175 0.323456
0.292236 0.401917 0.329559
0.294769 0.399872 0.333466
0.302216 0.397858 0.328674
0.310455 0.393799 0.339539
0.324371 0.393677 0.347260
0.332947 0.387756 0.349152
0.340302 0.381805 0.345367
0.334625 0.393311 0.342316
0.333466 0.402405 0.336243
0.331451 0.412018 0.329041
0.341431 0.421783 0.312469
0.355316 0.431274 0.304382
0.383026 0.443024 0.286407
0.424377 0.453003 0.264191
0.472229 0.462738 0.247467
0.513855 0.470734 0.221771
0.559784 0.448975 0.205811
0.613678 0.437836 0.188995
0.658569 0.445679 0.153595
0.701569 0.451752 0.124634
0.742584 0.457703 0.058594
0.784454 0.463776 0.006073
0.823273 0.465912 0.000000
0.847443 0.467957 0.000000
0.880585 0.471985 0.002014
0.912476 0.474152 0.003143
0.941040 0.474792 0.000519
0.969513 0.478699 0.004059
0.995331 0.474792 0.001648
0.997833 0.474640 0.003784
0.997986 0.474792 0.001892
0.302338 0.428223 0.355469
0.314362 0.428101 0.353210
0.314484 0.420380 0.349396
0.321564 0.423920 0.349426
0.326782 0.419861 0.357635
0.341064 0.419739 0.366852
0.353088 0.413544 0.371155
0.364197 0.408234 0.373322
0.361176 0.413910 0.370544
0.357513 0.421143 0.361450
0.351196 0.430878 0.359039
0.352173 0.442780 0.344116
0.365234 0.450470 0.333221
0.384064 0.463531 0.315521
0.413147 0.474884 0.303894
0.454895 0.483124 0.277710
0.500061 0.492493 0.258209
0.549805 0.498810 0.235687
0.593811 0.478943 0.222137
0.637817 0.471100 0.203552
0.684265 0.471344 0.179260
0.727539 0.475403 0.143707
0.772552 0.483368 0.087677
0.815582 0.487793 0.033417
0.848328 0.489685 0.001770
0.884399 0.494904 0.000000
0.911835 0.496643 0.000000
0.947510 0.494995 0.001251
0.971405 0.503113 0.000000
0.996826 0.502747 0.001526
1.000000 0.506653 0.000244
1.000000 0.502350 0.005676
0.326141 0.452271 0.374817
0.331696 0.452118 0.367493
0.331940 0.452271 0.372314
0.338531 0.452271 0.374573
0.343964 0.450104 0.378387
0.358124 0.447693 0.388489
0.362061 0.438965 0.391907
0.380157 0.437958 0.398102
0.382568 0.435944 0.398621
0.380524 0.442139 0.387726
0.374847 0.454132 0.385956
0.375214 0.464783 0.377502
0.382416 0.472626 0.359772
0.389526 0.483643 0.348297
0.414917 0.496124 0.337769
0.448822 0.501343 0.321716
0.487030 0.517273 0.298676
0.539917 0.528168 0.285004
0.585602 0.526764 0.256165
0.626953 0.510956 0.245819
0.674377 0.497681 0.225433
0.717651 0.496155 0.202148
0.765717 0.504364 0.166351
0.805450 0.512085 0.130463
0.842773 0.515259 0.056458
0.879974 0.516632 0.004547
0.915131 0.522217 0.000000
0.946503 0.522705 0.006714
0.976990 0.526764 0.000000
0.994171 0.528168 0.004547
0.998230 0.531433 0.000000
1.000000 0.529053 0.000000
0.346893 0.479309 0.395447
0.352325 0.480225 0.397858
0.354736 0.480225 0.397858
0.360016 0.479828 0.400146
0.369904 0.475800 0.409119
0.376740 0.477814 0.406342
0.386719 0.472382 0.408600
0.401764 0.467560 0.422913
0.412537 0.463531 0.425812
0.406982 0.465912 0.418732
0.404449 0.478821 0.417084
0.399261 0.487030 0.403412
0.398743 0.495636 0.388489
0.406464 0.507782 0.381409
0.426941 0.520294 0.371674
0.448700 0.526886 0.356628
0.479584 0.539795 0.339050
0.527283 0.552063 0.317780
0.575989 0.560028 0.296906
0.617462 0.562561 0.279327
0.654785 0.544220 0.258209
0.701324 0.529785 0.244781
0.751953 0.522827 0.216949
0.792664 0.531189 0.180786
0.832397 0.536621 0.145874
0.876282 0.539795 0.086823
0.912079 0.547760 0.021790
0.945099 0.546509 0.000000
0.980011 0.549652 0.000000
0.997101 0.550812 0.002777
0.998596 0.556122 0.000000
0.996063 0.556244 0.000000
0.371155 0.516022 0.424438
0.374847 0.512085 0.417969
0.376465 0.510712 0.420746
0.381531 0.509552 0.427216
0.393951 0.507660 0.429230
0.394562 0.504242 0.424042
0.406952 0.501343 0.436798
0.418365 0.495026 0.447968
0.433533 0.492096 0.447296
0.438965 0.489960 0.451874
0.431122 0.499176 0.448090
0.420502 0.508423 0.433411
0.425812 0.522705 0.429230
0.427704 0.528290 0.416321
0.437439 0.537384 0.406586
0.453888 0.552551 0.393555
0.481995 0.564606 0.375336
0.515900 0.574066 0.362305
0.561798 0.581268 0.344452
0.603180 0.588867 0.315247
0.657196 0.591675 0.296173
0.690460 0.575836 0.280579
0.735992 0.556366 0.259460
0.781036 0.555603 0.250122
0.821381 0.556610 0.209503
0.868713 0.564453 0.176239
0.907410 0.569153 0.130432
0.939148 0.570648 0.064697
0.975342 0.572296 0.002533
0.996948 0.574829 0.001404
1.000000 0.573700 0.005066
1.000000 0.577606 0.001404
0.396210 0.545227 0.447205
0.396210 0.545227 0.447205
0.397980 0.542450 0.448975
0.406342 0.543579 0.457306
0.405304 0.538788 0.445923
0.419617 0.539429 0.453644
0.426331 0.532196 0.459198
0.442902 0.529175 0.476532
0.454163 0.528534 0.474396
0.461487 0.520447 0.481354
0.465393 0.528290 0.466797
0.456421 0.530823 0.469574
0.451233 0.544220 0.462891
0.453766 0.555725 0.451874
0.455536 0.563049 0.440247
0.472626 0.574585 0.423157
0.485779 0.585846 0.410004
0.519165 0.597107 0.402405
0.557770 0.601166 0.376587
0.593689 0.611633 0.368896
0.641235 0.622162 0.342957
0.691711 0.626312 0.321716
0.726501 0.606476 0.295258
0.760773 0.586853 0.279816
0.809875 0.580902 0.262512
0.857697 0.584961 0.237823
0.894257 0.590271 0.194946
0.931580 0.593567 0.159271
0.968750 0.597107 0.098572
0.999481 0.597717 0.018616
0.997345 0.600128 0.002258
0.992157 0.602661 0.000000
0.424042 0.573059 0.475037
0.422913 0.571930 0.473755
0.423401 0.571930 0.473633
0.436707 0.570404 0.478943
0.438599 0.573059 0.478943
0.439331 0.569153 0.480316
0.451111 0.563324 0.485657
0.466919 0.562195 0.496033
0.472107 0.556366 0.504120
0.491852 0.551178 0.510315
0.496033 0.550781 0.510315
0.484009 0.558777 0.500214
0.481354 0.566742 0.496277
0.477295 0.581390 0.491211
0.476776 0.590515 0.471375
0.493500 0.601257 0.458344
0.503357 0.611145 0.453766
0.527405 0.618866 0.440857
0.554230 0.626831 0.424408
0.585571 0.638580 0.399231
0.622772 0.648956 0.384827
0.680847 0.658081 0.368134
0.728790 0.654266 0.344482
0.757874 0.635559 0.316254
0.800018 0.621521 0.306396
0.844025 0.605560 0.286041
0.889313 0.611633 0.264008
0.925232 0.617462 0.227722
0.964325 0.621246 0.195587
0.999237 0.621521 0.138428
0.997864 0.623901 0.049225
0.997223 0.627960 0.001129
0.447937 0.604828 0.502838
0.451874 0.606720 0.505768
0.455048 0.604065 0.506012
0.459076 0.606964 0.509308
0.468567 0.602295 0.509186
0.471100 0.603180 0.509674
0.478699 0.598877 0.516266
0.489075 0.595978 0.528290
0.499939 0.591034 0.529297
0.516510 0.584839 0.538910
0.526123 0.580902 0.541443
0.521057 0.586609 0.537262
0.516907 0.597076 0.539429
0.510681 0.607727 0.522705
0.513611 0.615570 0.514008
0.512726 0.628204 0.502869
0.522339 0.636200 0.486145
0.536621 0.643280 0.483246
0.558777 0.653137 0.468811
0.592041 0.659210 0.447449
0.624817 0.669708 0.433899
0.668701 0.681976 0.407593
0.716766 0.688934 0.386597
0.752808 0.691986 0.367493
0.788635 0.667175 0.343964
0.828857 0.650360 0.327148
0.879578 0.638458 0.318939
0.920044 0.636688 0.295898
0.954468 0.644653 0.262756
0.992157 0.648956 0.223053
1.000000 0.649963 0.170410
1.000000 0.648956 0.121979
0.484894 0.635681 0.538513
0.485779 0.636566 0.537018
0.492737 0.632629 0.542328
0.494873 0.632507 0.537628
0.495392 0.631744 0.543732
0.499054 0.629364 0.544342
0.507782 0.631012 0.549408
0.515869 0.627838 0.550293
0.533844 0.621887 0.562195
0.538788 0.623047 0.564209
0.552429 0.618744 0.570282
0.564209 0.615204 0.577362
0.551819 0.622406 0.565735
0.546875 0.634277 0.560028
0.542938 0.642761 0.551178
0.539673 0.653381 0.539795
0.546234 0.661224 0.525604
0.558533 0.670105 0.522827
0.573700 0.678070 0.504608
0.593689 0.689056 0.494263
0.621887 0.698425 0.479706
0.663910 0.705017 0.461243
0.705017 0.710449 0.438446
0.745850 0.715881 0.419373
0.785583 0.721069 0.388611
0.823669 0.705017 0.369904
0.863770 0.682495 0.358246
0.905121 0.667572 0.338135
0.948395 0.670959 0.322601
0.984192 0.676422 0.288940
0.998993 0.679688 0.254547
1.000000 0.679688 0.222534
0.513855 0.670715 0.564850
0.517792 0.668304 0.565735
0.518524 0.667572 0.569519
0.518524 0.667572 0.569519
0.529541 0.663635 0.569519
0.530182 0.664276 0.571655
0.535736 0.666046 0.573425
0.553314 0.660461 0.576843
0.559509 0.656799 0.584564
0.568756 0.655914 0.591034
0.579376 0.648468 0.602142
0.589874 0.650360 0.607971
0.585327 0.652618 0.604187
0.578125 0.663757 0.592163
0.573425 0.671478 0.587372
0.577362 0.679321 0.581268
0.576355 0.683990 0.570648
0.580536 0.698181 0.560547
0.596222 0.705139 0.551941
0.607208 0.717010 0.534088
0.631134 0.726379 0.523102
0.658966 0.733734 0.512604
0.693481 0.739807 0.491455
0.736877 0.751068 0.465149
0.782166 0.754578 0.446808
0.825165 0.753082 0.428467
0.860107 0.730682 0.411530
0.892853 0.714111 0.388611
0.933319 0.701721 0.373810
0.979889 0.696259 0.355988
0.999237 0.700317 0.326385
1.000000 0.703613 0.303741
0.545868 0.702728 0.600128
0.547119 0.702728 0.600769
0.547119 0.702728 0.598358
0.547516 0.703094 0.601776
0.558777 0.696014 0.608490
0.563446 0.698792 0.611908
0.574066 0.697296 0.614441
0.576996 0.693359 0.612274
0.589630 0.690948 0.615814
0.598602 0.692474 0.621643
0.607208 0.685150 0.625427
0.620605 0.680450 0.638092
0.622772 0.685516 0.639343
0.619995 0.689301 0.635040
0.611389 0.697296 0.628845
0.609863 0.707275 0.622406
0.611908 0.713867 0.607971
0.615570 0.723969 0.603790
0.622009 0.732086 0.590637
0.631256 0.741058 0.581146
0.651367 0.747772 0.566864
0.673370 0.754974 0.555603
0.697296 0.768372 0.536865
0.733215 0.774567 0.526001
0.771423 0.778107 0.504486
0.819611 0.786224 0.484131
0.856293 0.785706 0.457550
0.883759 0.776337 0.437073
0.926117 0.752808 0.415833
0.967865 0.727142 0.409241
0.996338 0.726898 0.391541
0.996704 0.730804 0.371429
0.581787 0.731812 0.633270
0.585571 0.734589 0.636566
0.585724 0.734741 0.633270
0.593048 0.735229 0.633270
0.596466 0.731812 0.637207
0.597473 0.730682 0.638458
0.600494 0.731323 0.638458
0.616943 0.731323 0.645538
0.622009 0.726898 0.652374
0.627075 0.728546 0.657440
0.635803 0.719543 0.664520
0.650360 0.718170 0.671478
0.665039 0.713715 0.678314
0.655151 0.721191 0.668579
0.647705 0.728546 0.662384
