src/colors/teal_&_orange_vibes/sunset_orange.cube
#Created by: Adobe Photoshop Export Color Lookup Plugin
#Copyright: (C) Copyright 2019 © Alexander Barrels
TITLE "Alexanderbarrels_FilmicSoft.png"
#LUT size
LUT_3D_SIZE 8
#data domain
#LUT data points
DOMAIN_MIN 0.000000 0.000000 0.000000
DOMAIN_MAX 0.903226 0.903226 0.903226
0.003937 0.000000 0.000000
0.139771 0.000000 0.000000
0.286407 0.002899 0.002899
0.429596 0.001526 0.000000
0.563080 0.000000 0.003937
0.700317 0.001404 0.002533
0.828735 0.003052 0.000000
0.959259 0.000000 0.000000
0.055908 0.092224 0.077911
0.134857 0.108398 0.037323
0.297638 0.126495 0.000519
0.426178 0.120667 0.006836
0.567383 0.117645 0.001526
0.705627 0.103088 0.001404
0.828339 0.088287 0.000000
0.954834 0.069702 0.000519
0.124603 0.188354 0.146240
0.148621 0.190765 0.156372
0.259827 0.227570 0.095123
0.442749 0.238831 0.000000
0.568909 0.244263 0.001892
0.710571 0.239471 0.000000
0.834656 0.232361 0.000000
0.957123 0.223663 0.000000
0.210876 0.297150 0.243134
0.241730 0.286896 0.255524
0.246674 0.317780 0.232513
0.392792 0.348755 0.154175
0.573334 0.345734 0.027039
0.712219 0.365448 0.002411
0.838074 0.359009 0.003937
0.967102 0.348755 0.005829
0.280579 0.404175 0.323456
0.310455 0.393799 0.339539
0.334625 0.393311 0.342316
0.355316 0.431274 0.304382
0.513855 0.470734 0.221771
0.701569 0.451752 0.124634
0.847443 0.467957 0.000000
0.969513 0.478699 0.004059
0.371155 0.516022 0.424438
0.393951 0.507660 0.429230
0.433533 0.492096 0.447296
0.425812 0.522705 0.429230
0.481995 0.564606 0.375336
0.657196 0.591675 0.296173
0.821381 0.556610 0.209503
0.975342 0.572296 0.002533
0.484894 0.635681 0.538513
0.495392 0.631744 0.543732
0.533844 0.621887 0.562195
0.551819 0.622406 0.565735
0.546234 0.661224 0.525604
0.621887 0.698425 0.479706
0.785583 0.721069 0.388611
0.948395 0.670959 0.322601
0.618103 0.767120 0.668701
0.626068 0.767487 0.667664
0.656677 0.761414 0.695129
0.691986 0.747498 0.707153
0.683990 0.771912 0.694641
0.700439 0.803802 0.666534
0.780029 0.833771 0.614807
0.920044 0.853394 0.546753
0.003418 0.036316 0.115753
0.130920 0.000000 0.134338
0.281952 0.000000 0.128510
0.434906 0.002411 0.096130
0.561554 0.000000 0.090332
0.705627 0.003418 0.081329
0.832642 0.001404 0.056915
0.959778 0.003937 0.016174
0.000000 0.135345 0.131927
0.127502 0.127502 0.121674
0.281464 0.123596 0.122589
0.421753 0.103973 0.106903
0.568268 0.090698 0.092590
0.706146 0.070587 0.069550
0.832642 0.050964 0.044525
0.959656 0.019104 0.014557
0.126007 0.231995 0.178986
0.175079 0.212402 0.196594
0.262360 0.239349 0.152557
0.432495 0.243256 0.098053
0.570404 0.241364 0.079956
0.706512 0.230988 0.055786
0.832275 0.222626 0.017700
0.959656 0.210236 0.002411
0.199615 0.323212 0.251617
0.241730 0.312317 0.260468
0.259460 0.321686 0.269196
0.389374 0.355591 0.201141
0.582550 0.353577 0.109283
0.713104 0.362915 0.025421
0.840118 0.359497 0.004425
0.963562 0.345093 0.001007
0.284882 0.418365 0.341827
0.308044 0.413940 0.346252
0.360565 0.396729 0.364349
0.369110 0.438446 0.324738
0.514008 0.472748 0.247467
0.703094 0.456177 0.161926
0.848846 0.472229 0.004425
0.967865 0.474792 0.003418
0.371796 0.521820 0.422913
0.381042 0.519806 0.432007
0.434174 0.504761 0.452637
0.436707 0.520294 0.445923
0.484375 0.565094 0.393799
0.656555 0.596985 0.318268
0.827332 0.563965 0.241638
0.973816 0.575989 0.039246
0.483002 0.645782 0.540680
0.499054 0.640472 0.551056
0.527405 0.634277 0.555481
0.565613 0.623779 0.581024
0.558777 0.662109 0.546265
0.628845 0.703857 0.492737
0.789124 0.720703 0.409607
0.947388 0.671112 0.336365
0.615448 0.780640 0.676300
0.628082 0.771027 0.669952
0.652374 0.767609 0.687927
0.689178 0.751923 0.704742
0.690948 0.771790 0.696533
0.705505 0.808868 0.667542
0.780029 0.839844 0.625671
0.920929 0.854279 0.548401
0.001007 0.088287 0.244263
0.007843 0.008850 0.246674
0.248199 0.000000 0.260956
0.407562 0.000519 0.263367
0.559143 0.002014 0.244263
0.698425 0.002899 0.215302
0.831879 0.002014 0.205933
0.958649 0.002899 0.191772
0.002899 0.175568 0.245270
0.002014 0.139771 0.260468
0.271606 0.094635 0.267792
0.419220 0.074524 0.257050
0.561554 0.004028 0.237823
0.708160 0.000519 0.209991
0.833801 0.000000 0.206207
0.955475 0.004059 0.188873
0.001007 0.269684 0.257935
0.024933 0.267303 0.259460
0.261841 0.256042 0.260956
0.413391 0.250092 0.245270
0.561066 0.230621 0.230621
0.707153 0.217834 0.215302
0.837585 0.205933 0.200256
0.963196 0.186829 0.187988
0.082855 0.371765 0.284485
0.193665 0.368347 0.288910
0.303986 0.344727 0.313324
0.395691 0.367340 0.282471
0.576721 0.369263 0.228180
0.706512 0.363953 0.213776
0.830872 0.354065 0.199982
0.961914 0.337372 0.181030
0.270721 0.460968 0.365845
0.294373 0.455536 0.367737
0.347382 0.436432 0.379486
0.387482 0.442871 0.375214
0.518921 0.481598 0.316772
0.709045 0.471741 0.239990
0.843506 0.477692 0.195190
0.967621 0.474152 0.164703
0.357635 0.553711 0.441986
0.380157 0.552185 0.447815
0.424286 0.538025 0.459595
0.471344 0.525238 0.481354
0.496155 0.570923 0.436066
0.649353 0.602295 0.367004
0.825439 0.572418 0.291473
0.974945 0.580658 0.186584
0.475922 0.664001 0.545349
0.485382 0.664642 0.554199
0.520935 0.654419 0.570038
0.576080 0.636200 0.595459
0.570038 0.664154 0.570038
0.630249 0.700958 0.526367
0.786469 0.728912 0.451355
0.948883 0.682861 0.374969
0.609863 0.790253 0.676544
0.621246 0.780762 0.677429
0.649078 0.782410 0.688293
0.681732 0.767120 0.708282
0.703339 0.770905 0.715485
0.709290 0.807343 0.687775
0.778107 0.834778 0.639587
0.923981 0.856934 0.575836
0.002411 0.130920 0.368347
0.000000 0.052124 0.375702
0.163818 0.000519 0.384033
0.386444 0.000000 0.395813
0.543457 0.005829 0.392273
0.689575 0.002533 0.387970
0.831757 0.001526 0.367737
0.960785 0.003937 0.334961
0.000519 0.206940 0.368347
0.000000 0.172668 0.383026
0.157257 0.098541 0.388367
0.391876 0.002533 0.402649
0.551697 0.000000 0.399231
0.698944 0.001007 0.380127
0.834808 0.000885 0.357849
0.965485 0.003052 0.322296
0.002533 0.304108 0.368866
0.003418 0.294861 0.370758
0.146240 0.257050 0.398590
0.394684 0.215302 0.401642
0.552704 0.214783 0.387085
0.693512 0.188354 0.366852
0.829498 0.148499 0.340912
0.957367 0.164703 0.334839
0.000000 0.407562 0.388855
0.003418 0.408478 0.393280
0.167847 0.399231 0.379730
0.387970 0.387970 0.386200
0.549286 0.374695 0.371277
0.691864 0.362915 0.365204
0.827850 0.348755 0.348114
0.959259 0.335480 0.328766
0.001038 0.513977 0.397858
0.076141 0.511963 0.404053
0.292755 0.499695 0.415436
0.429108 0.467926 0.442261
0.522705 0.495392 0.406189
0.706146 0.490082 0.359863
0.833649 0.487549 0.339905
0.966614 0.469482 0.322571
0.304504 0.600891 0.477173
0.352081 0.599884 0.479828
0.405182 0.589630 0.487183
0.481720 0.569519 0.506622
0.515869 0.579773 0.507294
0.658691 0.612549 0.442383
0.833282 0.590027 0.373810
0.972687 0.593414 0.326355
0.454407 0.700836 0.567505
0.470612 0.699951 0.571930
0.508148 0.687531 0.580902
0.565979 0.674896 0.601898
0.606323 0.664520 0.620117
0.636566 0.708282 0.577484
0.784454 0.732819 0.499054
0.951538 0.692993 0.429993
0.594574 0.806183 0.682739
0.600006 0.807831 0.686279
0.630371 0.802917 0.696533
0.670074 0.790649 0.710938
0.727905 0.774567 0.736115
0.722198 0.808228 0.711578
0.775848 0.842255 0.678192
0.923340 0.855804 0.607849
0.000000 0.180664 0.490479
0.000000 0.134857 0.490967
0.004791 0.040375 0.501343
0.309753 0.000000 0.511078
0.514008 0.000000 0.521851
0.671478 0.003418 0.528290
0.811279 0.002899 0.519073
0.951294 0.000000 0.498810
0.003052 0.241730 0.495392
0.002014 0.211884 0.502106
0.004303 0.121185 0.513489
0.308258 0.045166 0.522705
0.519806 0.000000 0.529816
0.679688 0.002014 0.527771
0.818085 0.000000 0.518036
0.955353 0.000000 0.497803
0.001007 0.341431 0.496429
0.001892 0.329163 0.497284
0.003021 0.281464 0.512970
0.283844 0.217590 0.522858
0.521851 0.163788 0.527924
0.679352 0.154419 0.528656
0.819092 0.133453 0.507172
0.953583 0.032837 0.481354
0.001038 0.435913 0.506165
0.001007 0.434906 0.509430
0.009491 0.425812 0.503357
0.290283 0.381165 0.519684
0.523590 0.340393 0.532715
0.677826 0.349121 0.515015
0.823273 0.326111 0.505890
0.961670 0.295227 0.469482
0.000000 0.543457 0.515900
0.009247 0.539032 0.523224
0.000000 0.539551 0.526642
0.309143 0.533478 0.521851
0.515900 0.515900 0.511841
0.674622 0.504120 0.509552
0.824036 0.488556 0.488556
0.955353 0.473267 0.477173
0.002777 0.652771 0.524231
0.003418 0.650726 0.520081
0.174377 0.640503 0.529541
0.412354 0.629364 0.538513
0.563843 0.599396 0.570404
0.650726 0.629242 0.538147
0.835297 0.612549 0.490479
0.962555 0.607483 0.463013
0.309418 0.738525 0.579895
0.353424 0.740570 0.591034
0.436646 0.735626 0.601501
0.539642 0.723846 0.621368
0.617981 0.697296 0.647583
0.655792 0.711578 0.638580
0.788635 0.743469 0.575836
0.956726 0.710693 0.508545
0.547363 0.841614 0.695251
0.563202 0.841370 0.699310
0.597351 0.833801 0.705750
0.647034 0.822906 0.715607
0.706635 0.806854 0.742065
0.746643 0.805328 0.757111
0.776093 0.838470 0.713989
0.914093 0.867188 0.654266
0.000000 0.231384 0.620758
0.002014 0.206085 0.617737
0.003052 0.093750 0.627594
0.134125 0.004456 0.640625
0.444916 0.003418 0.648987
0.650726 0.000000 0.656036
0.799896 0.002533 0.660614
0.942963 0.000366 0.644287
0.000000 0.280579 0.621246
0.002533 0.259979 0.625824
0.002411 0.168274 0.637085
0.096680 0.101593 0.640839
0.440247 0.001007 0.650482
0.647949 0.001404 0.660095
0.803162 0.003937 0.659210
0.939911 0.003418 0.647339
0.002533 0.376709 0.621887
0.000000 0.362946 0.625946
0.001526 0.314209 0.635437
0.029053 0.225677 0.647430
0.431885 0.177460 0.653137
0.654785 0.080811 0.664032
0.809753 0.013000 0.662506
0.946503 0.000366 0.642517
0.001007 0.483093 0.621399
0.002411 0.473724 0.621521
0.001892 0.454620 0.624420
0.122498 0.402130 0.644043
0.422150 0.332428 0.651489
0.654663 0.294098 0.660736
0.813538 0.290924 0.653625
0.947357 0.277527 0.642517
0.000000 0.567383 0.635925
0.000519 0.565979 0.634552
0.001007 0.562958 0.636078
0.209808 0.554230 0.637573
0.423553 0.512604 0.653137
0.657684 0.465912 0.665527
0.810638 0.474792 0.646057
0.952698 0.456696 0.623810
0.005310 0.672882 0.646576
0.002533 0.676788 0.642883
0.004303 0.672485 0.650726
0.152100 0.671356 0.649719
0.438477 0.661102 0.648346
0.649353 0.642883 0.642639
0.800629 0.637329 0.633911
0.943573 0.621887 0.616974
0.000885 0.791168 0.642883
0.002014 0.788483 0.644928
0.000000 0.787750 0.640625
0.291656 0.776337 0.653778
0.536011 0.762329 0.668579
0.688690 0.731812 0.702209
0.781677 0.756378 0.667175
0.959259 0.741058 0.620514
0.291687 0.880219 0.698914
0.338104 0.880463 0.711212
0.431488 0.871979 0.712982
0.551270 0.865540 0.731323
0.674255 0.853638 0.758759
0.760559 0.828857 0.784332
0.790771 0.844147 0.776489
0.911957 0.875519 0.722198
0.003052 0.303223 0.748535
0.000519 0.263885 0.751953
0.002014 0.186340 0.753326
0.001526 0.077545 0.759644
0.321838 0.000000 0.768005
0.579407 0.001404 0.779388
0.768127 0.003937 0.782928
0.931427 0.000519 0.781677
0.002533 0.332062 0.753326
0.000000 0.308533 0.750793
0.000519 0.243408 0.757751
0.004944 0.143341 0.765106
0.309967 0.033875 0.770905
0.575592 0.000885 0.773956
0.775848 0.000519 0.784698
0.931305 0.000885 0.789520
0.000000 0.410004 0.752441
0.002899 0.396210 0.755096
0.004059 0.350159 0.760559
0.001892 0.244781 0.768494
0.284546 0.197205 0.768005
0.574341 0.084717 0.785706
0.774963 0.002899 0.785858
0.943207 0.000000 0.791168
0.002411 0.511047 0.753326
0.001526 0.503601 0.753693
0.002014 0.487396 0.757751
0.004547 0.419342 0.774689
0.244446 0.338379 0.778015
0.558899 0.289795 0.786591
0.777740 0.225891 0.793182
0.940033 0.192108 0.782806
0.003937 0.606201 0.749542
0.000000 0.604065 0.746490
0.001892 0.604187 0.753326
0.003540 0.577637 0.757385
0.292389 0.518799 0.774841
0.539429 0.453156 0.783173
0.788635 0.413940 0.794434
0.944092 0.407867 0.781158
0.000885 0.698303 0.758636
0.002411 0.697296 0.758636
0.003418 0.694000 0.763702
0.004547 0.691345 0.766357
0.364746 0.681732 0.767120
0.559296 0.642395 0.772430
0.781036 0.601288 0.786865
0.935089 0.604309 0.771027
0.001770 0.808228 0.769012
0.000519 0.807861 0.771423
0.002899 0.808502 0.779755
0.000885 0.803436 0.777985
0.326385 0.799500 0.775848
0.582062 0.790527 0.779388
0.775970 0.775970 0.774200
0.928894 0.760651 0.765594
0.000519 0.926514 0.753448
0.003052 0.929047 0.756744
0.001007 0.925629 0.755615
0.004547 0.917145 0.767242
0.427734 0.905243 0.776093
0.672882 0.892090 0.800903
0.822266 0.862488 0.834167
0.911316 0.884766 0.804565
0.000000 0.394562 0.880463
0.003418 0.370514 0.883881
0.000000 0.303864 0.884766
0.000000 0.139404 0.888306
0.000000 0.023499 0.894104
0.469971 0.000366 0.902985
0.712738 0.000000 0.907532
0.896912 0.000000 0.911835
0.000366 0.379242 0.880829
0.000366 0.360901 0.881592
0.000000 0.310944 0.884247
0.000366 0.181396 0.889191
0.005035 0.112305 0.893982
0.465179 0.000000 0.902863
0.702972 0.003540 0.910431
0.894989 0.003418 0.912720
0.001404 0.453003 0.884766
0.000885 0.437439 0.883881
0.000000 0.395691 0.881226
0.004425 0.306274 0.894257
0.002014 0.223999 0.897400
0.450134 0.134705 0.899567
0.709076 0.001404 0.911072
0.896912 0.000763 0.912598
0.000000 0.549255 0.876923
0.000000 0.543427 0.881470
0.006958 0.516876 0.886902
0.001892 0.456665 0.887024
0.002411 0.343323 0.899689
0.418121 0.293732 0.905884
0.691986 0.196930 0.912720
0.898804 0.013245 0.915985
0.000366 0.646820 0.878418
0.001526 0.643402 0.877289
0.000763 0.632660 0.878418
0.001892 0.604950 0.883484
0.003540 0.533081 0.898407
0.382446 0.444794 0.906891
0.676788 0.388489 0.913361
0.905762 0.329956 0.921814
0.000000 0.736633 0.881348
0.002411 0.735107 0.881866
0.007599 0.731323 0.887665
0.002533 0.727661 0.882477
0.158325 0.703491 0.884766
0.447205 0.643036 0.905884
0.669830 0.573334 0.910828
0.907654 0.535370 0.915741
0.000519 0.825684 0.885254
0.000000 0.827850 0.885132
0.004547 0.821899 0.892975
0.000000 0.822906 0.897552
0.143921 0.814423 0.895142
0.501465 0.809479 0.898682
0.692108 0.769531 0.899170
0.906006 0.732697 0.913605
0.003540 0.940033 0.896515
0.003540 0.939270 0.896912
0.003540 0.939270 0.894897
0.002258 0.933838 0.889313
0.003937 0.929932 0.899048
0.478210 0.926880 0.901581
0.712463 0.913086 0.900818
0.901215 0.900452 0.900818
