src/colors/teal_&_orange_vibes/sunset_orange.cube
#Created by: Adobe Photoshop Export Color Lookup Plugin
#Copyright: (C) Copyright 2019 © Alexander Barrels
TITLE "Alexanderbarrels_FilmicSoft.png"
#LUT size
LUT_3D_SIZE 5
#data domain
#LUT data points
DOMAIN_MIN 0.000000 0.000000 0.000000
DOMAIN_MAX 0.903226 0.903226 0.903226
0.003937 0.000000 0.000000
0.254517 0.000000 0.004791
0.493347 0.000000 0.001770
0.732208 0.002655 0.005310
0.959259 0.000000 0.000000
0.104614 0.173431 0.127258
0.222260 0.196564 0.080200
0.500305 0.217468 0.002167
0.741302 0.204803 0.000000
0.959656 0.187988 0.006592
0.244507 0.350403 0.283722
0.290680 0.343842 0.298157
0.454132 0.407471 0.189606
0.753204 0.414032 0.000000
0.965332 0.414917 0.000366
0.396210 0.545227 0.447205
0.442902 0.529175 0.476532
0.455536 0.563049 0.440247
0.691711 0.626312 0.321716
0.968750 0.597107 0.098572
0.618103 0.767120 0.668701
0.646423 0.760162 0.679962
0.690460 0.757507 0.700073
0.713989 0.812012 0.655273
0.920044 0.853394 0.546753
0.000000 0.076263 0.209229
0.227051 0.000000 0.227936
0.493347 0.000885 0.216187
0.735626 0.000000 0.172546
0.964081 0.000885 0.157349
0.000000 0.241882 0.231873
0.226166 0.227936 0.220978
0.491180 0.205688 0.202271
0.743591 0.179993 0.177856
0.961304 0.153442 0.152435
0.230591 0.400116 0.319031
0.310303 0.380005 0.334717
0.458038 0.419708 0.275879
0.747498 0.421875 0.165192
0.964081 0.413147 0.130798
0.390137 0.573181 0.462494
0.434540 0.561798 0.479462
0.478180 0.570526 0.481598
0.687805 0.630615 0.373566
0.972687 0.605316 0.206726
0.612915 0.783173 0.673889
0.644287 0.778503 0.686157
0.710449 0.759277 0.720947
0.717896 0.814178 0.666534
0.924866 0.854279 0.570404
0.002167 0.158234 0.433136
0.000000 0.033142 0.445007
0.450195 0.000000 0.460205
0.720062 0.000000 0.458038
0.961792 0.000366 0.419220
0.001770 0.299408 0.434509
0.000000 0.243622 0.441101
0.461975 0.139008 0.464630
0.721344 0.115112 0.446777
0.965851 0.001770 0.406189
0.000000 0.475494 0.451965
0.000885 0.475006 0.451080
0.450195 0.454529 0.452362
0.723480 0.428802 0.431000
0.961060 0.400604 0.401367
0.236359 0.651093 0.504730
0.370178 0.640625 0.525757
0.527405 0.605835 0.558777
0.687286 0.647552 0.500824
0.973694 0.625824 0.397827
0.580261 0.825928 0.692596
0.609863 0.817719 0.696503
0.690063 0.796722 0.725342
0.736603 0.813812 0.726624
0.921814 0.863373 0.630493
0.000000 0.248444 0.655182
0.003540 0.150787 0.662140
0.280548 0.004791 0.674255
0.674652 0.003937 0.690338
0.936493 0.002655 0.680847
0.001251 0.359131 0.652008
0.001770 0.302979 0.663391
0.252319 0.176086 0.676025
0.678711 0.002136 0.694763
0.943939 0.000366 0.686401
0.004425 0.533447 0.657318
0.000885 0.527374 0.654297
0.264832 0.456268 0.676788
0.691193 0.367828 0.694611
0.948364 0.362518 0.671600
0.003937 0.708679 0.677429
0.002136 0.706909 0.678192
0.285736 0.698181 0.679077
0.677307 0.679840 0.678558
0.937378 0.657196 0.658966
0.043304 0.891724 0.713470
0.292053 0.889587 0.715607
0.569336 0.873016 0.746979
0.768372 0.838074 0.796326
0.913361 0.878326 0.738403
0.000000 0.394562 0.880463
0.000000 0.330048 0.888306
0.000763 0.102997 0.893982
0.533844 0.002655 0.903107
0.896912 0.000000 0.911835
0.005707 0.426178 0.887421
0.002655 0.384827 0.884766
0.001648 0.219604 0.896912
0.520081 0.010101 0.899170
0.896515 0.000366 0.912964
0.003937 0.593170 0.880859
0.001770 0.579254 0.882996
0.007477 0.493347 0.896515
0.488556 0.355194 0.911438
0.900818 0.206787 0.921814
0.000366 0.757111 0.886536
0.004425 0.753204 0.886139
0.003418 0.747131 0.889191
0.511200 0.673889 0.898285
0.904358 0.588379 0.919159
0.003540 0.940033 0.896515
0.003937 0.939667 0.897278
0.002533 0.933594 0.902222
0.542206 0.920929 0.897400
0.901215 0.900452 0.900818
