src/colors/teal_&_orange_vibes/teal_punch.cube
TITLE "Generated by Resolve"
LUT_3D_SIZE 5
0 0 0
0.359243 0 0
0.615976 0 0
0.888853 0 0
1 0 0
0 0.245411 0.0115053
0.249989 0.245411 0.0115053
0.504356 0.245411 0.0115053
0.75761 0.245411 0.0115053
1 0.245411 0.0115053
0 0.495338 0.0117037
0.187915 0.495338 0.0117037
0.499992 0.495338 0.0117037
0.738796 0.495338 0.0117037
0.987015 0.495338 0.0117037
0 0.747066 0.00735485
0.084123 0.747066 0.00735485
0.471443 0.747066 0.00735485
0.749996 0.747066 0.00735485
0.992126 0.747066 0.00735485
0 1 0
0.010132 1 0
0.412436 1 0
0.735256 1 0
1 1 0
0 0 0.265187
0.336706 0 0.265187
0.66775 0 0.265187
0.957732 0 0.265187
1 0 0.265187
0 0.244221 0.276707
0.150927 0.244221 0.276707
0.532219 0.244221 0.276707
0.7608 0.244221 0.276707
1 0.244221 0.276707
0 0.494148 0.27689
0 0.494148 0.27689
0.499992 0.494148 0.27689
0.732784 0.494148 0.27689
0.966552 0.494148 0.27689
0 0.745876 0.272557
0 0.745876 0.272557
0.424262 0.745876 0.272557
0.749996 0.745876 0.272557
0.981231 0.745876 0.272557
0 0.99881 0.265187
0 0.99881 0.265187
0.305043 0.99881 0.265187
0.715404 0.99881 0.265187
1 0.99881 0.265187
0 0 0.514961
0.299916 0 0.514961
0.67126 0 0.514961
0.998077 0 0.514961
1 0 0.514961
0 0.244236 0.526467
0 0.244236 0.526467
0.421286 0.244236 0.526467
0.742779 0.244236 0.526467
1 0.244236 0.526467
0 0.494163 0.526665
0 0.494163 0.526665
0.390936 0.494163 0.526665
0.728191 0.494163 0.526665
0.925566 0.494163 0.526665
0 0.745907 0.522316
0 0.745907 0.522316
0.246098 0.745907 0.522316
0.749996 0.745907 0.522316
0.966323 0.745907 0.522316
0 0.99884 0.514961
0 0.99884 0.514961
0.0828412 0.99884 0.514961
0.673503 0.99884 0.514961
1 0.99884 0.514961
0 0 0.759228
0.274113 0 0.759228
0.656779 0 0.759228
1 0 0.759228
1 0 0.759228
0 0.244694 0.770733
0 0.244694 0.770733
0.31632 0.244694 0.770733
0.711223 0.244694 0.770733
1 0.244694 0.770733
0 0.494621 0.770932
0 0.494621 0.770932
0.0991836 0.494621 0.770932
0.579858 0.494621 0.770932
0.85687 0.494621 0.770932
0 0.746349 0.766583
0 0.746349 0.766583
0 0.746349 0.766583
0.697597 0.746349 0.766583
0.947265 0.746349 0.766583
0 0.999283 0.759228
0 0.999283 0.759228
0 0.999283 0.759228
0.544076 0.999283 0.759228
1 0.999283 0.759228
0 0 1
0.249287 0 1
0.636866 0 1
1 0 1
1 0 1
0 0.245411 1
0 0.245411 1
0.288899 0.245411 1
0.685115 0.245411 1
1 0.245411 1
0 0.495338 1
0 0.495338 1
0 0.495338 1
0.367498 0.495338 1
0.772824 0.495338 1
0 0.747066 1
0 0.747066 1
0 0.747066 1
0.347921 0.747066 1
0.815091 0.747066 1
0 1 1
0 1 1
0 1 1
0.217136 1 1
1 1 1
