src/colors/teal_&_orange_vibes/teal_punch.cube
TITLE "Generated by Resolve"
LUT_3D_SIZE 9
0 0 0
0.19118 0 0
0.359243 0 0
0.490074 0 0
0.615976 0 0
0.750988 0 0
0.888853 0 0
1 0 0
1 0 0
0 0.121599 0.00849927
0.109255 0.121599 0.00849927
0.295216 0.121599 0.00849927
0.419013 0.121599 0.00849927
0.540291 0.121599 0.00849927
0.66833 0.121599 0.00849927
0.808728 0.121599 0.00849927
0.949493 0.121599 0.00849927
1 0.121599 0.00849927
0 0.245411 0.0115053
0.049134 0.245411 0.0115053
0.249989 0.245411 0.0115053
0.379751 0.245411 0.0115053
0.504356 0.245411 0.0115053
0.626184 0.245411 0.0115053
0.75761 0.245411 0.0115053
0.895857 0.245411 0.0115053
1 0.245411 0.0115053
0 0.370077 0.0123293
0.00654612 0.370077 0.0123293
0.232334 0.370077 0.0123293
0.37499 0.370077 0.0123293
0.497307 0.370077 0.0123293
0.616159 0.370077 0.0123293
0.737438 0.370077 0.0123293
0.867826 0.370077 0.0123293
1 0.370077 0.0123293
0 0.495338 0.0117037
0 0.495338 0.0117037
0.187915 0.495338 0.0117037
0.365881 0.495338 0.0117037
0.499992 0.495338 0.0117037
0.620996 0.495338 0.0117037
0.738796 0.495338 0.0117037
0.860945 0.495338 0.0117037
0.987015 0.495338 0.0117037
0 0.621027 0.00996414
0 0.621027 0.00996414
0.131029 0.621027 0.00996414
0.334707 0.621027 0.00996414
0.493111 0.621027 0.00996414
0.624994 0.621027 0.00996414
0.746395 0.621027 0.00996414
0.865629 0.621027 0.00996414
0.986511 0.621027 0.00996414
0 0.747066 0.00735485
0 0.747066 0.00735485
0.084123 0.747066 0.00735485
0.293248 0.747066 0.00735485
0.471443 0.747066 0.00735485
0.619852 0.747066 0.00735485
0.749996 0.747066 0.00735485
0.872221 0.747066 0.00735485
0.992126 0.747066 0.00735485
0 0.873411 0.00399786
0 0.873411 0.00399786
0.0469825 0.873411 0.00399786
0.256794 0.873411 0.00399786
0.443595 0.873411 0.00399786
0.605173 0.873411 0.00399786
0.746334 0.873411 0.00399786
0.874998 0.873411 0.00399786
0.997742 0.873411 0.00399786
0 1 0
0 1 0
0.010132 1 0
0.22031 1 0
0.412436 1 0
0.583597 1 0
0.735256 1 0
0.87219 1 0
1 1 0
0 0 0.136568
0.167651 0 0.136568
0.359548 0 0.136568
0.515923 0 0.136568
0.650919 0 0.136568
0.787778 0 0.136568
0.925582 0 0.136568
1 0 0.136568
1 0 0.136568
0 0.120699 0.145068
0.0590066 0.120699 0.145068
0.282567 0.120699 0.145068
0.444053 0.120699 0.145068
0.565744 0.120699 0.145068
0.687846 0.120699 0.145068
0.827573 0.120699 0.145068
0.96994 0.120699 0.145068
1 0.120699 0.145068
0 0.244511 0.148089
0 0.244511 0.148089
0.226719 0.244511 0.148089
0.409842 0.244511 0.148089
0.523613 0.244511 0.148089
0.635218 0.244511 0.148089
0.758587 0.244511 0.148089
0.900557 0.244511 0.148089
1 0.244511 0.148089
0 0.369177 0.148913
0 0.369177 0.148913
0.16759 0.369177 0.148913
0.37499 0.369177 0.148913
0.501396 0.369177 0.148913
0.618448 0.369177 0.148913
0.732708 0.369177 0.148913
0.86096 0.369177 0.148913
0.998352 0.369177 0.148913
0 0.494438 0.148272
0 0.494438 0.148272
0.115221 0.494438 0.148272
0.355001 0.494438 0.148272
0.499992 0.494438 0.148272
0.620356 0.494438 0.148272
0.734356 0.494438 0.148272
0.851072 0.494438 0.148272
0.979034 0.494438 0.148272
0 0.620127 0.146548
0 0.620127 0.146548
0.0450446 0.620127 0.146548
0.303716 0.620127 0.146548
0.489158 0.620127 0.146548
0.624994 0.620127 0.146548
0.744656 0.620127 0.146548
0.85951 0.620127 0.146548
0.978973 0.620127 0.146548
0 0.746166 0.143938
0 0.746166 0.143938
0 0.746166 0.143938
0.239719 0.746166 0.143938
0.45362 0.746166 0.143938
0.616892 0.746166 0.143938
0.749996 0.746166 0.143938
0.870542 0.746166 0.143938
0.988006 0.746166 0.143938
0 0.872511 0.140566
0 0.872511 0.140566
0 0.872511 0.140566
0.18999 0.872511 0.140566
0.408072 0.872511 0.140566
0.592538 0.872511 0.140566
0.744076 0.872511 0.140566
0.874998 0.872511 0.140566
0.996689 0.872511 0.140566
0 0.9991 0.136568
0 0.9991 0.136568
0 0.9991 0.136568
0.152102 0.9991 0.136568
0.369512 0.9991 0.136568
0.56231 0.9991 0.136568
0.727779 0.9991 0.136568
0.870848 0.9991 0.136568
1 0.9991 0.136568
0 0 0.265187
0.140017 0 0.265187
0.336706 0 0.265187
0.512627 0 0.265187
0.66775 0 0.265187
0.815946 0 0.265187
0.957732 0 0.265187
1 0 0.265187
1 0 0.265187
0 0.120424 0.273686
0.000183108 0.120424 0.273686
0.2262 0.120424 0.273686
0.419486 0.120424 0.273686
0.568765 0.120424 0.273686
0.701106 0.120424 0.273686
0.845319 0.120424 0.273686
0.9906 0.120424 0.273686
1 0.120424 0.273686
0 0.244221 0.276707
0 0.244221 0.276707
0.150927 0.244221 0.276707
0.383215 0.244221 0.276707
0.532219 0.244221 0.276707
0.642786 0.244221 0.276707
0.7608 0.244221 0.276707
0.904723 0.244221 0.276707
1 0.244221 0.276707
0 0.368902 0.277531
0 0.368902 0.277531
0.0710613 0.368902 0.277531
0.352682 0.368902 0.277531
0.523156 0.368902 0.277531
0.627863 0.368902 0.277531
0.731106 0.368902 0.277531
0.850782 0.368902 0.277531
0.993713 0.368902 0.277531
0 0.494148 0.27689
0 0.494148 0.27689
0 0.494148 0.27689
0.297734 0.494148 0.27689
0.499992 0.494148 0.27689
0.622492 0.494148 0.27689
0.732784 0.494148 0.27689
0.840711 0.494148 0.27689
0.966552 0.494148 0.27689
0 0.619837 0.275166
0 0.619837 0.275166
0 0.619837 0.275166
0.235401 0.619837 0.275166
0.479728 0.619837 0.275166
0.624994 0.619837 0.275166
0.743511 0.619837 0.275166
0.853315 0.619837 0.275166
0.966644 0.619837 0.275166
0 0.745876 0.272557
0 0.745876 0.272557
0 0.745876 0.272557
0.156161 0.745876 0.272557
0.424262 0.745876 0.272557
0.613016 0.745876 0.272557
0.749996 0.745876 0.272557
0.868559 0.745876 0.272557
0.981231 0.745876 0.272557
0 0.872221 0.269184
0 0.872221 0.269184
0 0.872221 0.269184
0.0914931 0.872221 0.269184
0.355795 0.872221 0.269184
0.57496 0.872221 0.269184
0.741054 0.872221 0.269184
0.874998 0.872221 0.269184
0.994965 0.872221 0.269184
0 0.99881 0.265187
0 0.99881 0.265187
0 0.99881 0.265187
0.0593729 0.99881 0.265187
0.305043 0.99881 0.265187
0.527916 0.99881 0.265187
0.715404 0.99881 0.265187
0.86865 0.99881 0.265187
1 0.99881 0.265187
0 0 0.390982
0.118502 0 0.390982
0.313848 0 0.390982
0.499947 0 0.390982
0.67303 0 0.390982
0.832807 0 0.390982
0.982254 0 0.390982
1 0 0.390982
1 0 0.390982
0 0.120363 0.399466
0 0.120363 0.399466
0.167285 0.120363 0.399466
0.371252 0.120363 0.399466
0.546349 0.120363 0.399466
0.701518 0.120363 0.399466
0.858244 0.120363 0.399466
1 0.120363 0.399466
1 0.120363 0.399466
0 0.24416 0.402487
0 0.24416 0.402487
0.0585489 0.24416 0.402487
0.301381 0.24416 0.402487
0.4916 0.24416 0.402487
0.629618 0.24416 0.402487
0.757046 0.24416 0.402487
0.907073 0.24416 0.402487
1 0.24416 0.402487
0 0.368841 0.403311
0 0.368841 0.403311
0 0.368841 0.403311
0.261006 0.368841 0.403311
0.496117 0.368841 0.403311
0.626886 0.368841 0.403311
0.725582 0.368841 0.403311
0.839353 0.368841 0.403311
0.986374 0.368841 0.403311
0 0.494087 0.402686
0 0.494087 0.402686
0 0.494087 0.402686
0.191836 0.494087 0.402686
0.48632 0.494087 0.402686
0.636591 0.494087 0.402686
0.734752 0.494087 0.402686
0.830945 0.494087 0.402686
0.947845 0.494087 0.402686
0 0.619776 0.400946
0 0.619776 0.400946
0 0.619776 0.400946
0.111345 0.619776 0.400946
0.435828 0.619776 0.400946
0.624994 0.619776 0.400946
0.743999 0.619776 0.400946
0.8486 0.619776 0.400946
0.951659 0.619776 0.400946
0 0.74583 0.398337
0 0.74583 0.398337
0 0.74583 0.398337
0.0291447 0.74583 0.398337
0.363516 0.74583 0.398337
0.605249 0.745815 0.398337
0.749996 0.74583 0.398337
0.866941 0.74583 0.398337
0.973449 0.74583 0.398337
0 0.87216 0.39498
0 0.87216 0.39498
0 0.87216 0.39498
0 0.87216 0.39498
0.276555 0.87216 0.39498
0.547906 0.87216 0.39498
0.737285 0.87216 0.39498
0.874998 0.87216 0.39498
0.992721 0.87216 0.39498
0 0.998749 0.390982
0 0.998749 0.390982
0 0.998749 0.390982
0 0.998749 0.390982
0.209598 0.998749 0.390982
0.477409 0.998749 0.390982
0.698177 0.998749 0.390982
0.865538 0.998749 0.390982
1 0.998749 0.390982
0 0 0.514961
0.104356 0 0.514961
0.299916 0 0.514961
0.490318 0 0.514961
0.67126 0 0.514961
0.840284 0 0.514961
0.998077 0 0.514961
1 0 0.514961
1 0 0.514961
0 0.120439 0.523445
0 0.120439 0.523445
0.125765 0.120439 0.523445
0.327886 0.120439 0.523445
0.517968 0.120439 0.523445
0.696162 0.120439 0.523445
0.864622 0.120439 0.523445
1 0.120439 0.523445
1 0.120439 0.523445
0 0.244236 0.526467
0 0.244236 0.526467
0 0.244236 0.526467
0.211826 0.244236 0.526467
0.421286 0.244236 0.526467
0.591257 0.244236 0.526467
0.742779 0.244236 0.526467
0.906294 0.244236 0.526467
1 0.244236 0.526467
0 0.368917 0.527291
0 0.368917 0.527291
0 0.368917 0.527291
0.139757 0.368917 0.527291
0.397284 0.368917 0.527291
0.577981 0.368917 0.527291
0.700664 0.368917 0.527291
0.821576 0.368917 0.527291
0.975769 0.368917 0.527291
0 0.494163 0.526665
0 0.494163 0.526665
0 0.494163 0.526665
0.0649729 0.494163 0.526665
0.390936 0.494163 0.526665
0.619593 0.494163 0.526665
0.728191 0.494163 0.526665
0.815839 0.494163 0.526665
0.925566 0.494163 0.526665
0 0.619852 0.524926
0 0.619852 0.524926
0 0.619852 0.524926
0 0.619852 0.524926
0.327825 0.619852 0.524926
0.621942 0.619852 0.524926
0.751476 0.619852 0.524926
0.845258 0.619852 0.524926
0.93576 0.619852 0.524926
0 0.745907 0.522316
0 0.745907 0.522316
0 0.745907 0.522316
0 0.745907 0.522316
0.246098 0.745907 0.522316
0.575601 0.745907 0.522316
0.749996 0.745907 0.522316
0.866239 0.745907 0.522316
0.966323 0.745907 0.522316
0 0.872236 0.518959
0 0.872236 0.518959
0 0.872236 0.518959
0 0.872236 0.518959
0.155306 0.872236 0.518959
0.496025 0.872236 0.518959
0.730892 0.872236 0.518959
0.874998 0.872236 0.518959
0.990707 0.872236 0.518959
0 0.99884 0.514961
0 0.99884 0.514961
0 0.99884 0.514961
0 0.99884 0.514961
0.0828412 0.99884 0.514961
0.403738 0.99884 0.514961
0.673503 0.99884 0.514961
0.861875 0.99884 0.514961
1 0.99884 0.514961
0 0 0.637613
0.0908064 0 0.637613
0.2869 0 0.637613
0.479484 0 0.637613
0.665171 0 0.637613
0.841184 0 0.637613
1 0 0.637613
1 0 0.637613
1 0 0.637613
0 0.120623 0.646097
0 0.120623 0.646097
0.109514 0.120623 0.646097
0.307454 0.120623 0.646097
0.502297 0.120623 0.646097
0.689296 0.120623 0.646097
0.865217 0.120623 0.646097
1 0.120623 0.646097
1 0.120623 0.646097
0 0.244419 0.649119
0 0.244419 0.649119
0 0.244419 0.649119
0.142824 0.244419 0.649119
0.353841 0.244419 0.649119
0.54551 0.244419 0.649119
0.724559 0.244419 0.649119
0.902052 0.244419 0.649119
1 0.244419 0.649119
0 0.3691 0.649943
0 0.3691 0.649943
0 0.3691 0.649943
0.0246738 0.3691 0.649943
0.279225 0.3691 0.649943
0.490272 0.3691 0.649943
0.649683 0.3691 0.649943
0.793942 0.3691 0.649943
0.962249 0.3691 0.649943
0 0.494347 0.649317
0 0.494347 0.649317
0 0.494347 0.649317
0 0.494347 0.649317
0.247715 0.494347 0.649317
0.515068 0.494347 0.649317
0.678096 0.494347 0.649317
0.782696 0.494347 0.649317
0.896239 0.494347 0.649317
0 0.620035 0.647578
0 0.620035 0.647578
0 0.620035 0.647578
0 0.620035 0.647578
0.190295 0.620035 0.647578
0.538567 0.620035 0.647578
0.747982 0.620035 0.647578
0.835294 0.620035 0.647578
0.913924 0.620035 0.647578
0 0.74609 0.644968
0 0.74609 0.644968
0 0.74609 0.644968
0 0.74609 0.644968
0.0926833 0.74609 0.644968
0.476921 0.74609 0.644968
0.749996 0.74609 0.644968
0.869078 0.74609 0.644968
0.95935 0.74609 0.644968
0 0.872419 0.641611
0 0.872419 0.641611
0 0.872419 0.641611
0 0.872419 0.641611
0 0.872419 0.641611
0.392081 0.872419 0.641611
0.712016 0.872419 0.641611
0.874998 0.872419 0.641611
0.989197 0.872419 0.641611
0 0.999023 0.637613
0 0.999023 0.637613
0 0.999023 0.637613
0 0.999023 0.637613
0 0.999023 0.637613
0.291752 0.999023 0.637613
0.630152 0.999023 0.637613
0.856458 0.999023 0.637613
1 0.999023 0.637613
0 0 0.759228
0.0776989 0 0.759228
0.274113 0 0.759228
0.468009 0 0.759228
0.656779 0 0.759228
0.837842 0 0.759228
1 0 0.759228
1 0 0.759228
1 0 0.759228
0 0.120882 0.767712
0 0.120882 0.767712
0.0962387 0.120882 0.767712
0.294072 0.120882 0.767712
0.489891 0.120882 0.767712
0.68014 0.120882 0.767712
0.861616 0.120882 0.767712
1 0.120882 0.767712
1 0.120882 0.767712
0 0.244694 0.770733
0 0.244694 0.770733
0 0.244694 0.770733
0.115267 0.244694 0.770733
0.31632 0.244694 0.770733
0.516823 0.244694 0.770733
0.711223 0.244694 0.770733
0.894972 0.244694 0.770733
1 0.244694 0.770733
0 0.36936 0.771557
0 0.36936 0.771557
0 0.36936 0.771557
0 0.36936 0.771557
0.177707 0.36936 0.771557
0.397681 0.36936 0.771557
0.58674 0.36936 0.771557
0.761898 0.36936 0.771557
0.946899 0.36936 0.771557
0 0.494621 0.770932
0 0.494621 0.770932
0 0.494621 0.770932
0 0.494621 0.770932
0.0991836 0.494621 0.770932
0.373678 0.494621 0.770932
0.579858 0.494621 0.770932
0.722728 0.494621 0.770932
0.85687 0.494621 0.770932
0 0.62031 0.769192
0 0.62031 0.769192
0 0.62031 0.769192
0 0.62031 0.769192
0.0284123 0.62031 0.769192
0.383764 0.62031 0.769192
0.652567 0.62031 0.769192
0.789425 0.62031 0.769192
0.875425 0.62031 0.769192
0 0.746349 0.766583
0 0.746349 0.766583
0 0.746349 0.766583
0 0.746349 0.766583
0 0.746349 0.766583
0.337194 0.746349 0.766583
0.697597 0.746349 0.766583
0.873564 0.746349 0.766583
0.947265 0.746349 0.766583
0 0.872694 0.763226
0 0.872694 0.763226
0 0.872694 0.763226
0 0.872694 0.763226
0 0.872694 0.763226
0.237415 0.872694 0.763226
0.635996 0.872694 0.763226
0.874998 0.872694 0.763226
0.989319 0.872694 0.763226
0 0.999283 0.759228
0 0.999283 0.759228
0 0.999283 0.759228
0 0.999283 0.759228
0 0.999283 0.759228
0.134951 0.999283 0.759228
0.544076 0.999283 0.759228
0.84419 0.999283 0.759228
1 0.999283 0.759228
0 0 0.879973
0.0649729 0 0.879973
0.26157 0 0.879973
0.456321 0 0.879973
0.64715 0 0.879973
0.831846 0 0.879973
1 0 0.879973
1 0 0.879973
1 0 0.879973
0 0.121218 0.888472
0 0.121218 0.888472
0.0834058 0.121218 0.888472
0.281132 0.121218 0.888472
0.477501 0.121218 0.888472
0.669825 0.121218 0.888472
0.855268 0.121218 0.888472
1 0.121218 0.888472
1 0.121218 0.888472
0 0.245014 0.891493
0 0.245014 0.891493
0 0.245014 0.891493
0.102159 0.245014 0.891493
0.302205 0.245014 0.891493
0.502129 0.245014 0.891493
0.698054 0.245014 0.891493
0.885969 0.245014 0.891493
1 0.245014 0.891493
0 0.369696 0.892317
0 0.369696 0.892317
0 0.369696 0.892317
0 0.369696 0.892317
0.122332 0.369696 0.892317
0.332448 0.369696 0.892317
0.53727 0.369696 0.892317
0.738445 0.369696 0.892317
0.93106 0.369696 0.892317
0 0.494942 0.891676
0 0.494942 0.891676
0 0.494942 0.891676
0 0.494942 0.891676
0 0.494942 0.891676
0.238163 0.494942 0.891676
0.464363 0.494942 0.891676
0.644846 0.494942 0.891676
0.811307 0.494942 0.891676
0 0.62063 0.889952
0 0.62063 0.889952
0 0.62063 0.889952
0 0.62063 0.889952
0 0.62063 0.889952
0.206104 0.62063 0.889952
0.496986 0.62063 0.889952
0.68925 0.62063 0.889952
0.810224 0.62063 0.889952
0 0.746685 0.887327
0 0.746685 0.887327
0 0.746685 0.887327
0 0.746685 0.887327
0 0.746685 0.887327
0.159594 0.746685 0.887327
0.545892 0.746685 0.887327
0.803616 0.746685 0.887327
0.908217 0.746685 0.887327
0 0.873014 0.88397
0 0.873014 0.88397
0 0.873014 0.88397
0 0.873014 0.88397
0 0.873014 0.88397
0.0616922 0.873014 0.88397
0.501122 0.873014 0.88397
0.856931 0.873014 0.88397
0.993408 0.873014 0.88397
0 0.999619 0.879973
0 0.999619 0.879973
0 0.999619 0.879973
0 0.999619 0.879973
0 0.999619 0.879973
0 0.999619 0.879973
0.398077 0.999619 0.879973
0.797009 0.999619 0.879973
1 0.999619 0.879973
0 0 1
0.0525521 0 1
0.249287 0 1
0.444602 0 1
0.636866 0 1
0.824201 0 1
1 0 1
1 0 1
1 0 1
0 0.121599 1
0 0.121599 1
0.0709239 0.121599 1
0.268574 0.121599 1
0.465263 0.121599 1
0.65893 0.121599 1
0.847196 0.121599 1
1 0.121599 1
1 0.121599 1
0 0.245411 1
0 0.245411 1
0 0.245411 1
0.0894942 0.245411 1
0.288899 0.245411 1
0.488365 0.245411 1
0.685115 0.245411 1
0.875822 0.245411 1
1 0.245411 1
0 0.370077 1
0 0.370077 1
0 0.370077 1
0 0.370077 1
0.108568 0.370077 1
0.311513 0.370077 1
0.516823 0.370077 1
0.719905 0.370077 1
0.91545 0.370077 1
0 0.495338 1
0 0.495338 1
0 0.495338 1
0 0.495338 1
0 0.495338 1
0.144015 0.495338 1
0.367498 0.495338 1
0.572808 0.495338 1
0.772824 0.495338 1
0 0.621027 1
0 0.621027 1
0 0.621027 1
0 0.621027 1
0 0.621027 1
0.0477302 0.621027 1
0.330327 0.621027 1
0.556756 0.621027 1
0.721386 0.621027 1
0 0.747066 1
0 0.747066 1
0 0.747066 1
0 0.747066 1
0 0.747066 1
0 0.747066 1
0.347921 0.747066 1
0.647593 0.747066 1
0.815091 0.747066 1
0 0.873411 1
0 0.873411 1
0 0.873411 1
0 0.873411 1
0 0.873411 1
0 0.873411 1
0.319234 0.873411 1
0.72784 0.873411 1
0.957809 0.873411 1
0 1 1
0 1 1
0 1 1
0 1 1
0 1 1
0 1 1
0.217136 1 1
0.675837 1 1
1 1 1
