src/colors/teal_&_orange_vibes/teal_punch.cube
TITLE "Generated by Resolve"
LUT_3D_SIZE 33
0 0 0
0.0334783 0 0
0.087541 0 0
0.14049 0 0
0.19118 0 0
0.238636 0 0
0.282322 0 0
0.322332 0 0
0.359243 0 0
0.39382 0 0
0.426795 0 0
0.458701 0 0
0.490074 0 0
0.521233 0 0
0.552468 0 0
0.583978 0 0
0.615976 0 0
0.648676 0 0
0.682246 0 0
0.716579 0 0
0.750988 0 0
0.785412 0 0
0.819867 0 0
0.854337 0 0
0.888853 0 0
0.923369 0 0
0.958068 0 0
0.992691 0 0
1 0 0
1 0 0
1 0 0
1 0 0
1 0 0
0 0.0298772 0.00341802
0.00578317 0.0298772 0.00341802
0.0615702 0.0298772 0.00341802
0.116533 0.0298772 0.00341802
0.169345 0.0298772 0.00341802
0.218585 0.0298772 0.00341802
0.26331 0.0298772 0.00341802
0.303593 0.0298772 0.00341802
0.340215 0.0298772 0.00341802
0.374258 0.0298772 0.00341802
0.406561 0.0298772 0.00341802
0.437903 0.0298772 0.00341802
0.468772 0.0298772 0.00341802
0.499504 0.0298772 0.00341802
0.530312 0.0298772 0.00341802
0.56141 0.0298772 0.00341802
0.592996 0.0298772 0.00341802
0.625238 0.0298772 0.00341802
0.65832 0.0298772 0.00341802
0.692454 0.0298772 0.00341802
0.727245 0.0298772 0.00341802
0.762036 0.0298772 0.00341802
0.796826 0.0298772 0.00341802
0.831693 0.0298772 0.00341802
0.86656 0.0298772 0.00341802
0.901366 0.0298772 0.00341802
0.936187 0.0298772 0.00341802
0.971008 0.0298772 0.00341802
1 0.0298772 0.00341802
1 0.0298772 0.00341802
1 0.0298772 0.00341802
1 0.0298772 0.00341802
1 0.0298772 0.00341802
0 0.0602731 0.00556954
0 0.0602731 0.00556954
0.0369268 0.0602731 0.00556954
0.0938888 0.0602731 0.00556954
0.149111 0.0602731 0.00556954
0.200626 0.0602731 0.00556954
0.246815 0.0602731 0.00556954
0.287449 0.0602731 0.00556954
0.32369 0.0602731 0.00556954
0.357046 0.0602731 0.00556954
0.388739 0.0602731 0.00556954
0.419577 0.0602731 0.00556954
0.450019 0.0602731 0.00556954
0.480369 0.0602731 0.00556954
0.510811 0.0602731 0.00556954
0.541543 0.0602731 0.00556954
0.572702 0.0602731 0.00556954
0.604471 0.0602731 0.00556954
0.637018 0.0602731 0.00556954
0.670542 0.0602731 0.00556954
0.705257 0.0602731 0.00556954
0.740429 0.0602731 0.00556954
0.775525 0.0602731 0.00556954
0.810575 0.0602731 0.00556954
0.845624 0.0602731 0.00556954
0.880644 0.0602731 0.00556954
0.915648 0.0602731 0.00556954
0.950652 0.0602731 0.00556954
0.985641 0.0602731 0.00556954
1 0.0602731 0.00556954
1 0.0602731 0.00556954
1 0.0602731 0.00556954
1 0.0602731 0.00556954
0 0.0908675 0.00720226
0 0.0908675 0.00720226
0.0132448 0.0908675 0.00720226
0.0718395 0.0908675 0.00720226
0.129412 0.0908675 0.00720226
0.18378 0.0908675 0.00720226
0.232059 0.0908675 0.00720226
0.273243 0.0908675 0.00720226
0.308995 0.0908675 0.00720226
0.341665 0.0908675 0.00720226
0.372824 0.0908675 0.00720226
0.403326 0.0908675 0.00720226
0.433539 0.0908675 0.00720226
0.463676 0.0908675 0.00720226
0.493904 0.0908675 0.00720226
0.52433 0.0908675 0.00720226
0.555138 0.0908675 0.00720226
0.58645 0.0908675 0.00720226
0.61854 0.0908675 0.00720226
0.651453 0.0908675 0.00720226
0.68545 0.0908675 0.00720226
0.720592 0.0908675 0.00720226
0.755871 0.0908675 0.00720226
0.791104 0.0908675 0.00720226
0.826307 0.0908675 0.00720226
0.861479 0.0908675 0.00720226
0.89662 0.0908675 0.00720226
0.931746 0.0908675 0.00720226
0.966842 0.0908675 0.00720226
1 0.0908675 0.00720226
1 0.0908675 0.00720226
1 0.0908675 0.00720226
1 0.0908675 0.00720226
0 0.121599 0.00849927
0 0.121599 0.00849927
0 0.121599 0.00849927
0.0500191 0.121599 0.00849927
0.109255 0.121599 0.00849927
0.166659 0.121599 0.00849927
0.218082 0.121599 0.00849927
0.260105 0.121599 0.00849927
0.295216 0.121599 0.00849927
0.32726 0.121599 0.00849927
0.358221 0.121599 0.00849927
0.388724 0.121599 0.00849927
0.419013 0.121599 0.00849927
0.449195 0.121599 0.00849927
0.479393 0.121599 0.00849927
0.509743 0.121599 0.00849927
0.540291 0.121599 0.00849927
0.571252 0.121599 0.00849927
0.602777 0.121599 0.00849927
0.635065 0.121599 0.00849927
0.66833 0.121599 0.00849927
0.7028 0.121599 0.00849927
0.738155 0.121599 0.00849927
0.773465 0.121599 0.00849927
0.808728 0.121599 0.00849927
0.843961 0.121599 0.00849927
0.879164 0.121599 0.00849927
0.914351 0.121599 0.00849927
0.949493 0.121599 0.00849927
0.984634 0.121599 0.00849927
1 0.121599 0.00849927
1 0.121599 0.00849927
1 0.121599 0.00849927
0 0.152438 0.00952163
0 0.152438 0.00952163
0 0.152438 0.00952163
0.0293431 0.152438 0.00952163
0.0885939 0.152438 0.00952163
0.147616 0.152438 0.00952163
0.203326 0.152438 0.00952163
0.246891 0.152438 0.00952163
0.281102 0.152438 0.00952163
0.313024 0.152438 0.00952163
0.344396 0.152438 0.00952163
0.375448 0.152438 0.00952163
0.406256 0.152438 0.00952163
0.43679 0.152438 0.00952163
0.467185 0.152438 0.00952163
0.49752 0.152438 0.00952163
0.527947 0.152438 0.00952163
0.558618 0.152438 0.00952163
0.589715 0.152438 0.00952163
0.621424 0.152438 0.00952163
0.653986 0.152438 0.00952163
0.687602 0.152438 0.00952163
0.722484 0.152438 0.00952163
0.757763 0.152438 0.00952163
0.793011 0.152438 0.00952163
0.828214 0.152438 0.00952163
0.863386 0.152438 0.00952163
0.898543 0.152438 0.00952163
0.933684 0.152438 0.00952163
0.968795 0.152438 0.00952163
1 0.152438 0.00952163
1 0.152438 0.00952163
1 0.152438 0.00952163
0 0.183368 0.0103609
0 0.183368 0.0103609
0 0.183368 0.0103609
0.0118563 0.183368 0.0103609
0.0704662 0.183368 0.0103609
0.127932 0.183368 0.0103609
0.185016 0.183368 0.0103456
0.232029 0.183368 0.0103456
0.265644 0.183368 0.0103609
0.298817 0.183368 0.0103609
0.331502 0.183368 0.0103609
0.363638 0.183368 0.0103609
0.395209 0.183368 0.0103456
0.426307 0.183368 0.0103609
0.457038 0.183368 0.0103609
0.487541 0.183368 0.0103456
0.517937 0.183368 0.0103456
0.548424 0.183368 0.0103456
0.579187 0.183368 0.0103456
0.610391 0.183368 0.0103609
0.642298 0.183368 0.0103456
0.675105 0.183368 0.0103456
0.709087 0.183368 0.0103456
0.744121 0.183368 0.0103456
0.779217 0.183368 0.0103456
0.814298 0.183368 0.0103609
0.849363 0.183368 0.0103609
0.884413 0.183368 0.0103456
0.919448 0.183368 0.0103456
0.954482 0.183368 0.0103456
0.989502 0.183368 0.0103456
1 0.183368 0.0103456
1 0.183368 0.0103456
0 0.214359 0.0110018
0 0.214359 0.0110018
0 0.214359 0.0110018
0 0.214359 0.0110018
0.0580148 0.214359 0.0110018
0.115923 0.214359 0.0110018
0.171588 0.214359 0.0110018
0.218738 0.214359 0.0110018
0.252445 0.214359 0.0110018
0.287007 0.214359 0.0110018
0.320851 0.214359 0.0110018
0.353902 0.214359 0.0110018
0.386206 0.214359 0.0110018
0.417853 0.214359 0.0110018
0.448966 0.214359 0.0110018
0.479683 0.214359 0.0110018
0.51014 0.214359 0.0110018
0.54052 0.214359 0.0110018
0.570993 0.214359 0.0110018
0.601785 0.214359 0.0110018
0.633097 0.214359 0.0110018
0.665171 0.214359 0.0110018
0.698253 0.214359 0.0110018
0.732586 0.214359 0.0110018
0.767407 0.214359 0.0110018
0.802258 0.214359 0.0110018
0.83711 0.214359 0.0110018
0.871962 0.214359 0.0110018
0.906828 0.214359 0.0110018
0.941711 0.214359 0.0110018
0.976577 0.214359 0.0110018
1 0.214359 0.0110018
1 0.214359 0.0110018
0 0.245411 0.0115053
0 0.245411 0.0115053
0 0.245411 0.0115053
0 0.245411 0.0115053
0.049134 0.245411 0.0115053
0.109392 0.245411 0.0115053
0.166964 0.245411 0.0115053
0.215915 0.245411 0.0115053
0.249989 0.245411 0.0115053
0.281743 0.245411 0.0115053
0.314488 0.245411 0.0115053
0.347326 0.245411 0.0115053
0.379751 0.245411 0.0115053
0.411643 0.245411 0.0115053
0.442969 0.245411 0.0115053
0.473838 0.245411 0.0115053
0.504356 0.245411 0.0115053
0.534661 0.245411 0.0115053
0.564935 0.245411 0.0115053
0.595376 0.245411 0.0115053
0.626184 0.245411 0.0115053
0.657603 0.245411 0.0115053
0.68986 0.245411 0.0115053
0.723232 0.245411 0.0115053
0.75761 0.245411 0.0115053
0.792111 0.245411 0.0115053
0.826658 0.245411 0.0115053
0.861234 0.245411 0.0115053
0.895857 0.245411 0.0115053
0.930495 0.245411 0.0115053
0.965164 0.245411 0.0115053
0.999863 0.245411 0.0115053
1 0.245411 0.0115053
0 0.276509 0.0118868
0 0.276509 0.0118868
0 0.276509 0.0118868
0 0.276509 0.0118868
0.0405432 0.276509 0.0118868
0.102235 0.276509 0.0118868
0.160143 0.276509 0.0118868
0.210224 0.276509 0.0118868
0.249058 0.276509 0.0118868
0.281239 0.276509 0.0118868
0.312551 0.276509 0.0118868
0.344259 0.276509 0.0118868
0.376104 0.276509 0.0118868
0.407752 0.276509 0.0118868
0.439033 0.276509 0.0118868
0.469917 0.276509 0.0118868
0.50042 0.276509 0.0118868
0.530663 0.276509 0.0118868
0.560769 0.276509 0.0118868
0.590921 0.276509 0.0118868
0.621317 0.276509 0.0118868
0.652155 0.276509 0.0118868
0.68368 0.276509 0.0118868
0.716152 0.276509 0.0118868
0.749798 0.276509 0.0118868
0.783856 0.276509 0.0118868
0.818006 0.276509 0.0118868
0.852232 0.276509 0.0118868
0.886519 0.276509 0.0118868
0.920851 0.276509 0.0118868
0.955245 0.276509 0.0118868
0.989685 0.276509 0.0118868
1 0.276509 0.0118868
0 0.307652 0.0121309
0 0.307652 0.0121309
0 0.307652 0.0121309
0 0.307652 0.0121309
0.0307012 0.307652 0.0121309
0.0932631 0.307652 0.0121309
0.151583 0.307652 0.0121309
0.203021 0.307652 0.0121309
0.245548 0.307652 0.0121309
0.280674 0.307652 0.0121309
0.31249 0.307652 0.0121309
0.343633 0.307652 0.0121309
0.374792 0.307652 0.0121309
0.405966 0.307652 0.0121309
0.436973 0.307652 0.0121309
0.467704 0.307652 0.0121309
0.498131 0.307652 0.0121309
0.528283 0.307652 0.0121309
0.558236 0.307652 0.0121309
0.588159 0.307652 0.0121309
0.618204 0.307652 0.0121309
0.648554 0.307652 0.0121309
0.679454 0.307652 0.0121309
0.711147 0.307652 0.0121309
0.743893 0.307652 0.0121309
0.777417 0.307652 0.0121309
0.811093 0.307652 0.0121309
0.844877 0.307652 0.0121309
0.878767 0.307652 0.0121309
0.912749 0.307652 0.0121309
0.946807 0.307652 0.0121309
0.980941 0.307652 0.0121309
1 0.307652 0.0121309
0 0.338842 0.0122835
0 0.338842 0.0122835
0 0.338842 0.0122835
0 0.338842 0.0122835
0.0193332 0.338842 0.0122835
0.0825818 0.338842 0.0122835
0.141527 0.338842 0.0122835
0.19443 0.338842 0.0122835
0.239841 0.338842 0.0122835
0.278264 0.338842 0.0122835
0.312047 0.338842 0.0122835
0.34374 0.338842 0.0122835
0.374792 0.338842 0.0122835
0.405661 0.338842 0.0122835
0.436393 0.338842 0.0122835
0.466926 0.338842 0.0122835
0.497215 0.338842 0.0122835
0.527245 0.338842 0.0122835
0.557076 0.338842 0.0122835
0.586816 0.338842 0.0122835
0.616571 0.338842 0.0122835
0.64654 0.338842 0.0122835
0.676921 0.338842 0.0122835
0.707942 0.338842 0.0122835
0.739849 0.338842 0.0122835
0.772717 0.338842 0.0122835
0.805844 0.338842 0.0122835
0.839139 0.338842 0.0122835
0.872572 0.338842 0.0122835
0.906142 0.338842 0.0122835
0.939803 0.338842 0.0122835
0.973587 0.338842 0.0122835
1 0.338842 0.0122835
0 0.370077 0.0123293
0 0.370077 0.0123293
0 0.370077 0.0123293
0 0.370077 0.0123293
0.00654612 0.370077 0.0123293
0.0702831 0.370077 0.0123293
0.130083 0.370077 0.0123293
0.184451 0.370077 0.0123293
0.232334 0.370077 0.0123293
0.273793 0.370077 0.0123293
0.31014 0.370077 0.0123293
0.343343 0.370077 0.0123293
0.37499 0.370077 0.0123293
0.405997 0.370077 0.0123293
0.436667 0.370077 0.0123293
0.467109 0.370077 0.0123293
0.497307 0.370077 0.0123293
0.52726 0.370077 0.0123293
0.557 0.370077 0.0123293
0.586603 0.370077 0.0123293
0.616159 0.370077 0.0123293
0.645823 0.370077 0.0123293
0.675776 0.370077 0.0123293
0.706249 0.370077 0.0123293
0.737438 0.370077 0.0123293
0.769574 0.370077 0.0123293
0.802136 0.370077 0.0123293
0.834897 0.370077 0.0123293
0.867826 0.370077 0.0123293
0.900938 0.370077 0.0123293
0.934188 0.370077 0.0123293
0.967559 0.370077 0.0123293
1 0.370077 0.0123293
0 0.401343 0.0122988
0 0.401343 0.0122988
0 0.401343 0.0122988
0 0.401343 0.0122988
0 0.401343 0.0122988
0.0567636 0.401343 0.0122988
0.117388 0.401343 0.0122988
0.173159 0.401343 0.0122988
0.223209 0.401343 0.0122988
0.267399 0.401343 0.0122988
0.306447 0.401343 0.0122988
0.341711 0.401343 0.0122988
0.374609 0.401343 0.0122988
0.406241 0.401343 0.0122988
0.437217 0.401343 0.0122988
0.467765 0.401343 0.0122988
0.498009 0.401343 0.0122988
0.527977 0.401343 0.0122988
0.557687 0.401343 0.0122988
0.587228 0.401343 0.0122988
0.616663 0.401343 0.0122988
0.646128 0.401343 0.0122988
0.675761 0.401343 0.0122988
0.705791 0.401343 0.0122988
0.736385 0.401343 0.0122988
0.767834 0.401343 0.0122988
0.799802 0.401343 0.0122988
0.832013 0.401343 0.0122988
0.864439 0.401343 0.0122988
0.897063 0.401343 0.0122988
0.929854 0.401343 0.0122988
0.962814 0.401343 0.0122988
0.995895 0.401343 0.0122988
0 0.432639 0.0121767
0 0.432639 0.0121767
0 0.432639 0.0121767
0 0.432639 0.0121767
0 0.432639 0.0121767
0.0422065 0.432639 0.0121767
0.103609 0.432639 0.0121767
0.160678 0.432639 0.0121767
0.21265 0.432639 0.0121767
0.259281 0.432639 0.0121767
0.300923 0.432639 0.0121767
0.338506 0.432639 0.0121767
0.373144 0.432639 0.0121767
0.405875 0.432639 0.0121767
0.437491 0.432639 0.0121767
0.468452 0.432639 0.0121767
0.498924 0.432639 0.0121767
0.52903 0.432639 0.0121767
0.558846 0.432639 0.0121767
0.588403 0.432639 0.0121767
0.617807 0.432639 0.0121767
0.647166 0.432639 0.0121767
0.6766 0.432639 0.0121767
0.706294 0.432639 0.0121767
0.736446 0.432639 0.0121767
0.767269 0.432639 0.0121767
0.798688 0.432639 0.0121767
0.83035 0.432639 0.0121767
0.862272 0.432639 0.0121767
0.894392 0.432639 0.0121767
0.926726 0.432639 0.0121767
0.959228 0.432639 0.0121767
0.991897 0.432639 0.0121767
0 0.463981 0.0119783
0 0.463981 0.0119783
0 0.463981 0.0119783
0 0.463981 0.0119783
0 0.463981 0.0119783
0.0268864 0.463981 0.0119783
0.0889296 0.463981 0.0119783
0.147158 0.463981 0.0119783
0.200824 0.463981 0.0119783
0.249638 0.463981 0.0119783
0.293706 0.463981 0.0119783
0.333639 0.463981 0.0119783
0.37026 0.463981 0.0119783
0.404501 0.463981 0.0119783
0.43714 0.463981 0.0119783
0.468742 0.463981 0.0119783
0.499687 0.463981 0.0119783
0.530114 0.463981 0.0119783
0.560143 0.463981 0.0119783
0.589868 0.463981 0.0119783
0.619348 0.463981 0.0119783
0.648692 0.463981 0.0119783
0.678035 0.463981 0.0119783
0.707515 0.463981 0.0119783
0.737331 0.463981 0.0119783
0.767681 0.463981 0.0119783
0.798581 0.463981 0.0119783
0.82974 0.463981 0.0119783
0.861158 0.463981 0.0119783
0.892805 0.463981 0.0119783
0.924666 0.463981 0.0119783
0.956725 0.463981 0.0119783
0.988983 0.463981 0.0119783
0 0.495338 0.0117037
0 0.495338 0.0117037
0 0.495338 0.0117037
0 0.495338 0.0117037
0 0.495338 0.0117037
0.0111391 0.495338 0.0117037
0.0736248 0.495338 0.0117037
0.132784 0.495338 0.0117037
0.187915 0.495338 0.0117037
0.238651 0.495338 0.0117037
0.284947 0.495338 0.0117037
0.327153 0.495338 0.0117037
0.365881 0.495338 0.0117037
0.401862 0.495338 0.0117037
0.435843 0.495338 0.0117037
0.468406 0.495338 0.0117037
0.499992 0.495338 0.0117037
0.530922 0.495338 0.0117037
0.561334 0.495338 0.0117037
0.591318 0.495338 0.0117037
0.620996 0.495338 0.0117037
0.650446 0.495338 0.0117037
0.679805 0.495338 0.0117037
0.709194 0.495338 0.0117037
0.738796 0.495338 0.0117037
0.768811 0.495338 0.0117037
0.799268 0.495338 0.0117037
0.829984 0.495338 0.0117037
0.860945 0.495338 0.0117037
0.892134 0.495338 0.0117037
0.923552 0.495338 0.0117037
0.955184 0.495338 0.0117037
0.987015 0.495338 0.0117037
0 0.526711 0.011368
0 0.526711 0.011368
0 0.526711 0.011368
0 0.526711 0.011368
0 0.526711 0.011368
0 0.526711 0.011368
0.0579995 0.526711 0.011368
0.117845 0.526711 0.011368
0.174182 0.526711 0.011368
0.226551 0.526711 0.011368
0.27483 0.526711 0.011368
0.319173 0.526711 0.011368
0.359991 0.526711 0.011368
0.397848 0.526711 0.011368
0.433387 0.526711 0.011368
0.467155 0.526711 0.011368
0.499657 0.526711 0.011368
0.531243 0.526711 0.011368
0.562173 0.526711 0.011368
0.592569 0.526711 0.011368
0.622553 0.526711 0.011368
0.652232 0.526711 0.011368
0.681712 0.526711 0.011368
0.711116 0.526711 0.011368
0.740627 0.526711 0.011368
0.770413 0.526711 0.011368
0.800534 0.526711 0.011368
0.830869 0.526711 0.011368
0.861448 0.526711 0.011368
0.892241 0.526711 0.011368
0.923262 0.526711 0.011368
0.954482 0.526711 0.011368
0.985916 0.526711 0.011368
0 0.558129 0.010956
0 0.558129 0.010956
0 0.558129 0.010956
0 0.558129 0.010956
0 0.558129 0.010956
0 0.558129 0.010956
0.0423896 0.558129 0.010956
0.102647 0.558129 0.010956
0.159884 0.558129 0.010956
0.213626 0.558129 0.010956
0.263615 0.558129 0.010956
0.309895 0.558129 0.010956
0.352712 0.558129 0.010956
0.392462 0.558129 0.010956
0.429679 0.558129 0.010956
0.464866 0.558129 0.010956
0.498482 0.558129 0.010956
0.530922 0.558129 0.010956
0.562493 0.558129 0.010956
0.593423 0.558129 0.010956
0.623835 0.558129 0.010956
0.653834 0.558129 0.010956
0.683543 0.558129 0.010956
0.713085 0.558129 0.010956
0.742626 0.558129 0.010956
0.772305 0.558129 0.010956
0.802197 0.558129 0.010956
0.832258 0.558129 0.010956
0.862501 0.558129 0.010956
0.892958 0.558129 0.010956
0.923613 0.558129 0.010956
0.954482 0.558129 0.010956
0.985534 0.558129 0.010956
0 0.589563 0.0104982
0 0.589563 0.0104982
0 0.589563 0.0104982
0 0.589563 0.0104982
0 0.589563 0.0104982
0 0.589563 0.0104982
0.0272221 0.589563 0.0104982
0.0875715 0.589563 0.0104982
0.145373 0.589563 0.0104982
0.200153 0.589563 0.0104982
0.251575 0.589563 0.0104982
0.29955 0.589563 0.0104982
0.344213 0.589563 0.0104982
0.385794 0.589563 0.0104982
0.42472 0.589563 0.0104982
0.461418 0.589563 0.0104982
0.496315 0.589563 0.0104982
0.529793 0.589563 0.0104982
0.562188 0.589563 0.0104982
0.593744 0.589563 0.0104982
0.624674 0.589563 0.0104982
0.655116 0.589563 0.0104982
0.685145 0.589563 0.0104982
0.714931 0.589563 0.0104982
0.744595 0.589563 0.0104982
0.774273 0.589563 0.0104982
0.804044 0.589563 0.0104982
0.833936 0.589563 0.0104982
0.863951 0.589563 0.0104982
0.894133 0.589563 0.0104982
0.924498 0.589563 0.0104982
0.955047 0.589563 0.0104982
0.985779 0.589563 0.0104982
0 0.621027 0.00996414
0 0.621027 0.00996414
0 0.621027 0.00996414
0 0.621027 0.00996414
0 0.621027 0.00996414
0 0.621027 0.00996414
0.0129549 0.621027 0.00996414
0.0729992 0.621027 0.00996414
0.131029 0.621027 0.00996414
0.186496 0.621027 0.00996414
0.239017 0.621027 0.00996414
0.288426 0.621027 0.00996414
0.334707 0.621027 0.00996414
0.377997 0.621027 0.00996414
0.418601 0.621027 0.00996414
0.456855 0.621027 0.00996414
0.493111 0.621027 0.00996414
0.527764 0.621027 0.00996414
0.561105 0.621027 0.00996414
0.593454 0.621027 0.00996414
0.624994 0.621027 0.00996414
0.65594 0.621027 0.00996414
0.686397 0.621027 0.00996414
0.716518 0.621027 0.00996414
0.746395 0.621027 0.00996414
0.776181 0.621027 0.00996414
0.805951 0.621027 0.00996414
0.835752 0.621027 0.00996414
0.865629 0.621027 0.00996414
0.895628 0.621027 0.00996414
0.925765 0.621027 0.00996414
0.956054 0.621027 0.00996414
0.986511 0.621027 0.00996414
0 0.652506 0.00939956
0 0.652506 0.00939956
0 0.652506 0.00939956
0 0.652506 0.00939956
0 0.652506 0.00939956
0 0.652506 0.00939956
0.000106813 0.652506 0.00939956
0.0594186 0.652506 0.00939956
0.117281 0.652506 0.00939956
0.173068 0.652506 0.00939956
0.226337 0.652506 0.00939956
0.27686 0.652506 0.00939956
0.324498 0.652506 0.00939956
0.369314 0.652506 0.00939956
0.411475 0.652506 0.00939956
0.45124 0.652506 0.00939956
0.488899 0.652506 0.00939956
0.524788 0.652506 0.00939956
0.559213 0.652506 0.00939956
0.592432 0.652506 0.00939956
0.62472 0.652506 0.00939956
0.656245 0.652506 0.00939956
0.687205 0.652506 0.00939956
0.717723 0.652506 0.00939956
0.747906 0.652506 0.00939956
0.77789 0.652506 0.00939956
0.807752 0.652506 0.00939956
0.837568 0.652506 0.00939956
0.867414 0.652506 0.00939956
0.897307 0.652506 0.00939956
0.927291 0.652506 0.00939956
0.957382 0.652506 0.00939956
0.987625 0.652506 0.00939956
0 0.684001 0.00875868
0 0.684001 0.00875868
0 0.684001 0.00875868
0 0.684001 0.00875868
0 0.684001 0.00875868
0 0.684001 0.00875868
0 0.684001 0.00875868
0.0473793 0.684001 0.00875868
0.104616 0.684001 0.00875868
0.160296 0.684001 0.00875868
0.213947 0.684001 0.00875868
0.265217 0.684001 0.00875868
0.313924 0.684001 0.00875868
0.360006 0.684001 0.00875868
0.403555 0.684001 0.00875868
0.444739 0.684001 0.00875868
0.483772 0.684001 0.00875868
0.520912 0.684001 0.00875868
0.556466 0.684001 0.00875868
0.590677 0.684001 0.00875868
0.623774 0.684001 0.00875868
0.655985 0.684001 0.00875868
0.687495 0.684001 0.00875868
0.718471 0.684001 0.00875868
0.74905 0.684001 0.00875868
0.779293 0.684001 0.00875868
0.809354 0.684001 0.00875868
0.839292 0.684001 0.00875868
0.869154 0.684001 0.00875868
0.899031 0.684001 0.00875868
0.928939 0.684001 0.00875868
0.958923 0.684001 0.00875868
0.988998 0.684001 0.00875868
0 0.715526 0.00808728
0 0.715526 0.00808728
0 0.715526 0.00808728
0 0.715526 0.00808728
0 0.715526 0.00808728
0 0.715526 0.00808728
0 0.715526 0.00808728
0.0373999 0.715526 0.00808728
0.0935683 0.715526 0.00808728
0.148699 0.715526 0.00808728
0.202289 0.715526 0.00808728
0.253925 0.715526 0.00808728
0.303349 0.715526 0.00808728
0.350423 0.715526 0.00808728
0.395148 0.715526 0.00808728
0.437568 0.715526 0.00808728
0.477867 0.715526 0.00808728
0.516243 0.715526 0.00808728
0.552926 0.715526 0.00808728
0.588159 0.715526 0.00808728
0.622141 0.715526 0.00808728
0.655116 0.715526 0.00808728
0.687251 0.715526 0.00808728
0.718746 0.715526 0.00808728
0.749737 0.715526 0.00808728
0.780362 0.715526 0.00808728
0.810681 0.715526 0.00808728
0.840803 0.715526 0.00808728
0.870787 0.715526 0.00808728
0.90071 0.715526 0.00808728
0.930617 0.715526 0.00808728
0.96054 0.715526 0.00808728
0.990524 0.715526 0.00808728
0 0.747066 0.00735485
0 0.747066 0.00735485
0 0.747066 0.00735485
0 0.747066 0.00735485
0 0.747066 0.00735485
0 0.747066 0.00735485
0 0.747066 0.00735485
0.0282597 0.747066 0.00735485
0.084123 0.747066 0.00735485
0.138735 0.747066 0.00735485
0.191897 0.747066 0.00735485
0.243473 0.747066 0.00735485
0.293248 0.747066 0.00735485
0.340963 0.747066 0.00735485
0.386572 0.747066 0.00735485
0.43003 0.747066 0.00735485
0.471443 0.747066 0.00735485
0.510948 0.747066 0.00735485
0.548714 0.747066 0.00735485
0.584955 0.747066 0.00735485
0.619852 0.747066 0.00735485
0.653635 0.747066 0.00735485
0.686473 0.747066 0.00735485
0.718532 0.747066 0.00735485
0.749996 0.747066 0.00735485
0.781003 0.747066 0.00735485
0.811673 0.747066 0.00735485
0.842039 0.747066 0.00735485
0.872221 0.747066 0.00735485
0.902266 0.747066 0.00735485
0.932235 0.747066 0.00735485
0.962173 0.747066 0.00735485
0.992126 0.747066 0.00735485
0 0.778622 0.00657664
0 0.778622 0.00657664
0 0.778622 0.00657664
0 0.778622 0.00657664
0 0.778622 0.00657664
0 0.778622 0.00657664
0 0.778622 0.00657664
0.0191348 0.778622 0.00657664
0.0747997 0.778622 0.00657664
0.129305 0.778622 0.00657664
0.182467 0.778622 0.00657664
0.234089 0.778622 0.00657664
0.283986 0.778622 0.00657664
0.332067 0.778622 0.00657664
0.378225 0.778622 0.00657664
0.422461 0.778622 0.00657664
0.464775 0.778622 0.00657664
0.505241 0.778622 0.00657664
0.543999 0.778622 0.00657664
0.581186 0.778622 0.00657664
0.616983 0.778622 0.00657664
0.65156 0.778622 0.00657664
0.6851 0.778622 0.00657664
0.7178 0.778622 0.00657664
0.749798 0.778622 0.00657664
0.781247 0.778622 0.00657664
0.812268 0.778622 0.00657664
0.842969 0.778622 0.00657664
0.873396 0.778622 0.00657664
0.903624 0.778622 0.00657664
0.933715 0.778622 0.00657664
0.963729 0.778622 0.00657664
0.993713 0.778622 0.00657664
0 0.810208 0.00576791
0 0.810208 0.00576791
0 0.810208 0.00576791
0 0.810208 0.00576791
0 0.810208 0.00576791
0 0.810208 0.00576791
0 0.810208 0.00576791
0.0100252 0.810208 0.00576791
0.065507 0.810208 0.00576791
0.119905 0.810208 0.00576791
0.173068 0.810208 0.00576791
0.224796 0.810208 0.00576791
0.274952 0.810208 0.00576791
0.3234 0.810208 0.00576791
0.370092 0.810208 0.00576791
0.414939 0.810208 0.00576791
0.457984 0.810208 0.00576791
0.499275 0.810208 0.00576791
0.538872 0.810208 0.00576791
0.576913 0.810208 0.00576791
0.61355 0.810208 0.00576791
0.64892 0.810208 0.00576791
0.683192 0.810208 0.00576791
0.716548 0.810208 0.00576791
0.749126 0.810208 0.00576791
0.781064 0.810208 0.00576791
0.812497 0.810208 0.00576791
0.843534 0.810208 0.00576791
0.874266 0.810208 0.00576791
0.904723 0.810208 0.00576791
0.935012 0.810208 0.00576791
0.965148 0.810208 0.00576791
0.995209 0.810208 0.00576791
0 0.841794 0.00489815
0 0.841794 0.00489815
0 0.841794 0.00489815
0 0.841794 0.00489815
0 0.841794 0.00489815
0 0.841794 0.00489815
0 0.841794 0.00489815
0.000915541 0.841794 0.00489815
