src/colors/teal_&_orange_vibes/tropical_teal.cube
LUT_3D_SIZE 6
0.032898 0.036500 0.036622
0.123988 0.047279 0.036079
0.152603 0.046896 0.036167
0.189410 0.045109 0.035894
0.246961 0.042715 0.037835
0.403233 0.045999 0.045678
0.036117 0.092223 0.044589
0.149345 0.127753 0.043087
0.326297 0.117804 0.041649
0.312492 0.054840 0.039722
0.324992 0.042895 0.041370
0.411180 0.046404 0.046131
0.189659 0.258281 0.068709
0.193253 0.269505 0.067477
0.326759 0.297633 0.065189
0.578750 0.250035 0.056586
0.535355 0.088912 0.051373
0.594375 0.091516 0.054927
0.556388 0.475933 0.082140
0.548692 0.480809 0.083270
0.441673 0.454702 0.076516
0.716586 0.479134 0.096331
0.835463 0.370497 0.088382
0.893891 0.404911 0.099709
0.921301 0.694009 0.160977
0.902506 0.679478 0.153874
0.812387 0.647284 0.137026
0.749189 0.617915 0.125396
0.915953 0.633724 0.152563
0.953542 0.649600 0.178048
0.956334 0.780622 0.198122
0.956144 0.778058 0.196356
0.953172 0.778389 0.197033
0.942108 0.769848 0.195363
0.957718 0.783965 0.239057
0.961450 0.782078 0.274128
0.029088 0.034989 0.078519
0.106644 0.042003 0.118231
0.162859 0.042037 0.118045
0.184782 0.045226 0.062168
0.201092 0.044575 0.036451
0.382918 0.044911 0.044345
0.031657 0.095165 0.137559
0.106141 0.109468 0.115811
0.351188 0.114389 0.065160
0.400625 0.079310 0.047175
0.340921 0.045461 0.041995
0.402647 0.045927 0.045619
0.088502 0.265201 0.110714
0.187200 0.282367 0.107216
0.462264 0.348194 0.072157
0.647387 0.251060 0.061329
0.618948 0.135836 0.056047
0.567341 0.076001 0.053569
0.546664 0.511104 0.081352
0.508830 0.499903 0.083173
0.603857 0.520544 0.086911
0.760926 0.510478 0.102157
0.879887 0.442473 0.103490
0.854127 0.344497 0.085926
0.915833 0.703158 0.159110
0.896981 0.689604 0.152937
0.880557 0.671248 0.146028
0.895625 0.673858 0.151384
0.943283 0.678317 0.172010
0.949829 0.600064 0.157220
0.956306 0.774612 0.190832
0.956285 0.774633 0.192066
0.954020 0.772837 0.191685
0.939642 0.757886 0.182798
0.949389 0.768559 0.206888
0.958909 0.769103 0.245455
0.030132 0.033126 0.117178
0.033982 0.034036 0.120163
0.106419 0.037740 0.152713
0.163178 0.038145 0.156552
0.229079 0.039791 0.142403
0.399696 0.044779 0.044757
0.036485 0.084684 0.219442
0.046442 0.074870 0.193832
0.244825 0.069670 0.208302
0.319636 0.045207 0.170166
0.335874 0.042616 0.115702
0.359866 0.043787 0.043170
0.040578 0.276746 0.332489
0.066159 0.299039 0.330781
0.344608 0.312224 0.294743
0.570855 0.248133 0.198056
0.565498 0.114793 0.078363
0.454464 0.048094 0.047946
0.175874 0.481215 0.284654
0.247189 0.478000 0.257289
0.474416 0.515531 0.247605
0.761152 0.557070 0.185783
0.879310 0.456966 0.122727
0.837179 0.317047 0.080440
0.669661 0.687443 0.225174
0.692611 0.680637 0.191271
0.744922 0.685886 0.192315
0.878384 0.705134 0.178235
0.951094 0.706066 0.174336
0.955466 0.649844 0.163857
0.944757 0.824085 0.295087
0.951139 0.819083 0.261183
0.950470 0.800679 0.216373
0.951799 0.779322 0.189788
0.956714 0.771247 0.192089
0.957787 0.753205 0.209074
0.031960 0.032516 0.154206
0.031651 0.032581 0.144897
0.052888 0.034579 0.182914
0.094111 0.035253 0.184917
0.177947 0.036415 0.189561
0.486582 0.049837 0.197003
0.035324 0.040370 0.213943
0.034839 0.037280 0.198408
0.107808 0.039494 0.236315
0.192726 0.036909 0.229850
0.248138 0.036636 0.216199
0.382334 0.043719 0.060466
0.047742 0.249004 0.454561
0.046029 0.228150 0.429769
0.131265 0.241397 0.403042
0.420283 0.211297 0.379843
0.471235 0.075348 0.280590
0.483684 0.048660 0.097202
0.063474 0.476375 0.578051
0.092076 0.501195 0.559566
0.219887 0.531686 0.539156
0.571507 0.550211 0.522335
0.777532 0.465002 0.422066
0.755468 0.226673 0.117448
0.297531 0.664897 0.531176
0.296287 0.657188 0.514698
0.405583 0.659248 0.460279
0.672056 0.714746 0.462925
0.921140 0.763906 0.452273
0.955839 0.678331 0.279891
0.809375 0.839533 0.597490
0.839542 0.833406 0.526123
0.855264 0.820685 0.448565
0.908921 0.817453 0.348414
0.950517 0.811662 0.269390
0.958091 0.783657 0.208462
0.034800 0.034836 0.219584
0.034006 0.034089 0.203018
0.034485 0.034397 0.205927
0.040381 0.036340 0.217133
0.109403 0.038560 0.275342
0.500421 0.049066 0.381077
0.034938 0.035075 0.222747
0.034619 0.034723 0.217017
0.044643 0.037953 0.258228
0.115682 0.039351 0.293660
0.119283 0.038767 0.270235
0.488320 0.048786 0.353310
0.047676 0.212836 0.474544
0.046414 0.180965 0.452275
0.046917 0.148284 0.430375
0.225364 0.133344 0.438768
0.307484 0.050179 0.385213
0.513330 0.050347 0.357702
0.059714 0.424237 0.639728
0.060030 0.428744 0.629109
0.076298 0.457091 0.624557
0.286295 0.480920 0.618315
0.577141 0.442140 0.597047
0.738874 0.238527 0.473895
0.123211 0.630670 0.698207
0.153623 0.648977 0.708528
0.217179 0.670405 0.698825
0.446318 0.720225 0.712895
0.793626 0.765714 0.743026
0.909384 0.697392 0.660062
0.585130 0.823648 0.766332
0.597347 0.811716 0.717453
0.497629 0.789142 0.717856
0.621707 0.805621 0.688881
0.812749 0.836366 0.616566
0.968789 0.874643 0.658739
0.036237 0.036237 0.243167
0.036155 0.036159 0.242184
0.036720 0.036735 0.255094
0.036422 0.036365 0.263736
0.100811 0.040791 0.328666
0.348983 0.045305 0.398108
0.038954 0.043297 0.298955
0.036313 0.036328 0.244311
0.050810 0.038402 0.296707
0.044053 0.039552 0.303199
0.177722 0.042563 0.359232
0.427682 0.047195 0.409470
0.050896 0.251792 0.531379
0.046254 0.147226 0.442707
0.045359 0.106008 0.422240
0.086141 0.112887 0.444532
0.224547 0.071165 0.449012
0.478930 0.051298 0.473575
0.059737 0.428199 0.671270
0.067024 0.464280 0.679573
0.067449 0.438956 0.656679
0.104135 0.400940 0.623903
0.435371 0.445530 0.642614
0.621269 0.383498 0.634655
0.108962 0.625268 0.749189
0.347354 0.742734 0.782988
0.405836 0.744028 0.783836
0.561829 0.756231 0.791804
0.721982 0.751227 0.793657
0.811233 0.749918 0.787622
0.380516 0.786378 0.803262
0.435049 0.799811 0.804238
0.577913 0.826404 0.822943
0.586602 0.823981 0.819804
0.711768 0.840494 0.833801
0.919048 0.882137 0.872071
