src/colors/teal_&_orange_vibes/tropical_teal.cube
LUT_3D_SIZE 16
0.032898 0.036500 0.036622
0.054155 0.037930 0.033783
0.092031 0.043271 0.034724
0.123988 0.047279 0.036079
0.136189 0.047820 0.036406
0.142577 0.047270 0.036348
0.152603 0.046896 0.036167
0.164904 0.046265 0.035870
0.178351 0.045547 0.035756
0.189410 0.045109 0.035894
0.193240 0.044989 0.035976
0.197134 0.044806 0.036054
0.246961 0.042715 0.037835
0.346442 0.043499 0.042565
0.383708 0.044979 0.044495
0.403233 0.045999 0.045678
0.033850 0.042115 0.038171
0.050271 0.044836 0.035512
0.096210 0.050740 0.034727
0.156817 0.058851 0.035360
0.204775 0.062380 0.036094
0.215161 0.056687 0.036563
0.209503 0.050223 0.036297
0.203651 0.046825 0.036125
0.202950 0.045253 0.036126
0.210751 0.044348 0.036393
0.223898 0.043739 0.036905
0.241173 0.042903 0.037580
0.279232 0.041893 0.039120
0.347972 0.043568 0.042646
0.385098 0.045064 0.044598
0.405945 0.046157 0.045851
0.032208 0.057057 0.039798
0.049795 0.064778 0.039521
0.096114 0.077395 0.038610
0.152419 0.079695 0.037068
0.204613 0.082056 0.037015
0.252917 0.081548 0.037588
0.279372 0.071242 0.038165
0.274016 0.056779 0.038144
0.256012 0.048472 0.037689
0.245622 0.044766 0.037538
0.249642 0.043014 0.037872
0.265645 0.042223 0.038541
0.292344 0.041976 0.039700
0.341010 0.043283 0.042256
0.389534 0.045282 0.044868
0.407726 0.046256 0.045953
0.036117 0.092223 0.044589
0.048566 0.098781 0.043834
0.075654 0.114984 0.043910
0.149345 0.127753 0.043087
0.213583 0.125186 0.040742
0.276027 0.125764 0.041175
0.326297 0.117804 0.041649
0.338045 0.095504 0.040808
0.328683 0.071545 0.039988
0.312492 0.054840 0.039722
0.302633 0.046557 0.039882
0.306302 0.043434 0.040339
0.324992 0.042895 0.041370
0.382619 0.044950 0.044586
0.436874 0.047469 0.047355
0.411180 0.046404 0.046131
0.048753 0.136103 0.050196
0.060207 0.140939 0.048401
0.079188 0.155067 0.049877
0.111553 0.170095 0.051084
0.218202 0.184338 0.052168
0.304225 0.186082 0.047297
0.366673 0.178068 0.045094
0.403983 0.158274 0.045463
0.417019 0.130191 0.045231
0.409666 0.097244 0.044410
0.394058 0.068573 0.043630
0.379455 0.051252 0.043559
0.378323 0.045823 0.044188
0.428583 0.047071 0.046861
0.495785 0.050909 0.050199
0.427451 0.047039 0.046875
0.094897 0.189285 0.060688
0.100118 0.191117 0.058718
0.120107 0.205978 0.059348
0.129188 0.217346 0.060718
0.156405 0.223504 0.061382
0.276129 0.241860 0.061506
0.378748 0.241304 0.054001
0.438536 0.223717 0.049820
0.481416 0.200770 0.049735
0.502162 0.168596 0.049874
0.495617 0.126287 0.049663
0.475602 0.083382 0.048373
0.454104 0.055944 0.047432
0.452664 0.048261 0.048001
0.499499 0.051268 0.050388
0.484812 0.051554 0.049577
0.189659 0.258281 0.068709
0.185313 0.255014 0.067069
0.195637 0.262974 0.067462
0.193253 0.269505 0.067477
0.177430 0.268790 0.066348
0.193506 0.271355 0.064245
0.326759 0.297633 0.065189
0.446846 0.294046 0.058757
0.525594 0.276282 0.056050
0.578750 0.250035 0.056586
0.594965 0.207194 0.055888
0.574377 0.149066 0.053949
0.535355 0.088912 0.051373
0.472810 0.050708 0.048765
0.487493 0.051089 0.049646
0.594375 0.091516 0.054927
0.312956 0.332717 0.072414
0.305455 0.328584 0.072217
0.306140 0.331638 0.073002
0.295662 0.334992 0.073138
0.266204 0.331642 0.071743
0.241087 0.326409 0.068957
0.296395 0.339584 0.067413
0.444297 0.365667 0.070339
0.560901 0.357037 0.067907
0.643175 0.335194 0.067749
0.683590 0.296439 0.066531
0.673403 0.234369 0.061673
0.620826 0.152588 0.056364
0.512385 0.063625 0.050107
0.503914 0.059537 0.050315
0.717649 0.192624 0.063414
0.434390 0.403479 0.073140
0.431249 0.401295 0.074252
0.428905 0.402869 0.075007
0.415654 0.405036 0.075775
0.384419 0.401819 0.074378
0.343902 0.392582 0.071987
0.352780 0.394699 0.070282
0.443013 0.414322 0.072972
0.584793 0.428531 0.079800
0.694193 0.416277 0.083028
0.755979 0.385352 0.082399
0.766017 0.329462 0.076133
0.721622 0.245436 0.065424
0.640536 0.148923 0.057716
0.635707 0.141563 0.058917
0.824376 0.306435 0.079257
0.556388 0.475933 0.082140
0.555029 0.474800 0.081733
0.554880 0.477397 0.081459
0.548692 0.480809 0.083270
0.520440 0.478400 0.082563
0.471773 0.466326 0.079341
0.441673 0.454702 0.076516
0.478714 0.460451 0.077822
0.585551 0.479765 0.087432
0.716586 0.479134 0.096331
0.808232 0.464324 0.101286
0.846619 0.433662 0.099304
0.835463 0.370497 0.088382
0.811767 0.316293 0.078338
0.831381 0.337228 0.085148
0.893891 0.404911 0.099709
0.702316 0.558428 0.106602
0.693029 0.554191 0.102927
0.683605 0.554452 0.100537
0.691101 0.558789 0.102955
0.672073 0.557438 0.102302
0.619138 0.544557 0.096990
0.555895 0.522523 0.089934
0.538465 0.509406 0.086832
0.590488 0.516929 0.092478
0.705455 0.531832 0.105905
0.814098 0.518663 0.113325
0.888991 0.520204 0.122110
0.914205 0.514779 0.124411
0.904437 0.472284 0.112973
0.921473 0.492657 0.121094
0.929672 0.495976 0.123311
0.843856 0.637970 0.137915
0.831479 0.630818 0.133306
0.813808 0.625568 0.128934
0.817311 0.625757 0.129480
0.802050 0.622710 0.127556
0.756880 0.611050 0.121251
0.686424 0.588988 0.111339
0.626994 0.565877 0.102143
0.627656 0.558638 0.101595
0.697737 0.571740 0.112074
0.796384 0.576818 0.123591
0.875543 0.571358 0.131710
0.927102 0.594453 0.145774
0.940878 0.592204 0.147985
0.945468 0.585392 0.149489
0.947641 0.581174 0.151014
0.921301 0.694009 0.160977
0.916060 0.689492 0.158843
0.908393 0.683901 0.155767
0.902506 0.679478 0.153874
0.888501 0.673530 0.150745
0.863009 0.663701 0.145753
0.812387 0.647284 0.137026
0.750185 0.626613 0.125933
0.718179 0.613703 0.120469
0.749189 0.617915 0.125396
0.818092 0.632428 0.137243
0.877157 0.633979 0.145129
0.915953 0.633724 0.152563
0.942379 0.644889 0.163426
0.951469 0.648527 0.172739
0.953542 0.649600 0.178048
0.943208 0.729722 0.174610
0.942510 0.728030 0.173990
0.941460 0.725807 0.173132
0.939698 0.722887 0.171964
0.935965 0.720022 0.170418
0.928939 0.714962 0.167662
0.906747 0.704628 0.162090
0.877849 0.690514 0.154146
0.841907 0.677240 0.146969
0.849121 0.677097 0.149175
0.887573 0.687510 0.159235
0.917777 0.694370 0.167903
0.933057 0.689787 0.171131
0.944554 0.686779 0.177783
0.954859 0.698360 0.195789
0.957172 0.704490 0.209502
0.952167 0.759480 0.187060
0.951936 0.758437 0.186594
0.951753 0.757547 0.186193
0.951496 0.756599 0.185814
0.950655 0.755495 0.185381
0.947850 0.754114 0.184599
0.942590 0.750506 0.182302
0.931963 0.741921 0.177250
0.918335 0.732552 0.172298
0.918347 0.731709 0.174277
0.929978 0.738834 0.183622
0.941907 0.743493 0.192977
0.950107 0.742329 0.200293
0.955014 0.741670 0.210604
0.957295 0.740176 0.221971
0.959355 0.748108 0.240865
0.956334 0.780622 0.198122
0.956295 0.780029 0.197731
0.956201 0.778936 0.196887
0.956144 0.778058 0.196356
0.956043 0.777920 0.196377
0.955324 0.778251 0.196861
0.953172 0.778389 0.197033
0.949272 0.775190 0.194663
0.943471 0.769161 0.191141
0.942108 0.769848 0.195363
0.947359 0.778035 0.208048
0.953462 0.782375 0.223640
0.957718 0.783965 0.239057
0.959709 0.785462 0.256134
0.960816 0.785388 0.268311
0.961450 0.782078 0.274128
0.029666 0.035825 0.046389
0.044788 0.038411 0.045957
0.085132 0.042574 0.043535
0.120686 0.045997 0.041856
0.134794 0.046892 0.040599
0.137901 0.046744 0.039243
0.140719 0.046755 0.037710
0.150311 0.046729 0.036602
0.162853 0.046301 0.036002
0.175806 0.045656 0.035753
0.187723 0.045166 0.035864
0.203426 0.044506 0.036196
0.246869 0.042667 0.037801
0.331939 0.042911 0.041753
0.378821 0.044738 0.044205
0.403805 0.046026 0.045717
0.029510 0.041526 0.048296
0.038381 0.045136 0.046534
0.092048 0.050197 0.039799
0.167364 0.059297 0.038899
0.212805 0.060835 0.038789
0.223720 0.055731 0.038653
0.216025 0.051413 0.037719
0.199582 0.048562 0.036815
0.190335 0.046771 0.036254
0.195144 0.045564 0.036156
0.212247 0.044377 0.036540
0.234340 0.043312 0.037302
0.260390 0.042359 0.038345
0.314296 0.042458 0.040803
0.378325 0.044719 0.044232
0.408227 0.046275 0.045992
0.029105 0.058016 0.050529
0.034886 0.056945 0.044494
0.088910 0.072958 0.042661
0.178113 0.081671 0.038919
0.273426 0.091506 0.039402
0.356350 0.092031 0.041938
0.371145 0.074560 0.042507
0.333938 0.061324 0.040863
0.294946 0.053099 0.039291
0.272265 0.048249 0.038498
0.266659 0.044588 0.038466
0.276855 0.042402 0.038977
0.298572 0.042079 0.039997
0.336472 0.043102 0.042001
0.395278 0.045618 0.045316
0.422701 0.046843 0.046731
0.030736 0.092251 0.053407
0.037066 0.087880 0.047932
0.074489 0.106143 0.046375
0.171961 0.128497 0.043610
0.269127 0.138205 0.042344
0.368504 0.147487 0.044753
0.423533 0.131551 0.045643
0.421748 0.104371 0.045001
0.399842 0.083246 0.043614
0.375480 0.068073 0.042413
0.348183 0.054034 0.041586
0.330783 0.045517 0.041382
0.333280 0.043278 0.041803
0.355668 0.043852 0.043080
0.406239 0.046168 0.045927
0.437574 0.047585 0.047391
0.043093 0.141896 0.055140
0.046872 0.137734 0.052536
0.075674 0.149744 0.050016
0.133034 0.175737 0.049718
0.255072 0.203383 0.051565
0.376293 0.217945 0.049768
0.456321 0.202056 0.049508
0.473151 0.168770 0.048616
0.467904 0.140244 0.047790
0.456959 0.115531 0.047136
0.437121 0.085545 0.045928
0.411192 0.058571 0.044999
0.392120 0.046989 0.044866
0.394161 0.045594 0.045321
0.462268 0.050022 0.048609
0.496355 0.053215 0.050077
0.086284 0.197265 0.058665
0.076680 0.190621 0.057481
0.101165 0.201906 0.054967
0.146850 0.224557 0.054905
0.198607 0.242768 0.058152
0.328001 0.272412 0.061164
0.452077 0.272191 0.055727
0.508818 0.239750 0.053375
0.527659 0.205373 0.052109
0.530200 0.176681 0.051304
0.521092 0.141959 0.050906
0.502038 0.098508 0.049938
0.478521 0.062342 0.048435
0.462805 0.050802 0.048363
0.525210 0.061276 0.051439
0.581511 0.078524 0.054349
0.183918 0.268210 0.060360
0.156384 0.254799 0.060818
0.172451 0.264115 0.056724
0.209671 0.281122 0.056509
0.227045 0.289476 0.059360
0.276656 0.304162 0.063435
0.395251 0.325465 0.068665
0.504899 0.315733 0.062506
0.567683 0.284476 0.059049
0.598971 0.251788 0.057879
0.607481 0.214781 0.056667
0.597262 0.169331 0.055124
0.575166 0.119662 0.053829
0.548291 0.077408 0.051981
0.570992 0.080310 0.053607
0.649087 0.129063 0.057757
0.318374 0.345372 0.062487
0.287967 0.333460 0.062547
0.288392 0.335892 0.058299
0.306803 0.345299 0.056836
0.297713 0.344775 0.061230
0.305234 0.349553 0.065495
0.365576 0.364962 0.069814
0.483369 0.382277 0.074220
0.583074 0.368837 0.071295
0.652751 0.342426 0.069580
0.691044 0.308191 0.068231
0.699169 0.264548 0.064867
0.679215 0.211659 0.060620
0.639306 0.149815 0.057299
0.627711 0.124438 0.056668
0.725000 0.205007 0.063708
0.448668 0.415913 0.069774
0.430458 0.409721 0.068300
0.421979 0.407351 0.066762
0.421093 0.410426 0.065989
0.400577 0.407873 0.067964
0.374839 0.403290 0.069174
0.395160 0.410141 0.071283
0.473156 0.426787 0.076127
0.594773 0.438882 0.082819
0.692502 0.426472 0.085093
0.754972 0.401331 0.085090
0.784490 0.365652 0.082227
0.782621 0.316986 0.075799
0.738443 0.245208 0.066394
0.717582 0.209845 0.063979
0.822202 0.307964 0.079240
0.573821 0.486724 0.083791
0.567378 0.485255 0.081236
0.560435 0.482352 0.080905
0.550107 0.481022 0.080802
0.523384 0.476800 0.080346
0.482762 0.467859 0.078074
0.466835 0.464242 0.077571
0.511593 0.474524 0.081824
0.610107 0.493296 0.092384
0.724036 0.497030 0.101272
0.803412 0.482381 0.104802
0.843770 0.454956 0.102907
0.856010 0.412364 0.096151
0.840654 0.355658 0.086258
0.832201 0.334222 0.083422
0.893890 0.408695 0.100637
0.713453 0.564707 0.108101
0.705357 0.562830 0.104454
0.701461 0.562711 0.104242
0.695184 0.560811 0.103876
0.670314 0.554164 0.101125
0.619359 0.541278 0.095502
0.572052 0.527780 0.090786
0.580844 0.527081 0.092658
0.646712 0.539853 0.102222
0.748159 0.554715 0.115092
0.834813 0.552240 0.123250
0.887872 0.538189 0.126014
0.909431 0.508729 0.121763
0.904570 0.464556 0.111693
0.910620 0.463168 0.113415
0.930673 0.503661 0.125638
0.848143 0.639828 0.137745
0.835769 0.635103 0.133849
0.830783 0.637025 0.133120
0.827338 0.638018 0.132739
0.818705 0.630978 0.130662
0.771895 0.616084 0.122669
0.703213 0.595367 0.112205
0.668897 0.581703 0.108251
0.693802 0.581681 0.112800
0.765265 0.594988 0.124212
0.849227 0.605712 0.136201
0.905822 0.605065 0.144675
0.935880 0.596416 0.148687
0.943337 0.571709 0.143411
0.942882 0.573832 0.145682
0.948034 0.589712 0.153991
0.922855 0.694345 0.160757
0.917491 0.690919 0.158446
0.916435 0.690631 0.157364
0.912972 0.692095 0.156544
0.909083 0.684807 0.154557
0.883800 0.672631 0.148109
0.829540 0.654677 0.137825
0.771563 0.635102 0.128564
0.754866 0.625257 0.126401
0.789951 0.629563 0.132738
0.857841 0.645582 0.145349
0.909669 0.654183 0.156065
0.935112 0.654703 0.163944
0.949392 0.645698 0.167094
0.951303 0.648601 0.172173
0.953504 0.654306 0.179347
0.943234 0.728780 0.174170
0.942774 0.727624 0.173651
0.942783 0.726247 0.172947
0.942570 0.724736 0.171883
0.939171 0.720939 0.170252
0.931956 0.714787 0.167146
0.909695 0.704733 0.161502
0.881251 0.691251 0.154136
0.844666 0.677684 0.147099
0.849036 0.676342 0.148555
0.885880 0.686621 0.158409
0.917253 0.696185 0.168158
0.933975 0.694448 0.172614
0.945618 0.692224 0.179526
0.954303 0.697721 0.192131
0.956946 0.705488 0.208045
0.951811 0.757501 0.186089
0.951699 0.757117 0.185901
0.951602 0.756673 0.185715
0.951410 0.755770 0.185331
0.950561 0.754386 0.184780
0.947797 0.752728 0.183896
0.942922 0.749200 0.181763
0.932843 0.740891 0.176982
0.917129 0.730157 0.171088
0.912841 0.726215 0.170470
0.923508 0.731546 0.177606
0.936841 0.737536 0.187069
0.946123 0.737564 0.193604
0.952733 0.736322 0.201107
0.956332 0.735513 0.212703
0.958776 0.745874 0.235821
0.956190 0.778673 0.196758
0.956142 0.778246 0.196411
0.956126 0.777633 0.196133
0.956117 0.777575 0.196106
0.956090 0.777760 0.196242
0.955561 0.777817 0.196433
0.953599 0.777613 0.196483
0.950156 0.774685 0.194350
0.943607 0.767109 0.189256
0.938758 0.762949 0.188499
0.942141 0.767936 0.197348
0.948575 0.774235 0.209388
0.954519 0.776034 0.222926
0.957957 0.777039 0.236435
0.959523 0.778101 0.252241
0.960727 0.778467 0.266399
0.028884 0.035459 0.063411
0.034177 0.036547 0.066035
0.077847 0.043136 0.079739
0.126167 0.045458 0.082694
0.149039 0.045615 0.081264
0.156623 0.045576 0.075316
0.155662 0.045801 0.060627
0.153119 0.046055 0.047179
0.157475 0.046331 0.040316
0.165219 0.046113 0.037355
0.175511 0.045619 0.036098
0.190472 0.045067 0.035964
0.218197 0.043925 0.036710
0.280660 0.042196 0.039213
0.359760 0.044017 0.043236
0.394407 0.045499 0.045118
0.028677 0.041728 0.069214
0.031289 0.042656 0.070472
0.072542 0.050450 0.072849
0.147007 0.056672 0.065446
0.194881 0.057592 0.059545
0.210776 0.054503 0.054882
0.203945 0.051276 0.046243
0.187506 0.049024 0.040737
0.176095 0.047620 0.038267
0.177616 0.046443 0.036763
0.192266 0.045352 0.036227
0.217320 0.044078 0.036723
0.248194 0.042618 0.037867
0.294008 0.041942 0.039807
0.358658 0.043977 0.043178
0.398752 0.045740 0.045388
0.028779 0.058801 0.081534
0.030178 0.061723 0.083336
0.057969 0.068671 0.072705
0.142764 0.077221 0.060639
0.233922 0.084939 0.050882
0.300744 0.084319 0.047413
0.331456 0.075558 0.045600
0.326747 0.066778 0.043358
0.301019 0.060120 0.041179
0.279620 0.054621 0.039438
0.270762 0.048951 0.038642
0.272630 0.044178 0.038782
0.286461 0.042088 0.039451
0.314950 0.042485 0.040848
0.370696 0.044463 0.043822
0.422139 0.047022 0.046625
0.030010 0.096182 0.091478
0.030613 0.093134 0.084446
0.051041 0.097146 0.073958
0.147339 0.122225 0.065352
0.242879 0.128089 0.054121
0.336164 0.133147 0.049504
0.414302 0.123685 0.047350
0.445484 0.104166 0.047161
0.433336 0.088120 0.045872
0.410798 0.076546 0.044291
0.388865 0.063825 0.043219
0.365392 0.050479 0.042829
0.348435 0.044410 0.042550
0.351263 0.043726 0.042840
0.409012 0.045980 0.045717
0.514549 0.053277 0.050998
0.033689 0.141992 0.088037
0.034441 0.135721 0.081057
0.059582 0.141065 0.074910
0.137561 0.171981 0.067373
0.253962 0.198810 0.062066
0.366639 0.207398 0.055076
0.458941 0.197913 0.051844
0.496487 0.167688 0.050144
0.503659 0.138442 0.049820
0.499131 0.114618 0.049815
0.487161 0.093265 0.049056
0.464772 0.068531 0.047538
0.431216 0.050808 0.046576
0.400442 0.045921 0.045563
0.418908 0.046565 0.046427
0.508612 0.053348 0.050720
0.063870 0.198971 0.073217
0.058331 0.194767 0.072042
0.080878 0.197154 0.072999
0.155474 0.225087 0.066818
0.225140 0.250832 0.062568
0.357706 0.279958 0.061546
0.482035 0.279529 0.056402
0.546319 0.247181 0.055498
0.564063 0.205892 0.053877
0.562199 0.168890 0.053135
0.552322 0.135583 0.052842
0.539905 0.104229 0.052076
0.522459 0.075174 0.050549
0.483019 0.053880 0.049115
0.474728 0.050982 0.048871
0.559562 0.069656 0.053147
0.157594 0.270801 0.061066
0.140237 0.268458 0.061368
0.139429 0.264493 0.066486
0.209356 0.286862 0.063127
0.265574 0.309062 0.058975
0.328007 0.325841 0.059103
0.458439 0.348156 0.064383
0.565305 0.334092 0.063010
0.619379 0.295527 0.062115
0.630651 0.244831 0.059409
0.617280 0.193016 0.056607
0.602740 0.154739 0.055262
0.597222 0.129335 0.054924
0.575862 0.095109 0.053757
0.560443 0.077328 0.052897
0.623854 0.110855 0.056507
0.304985 0.357491 0.055777
0.277611 0.350240 0.055368
0.255539 0.342743 0.059431
0.303029 0.358012 0.060575
0.351672 0.376722 0.058283
0.379723 0.384019 0.058241
0.440577 0.393815 0.063676
0.556135 0.405808 0.072214
0.649005 0.389178 0.074117
0.696163 0.348518 0.072742
0.701933 0.290629 0.067655
0.691089 0.239651 0.062784
0.689252 0.215265 0.061154
0.676801 0.185069 0.059862
0.659871 0.152964 0.058836
0.693774 0.175866 0.060870
0.455573 0.435903 0.064491
0.433132 0.428447 0.062592
0.405418 0.421411 0.062318
0.422201 0.428199 0.064481
0.458120 0.442698 0.066376
0.465075 0.444809 0.065630
0.479245 0.443487 0.067644
0.538645 0.449745 0.076310
0.649943 0.458111 0.086237
0.731666 0.440458 0.089338
0.771563 0.403039 0.086911
0.786745 0.360190 0.082187
0.796362 0.330451 0.078747
0.788150 0.296484 0.073940
0.760354 0.252595 0.069065
0.775070 0.258634 0.070130
0.584821 0.503915 0.081105
0.576597 0.501827 0.079963
0.558480 0.496265 0.078088
0.557747 0.495657 0.078469
0.570124 0.502110 0.080262
0.560446 0.500479 0.078774
0.543982 0.493467 0.077524
0.566028 0.493804 0.082906
0.642720 0.505024 0.094974
0.744681 0.507967 0.104941
0.814570 0.492644 0.108028
0.849614 0.466579 0.106063
0.868001 0.436795 0.101587
0.870041 0.401481 0.096116
0.849319 0.354306 0.087210
0.855564 0.347425 0.086535
0.709244 0.570552 0.105109
0.700114 0.573622 0.104421
0.700865 0.569595 0.103793
0.696717 0.565293 0.102791
0.690943 0.563386 0.101792
0.665380 0.556822 0.097629
0.628105 0.546297 0.092732
0.630744 0.544575 0.095256
0.685951 0.555696 0.107083
0.770824 0.567300 0.120017
0.843465 0.564753 0.127186
0.888655 0.552529 0.129378
0.911984 0.532293 0.127582
0.917126 0.498121 0.120476
0.909974 0.458577 0.112343
0.909112 0.442971 0.108903
0.842394 0.640403 0.135615
0.793306 0.642381 0.129993
0.827587 0.639012 0.132738
0.825125 0.635239 0.131728
0.816556 0.629375 0.129530
0.788964 0.619786 0.123937
0.740329 0.605753 0.115603
0.720612 0.599063 0.113316
0.760179 0.607820 0.122911
0.826420 0.622890 0.136642
0.879471 0.626497 0.145309
0.912118 0.621494 0.150087
0.934096 0.613914 0.152975
0.945278 0.593360 0.150366
0.941964 0.565629 0.143696
0.942143 0.556264 0.142198
0.927768 0.696866 0.160644
0.891411 0.700685 0.155309
0.915104 0.693653 0.157133
0.912750 0.691956 0.156190
0.905530 0.685850 0.153600
0.891954 0.675206 0.149103
0.853738 0.660815 0.140548
0.815292 0.648779 0.133728
0.826868 0.650405 0.137724
0.871826 0.662421 0.149257
0.908285 0.671083 0.159635
0.930652 0.675895 0.167349
0.944674 0.677442 0.175465
0.952172 0.669866 0.178598
0.951693 0.649016 0.172978
0.952891 0.642623 0.174294
0.947490 0.731176 0.173902
0.946202 0.732891 0.173725
0.945797 0.729300 0.172822
0.945054 0.726993 0.171695
0.942281 0.721260 0.168890
0.937340 0.711778 0.165143
0.917188 0.701541 0.159211
0.891476 0.690944 0.152726
0.871252 0.684331 0.150064
0.887924 0.689453 0.155954
0.916808 0.703681 0.168649
0.936789 0.712834 0.178067
0.948434 0.719514 0.188638
0.954088 0.718201 0.195122
0.954492 0.701614 0.193022
0.956523 0.702641 0.204732
0.952455 0.755936 0.184106
0.952306 0.755987 0.184265
0.952098 0.755735 0.184362
0.951945 0.754776 0.183969
0.951032 0.751955 0.182516
0.948204 0.748774 0.180899
0.943626 0.744962 0.178781
0.933869 0.737674 0.174623
0.918998 0.728089 0.169515
0.914348 0.724752 0.169068
0.924094 0.730834 0.176032
0.936844 0.738945 0.186386
0.945950 0.741354 0.194593
0.952128 0.738621 0.200120
0.955585 0.734477 0.207652
0.958137 0.743445 0.229818
0.956155 0.776567 0.194899
0.956087 0.776295 0.194854
0.956060 0.776563 0.195223
0.956094 0.776936 0.195485
0.956089 0.777193 0.195693
0.955535 0.776947 0.195646
0.953615 0.776230 0.195376
0.950360 0.773381 0.193404
0.943920 0.765680 0.188190
0.937352 0.759059 0.184790
0.938274 0.761008 0.190367
0.945101 0.768350 0.201864
0.950961 0.770391 0.212305
0.956459 0.770737 0.224627
0.958219 0.771355 0.236492
0.959793 0.773587 0.255495
0.029088 0.034989 0.078519
0.032303 0.035823 0.087229
0.054566 0.038890 0.102565
0.106644 0.042003 0.118231
0.140893 0.042201 0.126334
0.155739 0.041654 0.126272
0.162859 0.042037 0.118045
0.169388 0.042880 0.101934
0.177641 0.044177 0.082073
0.184782 0.045226 0.062168
0.186272 0.045598 0.045857
0.187238 0.045341 0.037987
0.201092 0.044575 0.036451
0.252766 0.042645 0.038064
0.344970 0.043380 0.042419
0.382918 0.044911 0.044345
0.029924 0.040865 0.092770
0.030962 0.041439 0.095936
0.046759 0.045290 0.103394
0.124818 0.052914 0.116425
0.178249 0.052164 0.115791
0.201979 0.047919 0.114653
0.208164 0.046151 0.103288
0.201706 0.045801 0.084962
0.194507 0.045946 0.067586
0.194195 0.045926 0.052146
0.196399 0.045493 0.041396
0.205379 0.044562 0.037220
0.229354 0.043489 0.037210
0.270071 0.042201 0.038756
0.334725 0.043034 0.041892
0.384867 0.045005 0.044501
0.030235 0.058539 0.116882
0.030998 0.060058 0.121824
0.039801 0.062391 0.110876
0.117248 0.072554 0.111077
0.200235 0.078560 0.101298
0.255615 0.075975 0.091592
0.285408 0.069908 0.079149
0.287129 0.062800 0.064632
0.272076 0.056909 0.054269
0.256857 0.052787 0.045655
0.250042 0.048619 0.040075
0.254774 0.044614 0.038353
0.268293 0.042543 0.038681
0.294558 0.041931 0.039820
0.340269 0.043158 0.042184
0.386364 0.045089 0.044617
0.031657 0.095165 0.137559
0.032223 0.102094 0.143854
0.039100 0.102449 0.130431
0.106141 0.109468 0.115811
0.198815 0.116914 0.101275
0.277119 0.118010 0.082099
0.351188 0.114389 0.065160
0.401991 0.103123 0.055469
0.413119 0.090792 0.050407
0.400625 0.079310 0.047175
0.384518 0.067452 0.044574
0.364047 0.053935 0.042840
0.340921 0.045461 0.041995
0.334394 0.043104 0.041876
0.358161 0.043906 0.043159
0.402647 0.045927 0.045619
0.031892 0.144012 0.144284
0.032371 0.144551 0.141931
0.040884 0.145927 0.129706
0.108951 0.160317 0.118379
0.224704 0.185997 0.105622
0.320756 0.188035 0.085386
0.400298 0.178974 0.067561
0.454303 0.157471 0.056250
0.488919 0.134409 0.051946
0.504479 0.114191 0.050968
0.503006 0.097976 0.050262
0.488698 0.078954 0.048903
0.459740 0.057608 0.047530
0.413937 0.047033 0.046039
0.395519 0.045582 0.045302
0.448657 0.047766 0.047730
0.036017 0.195952 0.134757
0.036118 0.194263 0.130518
0.052205 0.194922 0.120769
0.134550 0.215708 0.115790
0.230011 0.247882 0.100517
0.343567 0.269965 0.084652
0.446676 0.263766 0.069720
0.515921 0.236961 0.060646
0.553573 0.202349 0.055689
0.571312 0.168421 0.054246
0.574979 0.138149 0.054117
0.567733 0.112351 0.053598
0.550160 0.087488 0.052253
0.508078 0.060228 0.049996
0.465316 0.050735 0.048503
0.483114 0.050657 0.049392
0.088502 0.265201 0.110714
0.084180 0.261749 0.104611
0.100329 0.262278 0.105508
0.187200 0.282367 0.107216
0.275172 0.310008 0.090578
0.348478 0.332366 0.077470
0.462264 0.348194 0.072157
0.561205 0.330876 0.066281
0.623019 0.296510 0.064087
0.647387 0.251060 0.061329
0.645854 0.202850 0.058664
0.630631 0.162106 0.056831
0.618948 0.135836 0.056047
0.603987 0.112276 0.055349
0.563213 0.080147 0.053114
0.567341 0.076001 0.053569
0.225968 0.353858 0.084027
0.211441 0.345092 0.077868
0.203390 0.342335 0.085566
0.268432 0.355290 0.092914
0.349922 0.377218 0.083686
0.401488 0.392925 0.071857
0.472592 0.407194 0.070087
0.575299 0.413065 0.073067
