src/colors/teal_&_orange_vibes/western_sunset.cube
LUT_3D_SIZE 6
0.025940 0.049133 0.055603
0.144275 0.086920 0.077820
0.337030 0.128577 0.037256
0.536267 0.180408 0.097870
0.741443 0.229809 0.200928
0.895148 0.268461 0.232744
0.049963 0.163647 0.053680
0.212665 0.152233 0.014762
0.385737 0.184171 0.033778
0.591204 0.228899 0.074324
0.789445 0.290179 0.178530
0.934153 0.339091 0.205094
0.084284 0.288092 0.048242
0.247321 0.308547 0.052246
0.518198 0.285825 0.026804
0.733898 0.324081 0.124281
0.874655 0.368966 0.159186
0.958718 0.425688 0.147886
0.116187 0.418097 0.000598
0.317424 0.446087 0.032868
0.601010 0.494003 0.036798
0.837981 0.468436 0.069559
0.948970 0.488445 0.107194
0.971617 0.529380 0.101888
0.168231 0.528399 0.015948
0.369516 0.564649 0.040495
0.630735 0.636127 0.037431
0.853329 0.716617 0.038923
0.969995 0.677021 0.055420
0.985839 0.645439 0.085704
0.253700 0.806470 0.000000
0.414246 0.842843 0.012310
0.672794 0.863814 0.037982
0.873253 0.879914 0.038977
0.976007 0.899813 0.038757
0.999840 0.896323 0.038911
0.002887 0.088818 0.141199
0.184566 0.099420 0.149149
0.360090 0.132520 0.126807
0.551890 0.176050 0.146687
0.737069 0.227126 0.221585
0.896088 0.264369 0.256804
0.000000 0.151492 0.151018
0.133800 0.167642 0.162090
0.371009 0.195537 0.127428
0.583539 0.214965 0.142172
0.763572 0.262333 0.210272
0.929233 0.315075 0.236398
0.057120 0.291123 0.119697
0.181990 0.326830 0.084388
0.493805 0.296114 0.047425
0.703661 0.332089 0.120014
0.854157 0.378320 0.172489
0.958245 0.429497 0.187478
0.083063 0.383460 0.109510
0.261651 0.453703 0.049095
0.583718 0.498041 0.063554
0.824328 0.481601 0.090237
0.948743 0.500759 0.121884
0.972965 0.545614 0.115941
0.117468 0.515812 0.117552
0.325127 0.559259 0.071085
0.607383 0.628517 0.110400
0.847413 0.715360 0.062762
0.969343 0.677343 0.081114
0.985234 0.650071 0.106103
0.259141 0.820270 0.023840
0.385010 0.841065 0.032103
0.644798 0.872261 0.061819
0.863091 0.888980 0.062838
0.976007 0.901742 0.062569
0.999840 0.898990 0.062727
0.006122 0.141705 0.225201
0.041655 0.149872 0.253032
0.444116 0.190249 0.239748
0.671443 0.220456 0.254873
0.789303 0.262067 0.285592
0.950846 0.293151 0.306116
0.000342 0.169284 0.213665
0.027126 0.195556 0.246598
0.438520 0.229390 0.263204
0.656668 0.252838 0.261207
0.793596 0.294621 0.300094
0.956635 0.323600 0.315471
0.000000 0.286277 0.249386
0.026864 0.316995 0.272891
0.375440 0.351845 0.326258
0.635932 0.384175 0.305915
0.813990 0.392086 0.331789
0.960703 0.415903 0.343320
0.000000 0.463966 0.272084
0.030859 0.434972 0.231777
0.475106 0.498228 0.243682
0.770562 0.508531 0.232928
0.927736 0.539573 0.300686
0.971683 0.586361 0.321025
0.000000 0.501896 0.254333
0.099050 0.513131 0.214213
0.533387 0.608184 0.228630
0.823337 0.712484 0.174299
0.968370 0.672953 0.110500
0.983991 0.679453 0.286306
0.208177 0.809183 0.168163
0.289149 0.835375 0.064674
0.587185 0.878580 0.085803
0.828295 0.901164 0.164663
0.975992 0.900798 0.191243
0.999870 0.866374 0.177048
0.009015 0.198352 0.310455
0.029796 0.200556 0.324149
0.383153 0.230274 0.346728
0.720428 0.273364 0.315844
0.875916 0.297895 0.341487
0.968003 0.344164 0.379734
0.005288 0.224307 0.303807
0.028102 0.235222 0.321500
0.332766 0.253710 0.379262
0.717069 0.304116 0.330128
0.874807 0.334060 0.361526
0.966841 0.382871 0.407782
0.000000 0.288933 0.314908
0.023200 0.317728 0.346600
0.082549 0.362129 0.435324
0.687143 0.392774 0.400123
0.853547 0.401396 0.418547
0.960977 0.442896 0.453905
0.000000 0.432234 0.381787
0.023245 0.460722 0.404166
0.056303 0.523249 0.463805
0.640611 0.562765 0.526723
0.846894 0.607455 0.521191
0.971711 0.622961 0.517217
0.000000 0.642041 0.463551
0.023850 0.631623 0.438354
0.100360 0.608091 0.395729
0.715286 0.695510 0.431494
0.956286 0.704859 0.415715
0.984307 0.727955 0.462832
0.000749 0.835519 0.332020
0.089356 0.833829 0.309403
0.365576 0.924580 0.229505
0.757779 0.920234 0.310573
0.971868 0.901821 0.381953
0.999898 0.860035 0.355851
0.011646 0.254633 0.398633
0.031868 0.255376 0.405305
0.263111 0.277480 0.456959
0.664789 0.324225 0.383139
0.881525 0.360624 0.456526
0.968786 0.406663 0.515109
0.009103 0.282505 0.398442
0.030351 0.285314 0.403897
0.101496 0.300383 0.462684
0.636163 0.355021 0.435562
0.871658 0.398461 0.492341
0.963544 0.443473 0.545998
0.001087 0.326402 0.394824
0.025527 0.344960 0.419145
0.050781 0.373737 0.477158
0.594511 0.392637 0.534519
0.853860 0.446797 0.555176
0.959856 0.501103 0.602223
0.000000 0.425011 0.439595
0.022034 0.456943 0.472797
0.050806 0.490031 0.516009
0.357887 0.545806 0.684752
0.831970 0.589888 0.663788
0.961379 0.621730 0.678214
0.000000 0.580674 0.524826
0.022800 0.602492 0.542070
0.051759 0.639548 0.572223
0.286304 0.731421 0.693024
0.852354 0.755899 0.703148
0.984198 0.787492 0.707605
0.000000 0.787297 0.617840
0.023840 0.819278 0.634769
0.053939 0.851942 0.588914
0.395163 0.941033 0.503715
0.895944 0.905430 0.610189
0.998594 0.877126 0.565310
0.016561 0.312169 0.479488
0.035707 0.314255 0.484065
0.129392 0.339618 0.539108
0.599802 0.366321 0.592208
0.823833 0.399733 0.626549
0.970431 0.445097 0.721683
0.013172 0.348410 0.495801
0.032978 0.347451 0.495279
0.052421 0.360042 0.531475
0.519166 0.375531 0.642616
0.823819 0.413758 0.656971
0.972730 0.469576 0.746273
0.007322 0.375864 0.489963
0.028541 0.387863 0.511054
0.050679 0.407559 0.547644
0.200938 0.397608 0.694149
0.810254 0.429238 0.717758
0.973363 0.505428 0.779429
0.000000 0.470591 0.530126
0.021145 0.498060 0.559173
0.048812 0.509594 0.577596
0.071338 0.551107 0.698246
0.706406 0.549502 0.814331
0.969754 0.599742 0.812488
0.000000 0.576050 0.576009
0.021833 0.600523 0.598421
0.044656 0.614701 0.614177
0.075693 0.659322 0.699541
0.690679 0.729942 0.844090
0.961649 0.755985 0.840617
0.000000 0.719501 0.634821
0.022803 0.738308 0.648859
0.045887 0.760235 0.664801
0.082336 0.810028 0.704621
0.675947 0.899702 0.856269
0.995951 0.913370 0.835107
