src/colors/teal_&_orange_vibes/western_sunset.cube
LUT_3D_SIZE 16
0.025940 0.049133 0.055603
0.044641 0.057003 0.060467
0.091626 0.069517 0.068215
0.144275 0.086920 0.077820
0.203241 0.103180 0.078564
0.269409 0.115825 0.057057
0.337030 0.128577 0.037256
0.399758 0.147975 0.045313
0.465359 0.163153 0.057680
0.536267 0.180408 0.097870
0.607483 0.197510 0.141144
0.675761 0.213692 0.176703
0.741443 0.229809 0.200928
0.795750 0.243029 0.213086
0.845986 0.255513 0.223610
0.895148 0.268461 0.232744
0.029437 0.079868 0.056746
0.054573 0.077605 0.062581
0.101913 0.084414 0.068823
0.151601 0.098134 0.079704
0.212454 0.111483 0.077195
0.280227 0.122154 0.050715
0.348164 0.135199 0.037992
0.410342 0.152952 0.046159
0.476968 0.170853 0.061475
0.547202 0.190117 0.101969
0.618694 0.208286 0.141738
0.687174 0.226348 0.172961
0.752916 0.243252 0.196195
0.806449 0.256812 0.207617
0.856641 0.270314 0.217463
0.905204 0.284011 0.226173
0.035313 0.120282 0.058396
0.061155 0.125633 0.057501
0.123143 0.115028 0.061478
0.178676 0.117472 0.061768
0.235427 0.130144 0.051764
0.297624 0.139668 0.033247
0.362786 0.156005 0.035820
0.426147 0.174340 0.044183
0.495457 0.190149 0.055532
0.565639 0.209037 0.091933
0.636763 0.227054 0.133521
0.704997 0.245375 0.165811
0.768724 0.262810 0.189186
0.821996 0.277265 0.200103
0.871257 0.291364 0.209232
0.918796 0.306510 0.217474
0.049963 0.163647 0.053680
0.073702 0.173862 0.047010
0.131443 0.167422 0.058326
0.212665 0.152233 0.014762
0.272029 0.154372 0.018450
0.327643 0.169065 0.026043
0.385737 0.184171 0.033778
0.446517 0.200183 0.042018
0.517636 0.214768 0.052766
0.591204 0.228899 0.074324
0.659859 0.251363 0.117369
0.727526 0.271711 0.151688
0.789445 0.290179 0.178530
0.841477 0.305537 0.189364
0.888648 0.321746 0.197609
0.934153 0.339091 0.205094
0.062867 0.207401 0.053117
0.083738 0.221229 0.040166
0.140928 0.218992 0.050473
0.215922 0.205961 0.050752
0.301462 0.192670 0.011071
0.365520 0.199649 0.025874
0.426217 0.214785 0.034793
0.492464 0.225989 0.044945
0.559026 0.234800 0.056601
0.624156 0.251078 0.076458
0.689235 0.273622 0.111208
0.753185 0.296904 0.145839
0.812931 0.317550 0.169924
0.861413 0.336070 0.179519
0.907263 0.355527 0.185451
0.950125 0.375299 0.189390
0.073191 0.247528 0.051738
0.094724 0.261717 0.037157
0.150546 0.268382 0.040061
0.229852 0.254559 0.059511
0.323782 0.251106 0.001275
0.397963 0.236477 0.017524
0.475629 0.242824 0.036776
0.555158 0.253839 0.051080
0.622452 0.268684 0.069950
0.678646 0.284892 0.100179
0.730116 0.300279 0.130283
0.787332 0.321683 0.156747
0.840967 0.343144 0.168058
0.886578 0.362606 0.170740
0.930744 0.383041 0.171354
0.955763 0.401597 0.167731
0.084284 0.288092 0.048242
0.103636 0.300550 0.026390
0.162326 0.310448 0.029213
0.247321 0.308547 0.052246
0.344936 0.308669 0.010093
0.427525 0.304421 0.004478
0.518198 0.285825 0.026804
0.607181 0.289252 0.052462
0.675267 0.305925 0.089918
0.733898 0.324081 0.124281
0.785926 0.340836 0.142897
0.833915 0.356289 0.152069
0.874655 0.368966 0.159186
0.915199 0.387200 0.160990
0.948819 0.407191 0.157484
0.958718 0.425688 0.147886
0.091913 0.327521 0.038698
0.112746 0.340807 0.011934
0.182462 0.352959 0.015552
0.270179 0.359547 0.043917
0.358286 0.358787 0.050060
0.463717 0.371716 0.000168
0.549089 0.358985 0.013801
0.643698 0.340327 0.049374
0.715863 0.347876 0.090929
0.774486 0.362109 0.113309
0.830444 0.378895 0.127731
0.880102 0.396143 0.134195
0.918161 0.409790 0.138576
0.944340 0.421900 0.139857
0.953642 0.431826 0.137869
0.962400 0.450519 0.125191
0.099650 0.368404 0.023513
0.134131 0.383904 0.000064
0.206154 0.396187 0.005677
0.294400 0.404465 0.037087
0.378810 0.404770 0.057867
0.487737 0.425223 0.013919
0.580740 0.441504 0.027619
0.662651 0.418769 0.054226
0.747362 0.402570 0.070108
0.809405 0.407497 0.091089
0.861298 0.418975 0.104370
0.915466 0.434630 0.112456
0.943302 0.449463 0.114643
0.951914 0.462864 0.115018
0.959003 0.473636 0.113878
0.966596 0.486262 0.112335
0.116187 0.418097 0.000598
0.159827 0.426103 0.000000
0.230428 0.439568 0.000467
0.317424 0.446087 0.032868
0.399219 0.448503 0.057721
0.499622 0.471958 0.035842
0.601010 0.494003 0.036798
0.683807 0.514988 0.040224
0.760508 0.486568 0.056821
0.837981 0.468436 0.069559
0.894594 0.469434 0.089836
0.935426 0.477718 0.103106
0.948970 0.488445 0.107194
0.956429 0.500419 0.106254
0.963988 0.514666 0.103349
0.971617 0.529380 0.101888
0.132487 0.467031 0.000000
0.178113 0.475635 0.000000
0.249412 0.484711 0.000263
0.334204 0.487836 0.031342
0.417819 0.493102 0.061954
0.508128 0.514174 0.045885
0.612071 0.544946 0.036957
0.695679 0.567755 0.037409
0.771787 0.590947 0.039633
0.846169 0.559823 0.055733
0.917416 0.537059 0.067213
0.948785 0.531591 0.083364
0.954236 0.532601 0.096240
0.961589 0.541168 0.095960
0.968595 0.553027 0.095986
0.975859 0.561985 0.094440
0.148606 0.500751 0.000000
0.195162 0.510773 0.000000
0.266315 0.520483 0.000824
0.350788 0.526502 0.033803
0.435414 0.535365 0.068858
0.523366 0.556552 0.051123
0.618775 0.587865 0.037130
0.710082 0.618245 0.037657
0.779070 0.642050 0.038129
0.850875 0.668020 0.039710
0.923528 0.635410 0.051970
0.956568 0.605713 0.061823
0.962006 0.593942 0.071301
0.967148 0.590318 0.084237
0.973621 0.595876 0.085001
0.980217 0.596080 0.086584
0.168231 0.528399 0.015948
0.216614 0.540425 0.008882
0.286119 0.552223 0.008430
0.369516 0.564649 0.040495
0.455551 0.581190 0.066270
0.541974 0.605048 0.052997
0.630735 0.636127 0.037431
0.714312 0.665328 0.037909
0.793620 0.694258 0.038501
0.853329 0.716617 0.038923
0.921660 0.742712 0.039229
0.963257 0.713610 0.043841
0.969995 0.677021 0.055420
0.975421 0.659992 0.067670
0.979457 0.651369 0.084571
0.985839 0.645439 0.085704
0.195077 0.618091 0.002283
0.240382 0.630583 0.000786
0.307304 0.642045 0.000000
0.384178 0.648009 0.000000
0.465635 0.669547 0.000000
0.556651 0.698282 0.002684
0.645069 0.721204 0.026536
0.722438 0.738704 0.038574
0.792964 0.754498 0.038895
0.864179 0.773889 0.038940
0.919050 0.788492 0.038941
0.965602 0.810320 0.038917
0.976002 0.783868 0.039347
0.983467 0.746276 0.041376
0.987780 0.719727 0.057091
0.992664 0.716363 0.076800
0.212888 0.694979 0.000000
0.261276 0.708495 0.000000
0.321483 0.726267 0.000000
0.394375 0.748076 0.000000
0.480659 0.773148 0.000737
0.573270 0.797071 0.014438
0.660512 0.814688 0.033518
0.736096 0.824609 0.038821
0.804304 0.833094 0.039074
0.868215 0.839724 0.038924
0.927164 0.844339 0.038859
0.966112 0.849881 0.038835
0.976019 0.870659 0.038839
0.984040 0.847686 0.039001
0.992023 0.806166 0.039120
0.999546 0.809451 0.045021
0.253700 0.806470 0.000000
0.274450 0.817594 0.000000
0.339840 0.830702 0.000764
0.414246 0.842843 0.012310
0.498594 0.849595 0.026261
0.588627 0.856823 0.038002
0.672794 0.863814 0.037982
0.746035 0.869540 0.038489
0.811363 0.874509 0.039107
0.873253 0.879914 0.038977
0.930899 0.885374 0.038838
0.966781 0.890117 0.038788
0.976007 0.899813 0.038757
0.984040 0.925627 0.038879
0.991936 0.905949 0.038909
0.999840 0.896323 0.038911
0.017865 0.059409 0.078359
0.040917 0.061002 0.080537
0.096731 0.065794 0.082973
0.142622 0.078760 0.088539
0.196933 0.092258 0.092229
0.261284 0.111034 0.075001
0.330521 0.123689 0.048231
0.393708 0.138477 0.055980
0.458917 0.153742 0.075270
0.528318 0.170640 0.115844
0.596583 0.188303 0.154884
0.664006 0.207485 0.187610
0.731385 0.224797 0.210590
0.791411 0.238992 0.223973
0.841212 0.251033 0.234403
0.889565 0.263098 0.243717
0.016678 0.077800 0.079628
0.036017 0.078591 0.080791
0.087250 0.087052 0.087022
0.142254 0.101793 0.095313
0.203300 0.117681 0.098823
0.272711 0.131380 0.077929
0.344073 0.143011 0.044639
0.412536 0.160161 0.051324
0.475287 0.175114 0.061764
0.544288 0.191351 0.102364
0.613914 0.206878 0.145961
0.681277 0.222568 0.180812
0.747247 0.239246 0.203834
0.805638 0.253662 0.216477
0.855089 0.266650 0.226309
0.904101 0.280232 0.235077
0.022559 0.118775 0.078291
0.041716 0.121107 0.083050
0.102986 0.116587 0.084847
0.162122 0.122414 0.094085
0.221150 0.134761 0.093406
0.290114 0.142265 0.066801
0.360091 0.152587 0.043928
0.426227 0.169288 0.051953
0.489449 0.185558 0.062182
0.557500 0.203839 0.102803
0.627972 0.220814 0.143258
0.696152 0.239050 0.174444
0.761532 0.256561 0.197623
0.818794 0.271692 0.209264
0.867765 0.285442 0.218396
0.916680 0.300627 0.226643
0.044666 0.158843 0.065666
0.059357 0.171938 0.071541
0.111981 0.167872 0.077933
0.197951 0.154663 0.062993
0.261769 0.157029 0.050012
0.323546 0.168771 0.033161
0.381905 0.181607 0.040205
0.446398 0.197275 0.049347
0.510495 0.211078 0.058545
0.582106 0.224892 0.085739
0.649550 0.244154 0.129369
0.716307 0.263101 0.161837
0.780029 0.281066 0.188223
0.835876 0.296886 0.199520
0.883570 0.311989 0.207842
0.930686 0.330420 0.215191
0.057608 0.201324 0.065928
0.074137 0.216101 0.065220
0.124774 0.219369 0.065420
0.204661 0.207179 0.074253
0.296692 0.192927 0.018644
0.359345 0.198686 0.031563
0.421071 0.215381 0.040075
0.483944 0.228671 0.049342
0.546175 0.236367 0.060063
0.611741 0.249515 0.075995
0.676338 0.269860 0.110096
0.739892 0.291897 0.146309
0.802292 0.311927 0.173908
0.854550 0.330190 0.186289
0.900610 0.348415 0.193173
0.946029 0.368943 0.198264
0.069047 0.244248 0.064407
0.087035 0.257252 0.057477
0.138142 0.269744 0.050096
0.220625 0.256800 0.073640
0.319253 0.252030 0.009751
0.395451 0.237425 0.025071
0.466228 0.244243 0.041227
0.541273 0.256478 0.054142
0.610729 0.269547 0.068308
0.667117 0.285689 0.096247
0.717391 0.301079 0.126016
0.771712 0.319669 0.153869
0.828494 0.341123 0.167601
0.876433 0.360607 0.173328
0.921807 0.380227 0.176873
0.955069 0.399972 0.175449
0.081297 0.286086 0.062075
0.097604 0.297046 0.046293
0.150308 0.313215 0.033210
0.238239 0.310583 0.062409
0.335882 0.307884 0.030523
0.424231 0.305955 0.012276
0.516927 0.288459 0.034395
0.596876 0.290559 0.055460
0.664347 0.306370 0.087151
0.723918 0.325181 0.121475
0.775483 0.342194 0.140892
0.822960 0.356922 0.150676
0.866703 0.371288 0.157325
0.906519 0.387424 0.159780
0.945579 0.408391 0.157719
0.958708 0.427315 0.147891
0.089291 0.326398 0.055732
0.106547 0.338519 0.028564
0.170496 0.354677 0.019659
0.261139 0.361121 0.051292
0.350672 0.358040 0.066562
0.458688 0.371116 0.007982
0.548329 0.361798 0.021442
0.645347 0.344342 0.058120
0.707626 0.349469 0.093400
0.766257 0.363416 0.113473
0.822029 0.380269 0.124928
0.870967 0.398009 0.131657
0.914031 0.413524 0.135845
0.941681 0.425101 0.138493
0.954541 0.436061 0.136452
0.962478 0.453640 0.127433
0.096276 0.365354 0.046508
0.124495 0.384541 0.008689
0.194590 0.397840 0.010184
0.284749 0.405996 0.044139
0.371623 0.404551 0.073512
0.482844 0.425439 0.025301
0.575852 0.441040 0.034094
0.663871 0.423628 0.062335
0.749870 0.407652 0.078193
0.802716 0.410355 0.096551
0.853965 0.420414 0.108580
0.907814 0.436206 0.115134
0.942455 0.453561 0.119454
0.952448 0.467274 0.118971
0.959665 0.479935 0.118044
0.966769 0.490977 0.118085
0.111749 0.415803 0.014048
0.151648 0.427579 0.007946
0.219268 0.441022 0.007977
0.307814 0.447234 0.040206
0.394035 0.449402 0.072617
0.494061 0.471538 0.050380
0.598138 0.494438 0.044675
0.680251 0.515025 0.047884
0.760494 0.491061 0.064789
0.839914 0.473675 0.076721
0.888169 0.471740 0.095624
0.931525 0.479052 0.108452
0.949103 0.490948 0.112698
0.956544 0.504421 0.111079
0.964129 0.519211 0.108691
0.971719 0.533954 0.106724
0.128068 0.466722 0.008155
0.170481 0.475061 0.007946
0.238077 0.485085 0.008064
0.324575 0.487633 0.038775
0.411818 0.493327 0.076847
0.503759 0.514200 0.062606
0.610080 0.545907 0.044903
0.694503 0.568641 0.045338
0.769665 0.591303 0.047366
0.845207 0.563455 0.063754
0.919045 0.541689 0.074855
0.948631 0.533336 0.090333
0.954344 0.534004 0.101622
0.961714 0.543112 0.101724
0.968726 0.555869 0.100432
0.976286 0.567646 0.098388
0.144467 0.500252 0.009253
0.187939 0.508915 0.007946
0.256654 0.519936 0.008447
0.341794 0.525582 0.041397
0.429230 0.534821 0.081179
0.519003 0.556160 0.070841
0.616295 0.588096 0.045371
0.708922 0.619373 0.045583
0.778273 0.642770 0.046067
0.849039 0.668145 0.047614
0.923051 0.637722 0.060093
0.956776 0.609539 0.070118
0.962042 0.593902 0.078475
0.966956 0.590878 0.090123
0.973731 0.597401 0.091180
0.980303 0.599835 0.092104
0.164094 0.527913 0.029555
0.210217 0.538751 0.021359
0.277692 0.551369 0.017853
0.360700 0.561094 0.052641
0.448040 0.576453 0.083420
0.537107 0.603127 0.073377
0.628032 0.636185 0.045709
0.712277 0.666003 0.045844
0.793127 0.695378 0.046448
0.851724 0.715765 0.046872
0.919205 0.741321 0.047181
0.962377 0.712784 0.052486
0.970058 0.681606 0.063267
0.975194 0.659086 0.075440
0.979503 0.652189 0.090997
0.984880 0.646440 0.093111
0.190862 0.617383 0.010895
0.235587 0.630870 0.009317
0.299515 0.644713 0.007948
0.377521 0.651635 0.007953
0.458656 0.662149 0.008115
0.550297 0.692064 0.010732
0.640656 0.719444 0.033443
0.720536 0.739226 0.046522
0.792192 0.755282 0.046841
0.862747 0.773175 0.046861
0.917695 0.787342 0.046859
0.965326 0.807347 0.046862
0.976006 0.783128 0.047266
0.983494 0.750479 0.048921
0.987880 0.719156 0.064950
0.992642 0.714089 0.084068
0.208822 0.697990 0.007946
0.257939 0.709159 0.007946
0.316357 0.723290 0.007946
0.388734 0.742692 0.007946
0.472072 0.764104 0.008040
0.565287 0.788707 0.017421
0.655662 0.811641 0.040171
0.733558 0.824558 0.046642
0.802490 0.832731 0.047007
0.866176 0.838599 0.046870
0.926459 0.843099 0.046806
0.965984 0.847835 0.046782
0.976042 0.869047 0.046785
0.984040 0.847341 0.046947
0.992023 0.803570 0.047067
0.999541 0.805624 0.052787
0.254695 0.808913 0.007946
0.272595 0.818980 0.007946
0.335335 0.829868 0.008386
0.408906 0.842331 0.019394
0.491154 0.851377 0.034113
0.579689 0.858517 0.045919
0.665799 0.866073 0.045929
0.742364 0.872034 0.046410
0.810146 0.877066 0.047038
0.872746 0.882361 0.046924
0.930835 0.887411 0.046765
0.966685 0.891605 0.046703
0.976007 0.898801 0.046702
0.984040 0.925659 0.046827
0.991936 0.907299 0.046855
0.999840 0.897822 0.046857
0.003766 0.074471 0.111418
0.025464 0.073591 0.108358
0.109127 0.076707 0.115986
0.167571 0.088991 0.114676
0.212832 0.101546 0.119780
0.271798 0.110017 0.113506
0.339044 0.116685 0.092206
0.400639 0.129513 0.082551
0.463973 0.148343 0.099507
0.532711 0.168563 0.132938
0.600856 0.188741 0.165781
0.665739 0.208058 0.195092
0.730442 0.224402 0.217585
0.791339 0.238314 0.231949
0.841358 0.249991 0.243141
0.887936 0.260915 0.252942
0.004554 0.083770 0.105671
0.019684 0.088358 0.110905
0.091547 0.090761 0.116279
0.154999 0.101530 0.116779
0.207927 0.111655 0.120251
0.270323 0.118010 0.103627
0.340514 0.128355 0.078359
0.408432 0.143084 0.074208
0.470448 0.158933 0.094802
0.538524 0.176964 0.132451
0.605496 0.196493 0.165324
0.670403 0.215236 0.194279
0.735186 0.231706 0.215650
0.797805 0.246593 0.229117
0.848843 0.259543 0.238968
0.898279 0.272634 0.247524
0.000161 0.113375 0.117475
0.012872 0.116073 0.118162
0.078009 0.118005 0.117213
0.145095 0.128722 0.123464
0.209819 0.143101 0.127697
0.282474 0.153180 0.106919
0.356456 0.161856 0.071053
0.427933 0.173460 0.063919
0.495942 0.186007 0.075852
0.557216 0.200755 0.115868
0.622130 0.213885 0.157780
0.687815 0.231135 0.187538
0.752413 0.248552 0.207863
0.815628 0.265556 0.219653
0.866500 0.280203 0.228486
0.915528 0.295049 0.236481
0.007834 0.164730 0.110203
0.030365 0.163372 0.101975
0.083831 0.167962 0.111798
0.174485 0.159998 0.113329
0.240963 0.166483 0.110550
0.309890 0.176362 0.086034
0.377771 0.183123 0.066943
0.447040 0.192222 0.061325
0.514857 0.203816 0.071798
0.574887 0.219193 0.105391
0.640322 0.234582 0.146070
0.704368 0.251452 0.176711
0.768794 0.269613 0.199523
0.830683 0.287437 0.210845
0.881229 0.304146 0.218528
0.929207 0.322799 0.225388
0.043434 0.204251 0.094580
0.059500 0.204091 0.088848
0.099750 0.220821 0.092751
0.187512 0.213475 0.101592
0.283989 0.198000 0.058662
0.352979 0.200072 0.046857
0.416861 0.214656 0.048228
0.480707 0.229604 0.056107
0.546211 0.237325 0.066970
0.609523 0.247054 0.086922
0.667307 0.264196 0.122418
0.728286 0.281862 0.157211
0.790283 0.300239 0.185443
0.849134 0.319715 0.197284
0.897483 0.339503 0.203836
0.943969 0.360560 0.209120
0.063419 0.243139 0.080933
0.074114 0.245739 0.083429
0.112598 0.270840 0.070296
0.202467 0.263640 0.090355
0.307827 0.254666 0.034917
0.388756 0.238051 0.033192
0.459451 0.245868 0.046466
0.531044 0.259736 0.057631
0.599174 0.272886 0.069194
0.655559 0.287993 0.092383
0.705823 0.301838 0.122566
0.757739 0.316496 0.152719
0.816085 0.336513 0.172427
0.869764 0.358004 0.179803
0.917071 0.378441 0.182777
0.954693 0.398950 0.182694
0.076416 0.282503 0.076534
0.087049 0.287960 0.081058
0.124265 0.319342 0.037344
0.221001 0.316591 0.073385
0.319839 0.308766 0.068563
0.417147 0.308973 0.019155
0.505672 0.291737 0.039927
0.583267 0.293577 0.058961
0.651341 0.307782 0.081988
0.710548 0.326484 0.115491
0.763879 0.344430 0.135547
0.810848 0.359249 0.145159
0.855910 0.373324 0.152925
0.897400 0.388939 0.157235
0.941011 0.409422 0.156845
0.959158 0.428135 0.150340
0.084393 0.321952 0.075129
0.096110 0.329789 0.074904
0.144922 0.361335 0.020392
0.242357 0.365988 0.056818
0.336924 0.359539 0.089676
0.451880 0.373040 0.016115
0.539325 0.366412 0.027699
0.634224 0.347715 0.062125
0.697512 0.352442 0.095474
0.755835 0.365505 0.111921
0.811549 0.382460 0.120190
0.860911 0.400524 0.126224
0.907138 0.417825 0.131093
0.939050 0.430775 0.134165
0.954851 0.441048 0.134746
0.962602 0.457744 0.131551
0.089315 0.358625 0.078176
0.108947 0.378193 0.047934
0.172278 0.404478 0.016081
0.266443 0.409552 0.049717
0.359989 0.406822 0.092751
0.472357 0.426102 0.050469
0.569823 0.441650 0.041286
0.655499 0.428647 0.068865
0.742209 0.411771 0.084193
0.794095 0.414062 0.100776
0.845967 0.423337 0.112107
0.897964 0.439468 0.118635
0.940170 0.458254 0.122361
0.952649 0.473369 0.124390
0.960252 0.486378 0.123432
0.967826 0.496630 0.119783
0.097888 0.397805 0.069265
0.131536 0.432933 0.019423
0.199744 0.445858 0.015890
0.289649 0.448908 0.046011
0.381833 0.451047 0.091614
0.482733 0.470823 0.077501
0.593446 0.496287 0.052586
0.674925 0.516677 0.055274
0.754993 0.495686 0.071891
0.833860 0.476835 0.083739
0.880699 0.474977 0.100419
0.925558 0.481703 0.113000
0.949096 0.495009 0.116868
0.957043 0.509187 0.115982
0.964316 0.524337 0.113056
0.972254 0.539375 0.111186
0.112577 0.450838 0.052168
0.151757 0.474010 0.016639
0.219655 0.485259 0.015890
0.307714 0.487702 0.044484
0.399314 0.493929 0.093416
0.492921 0.512931 0.091782
0.602843 0.545949 0.053358
0.692205 0.570347 0.053283
0.765036 0.592212 0.055113
0.840700 0.566519 0.070900
0.912773 0.543638 0.083005
0.947733 0.534426 0.098007
0.954471 0.536305 0.108029
0.961295 0.545612 0.106870
0.969432 0.560467 0.105267
0.976367 0.573464 0.102839
0.132162 0.498409 0.046405
0.172334 0.506269 0.020332
0.240437 0.519938 0.016261
0.325789 0.524440 0.047886
0.416221 0.533745 0.093954
0.508102 0.553597 0.098811
0.609358 0.587291 0.065324
0.705896 0.620574 0.053538
0.776200 0.643507 0.054030
0.844254 0.667041 0.055308
0.918487 0.637971 0.068432
0.956318 0.609511 0.078569
0.961292 0.593512 0.087353
0.967055 0.592050 0.096196
0.973816 0.599633 0.096772
0.980684 0.605374 0.098560
0.152876 0.526815 0.067428
0.196069 0.536225 0.044089
0.262809 0.550929 0.030855
0.346330 0.558617 0.061782
0.435208 0.571182 0.099092
0.525503 0.596077 0.103055
0.621273 0.634607 0.066098
0.708640 0.666935 0.053801
0.790033 0.695976 0.054383
0.849950 0.715472 0.054809
0.914994 0.738837 0.055147
0.962107 0.710060 0.061035
0.970031 0.679963 0.071724
0.974473 0.657657 0.083815
0.979492 0.652095 0.097333
0.984967 0.646979 0.099718
0.178043 0.620876 0.021992
0.221408 0.632283 0.018510
0.284962 0.646987 0.016348
0.364125 0.654821 0.016443
0.451050 0.664514 0.019141
0.538367 0.680709 0.021401
0.632791 0.714527 0.040452
0.715972 0.739624 0.054474
0.788977 0.755928 0.054802
0.859675 0.772209 0.054830
0.915085 0.785130 0.054834
0.964799 0.804235 0.054826
0.976007 0.779941 0.055291
0.983475 0.748838 0.057202
0.987698 0.718319 0.073415
0.992651 0.713181 0.090967
0.207886 0.703366 0.015890
0.246106 0.711560 0.015890
0.307233 0.720869 0.015890
0.378292 0.734525 0.015890
0.459611 0.751238 0.015890
0.551886 0.774990 0.019786
0.644687 0.802231 0.043474
0.727752 0.822999 0.054495
0.798995 0.832265 0.054965
0.862735 0.836710 0.054827
0.923432 0.840663 0.054745
0.965624 0.845243 0.054729
0.976049 0.865754 0.054697
0.984040 0.844018 0.054917
0.992023 0.802925 0.055016
0.999467 0.800548 0.060652
0.258176 0.816733 0.015890
0.270977 0.822631 0.015890
0.327011 0.830790 0.016176
0.399312 0.838999 0.024510
0.480700 0.849577 0.039572
0.569426 0.861134 0.053788
0.656057 0.868857 0.053874
0.735384 0.876072 0.053811
0.804780 0.880694 0.054997
0.868227 0.885504 0.054872
0.927834 0.890107 0.054741
0.966578 0.894131 0.054647
0.976007 0.899728 0.054647
0.984040 0.925460 0.054769
0.991936 0.908691 0.054798
0.999840 0.899089 0.054800
0.002887 0.088818 0.141199
0.011172 0.089102 0.142768
0.068447 0.093190 0.147945
0.184566 0.099420 0.149149
0.246834 0.113404 0.148719
0.307139 0.123802 0.141787
0.360090 0.132520 0.126807
0.424404 0.143592 0.114685
0.493951 0.158815 0.128627
0.551890 0.176050 0.146687
0.612272 0.194251 0.173557
0.675403 0.211936 0.201471
0.737069 0.227126 0.221585
0.798272 0.241186 0.235830
0.850568 0.253337 0.247419
0.896088 0.264369 0.256804
0.000517 0.096707 0.136900
0.009764 0.101097 0.142715
0.056869 0.104923 0.147819
0.178230 0.111562 0.151939
0.239761 0.125671 0.151380
0.299521 0.134196 0.144818
0.361696 0.141163 0.126004
0.431614 0.152714 0.114783
0.501971 0.167841 0.130073
0.559877 0.185007 0.148014
0.618369 0.202533 0.173483
0.680120 0.219315 0.200700
0.740974 0.234169 0.220480
0.800635 0.247712 0.234494
0.852626 0.259826 0.246187
0.899171 0.271166 0.255846
0.000000 0.113047 0.137488
0.008592 0.118152 0.142876
0.040941 0.128020 0.153036
0.157041 0.132031 0.157726
0.225039 0.143669 0.156625
0.293016 0.147937 0.146739
0.365723 0.153305 0.123741
0.438100 0.164506 0.113631
0.508543 0.178605 0.127802
0.565730 0.194810 0.145936
0.625535 0.211737 0.172697
0.685796 0.227768 0.199075
0.745574 0.242285 0.218473
0.806834 0.256630 0.232116
0.860216 0.270585 0.242163
0.909082 0.284248 0.250429
0.000000 0.151492 0.151018
0.008269 0.156044 0.153937
0.027235 0.164535 0.160014
0.133800 0.167642 0.162090
0.215058 0.179309 0.168312
0.292831 0.190106 0.156098
0.371009 0.195537 0.127428
0.444548 0.199001 0.113703
0.517247 0.206604 0.118784
0.583539 0.214965 0.142172
0.640892 0.228527 0.165486
0.701256 0.245080 0.191093
0.763572 0.262333 0.210272
0.827758 0.280933 0.221248
0.881155 0.298034 0.229107
0.929233 0.315075 0.236398
0.002448 0.211889 0.149271
0.015541 0.213314 0.142680
0.046158 0.218378 0.134855
0.140646 0.222273 0.144625
0.257589 0.209751 0.138207
0.331511 0.215224 0.125424
0.401110 0.227050 0.111828
0.471096 0.237650 0.106494
0.540038 0.243320 0.104972
0.606083 0.248714 0.135029
0.671312 0.258841 0.161633
0.729163 0.273576 0.182340
0.787621 0.291096 0.200143
0.848338 0.311029 0.209578
0.898858 0.330456 0.216404
0.944534 0.351092 0.222218
0.035264 0.255973 0.133148
0.053112 0.251892 0.123099
0.076771 0.259613 0.114622
0.160573 0.274180 0.112631
0.284713 0.261080 0.100239
0.374752 0.246023 0.078345
0.449325 0.250351 0.073577
0.520743 0.264920 0.071727
0.588600 0.281070 0.087328
0.649879 0.296422 0.116720
0.704710 0.308635 0.149445
0.759737 0.316233 0.178154
0.820704 0.331355 0.197583
0.878365 0.352403 0.203957
0.927325 0.373220 0.208884
0.954697 0.392786 0.211792
0.057120 0.291123 0.119697
0.074618 0.286843 0.106604
0.094637 0.303959 0.102554
0.181990 0.326830 0.084388
0.296894 0.315113 0.107440
0.409250 0.314031 0.028769
0.493805 0.296114 0.047425
0.573018 0.298623 0.066481
0.642847 0.313133 0.089661
0.703661 0.332089 0.120014
0.757891 0.350171 0.141989
0.806178 0.366267 0.156236
0.854157 0.378320 0.172489
0.901438 0.391840 0.186552
0.945773 0.411158 0.188262
0.958245 0.429497 0.187478
0.072207 0.323078 0.109950
0.087044 0.322393 0.101040
0.110664 0.351813 0.080380
0.207342 0.375074 0.060117
0.317039 0.365846 0.114735
0.436167 0.375660 0.045560
0.526682 0.372931 0.038004
0.619689 0.353765 0.066754
