src/colors/dark_&_moody/city_night_film.cube
TITLE "Generated by Resolve"
LUT_3D_SIZE 33
0.000915541 0.00170901 6.10361e-05
0.000915541 0.00170901 6.10361e-05
0.000915541 0.00170901 6.10361e-05
0.000915541 0.00170901 6.10361e-05
0.000915541 0.00170901 6.10361e-05
0.000915541 0.00170901 6.10361e-05
0.000915541 0.00170901 6.10361e-05
0.000915541 0.00170901 6.10361e-05
0.000915541 0.00170901 6.10361e-05
0.00172427 0.00180056 6.10361e-05
0.00358587 0.00198367 6.10361e-05
0.0069276 0.00233463 7.62951e-05
0.0117342 0.00283818 9.15541e-05
0.0186923 0.00392157 9.15541e-05
0.0274968 0.00553903 9.15541e-05
0.0355535 0.00721752 9.15541e-05
0.0427558 0.0089723 9.15541e-05
0.0516213 0.0107576 0.000106813
0.0619974 0.012604 0.000122072
0.0733959 0.0161746 0.000137331
0.085771 0.0207523 0.00015259
0.1028 0.0254673 0.000167849
0.121065 0.0310979 0.000198367
0.140383 0.0383764 0.000228885
0.162463 0.0450752 0.000259403
0.186542 0.0514076 0.000289921
0.213657 0.057145 0.000320439
0.243977 0.06215 0.000366217
0.276158 0.067155 0.000411994
0.3093 0.072343 0.000427253
0.343175 0.078584 0.00047303
0.37763 0.085359 0.000488289
0.412863 0.0918898 0.000488289
0.000915541 0.00170901 6.10361e-05
0.000915541 0.00170901 6.10361e-05
0.000915541 0.00170901 6.10361e-05
0.000915541 0.00170901 6.10361e-05
0.000915541 0.00170901 6.10361e-05
0.000915541 0.00170901 6.10361e-05
0.000915541 0.00170901 6.10361e-05
0.000915541 0.00170901 6.10361e-05
0.000915541 0.00170901 6.10361e-05
0.00190738 0.00181582 6.10361e-05
0.00376898 0.00199893 6.10361e-05
0.00738537 0.00238041 7.62951e-05
0.0121614 0.00288396 9.15541e-05
0.0193942 0.0040589 9.15541e-05
0.028275 0.00567636 9.15541e-05
0.0361028 0.00735485 9.15541e-05
0.0433051 0.00909438 9.15541e-05
0.052369 0.0108949 0.000106813
0.0627451 0.012726 0.000122072
0.0742962 0.0165103 0.000137331
0.0867628 0.021088 0.00015259
0.104128 0.0258183 0.000167849
0.122362 0.0315862 0.000198367
0.141909 0.0389563 0.000244144
0.164508 0.045655 0.000259403
0.188708 0.0518654 0.000289921
0.215991 0.0576333 0.000335698
0.24712 0.0626383 0.000381476
0.27924 0.0676432 0.000411994
0.312566 0.0729076 0.000427253
0.346059 0.079118 0.00047303
0.380331 0.0859083 0.000488289
0.415259 0.0922255 0.000503548
0.000915541 0.00170901 6.10361e-05
0.000915541 0.00170901 6.10361e-05
0.000915541 0.00170901 6.10361e-05
0.000915541 0.00170901 6.10361e-05
0.000915541 0.00170901 6.10361e-05
0.000915541 0.00170901 6.10361e-05
0.000915541 0.00170901 6.10361e-05
0.000915541 0.00170901 6.10361e-05
0.000915541 0.00170901 6.10361e-05
0.00215152 0.00183108 6.10361e-05
0.00393683 0.00202945 6.10361e-05
0.00787366 0.00242618 7.62951e-05
0.012604 0.00292973 9.15541e-05
0.0201572 0.00419623 9.15541e-05
0.0290379 0.00581369 9.15541e-05
0.0367132 0.00749218 9.15541e-05
0.0439002 0.00924697 9.15541e-05
0.053193 0.0110323 0.000106813
0.0636606 0.0128939 0.000122072
0.0753796 0.016907 0.000137331
0.088304 0.0215152 0.00015259
0.105791 0.026276 0.000167849
0.124224 0.0322881 0.000198367
0.143893 0.039704 0.000244144
0.166812 0.0463111 0.000259403
0.191806 0.0525216 0.000289921
0.218769 0.0582284 0.000335698
0.24976 0.0630503 0.000381476
0.281987 0.0680705 0.000411994
0.3149 0.0733349 0.000427253
0.348226 0.0795148 0.00047303
0.382132 0.0862745 0.000488289
0.416922 0.0924544 0.000503548
0.000915541 0.00170901 6.10361e-05
0.000915541 0.00170901 6.10361e-05
0.000915541 0.00170901 6.10361e-05
0.000915541 0.00170901 6.10361e-05
0.000915541 0.00170901 6.10361e-05
0.000915541 0.00170901 6.10361e-05
0.000915541 0.00170901 6.10361e-05
0.000915541 0.00170901 6.10361e-05
0.000915541 0.00170901 6.10361e-05
0.00241093 0.0018616 6.10361e-05
0.00418097 0.00204471 6.10361e-05
0.00843824 0.00248722 7.62951e-05
0.0131685 0.00299077 9.15541e-05
0.0211337 0.00436408 9.15541e-05
0.0299535 0.00598154 9.15541e-05
0.0374762 0.00769055 9.15541e-05
0.0446784 0.00943008 9.15541e-05
0.0543221 0.0112306 0.000106813
0.0649271 0.0131228 0.000122072
0.0766918 0.0173953 0.000137331
0.0903029 0.0220493 0.00015259
0.107668 0.0267796 0.000183108
0.126452 0.0331273 0.000213626
0.146212 0.0404364 0.000244144
0.168841 0.046891 0.000259403
0.193988 0.0529793 0.000289921
0.220844 0.0585641 0.000335698
0.251682 0.0633402 0.000381476
0.283803 0.0683452 0.000411994
0.316518 0.07364 0.000427253
0.349477 0.0797436 0.00047303
0.383398 0.0865339 0.000488289
0.418219 0.0926375 0.000503548
0.000915541 0.00170901 6.10361e-05
0.000915541 0.00170901 6.10361e-05
0.000915541 0.00170901 6.10361e-05
0.000915541 0.00170901 6.10361e-05
0.000915541 0.00170901 6.10361e-05
0.000915541 0.00170901 6.10361e-05
0.000915541 0.00170901 6.10361e-05
0.000915541 0.00170901 6.10361e-05
0.000915541 0.00170901 6.10361e-05
0.00268559 0.00189212 6.10361e-05
0.00444038 0.00207523 6.10361e-05
0.00907912 0.00256352 7.62951e-05
0.0137331 0.0030518 9.15541e-05
0.0222629 0.00457771 9.15541e-05
0.0311437 0.00619516 9.15541e-05
0.0383612 0.00790417 9.15541e-05
0.0456092 0.00965896 9.15541e-05
0.0556802 0.0114748 0.000106813
0.0663005 0.01355 0.000122072
0.078172 0.0179446 0.000137331
0.0919509 0.0225071 0.00015259
0.109331 0.0272374 0.000183108
0.127977 0.0337072 0.000213626
0.147829 0.0408942 0.000244144
0.170336 0.047303 0.000259403
0.195224 0.0532387 0.00030518
0.222416 0.0588083 0.000335698
0.252903 0.0635386 0.000381476
0.285069 0.0685588 0.000411994
0.317601 0.0738384 0.000442512
0.350378 0.0799115 0.00047303
0.384298 0.086717 0.000488289
0.418952 0.0927291 0.000503548
0.000915541 0.00170901 6.10361e-05
0.000915541 0.00170901 6.10361e-05
0.000915541 0.00170901 6.10361e-05
0.000915541 0.00170901 6.10361e-05
0.000915541 0.00170901 6.10361e-05
0.000915541 0.00170901 6.10361e-05
0.000915541 0.00170901 6.10361e-05
0.000915541 0.00170901 6.10361e-05
0.0012665 0.00173953 6.10361e-05
0.00300603 0.00192264 6.10361e-05
0.00517281 0.00215152 6.10361e-05
0.00985733 0.00263981 7.62951e-05
0.0148318 0.00321965 9.15541e-05
0.0236515 0.00483711 9.15541e-05
0.0323644 0.00643931 9.15541e-05
0.0393988 0.00814832 9.15541e-05
0.0467994 0.0099031 9.15541e-05
0.0568093 0.0116732 0.000106813
0.0673686 0.0139467 0.000122072
0.0790875 0.0182803 0.000137331
0.0930648 0.0228122 0.00015259
0.110323 0.027512 0.000183108
0.128908 0.0340581 0.000213626
0.148379 0.0410468 0.000244144
0.171008 0.0475013 0.000274662
0.196002 0.0534066 0.00030518
0.222934 0.0588846 0.000335698
0.253254 0.0635843 0.000381476
0.285069 0.0685588 0.000411994
0.317784 0.0738689 0.000442512
0.350561 0.0799573 0.00047303
0.384298 0.086717 0.000488289
0.418769 0.0927138 0.000503548
0.000915541 0.00170901 6.10361e-05
0.000915541 0.00170901 6.10361e-05
0.000915541 0.00170901 6.10361e-05
0.000915541 0.00170901 6.10361e-05
0.000915541 0.00170901 6.10361e-05
0.000915541 0.00170901 6.10361e-05
0.00106813 0.00181582 6.10361e-05
0.00122072 0.00192264 6.10361e-05
0.00192264 0.00205997 6.10361e-05
0.00364691 0.00234989 6.10361e-05
0.00624094 0.00276188 6.10361e-05
0.0104677 0.00328069 7.62951e-05
0.0156558 0.00404364 9.15541e-05
0.0242466 0.00560006 9.15541e-05
0.0326238 0.00715648 9.15541e-05
0.0391546 0.00889601 0.000122072
0.0462196 0.0106813 0.000167849
0.0557565 0.0124056 0.000366217
0.0658885 0.0146029 0.000488289
0.0775616 0.0186465 0.000274662
0.091371 0.0228733 0.000167849
0.108019 0.0273594 0.000183108
0.126543 0.0336309 0.000213626
0.146014 0.0404212 0.000244144
0.168215 0.0470588 0.000259403
0.192859 0.0530404 0.00030518
0.219989 0.0586557 0.000335698
0.250431 0.0634623 0.000381476
0.282582 0.0684062 0.000411994
0.316243 0.0737774 0.000442512
0.349767 0.079881 0.00047303
0.383764 0.0866102 0.000488289
0.418219 0.0926375 0.000503548
0.00207523 0.00254826 6.10361e-05
0.00215152 0.00260929 6.10361e-05
0.00227359 0.00270085 6.10361e-05
0.00239567 0.0027924 6.10361e-05
0.002533 0.00289921 6.10361e-05
0.00267033 0.00299077 6.10361e-05
0.00283818 0.00311284 6.10361e-05
0.00297551 0.00321965 6.10361e-05
0.00386053 0.00349432 6.10361e-05
0.00514229 0.00386053 6.10361e-05
0.0074464 0.00427253 6.10361e-05
0.0108186 0.00469978 7.62951e-05
0.0158541 0.00544747 9.15541e-05
0.0244144 0.00680552 9.15541e-05
0.0323949 0.00825513 0.000106813
0.0384527 0.0100404 0.000167849
0.0451667 0.0118257 0.000320439
0.0540475 0.0134279 0.000762951
0.0637675 0.0155337 0.000991836
0.0754406 0.0191501 0.000457771
0.0888991 0.0229953 0.000167849
0.104707 0.0271763 0.000183108
0.122881 0.03299 0.000198367
0.142229 0.0394446 0.000228885
0.163424 0.0463874 0.000259403
0.187335 0.0525521 0.00030518
0.213733 0.0582895 0.000335698
0.243641 0.063386 0.000381476
0.275166 0.0683146 0.000411994
0.308309 0.0735637 0.000427253
0.341527 0.0797742 0.000457771
0.375662 0.0863508 0.000488289
0.410758 0.0923934 0.000503548
0.00384527 0.00384527 6.10361e-05
0.00396735 0.00393683 6.10361e-05
0.0040589 0.00399786 6.10361e-05
0.00425727 0.00415045 6.10361e-05
0.00448615 0.0043183 6.10361e-05
0.00468452 0.00447089 6.10361e-05
0.00494392 0.004654 6.10361e-05
0.00512703 0.00479133 6.10361e-05
0.00601205 0.00511177 6.10361e-05
0.00701915 0.00546273 6.10361e-05
0.00895705 0.00578317 7.62951e-05
0.0112306 0.00608835 9.15541e-05
0.0165103 0.00683604 9.15541e-05
0.0249638 0.00802625 9.15541e-05
0.0324407 0.00939956 0.000106813
0.0381476 0.0111086 0.00015259
0.0446021 0.0128328 0.000396735
0.0526436 0.0145266 0.00115969
0.0619364 0.0166476 0.00141909
0.0738231 0.0196078 0.000564584
0.0872816 0.0231937 0.000167849
0.102266 0.0273899 0.000183108
0.12047 0.0328985 0.000198367
0.139559 0.0389868 0.000228885
0.159609 0.0460517 0.000259403
0.182895 0.0522774 0.00030518
0.208438 0.0579995 0.000335698
0.237736 0.0633249 0.000381476
0.268696 0.0683299 0.000411994
0.301198 0.0735637 0.000427253
0.334386 0.0797742 0.000457771
0.367834 0.0861372 0.00047303
0.40238 0.092195 0.000503548
0.00672923 0.00595102 6.10361e-05
0.00691234 0.00608835 6.10361e-05
0.00704967 0.00619516 6.10361e-05
0.00724804 0.00633249 6.10361e-05
0.00743114 0.00646983 6.10361e-05
0.00759899 0.0065919 6.10361e-05
0.0077821 0.00672923 6.10361e-05
0.00794995 0.00683604 6.10361e-05
0.00866712 0.00697337 6.10361e-05
0.0093843 0.00712596 6.10361e-05
0.0104372 0.00726329 7.62951e-05
0.0114137 0.00741588 9.15541e-05
0.017258 0.00816358 9.15541e-05
0.0255131 0.00921645 9.15541e-05
0.0325628 0.0105592 9.15541e-05
0.0379797 0.0121462 0.000106813
0.0440833 0.0138247 0.000503548
0.0511788 0.0156863 0.00158694
0.0603342 0.0177005 0.00177005
0.0725719 0.0200198 0.00062562
0.0859998 0.0234989 0.000167849
0.100359 0.0278172 0.000183108
0.118517 0.032929 0.000198367
0.137209 0.0387579 0.000228885
0.156451 0.0459907 0.000259403
0.1794 0.0521706 0.000289921
0.20444 0.0578622 0.000320439
0.23267 0.0632181 0.000366217
0.262806 0.0684215 0.000396735
0.294347 0.0736858 0.000411994
0.327703 0.0793469 0.000457771
0.361761 0.085771 0.00047303
0.396719 0.0920729 0.000503548
0.0103456 0.00865187 6.10361e-05
0.0107729 0.00898756 6.10361e-05
0.0112154 0.00933852 6.10361e-05
0.0115969 0.00962844 6.10361e-05
0.0121004 0.0100252 6.10361e-05
0.0124666 0.0103304 6.10361e-05
0.0129091 0.0106813 6.10361e-05
0.0134279 0.0109865 6.10361e-05
0.0140993 0.0111086 7.62951e-05
0.0148928 0.0113069 7.62951e-05
0.0157473 0.0115206 7.62951e-05
0.0166018 0.0117189 9.15541e-05
0.0227054 0.0129397 9.15541e-05
0.0296178 0.0142519 0.000106813
0.0356298 0.0158694 0.000106813
0.0410315 0.0174716 0.000106813
0.0468299 0.0191958 0.00077821
0.0531624 0.021149 0.00218204
0.0617838 0.0228428 0.00251774
0.0729839 0.024506 0.00184634
0.0861219 0.0270542 0.00103761
0.100572 0.0301518 0.000183108
0.117891 0.0342412 0.000198367
0.135439 0.039353 0.000228885
0.153948 0.0462196 0.000259403
0.176608 0.0522469 0.000289921
0.20119 0.0578927 0.000320439
0.228595 0.0632486 0.000366217
0.25864 0.0686046 0.000381476
0.28986 0.0739147 0.000411994
0.323064 0.0792554 0.000457771
0.356847 0.0857404 0.00047303
0.392035 0.0922408 0.000503548
0.0191196 0.0155795 7.62951e-05
0.0194247 0.0158236 7.62951e-05
0.0198672 0.0161593 7.62951e-05
0.0201877 0.0164187 7.62951e-05
0.0206302 0.0167544 7.62951e-05
0.0209354 0.0170138 7.62951e-05
0.0213169 0.0173037 9.15541e-05
0.0216983 0.0174411 9.15541e-05
0.0221256 0.017319 9.15541e-05
0.0227817 0.01738 9.15541e-05
0.023621 0.0174563 9.15541e-05
0.0245212 0.0175631 9.15541e-05
0.0294041 0.0190433 0.000106813
0.0341802 0.0204929 0.000122072
0.0393072 0.022034 0.000122072
0.0446784 0.0235599 0.000122072
0.049958 0.0252384 0.00114443
0.0553597 0.0271153 0.00283818
0.063508 0.0284123 0.00341802
0.0736095 0.0294194 0.00331121
0.0868391 0.0309453 0.0018616
0.101213 0.0327001 0.000183108
0.117235 0.0356603 0.000198367
0.133944 0.0401923 0.000228885
0.151705 0.0465248 0.000244144
0.174014 0.0523995 0.000274662
0.198627 0.0580758 0.000320439
0.22562 0.0634318 0.000366217
0.256077 0.0687419 0.000381476
0.288228 0.0742351 0.000411994
0.322103 0.0800183 0.000442512
0.355856 0.0868544 0.00047303
0.391394 0.0935683 0.000488289
0.0272679 0.0224308 9.15541e-05
0.0274662 0.0226291 9.15541e-05
0.0277562 0.0229191 9.15541e-05
0.0279393 0.0231174 9.15541e-05
0.0281834 0.0233616 9.15541e-05
0.0284733 0.0236515 0.000106813
0.0286564 0.0238499 0.000106813
0.0289311 0.0239109 0.000106813
0.0291752 0.0236973 0.000106813
0.0296025 0.023621 0.000106813
0.0301976 0.0236057 0.000106813
0.0310979 0.0237736 0.000106813
0.0351263 0.0252537 0.000122072
0.0390021 0.0266575 0.000137331
0.0431983 0.028336 0.000137331
0.0473945 0.0301061 0.000137331
0.0520027 0.0317082 0.00158694
0.0568856 0.0334173 0.00363165
0.0638132 0.0347906 0.00584421
0.0717784 0.0361486 0.00823987
0.0863203 0.0368505 0.00531014
0.10219 0.0377356 0.00202945
0.118654 0.0400854 0.000900282
0.135943 0.0440681 0.000350958
0.153613 0.0492866 0.000259403
0.175708 0.0545815 0.000289921
0.200107 0.0597543 0.000320439
0.227024 0.0648203 0.000366217
0.257847 0.0700999 0.000396735
0.290013 0.0756237 0.000411994
0.323583 0.08159 0.000427253
0.357656 0.0886397 0.00047303
0.393057 0.0952926 0.000488289
0.0338445 0.0291447 0.000106813
0.0340276 0.0293431 0.000106813
0.0342718 0.0295872 0.000106813
0.0344549 0.0297856 0.000106813
0.034699 0.0300298 0.000122072
0.0349432 0.0302739 0.000122072
0.0351263 0.0304723 0.000122072
0.0353094 0.0304112 0.000122072
0.0354925 0.0301671 0.000122072
0.0357519 0.0299992 0.000122072
0.0361334 0.0299687 0.000122072
0.0370642 0.0301671 0.000122072
0.0405432 0.0315251 0.000137331
0.0439155 0.0328069 0.00015259
0.0468299 0.0347143 0.00015259
0.0497597 0.0367895 0.00015259
0.0538491 0.0383001 0.00205997
0.05832 0.0397345 0.00437934
0.0638437 0.0414282 0.00866712
0.0697642 0.0431525 0.0135195
0.0860304 0.0430762 0.00883497
0.103182 0.0432746 0.00430304
0.120592 0.0450294 0.00163272
0.138567 0.0484169 0.000549325
0.156939 0.0525826 0.000274662
0.178729 0.0573281 0.000289921
0.203342 0.0620432 0.000335698
0.230732 0.0667735 0.000366217
0.261677 0.0720989 0.000411994
0.294469 0.0778821 0.000427253
0.328283 0.0841077 0.000442512
0.3626 0.0910964 0.000488289
0.399023 0.097673 0.000503548
0.0367742 0.0369116 0.00181582
0.0367132 0.0371099 0.00190738
0.0366369 0.0374456 0.00205997
0.0365759 0.0377203 0.00218204
0.0364996 0.0379797 0.00230411
0.036408 0.0383917 0.00247196
0.036347 0.0385901 0.00256352
0.0367132 0.0384527 0.00251774
0.0374456 0.0378576 0.00227359
0.0382391 0.0373693 0.00204471
0.0391852 0.0369879 0.00181582
0.0407263 0.0369116 0.00157168
0.043534 0.0379187 0.0015259
0.0464485 0.0390021 0.00144961
0.0498817 0.0406806 0.0012665
0.0535439 0.0424048 0.00105287
0.0573281 0.0442817 0.00202945
0.0611582 0.0461738 0.00302129
0.06598 0.0484932 0.00860609
0.0715343 0.0506447 0.0142367
0.0846876 0.0516518 0.0151827
0.100771 0.0527657 0.0131838
0.120745 0.0536049 0.00601205
0.14052 0.0559854 0.00236515
0.161151 0.0592203 0.000274662
0.183185 0.0637064 0.00030518
0.208545 0.0681315 0.000335698
0.236347 0.072694 0.000381476
0.267277 0.0775616 0.000411994
0.300038 0.0829175 0.000442512
0.334203 0.0888533 0.000457771
0.369009 0.0952316 0.000488289
0.406088 0.101122 0.000518807
0.0344549 0.0461891 0.00596628
0.0343786 0.0464637 0.00608835
0.0343175 0.0467231 0.00619516
0.0342412 0.0469978 0.00631724
0.0341802 0.0472572 0.00643931
0.0340887 0.0476692 0.00662242
0.0340276 0.0478676 0.00671397
0.0351873 0.0472725 0.00628672
0.037171 0.0463417 0.0055848
0.0392004 0.045304 0.00483711
0.0413977 0.0442664 0.00404364
0.0436866 0.0437934 0.00341802
0.0460975 0.0444495 0.00317388
0.0484321 0.0455024 0.0031281
0.0524605 0.0470741 0.00285344
0.0567178 0.0486458 0.00256352
0.060441 0.0509804 0.00263981
0.0644236 0.053193 0.00268559
0.0687266 0.0559243 0.00859083
0.0741894 0.0585946 0.0144808
0.0842908 0.0607309 0.0200504
0.0994278 0.0622721 0.0195621
0.120287 0.0630045 0.0117952
0.141726 0.0647288 0.00663767
0.164004 0.0673228 0.00299077
0.186725 0.0714427 0.00216678
0.21323 0.0756237 0.00146487
0.241566 0.0798962 0.000976577
0.273121 0.0846113 0.000717174
0.30634 0.0896773 0.000534066
0.340749 0.0951095 0.00047303
0.376608 0.100801 0.000488289
0.414694 0.105898 0.000518807
0.0296635 0.0562753 0.0110781
0.0295262 0.0564889 0.0112001
0.0293431 0.0567941 0.011368
0.0290684 0.0572366 0.0116121
0.0288853 0.0575265 0.01178
0.0286564 0.0578927 0.0119783
0.0284581 0.0581979 0.0121462
0.0298772 0.057557 0.0116579
0.0322881 0.0565042 0.0108492
0.0346532 0.0555428 0.010071
0.0370031 0.0546426 0.00929274
0.0393835 0.0544289 0.00880446
0.0419928 0.054963 0.00859083
0.0451362 0.0556649 0.00836194
0.0507515 0.0569772 0.00788891
0.0565652 0.0582742 0.00737011
0.0626993 0.0598154 0.00662242
0.0690623 0.0613718 0.00602731
0.07393 0.0641031 0.0081178
0.0797589 0.0670329 0.0112001
0.0875105 0.0699168 0.0180972
0.100328 0.072343 0.0220645
0.117433 0.074464 0.023621
0.139361 0.0764935 0.0181735
0.16257 0.0789044 0.0128634
0.187289 0.0823682 0.00894179
0.215778 0.0862745 0.00596628
0.246098 0.0905928 0.00360113
0.277989 0.0955215 0.00205997
0.313161 0.100816 0.0009308
0.348745 0.10634 0.000488289
0.385351 0.112093 0.000488289
0.423713 0.117662 0.000518807
0.0229801 0.0670024 0.0169833
0.022797 0.0673075 0.0171359
0.0225986 0.0675975 0.0173037
0.0223239 0.06804 0.0175479
0.0220951 0.0684062 0.0177462
0.021912 0.0687114 0.0179141
0.0216373 0.0691539 0.0181582
0.0230411 0.0686046 0.0177462
0.0256046 0.067628 0.016968
0.0279698 0.0669261 0.0162814
0.0301976 0.0664225 0.0156863
0.0322576 0.0664836 0.0154116
0.0344701 0.0670176 0.0153658
0.0372931 0.0675975 0.0152438
0.0425269 0.0691234 0.0151522
0.0482185 0.0704662 0.0149081
0.0562905 0.0718547 0.0143282
0.0648203 0.0735027 0.0139162
0.0728313 0.0756695 0.0138705
0.081651 0.0778821 0.0146487
0.09131 0.0805676 0.0175021
0.103685 0.0834821 0.0209201
0.1178 0.0866255 0.0248722
0.138155 0.0895705 0.0258183
0.160403 0.0927901 0.025391
0.185229 0.0963455 0.0229953
0.214771 0.100389 0.018555
0.246952 0.105074 0.0137331
0.280568 0.110109 0.00875868
0.317159 0.115038 0.00422675
0.354986 0.120211 0.00169375
0.393622 0.125704 0.000640879
0.432532 0.131228 0.000534066
0.01149 0.0803082 0.0258183
0.0110781 0.0807813 0.0261387
0.0106508 0.081239 0.0264591
0.0101472 0.0818036 0.0268406
0.00972 0.0822614 0.0271611
0.00929274 0.0827344 0.0274815
0.0087892 0.0832837 0.027863
0.00956741 0.0830854 0.0274662
0.0114443 0.0823987 0.0264134
0.013138 0.082063 0.0257267
0.0150454 0.0817426 0.0253452
0.0167697 0.0817426 0.0251469
0.0180667 0.0824598 0.025391
0.019852 0.083238 0.0256046
0.0238193 0.0847944 0.0259556
0.0284428 0.0864424 0.0263828
0.0400244 0.0878309 0.0264134
0.0525521 0.0890364 0.0262303
0.0669566 0.0898909 0.0248875
0.0809339 0.0910353 0.0226139
0.0949874 0.0926223 0.0183871
0.107927 0.0957961 0.018677
0.120607 0.0998245 0.0217594
0.13753 0.103914 0.0317693
0.158083 0.107988 0.037583
0.182315 0.112474 0.0397803
0.21239 0.117037 0.035523
0.245014 0.121935 0.0289921
0.280613 0.126925 0.0202945
0.319387 0.13193 0.0114748
0.359136 0.136629 0.00596628
0.400015 0.141451 0.00260929
0.440589 0.14667 0.0012665
0 0.0942397 0.0369116
0 0.0946975 0.0377661
0 0.0951553 0.0386053
0 0.0955367 0.0393225
0 0.0961471 0.0404517
0 0.0965896 0.0412909
0 0.0969711 0.0420081
0.000518807 0.0971847 0.042359
0.00199893 0.0967422 0.0413519
0.00344854 0.0966049 0.04094
0.00500496 0.0966812 0.0410925
0.00624094 0.0969711 0.0413214
0.00706493 0.0978866 0.0420081
0.00787366 0.0990921 0.0428016
0.00961318 0.101106 0.0437018
0.0116426 0.103227 0.0444648
0.0194247 0.10576 0.0440528
0.0282292 0.108019 0.0432136
0.0439155 0.109438 0.0420233
0.062501 0.110491 0.040238
0.0854505 0.11133 0.0380255
0.105882 0.112825 0.0340734
0.125261 0.114839 0.0298161
0.141939 0.119219 0.0300298
0.1608 0.123842 0.0370489
0.181933 0.129 0.048127
0.209812 0.134554 0.0527962
0.242313 0.140398 0.0496681
0.278279 0.14609 0.0412146
0.317815 0.151614 0.0297704
0.359121 0.156985 0.0207065
0.401755 0.162371 0.0125429
0.444556 0.167346 0.00547799
0 0.106218 0.0592355
0 0.106752 0.0602274
0 0.107286 0.0612192
0 0.107744 0.0620584
0 0.108278 0.0630503
0 0.108873 0.0641794
0 0.109331 0.0650339
6.10361e-05 0.109758 0.0654765
0.000244144 0.109972 0.0642557
0.000274662 0.110307 0.0631876
0.000137331 0.110994 0.0626383
0 0.112245 0.0623789
0 0.113664 0.0623789
0 0.115404 0.0626535
0 0.118105 0.0633555
0.000534066 0.120745 0.0637369
0.00505074 0.124025 0.0621195
0.0116732 0.127184 0.0603494
0.0269017 0.129442 0.0580758
0.0475166 0.13106 0.0563821
0.0760052 0.131655 0.055787
0.101122 0.132509 0.0519417
0.12491 0.133745 0.0470436
0.145541 0.136416 0.0412451
0.165103 0.140688 0.0431983
0.185473 0.146166 0.049485
0.210468 0.152255 0.0599069
0.24094 0.158831 0.0628824
0.275486 0.165713 0.0606699
0.3149 0.172595 0.0523232
0.357656 0.179187 0.0416876
0.401877 0.185275 0.0308995
0.446571 0.190829 0.0208591
0 0.119844 0.0771038
0 0.120485 0.0776532
0 0.121309 0.0783703
0 0.121965 0.0789197
0 0.122698 0.0795605
0 0.123537 0.0802777
0 0.124269 0.0809033
0 0.124956 0.0813001
0 0.125429 0.0801251
0 0.126268 0.0794385
0 0.127337 0.079057
0 0.128695 0.0790417
0 0.130602 0.0796521
0 0.132616 0.080354
0 0.135363 0.081239
0.000183108 0.138384 0.0818799
0.00125124 0.142336 0.0798352
0.00474556 0.146242 0.0770581
0.0151675 0.149783 0.0726024
0.0354925 0.152377 0.0707713
0.067155 0.153613 0.0717632
0.0951553 0.154299 0.0707866
0.122225 0.15491 0.0675822
0.147951 0.155871 0.0594797
0.169894 0.159533 0.0544594
0.190997 0.164294 0.0537575
0.213275 0.170367 0.0636606
0.241733 0.177722 0.0717937
0.274662 0.185687 0.0757153
0.312596 0.194141 0.073106
0.355947 0.202304 0.064332
0.400671 0.209613 0.0539559
0.446586 0.216297 0.0426337
0 0.135241 0.0903334
0 0.135988 0.0909743
0 0.136965 0.0914168
0 0.138064 0.0919051
0 0.139055 0.0923476
0 0.140154 0.0928511
0 0.141131 0.0932937
0 0.142214 0.0937209
0 0.143008 0.0930495
0 0.144106 0.0926223
0 0.145846 0.0925917
0 0.147677 0.0926833
0 0.149981 0.0931868
0 0.152392 0.0937667
0 0.155764 0.0948196
6.10361e-05 0.158968 0.0954757
0.000350958 0.162936 0.0950942
0.00132753 0.167163 0.0931258
0.00360113 0.172396 0.0864729
0.0236515 0.175525 0.0838636
0.0596475 0.176989 0.0848707
0.0909133 0.17763 0.0853437
0.120851 0.178393 0.0845502
0.147601 0.179034 0.0810407
0.173709 0.180697 0.0735637
0.198001 0.183764 0.0673228
0.218647 0.189899 0.066453
0.245487 0.197604 0.0761273
0.276493 0.206088 0.0844129
0.311971 0.215808 0.0885023
0.353658 0.225971 0.0873426
0.39913 0.235248 0.0800031
0.446647 0.244007 0.0691844
0 0.153948 0.0990463
0 0.155154 0.0995956
0 0.156252 0.100084
0 0.157351 0.100572
0 0.158556 0.101122
0 0.159762 0.101656
0 0.160861 0.102144
0 0.161944 0.102647
0 0.163134 0.102647
0 0.164477 0.102815
0 0.166583 0.103334
0 0.16875 0.103853
0 0.171679 0.104738
0 0.174456 0.105531
0 0.177874 0.1066
0 0.181476 0.107591
0 0.185748 0.108217
0 0.190219 0.106889
0 0.195956 0.101625
0.0177615 0.199939 0.0991684
0.0488594 0.202808 0.0987411
0.0850996 0.204044 0.0998398
0.11928 0.204807 0.100114
0.148791 0.205188 0.0991989
0.175982 0.206226 0.0936599
0.20235 0.208331 0.0872663
0.228611 0.2121 0.0801862
0.253346 0.219318 0.0838636
0.281834 0.227893 0.0900587
0.315297 0.237873 0.0976425
0.354574 0.249607 0.101183
0.398611 0.261509 0.102144
0.445212 0.272511 0.0980545
0 0.174807 0.108843
0 0.176043 0.109453
0 0.177539 0.110185
