src/colors/dark_&_moody/city_night_film.cube
TITLE "Generated by Resolve"
LUT_3D_SIZE 5
0.000915541 0.00170901 6.10361e-05
0.000915541 0.00170901 6.10361e-05
0.0427558 0.0089723 9.15541e-05
0.162463 0.0450752 0.000259403
0.412863 0.0918898 0.000488289
0.00384527 0.00384527 6.10361e-05
0.00601205 0.00511177 6.10361e-05
0.0446021 0.0128328 0.000396735
0.159609 0.0460517 0.000259403
0.40238 0.092195 0.000503548
0.0296635 0.0562753 0.0110781
0.0322881 0.0565042 0.0108492
0.0626993 0.0598154 0.00662242
0.16257 0.0789044 0.0128634
0.423713 0.117662 0.000518807
0 0.174807 0.108843
0 0.186282 0.113863
0 0.210468 0.119463
0.18056 0.234913 0.113207
0.445441 0.301091 0.119478
0 0.436606 0.203403
0 0.45716 0.210452
0.0706493 0.49073 0.225086
0.302525 0.540444 0.254261
0.545541 0.554757 0.301396
0.00741588 0.00117494 0.00180056
0.00985733 0.000976577 0.0024567
0.0546883 0.00483711 0.00154116
0.159731 0.0403601 0.000259403
0.40531 0.0891127 0.000488289
0.0144808 0.00427253 0.00646983
0.0191653 0.00541695 0.00862135
0.0617075 0.00675975 0.00611887
0.152834 0.0393225 0.000244144
0.389776 0.0874037 0.000488289
0.0325322 0.0544747 0.0234073
0.0367285 0.0534066 0.0261387
0.0607462 0.0595102 0.0231937
0.15787 0.0780499 0.0188907
0.421393 0.116365 0.000518807
0 0.176272 0.114427
0 0.187686 0.120607
0 0.214054 0.13022
0.179522 0.241917 0.125444
0.447013 0.308049 0.131884
0 0.440131 0.214389
0.00181582 0.460853 0.224216
0.0489662 0.496254 0.237354
0.306401 0.548455 0.267201
0.557946 0.567681 0.318425
0.0366979 0.0171054 0.0672007
0.0372168 0.0176699 0.0697642
0.0636454 0.0163577 0.0769818
0.171099 0.0142367 0.0590677
0.415259 0.0562448 0.00318914
0.0392767 0.0244907 0.0853437
0.0385748 0.0235294 0.0796368
0.0603799 0.0217746 0.0832685
0.150332 0.0200046 0.0756085
0.393301 0.0549477 0.00479133
0.00590524 0.078172 0.119234
0.00946059 0.0772717 0.119753
0.0381628 0.0771038 0.124743
0.140612 0.0706188 0.120226
0.426352 0.093492 0.0488746
0 0.181964 0.159899
0 0.193194 0.175723
0 0.217533 0.207767
0.0968948 0.239063 0.216526
0.43801 0.283452 0.191928
0 0.438087 0.262699
0 0.455192 0.282979
0 0.485969 0.311696
0.134874 0.527657 0.326268
0.529488 0.57702 0.376364
0.110964 0.0901045 0.289082
0.111437 0.090547 0.290349
0.11458 0.0843671 0.293751
0.133761 0.0576181 0.287724
0.385504 0.026688 0.234546
0.118318 0.0994736 0.308659
0.116442 0.0977951 0.303258
0.115953 0.0904097 0.297658
0.12932 0.0650492 0.289265
0.356435 0.0321965 0.247578
0.126558 0.137194 0.330068
0.124758 0.13666 0.325582
0.125002 0.133333 0.317861
0.143236 0.115908 0.322362
0.365362 0.0730297 0.30634
0.00457771 0.246006 0.358602
0.0027924 0.258854 0.371435
0.000320439 0.281437 0.397665
0.0779736 0.287755 0.417624
0.311971 0.250813 0.402899
0 0.435004 0.408789
0 0.451011 0.432273
0.000244144 0.476951 0.471092
0.072694 0.49929 0.510506
0.234852 0.522896 0.532204
0.198077 0.17821 0.587366
0.198215 0.178363 0.588037
0.198459 0.17464 0.589059
0.19852 0.150713 0.582025
0.212314 0.105119 0.552285
0.201083 0.1832 0.600107
0.200809 0.183215 0.598642
0.200137 0.179675 0.5953
0.199023 0.156649 0.585092
0.211978 0.112184 0.56405
0.2056 0.203754 0.612604
0.205875 0.206546 0.612512
0.20618 0.207584 0.611902
0.207645 0.188388 0.607233
0.225544 0.134936 0.596384
0.181476 0.328695 0.65156
0.171603 0.341634 0.656107
0.158129 0.360525 0.662531
0.184527 0.355047 0.662043
0.26952 0.299077 0.649927
0.0719768 0.476585 0.683314
0.0722515 0.487053 0.687785
0.079408 0.50338 0.693492
0.123003 0.519829 0.70338
0.232258 0.528649 0.7234
