src/colors/dark_&_moody/city_night_film.cube
TITLE "Generated by Resolve"
LUT_3D_SIZE 9
0.000915541 0.00170901 6.10361e-05
0.000915541 0.00170901 6.10361e-05
0.000915541 0.00170901 6.10361e-05
0.0117342 0.00283818 9.15541e-05
0.0427558 0.0089723 9.15541e-05
0.085771 0.0207523 0.00015259
0.162463 0.0450752 0.000259403
0.276158 0.067155 0.000411994
0.412863 0.0918898 0.000488289
0.000915541 0.00170901 6.10361e-05
0.000915541 0.00170901 6.10361e-05
0.000915541 0.00170901 6.10361e-05
0.0137331 0.0030518 9.15541e-05
0.0456092 0.00965896 9.15541e-05
0.0919509 0.0225071 0.00015259
0.170336 0.047303 0.000259403
0.285069 0.0685588 0.000411994
0.418952 0.0927291 0.000503548
0.00384527 0.00384527 6.10361e-05
0.00448615 0.0043183 6.10361e-05
0.00601205 0.00511177 6.10361e-05
0.0165103 0.00683604 9.15541e-05
0.0446021 0.0128328 0.000396735
0.0872816 0.0231937 0.000167849
0.159609 0.0460517 0.000259403
0.268696 0.0683299 0.000411994
0.40238 0.092195 0.000503548
0.0272679 0.0224308 9.15541e-05
0.0281834 0.0233616 9.15541e-05
0.0291752 0.0236973 0.000106813
0.0351263 0.0252537 0.000122072
0.0520027 0.0317082 0.00158694
0.0863203 0.0368505 0.00531014
0.153613 0.0492866 0.000259403
0.257847 0.0700999 0.000396735
0.393057 0.0952926 0.000488289
0.0296635 0.0562753 0.0110781
0.0288853 0.0575265 0.01178
0.0322881 0.0565042 0.0108492
0.0419928 0.054963 0.00859083
0.0626993 0.0598154 0.00662242
0.0875105 0.0699168 0.0180972
0.16257 0.0789044 0.0128634
0.277989 0.0955215 0.00205997
0.423713 0.117662 0.000518807
0 0.106218 0.0592355
0 0.108278 0.0630503
0.000244144 0.109972 0.0642557
0 0.113664 0.0623789
0.00505074 0.124025 0.0621195
0.0760052 0.131655 0.055787
0.165103 0.140688 0.0431983
0.275486 0.165713 0.0606699
0.446571 0.190829 0.0208591
0 0.174807 0.108843
0 0.180499 0.111635
0 0.186282 0.113863
0 0.195575 0.115846
0 0.210468 0.119463
0.037171 0.23093 0.112734
0.18056 0.234913 0.113207
0.290898 0.251713 0.0986343
0.445441 0.301091 0.119478
0 0.284764 0.155001
0 0.294606 0.158511
0 0.304097 0.161181
0 0.319478 0.161776
0.00149538 0.342809 0.164904
0.0715038 0.368612 0.170947
0.218311 0.391226 0.191897
0.354543 0.394141 0.189975
0.469306 0.415976 0.174289
0 0.436606 0.203403
0 0.447211 0.207034
0 0.45716 0.210452
0.0317388 0.471519 0.216678
0.0706493 0.49073 0.225086
0.130831 0.509392 0.233234
0.302525 0.540444 0.254261
0.443839 0.558373 0.29633
0.545541 0.554757 0.301396
0.000915541 0.00170901 6.10361e-05
0.000915541 0.00170901 6.10361e-05
0.000915541 0.00170901 6.10361e-05
0.0111391 0.00277714 7.62951e-05
0.0418708 0.00875868 9.15541e-05
0.0842756 0.0202029 0.00015259
0.160159 0.044419 0.000259403
0.27306 0.0666667 0.000396735
0.40972 0.0914626 0.000488289
0.000915541 0.00170901 6.10361e-05
0.000915541 0.00170901 6.10361e-05
0.00149538 0.00166323 0.000213626
0.0138399 0.00276188 0.00030518
0.0450599 0.00909438 9.15541e-05
0.0897383 0.0213779 0.00015259
0.166934 0.0459754 0.000259403
0.280095 0.0675975 0.000411994
0.414313 0.0920729 0.000488289
0.00395209 0.00402838 0.000747692
0.00434882 0.00457771 0.00172427
0.00654612 0.00537118 0.00157168
0.01561 0.0065919 0.000640879
0.0433814 0.0121767 0.00137331
0.0842603 0.0217746 0.000396735
0.155535 0.0441444 0.000259403
0.262882 0.0670176 0.000396735
0.396994 0.0910811 0.000503548
0.0265965 0.0221103 0.00180056
0.0271305 0.022797 0.00242618
0.0285191 0.022858 0.0021973
0.0348516 0.0244602 0.00154116
0.0511788 0.0302739 0.00277714
0.0830091 0.035584 0.00645457
0.150271 0.0471656 0.00030518
0.252872 0.0685893 0.000396735
0.388647 0.0938888 0.000488289
0.0307622 0.0549325 0.0122377
0.0303197 0.0558022 0.0131685
0.0343175 0.0543069 0.0124056
0.0423285 0.0534218 0.0109712
0.0615549 0.058854 0.00935378
0.0855726 0.0692302 0.0202335
0.159731 0.078294 0.014435
0.275135 0.0950942 0.00294499
0.42118 0.117174 0.000518807
0 0.105714 0.0593729
0 0.107637 0.0632181
0.000366217 0.109041 0.064744
0 0.113191 0.0645151
0.00442512 0.124193 0.0650492
0.0745708 0.132631 0.0594034
0.164462 0.141588 0.0470283
0.273655 0.166583 0.0647746
0.444282 0.192447 0.0249638
0 0.175219 0.110155
0 0.180819 0.113451
0 0.186206 0.11606
0 0.195697 0.119127
0 0.211154 0.123445
0.0305943 0.232547 0.116472
0.179568 0.237186 0.117678
0.292317 0.254124 0.103197
0.445167 0.303365 0.124193
0 0.286427 0.156939
0 0.295811 0.161135
0 0.305058 0.164416
4.57771e-05 0.320958 0.166567
0.00117494 0.3449 0.170459
0.0693217 0.37116 0.175753
0.217136 0.394766 0.196765
0.356512 0.398337 0.195865
0.471916 0.419791 0.180117
0 0.438788 0.205112
0 0.448905 0.209766
0.000915541 0.458656 0.214282
0.0245518 0.473304 0.220371
0.0628977 0.492744 0.229603
0.126635 0.511559 0.238071
0.303059 0.543145 0.259312
0.446784 0.562188 0.301717
0.550439 0.560021 0.308415
0.00741588 0.00117494 0.00180056
0.00788891 0.00114443 0.0019379
0.00985733 0.000976577 0.0024567
0.0243229 0.0009308 0.0028687
0.0546883 0.00483711 0.00154116
0.0907607 0.0151827 0.000320439
0.159731 0.0403601 0.000259403
0.269429 0.0644694 0.000396735
0.40531 0.0891127 0.000488289
0.0111391 0.000885023 0.0027924
0.0104372 0.0009308 0.00260929
0.0122683 0.00077821 0.00309758
0.028748 0.00102235 0.00552377
0.0622416 0.00383001 0.00529488
0.0990005 0.0137942 0.00015259
0.166323 0.0404822 0.000274662
0.275135 0.0648508 0.000411994
0.408209 0.0893111 0.000488289
0.0144808 0.00427253 0.00646983
0.0157015 0.00474556 0.00740063
0.0191653 0.00541695 0.00862135
0.0283665 0.00553903 0.00839246
0.0617075 0.00675975 0.00611887
0.0898909 0.016022 0.000900282
0.152834 0.0393225 0.000244144
0.256138 0.0639963 0.000381476
0.389776 0.0874037 0.000488289
0.0248875 0.0245518 0.0163577
0.0247807 0.0256199 0.0189212
0.0260624 0.0255283 0.019852
0.0343786 0.0264897 0.0186313
0.0560006 0.0280156 0.0124514
0.0848707 0.0314336 0.00920119
0.147738 0.0432136 0.000335698
0.247929 0.0657664 0.000381476
0.384482 0.0907454 0.000488289
0.0325322 0.0544747 0.0234073
0.0323644 0.055436 0.0264744
0.0367285 0.0534066 0.0261387
0.042771 0.0535897 0.0251469
0.0607462 0.0595102 0.0231937
0.0836957 0.0692607 0.0299535
0.15787 0.0780499 0.0188907
0.273823 0.0950179 0.00389105
0.421393 0.116365 0.000518807
0.000167849 0.105394 0.0625315
0.000122072 0.107591 0.0669718
0.000442512 0.109041 0.0680247
0 0.113832 0.0697948
0.00364691 0.126131 0.0738384
0.0713664 0.135317 0.0687724
0.164599 0.144152 0.0561074
0.273503 0.169146 0.0721599
0.444389 0.196002 0.0315709
0 0.176272 0.114427
0 0.182239 0.118013
0 0.187686 0.120607
0 0.19765 0.124407
0 0.214054 0.13022
0.0244907 0.236088 0.123659
0.179522 0.241917 0.125444
0.29601 0.259007 0.110628
0.447013 0.308049 0.131884
0 0.288075 0.163394
0 0.298024 0.168017
0 0.307607 0.171405
0 0.324742 0.174517
0.000289921 0.349203 0.178851
0.0705119 0.376944 0.183642
0.2168 0.401343 0.204547
0.361822 0.406195 0.205127
0.477852 0.42678 0.189166
0 0.440131 0.214389
0 0.450675 0.219409
0.00181582 0.460853 0.224216
0.0184482 0.476097 0.229129
0.0489662 0.496254 0.237354
0.124392 0.515877 0.246204
0.306401 0.548455 0.267201
0.452613 0.56875 0.310292
0.557946 0.567681 0.318425
0.0241398 0.00436408 0.0158389
0.0241703 0.00440986 0.0159609
0.0244144 0.00477607 0.0168917
0.0347601 0.00488289 0.0194553
0.0634165 0.00544747 0.0264591
0.105882 0.0056611 0.0182498
0.169192 0.0284428 0.000274662
0.274495 0.0559091 0.000396735
0.406165 0.0839094 0.000488289
0.0250401 0.00546273 0.0189975
0.0248722 0.00529488 0.0184329
0.0253605 0.00549325 0.0191501
0.0369116 0.00585946 0.0226291
0.0647288 0.00683604 0.0298161
0.108278 0.00614939 0.028275
0.17499 0.0270085 0.000274662
0.279072 0.0547341 0.000396735
0.408713 0.0827649 0.000488289
0.0245975 0.00993362 0.0238193
0.0243076 0.0102693 0.0236667
0.0251774 0.010132 0.0223697
0.0310216 0.0104829 0.023743
0.0580911 0.0108492 0.0306554
0.0962387 0.00982681 0.0281529
0.160006 0.0263371 0.00138857
0.256855 0.0549172 0.000381476
0.386603 0.0823835 0.000488289
0.0191653 0.0329442 0.0407721
0.0191348 0.0338598 0.042298
0.0222629 0.0320287 0.0406653
0.0314641 0.0319066 0.0421149
0.0482795 0.0327001 0.0446784
0.0878004 0.0270085 0.0404517
0.154376 0.0303655 0.00202945
0.249088 0.0574655 0.000381476
0.384894 0.0849622 0.000488289
0.0187381 0.0611429 0.0596628
0.016556 0.0626841 0.0624094
0.0200961 0.0608988 0.0626688
0.0264134 0.0609903 0.0678264
0.0476387 0.0652934 0.0732738
0.0830549 0.0673381 0.0660563
0.158221 0.0726787 0.0383612
0.275563 0.0905013 0.0149233
0.426673 0.110231 0.00134279
0.0011902 0.106859 0.0799725
0.000991836 0.109255 0.0840009
0.000991836 0.11078 0.0860609
0.00122072 0.115419 0.0942245
0.0140536 0.125978 0.10396
0.0592508 0.13521 0.104616
0.157641 0.143252 0.0933394
0.274708 0.165972 0.0916762
0.446113 0.192325 0.0519875
0 0.17847 0.124498
0 0.184161 0.129824
0 0.18909 0.134859
0 0.198276 0.143038
0 0.213733 0.155123
0.00515755 0.234714 0.156573
0.148989 0.244312 0.154559
0.291905 0.259815 0.140826
0.445258 0.305104 0.155749
0 0.29131 0.172763
0 0.300679 0.178286
0 0.30956 0.184833
0 0.325139 0.193378
1.5259e-05 0.347524 0.206943
0.0238499 0.375158 0.209537
0.176013 0.400412 0.225223
0.345113 0.410956 0.232624
0.47776 0.431144 0.217746
0 0.442756 0.225452
0 0.452979 0.230777
0.00190738 0.462196 0.235859
0.0136416 0.477577 0.241443
0.0302281 0.496574 0.25153
0.0891127 0.51577 0.262943
0.270344 0.546136 0.282902
0.435233 0.571069 0.322805
0.559075 0.574121 0.336187
0.0366979 0.0171054 0.0672007
0.0367742 0.0171664 0.0675364
0.0372168 0.0176699 0.0697642
0.0435798 0.0172274 0.0716411
0.0636454 0.0163577 0.0769818
0.0921035 0.0160525 0.0789502
0.171099 0.0142367 0.0590677
0.284993 0.026154 0.00657664
0.415259 0.0562448 0.00318914
0.0386358 0.0192721 0.0768902
0.0384527 0.0190738 0.0759899
0.038941 0.0191653 0.0766766
0.0457771 0.0188602 0.0794995
0.0652171 0.0183719 0.0871443
0.0932021 0.0174868 0.0892348
0.171038 0.0153048 0.0722057
0.287068 0.0233005 0.0107424
0.415473 0.0542153 0.00515755
0.0392767 0.0244907 0.0853437
0.0386358 0.024445 0.0837262
0.0385748 0.0235294 0.0796368
0.0439612 0.0223545 0.0772412
0.0603799 0.0217746 0.0832685
0.0838331 0.0209659 0.0864576
0.150332 0.0200046 0.0756085
0.263752 0.0246433 0.00914015
0.393301 0.0549477 0.00479133
0.0320745 0.0459907 0.100969
0.0307774 0.0468757 0.100984
0.0310216 0.0445869 0.0956283
0.0370947 0.0404974 0.0865034
0.0553445 0.0386816 0.0898299
0.0774548 0.0350042 0.0945449
0.13724 0.0296178 0.0840925
0.252811 0.0312963 0.0257725
0.389868 0.0609751 0.0118868
0.00590524 0.078172 0.119234
0.0059968 0.0794995 0.121477
0.00946059 0.0772717 0.119753
0.0174716 0.0748302 0.118029
0.0381628 0.0771038 0.124743
0.0775616 0.0750744 0.126207
0.140612 0.0706188 0.120226
0.272969 0.0714427 0.0736248
0.426352 0.093492 0.0488746
0 0.115282 0.125765
0 0.118303 0.130404
0 0.120119 0.134569
0 0.126146 0.145159
0.000869764 0.137331 0.166781
0.0257725 0.144427 0.178363
0.137942 0.138186 0.164431
0.270771 0.146777 0.131014
0.444541 0.173449 0.102907
0 0.181964 0.159899
0 0.188037 0.167727
0 0.193194 0.175723
0 0.202487 0.189059
0 0.217533 0.207767
0.00140383 0.23209 0.219974
0.0968948 0.239063 0.216526
0.261982 0.24918 0.201282
0.43801 0.283452 0.191928
0 0.290532 0.210422
0 0.299702 0.219532
0 0.308064 0.228214
0 0.323369 0.240986
0 0.345281 0.25948
0.000106813 0.367453 0.268147
0.0743725 0.388586 0.271916
0.257008 0.408072 0.282872
0.459709 0.427329 0.277516
0 0.438087 0.262699
0 0.446815 0.272984
0 0.455192 0.282979
0 0.468559 0.295995
0 0.485969 0.311696
0.00233463 0.504128 0.320638
0.134874 0.527657 0.326268
0.335134 0.55816 0.347509
0.529488 0.57702 0.376364
0.0638437 0.0459907 0.163836
0.0638895 0.0460365 0.163958
0.064332 0.0465248 0.165301
0.0663615 0.0455634 0.166384
0.075227 0.0413214 0.171588
0.0897078 0.0356298 0.174243
0.145296 0.0275425 0.164874
0.268757 0.0186007 0.140276
0.411902 0.020264 0.074464
0.0674754 0.0498817 0.174319
0.0672923 0.0496834 0.173785
0.0675822 0.0497444 0.174228
0.0700542 0.0486763 0.176074
0.0783551 0.0443732 0.18175
0.0921492 0.0378576 0.183948
0.14522 0.0287633 0.174716
0.265644 0.0219883 0.152392
0.411765 0.0163577 0.0821393
0.0703746 0.0557259 0.182467
0.0695964 0.0551614 0.180301
0.0686198 0.0538643 0.176822
0.0688487 0.051194 0.172732
0.0749218 0.047776 0.175036
0.0862135 0.0420691 0.177356
0.128389 0.0330968 0.170108
0.236194 0.0277104 0.15201
0.390387 0.0191348 0.0843214
0.0736706 0.0711833 0.192294
0.0729229 0.0714733 0.190875
0.0710307 0.0686503 0.184726
0.0694591 0.0628061 0.175402
0.0735332 0.0594034 0.174014
0.0842451 0.0540322 0.178058
0.119921 0.0425269 0.174701
0.223362 0.035172 0.160479
0.387823 0.0267796 0.100984
0.0677653 0.100084 0.20734
0.0669871 0.101335 0.20824
0.0659342 0.0991836 0.204181
0.0661479 0.096025 0.19794
0.0733349 0.0945296 0.193668
0.0924697 0.0938125 0.201419
0.128435 0.0846571 0.208453
0.23508 0.0747387 0.200626
0.419409 0.0581521 0.147539
0.0075227 0.142901 0.217197
0.00509651 0.146883 0.222049
0.00141909 0.149386 0.226703
0.00616464 0.154192 0.235096
0.0199741 0.161501 0.24712
0.0419013 0.166583 0.260288
0.122423 0.159426 0.257923
0.225422 0.145815 0.244587
0.427832 0.142687 0.203296
0 0.199924 0.233112
0 0.206958 0.242802
0 0.212848 0.251652
0 0.222919 0.266026
0 0.238483 0.288502
0 0.250294 0.313588
0.0357671 0.254932 0.323018
0.193439 0.244099 0.302022
0.418631 0.245182 0.262287
0 0.297307 0.279789
0 0.306676 0.291081
0 0.314611 0.301671
0 0.329747 0.317861
0 0.349752 0.338399
0 0.367529 0.354925
0.037171 0.380209 0.363058
0.151034 0.391333 0.360021
0.385489 0.405722 0.35288
0 0.437156 0.322896
0 0.446937 0.333623
0 0.455756 0.343465
0 0.469017 0.356695
0 0.486198 0.373129
0.00453193 0.500908 0.388922
0.0821546 0.51667 0.395483
0.194751 0.534813 0.398718
0.391379 0.565927 0.422644
0.110964 0.0901045 0.289082
0.111025 0.0901503 0.289219
0.111437 0.090547 0.290349
0.111666 0.0890211 0.290043
0.11458 0.0843671 0.293751
0.11841 0.0751812 0.294072
0.133761 0.0576181 0.287724
0.212146 0.0406195 0.275624
0.385504 0.026688 0.234546
0.115328 0.0941939 0.300938
0.115282 0.0941482 0.300801
0.115587 0.094316 0.301564
0.115816 0.0925307 0.301259
0.118517 0.0875868 0.304463
0.121767 0.0779278 0.303517
0.135637 0.0601968 0.296056
0.207965 0.0429999 0.285176
0.381109 0.0275578 0.244831
0.118318 0.0994736 0.308659
0.117586 0.0989853 0.306615
0.116442 0.0977951 0.303258
0.114824 0.094667 0.297841
0.115953 0.0904097 0.297658
0.118608 0.081651 0.296391
0.12932 0.0650492 0.289265
0.186481 0.0476081 0.279728
0.356435 0.0321965 0.247578
0.121202 0.108965 0.315511
0.1205 0.10901 0.313481
0.118593 0.106981 0.308019
0.115587 0.102083 0.298711
0.115389 0.0985733 0.295552
0.118242 0.090074 0.294896
0.127886 0.0746014 0.291371
0.179324 0.0579843 0.288014
0.34757 0.0424353 0.263508
0.126558 0.137194 0.330068
0.126177 0.138277 0.329854
0.124758 0.13666 0.325582
0.12372 0.133272 0.319249
0.125002 0.133333 0.317861
0.130297 0.128557 0.318608
0.143236 0.115908 0.322362
0.192889 0.0965896 0.325048
0.365362 0.0730297 0.30634
0.0991684 0.182193 0.342046
0.0979934 0.186526 0.345861
0.0973678 0.189059 0.34728
0.0970169 0.193103 0.350256
0.0977035 0.200168 0.355276
0.110048 0.198169 0.350744
0.145632 0.191424 0.353155
0.197818 0.172183 0.359609
0.343954 0.153506 0.352163
0.00457771 0.246006 0.358602
0.0040589 0.253101 0.365591
0.0027924 0.258854 0.371435
0 0.26807 0.381872
0.000320439 0.281437 0.397665
0.0218967 0.286198 0.407828
0.0779736 0.287755 0.417624
0.170535 0.277165 0.418173
0.311971 0.250813 0.402899
0 0.319921 0.370275
0 0.329168 0.379736
0 0.337697 0.390417
0 0.352331 0.40679
0 0.372152 0.428885
0.00326543 0.387701 0.452705
0.0696269 0.395773 0.476967
0.129656 0.39939 0.489677
0.2495 0.388128 0.476173
0 0.435004 0.408789
0 0.443458 0.420859
0 0.451011 0.432273
0 0.46276 0.449271
0.000244144 0.476951 0.471092
0.0121462 0.48809 0.490578
0.072694 0.49929 0.510506
0.13994 0.509667 0.526024
0.234852 0.522896 0.532204
0.160433 0.13843 0.429755
0.16051 0.138506 0.43006
0.1608 0.138811 0.431113
0.160586 0.13724 0.43006
0.162066 0.134127 0.433967
0.163256 0.125414 0.434073
0.16492 0.108095 0.422797
0.175799 0.0844129 0.406943
0.270253 0.0601816 0.394934
0.164263 0.142382 0.44387
0.16434 0.142473 0.44416
0.16463 0.142718 0.445197
0.164279 0.140917 0.443458
0.165362 0.137102 0.445914
0.165911 0.127642 0.44387
0.167117 0.110369 0.431586
0.177035 0.0873579 0.415961
0.261814 0.0629892 0.40528
0.166888 0.147387 0.452827
0.166293 0.146975 0.450446
0.165515 0.146181 0.447303
0.163973 0.143282 0.441016
0.163958 0.14023 0.440284
0.164157 0.131563 0.437324
0.164965 0.115114 0.426368
0.172839 0.092958 0.412192
0.242878 0.0686198 0.40705
0.168627 0.154238 0.457786
0.168032 0.153964 0.455421
0.16672 0.15259 0.450309
0.164263 0.148821 0.440604
0.163775 0.146777 0.438056
0.164294 0.1393 0.4365
0.166186 0.124392 0.429984
0.175082 0.103929 0.421851
0.234562 0.0804913 0.421698
0.174243 0.177432 0.473487
0.174197 0.178653 0.472862
0.173373 0.17818 0.469139
0.171954 0.175494 0.462943
0.172717 0.177188 0.463523
0.174578 0.172381 0.463767
0.178698 0.157504 0.461967
0.190707 0.134874 0.460166
0.249088 0.106065 0.464225
0.173602 0.223865 0.48893
0.173342 0.228183 0.492256
0.173526 0.231052 0.493584
0.171313 0.235309 0.495338
0.167178 0.243824 0.50042
0.172305 0.242557 0.498955
0.192172 0.22974 0.495384
0.211612 0.21117 0.500999
0.256718 0.186007 0.508507
0.113252 0.298497 0.516136
0.110246 0.305684 0.52372
0.108461 0.311192 0.529213
0.106783 0.31899 0.536873
0.103334 0.330602 0.547097
0.116579 0.333806 0.549569
0.146593 0.326253 0.53962
0.192523 0.315267 0.545342
0.266773 0.283299 0.555901
0.0122988 0.377295 0.532845
0.0155032 0.385946 0.542214
0.0176699 0.3935 0.550958
0.0238651 0.403418 0.562966
0.0347295 0.415595 0.578744
0.0621195 0.424445 0.592508
0.11313 0.427146 0.604196
0.163073 0.428016 0.621958
0.229572 0.41854 0.63328
0.00364691 0.448051 0.536461
0.00682078 0.455619 0.547875
0.0131533 0.46305 0.559472
0.0267948 0.473579 0.575326
0.0425116 0.486595 0.595728
0.0618448 0.497566 0.615869
0.10808 0.508751 0.641367
0.172946 0.518669 0.674723
0.229328 0.523812 0.693111
0.198077 0.17821 0.587366
0.198093 0.178225 0.587442
0.198215 0.178363 0.588037
0.198047 0.177066 0.587289
0.198459 0.17464 0.589059
0.198489 0.166171 0.588388
0.19852 0.150713 0.582025
0.200855 0.130617 0.567483
0.212314 0.105119 0.552285
0.199908 0.180148 0.595697
0.199969 0.180209 0.596002
0.200046 0.180301 0.596368
0.199847 0.178851 0.595407
0.199908 0.175814 0.595605
0.199512 0.166827 0.592996
0.199313 0.151339 0.585733
0.201831 0.131777 0.572885
0.212818 0.107118 0.559777
0.201083 0.1832 0.600107
0.200961 0.183261 0.599451
0.200809 0.183215 0.598642
0.20029 0.181552 0.596078
0.200137 0.179675 0.5953
0.199741 0.171679 0.593027
0.199023 0.156649 0.585092
0.201617 0.136934 0.575143
0.211978 0.112184 0.56405
0.202808 0.190219 0.605371
0.202548 0.190127 0.604105
0.202213 0.189853 0.602472
0.201144 0.187625 0.597345
0.200961 0.186389 0.596323
0.200793 0.180377 0.595102
0.200687 0.165927 0.590082
0.203815 0.146578 0.58323
0.214542 0.122087 0.574228
0.2056 0.203754 0.612604
0.205783 0.205325 0.612757
0.205875 0.206546 0.612512
0.205478 0.20499 0.610574
0.20618 0.207584 0.611902
0.20679 0.203586 0.611566
0.207645 0.188388 0.607233
0.212512 0.164904 0.601526
0.225544 0.134936 0.596384
0.212985 0.250813 0.626627
0.213687 0.254841 0.628229
0.214298 0.25835 0.629465
0.214633 0.262028 0.630838
0.213703 0.269673 0.63328
0.215274 0.269093 0.633478
0.221653 0.256825 0.631266
0.22977 0.235065 0.627329
0.246983 0.205875 0.620264
0.181476 0.328695 0.65156
0.176089 0.335653 0.654002
0.171603 0.341634 0.656107
0.166903 0.348714 0.658808
0.158129 0.360525 0.662531
0.161425 0.36376 0.66392
0.184527 0.355047 0.662043
0.225376 0.333059 0.657252
0.26952 0.299077 0.649927
0.112642 0.414511 0.677211
0.11426 0.419699 0.680812
0.115526 0.424247 0.683833
0.116442 0.430137 0.686519
0.11252 0.438117 0.687373
0.1131 0.443946 0.688579
0.14049 0.445441 0.691722
0.180392 0.441581 0.695735
0.231632 0.428168 0.69308
0.0719768 0.476585 0.683314
0.0720836 0.482063 0.686061
0.0722515 0.487053 0.687785
0.0758984 0.494011 0.690791
0.079408 0.50338 0.693492
0.0882429 0.511284 0.696498
0.123003 0.519829 0.70338
0.179965 0.525765 0.71339
0.232258 0.528649 0.7234
