src/colors/dark_&_moody/cold_shadows.cube
TITLE "ColorFinale Export"
# Created by Sverre Ryland Glomnes on 2018-02-05 13:57:31 +0000
# Color Finale Plugin v.1.8.1 (222)
DOMAIN_MIN 0.0 0.0 0.0
DOMAIN_MAX 1.0 1.0 1.0
LUT_3D_SIZE 33
0.0508 0.1150 0.1108
0.0508 0.1150 0.1108
0.0485 0.1158 0.1117
0.0457 0.1168 0.1129
0.0349 0.1206 0.1170
0.0354 0.1237 0.1141
0.0429 0.1222 0.1130
0.0553 0.1163 0.1176
0.0682 0.1158 0.1155
0.0908 0.1163 0.1120
0.1201 0.1174 0.1131
0.1598 0.1251 0.1052
0.2166 0.1402 0.1079
0.2779 0.1557 0.1026
0.3382 0.1718 0.1018
0.4090 0.1840 0.0948
0.4792 0.2012 0.0909
0.5490 0.2159 0.0836
0.6170 0.2316 0.0763
0.6885 0.2507 0.0712
0.7635 0.2713 0.0610
0.8325 0.2936 0.0517
0.9072 0.3250 0.0448
0.9748 0.3588 0.0331
0.9663 0.3962 0.0715
0.9841 0.4044 0.0564
1.0000 0.4171 0.0494
1.0000 0.4231 0.0456
1.0000 0.4265 0.0406
1.0000 0.4290 0.0364
1.0000 0.4309 0.0332
1.0000 0.4323 0.0307
1.0000 0.4333 0.0290
0.0508 0.1150 0.1108
0.0508 0.1150 0.1108
0.0485 0.1158 0.1117
0.0457 0.1168 0.1129
0.0349 0.1206 0.1170
0.0354 0.1237 0.1141
0.0429 0.1222 0.1130
0.0553 0.1163 0.1176
0.0682 0.1158 0.1155
0.0908 0.1163 0.1120
0.1201 0.1174 0.1131
0.1598 0.1251 0.1052
0.2166 0.1402 0.1079
0.2779 0.1557 0.1026
0.3382 0.1718 0.1018
0.4090 0.1840 0.0948
0.4792 0.2012 0.0909
0.5490 0.2159 0.0836
0.6170 0.2316 0.0763
0.6885 0.2507 0.0712
0.7635 0.2713 0.0610
0.8325 0.2936 0.0517
0.9072 0.3250 0.0448
0.9748 0.3588 0.0331
0.9663 0.3962 0.0715
0.9841 0.4044 0.0564
1.0000 0.4171 0.0494
1.0000 0.4231 0.0456
1.0000 0.4265 0.0406
1.0000 0.4290 0.0364
1.0000 0.4309 0.0332
1.0000 0.4323 0.0307
1.0000 0.4333 0.0290
0.0520 0.1153 0.1105
0.0520 0.1153 0.1105
0.0495 0.1162 0.1116
0.0465 0.1173 0.1128
0.0350 0.1216 0.1173
0.0354 0.1249 0.1146
0.0431 0.1232 0.1132
0.0554 0.1168 0.1176
0.0687 0.1170 0.1157
0.0913 0.1173 0.1123
0.1202 0.1180 0.1131
0.1606 0.1260 0.1063
0.2171 0.1406 0.1083
0.2778 0.1559 0.1025
0.3379 0.1721 0.1020
0.4088 0.1844 0.0949
0.4789 0.2014 0.0908
0.5488 0.2163 0.0838
0.6165 0.2318 0.0763
0.6879 0.2508 0.0710
0.7627 0.2714 0.0614
0.8320 0.2939 0.0518
0.9073 0.3255 0.0446
0.9744 0.3591 0.0329
0.9659 0.3964 0.0713
0.9843 0.4048 0.0562
1.0000 0.4175 0.0492
1.0000 0.4232 0.0455
1.0000 0.4267 0.0403
1.0000 0.4292 0.0362
1.0000 0.4311 0.0329
1.0000 0.4326 0.0304
1.0000 0.4335 0.0288
0.0532 0.1158 0.1103
0.0532 0.1158 0.1103
0.0508 0.1167 0.1114
0.0476 0.1179 0.1127
0.0354 0.1229 0.1176
0.0354 0.1264 0.1152
0.0432 0.1246 0.1134
0.0558 0.1179 0.1174
0.0692 0.1183 0.1160
0.0918 0.1184 0.1127
0.1203 0.1186 0.1131
0.1615 0.1269 0.1073
0.2179 0.1411 0.1090
0.2778 0.1562 0.1025
0.3377 0.1724 0.1023
0.4084 0.1848 0.0951
0.4785 0.2015 0.0906
0.5485 0.2166 0.0839
0.6159 0.2320 0.0762
0.6874 0.2509 0.0707
0.7618 0.2715 0.0619
0.8313 0.2942 0.0519
0.9074 0.3261 0.0443
0.9737 0.3593 0.0325
0.9655 0.3966 0.0710
0.9846 0.4053 0.0560
1.0000 0.4179 0.0490
1.0000 0.4233 0.0453
1.0000 0.4270 0.0400
1.0000 0.4294 0.0359
1.0000 0.4313 0.0326
1.0000 0.4328 0.0301
1.0000 0.4337 0.0281
0.0557 0.1189 0.1090
0.0557 0.1189 0.1090
0.0542 0.1194 0.1098
0.0506 0.1207 0.1114
0.0377 0.1254 0.1169
0.0356 0.1293 0.1164
0.0435 0.1289 0.1143
0.0571 0.1223 0.1166
0.0705 0.1226 0.1165
0.0929 0.1220 0.1139
0.1199 0.1213 0.1126
0.1633 0.1288 0.1095
0.2186 0.1429 0.1100
0.2791 0.1576 0.1029
0.3371 0.1734 0.1028
0.4078 0.1864 0.0956
0.4772 0.2024 0.0902
0.5470 0.2178 0.0836
0.6138 0.2327 0.0759
0.6853 0.2513 0.0696
0.7586 0.2720 0.0639
0.8292 0.2956 0.0525
0.9079 0.3282 0.0431
0.9711 0.3599 0.0313
0.9642 0.3974 0.0699
0.9855 0.4070 0.0551
1.0000 0.4189 0.0491
1.0000 0.4237 0.0453
1.0000 0.4277 0.0397
1.0000 0.4301 0.0355
1.0000 0.4321 0.0322
1.0000 0.4334 0.0287
1.0000 0.4339 0.0234
0.0582 0.1221 0.1076
0.0582 0.1221 0.1076
0.0571 0.1225 0.1083
0.0532 0.1237 0.1101
0.0392 0.1282 0.1162
0.0358 0.1321 0.1174
0.0442 0.1327 0.1152
0.0589 0.1269 0.1161
0.0722 0.1274 0.1166
0.0936 0.1253 0.1149
0.1203 0.1227 0.1125
0.1655 0.1309 0.1121
0.2180 0.1446 0.1106
0.2805 0.1592 0.1038
0.3368 0.1746 0.1030
0.4080 0.1885 0.0963
0.4762 0.2038 0.0907
0.5450 0.2195 0.0841
0.6111 0.2337 0.0762
0.6835 0.2523 0.0688
0.7580 0.2730 0.0642
0.8286 0.2974 0.0526
0.9073 0.3299 0.0429
0.9688 0.3605 0.0306
0.9625 0.3982 0.0684
0.9865 0.4091 0.0545
1.0000 0.4195 0.0494
1.0000 0.4243 0.0449
1.0000 0.4284 0.0396
1.0000 0.4308 0.0354
1.0000 0.4327 0.0321
1.0000 0.4335 0.0245
1.0000 0.4340 0.0191
0.0591 0.1257 0.1054
0.0591 0.1257 0.1054
0.0578 0.1263 0.1063
0.0541 0.1279 0.1081
0.0408 0.1333 0.1145
0.0371 0.1374 0.1170
0.0450 0.1385 0.1165
0.0609 0.1316 0.1150
0.0754 0.1307 0.1170
0.0948 0.1284 0.1157
0.1226 0.1258 0.1162
0.1688 0.1341 0.1160
0.2167 0.1470 0.1119
0.2787 0.1616 0.1063
0.3390 0.1771 0.1035
0.4077 0.1906 0.0960
0.4744 0.2056 0.0912
0.5411 0.2214 0.0840
0.6080 0.2361 0.0788
0.6802 0.2539 0.0683
0.7559 0.2742 0.0650
0.8285 0.3008 0.0529
0.9055 0.3318 0.0429
0.9667 0.3616 0.0298
0.9600 0.3994 0.0659
0.9871 0.4122 0.0551
1.0000 0.4202 0.0488
1.0000 0.4251 0.0429
1.0000 0.4292 0.0379
1.0000 0.4317 0.0337
1.0000 0.4328 0.0250
1.0000 0.4336 0.0169
1.0000 0.4341 0.0115
0.0491 0.1357 0.1109
0.0491 0.1357 0.1109
0.0473 0.1368 0.1122
0.0453 0.1381 0.1137
0.0388 0.1426 0.1186
0.0413 0.1451 0.1204
0.0495 0.1435 0.1216
0.0597 0.1400 0.1208
0.0737 0.1389 0.1238
0.0983 0.1328 0.1188
0.1266 0.1297 0.1206
0.1732 0.1393 0.1204
0.2190 0.1505 0.1133
0.2763 0.1640 0.1087
0.3402 0.1802 0.1043
0.4072 0.1931 0.0964
0.4711 0.2076 0.0922
0.5366 0.2239 0.0840
0.6057 0.2401 0.0828
0.6759 0.2565 0.0700
0.7514 0.2765 0.0643
0.8244 0.3035 0.0532
0.9005 0.3340 0.0428
0.9634 0.3633 0.0293
0.9564 0.4007 0.0633
0.9872 0.4151 0.0543
1.0000 0.4214 0.0490
1.0000 0.4276 0.0420
1.0000 0.4312 0.0351
1.0000 0.4324 0.0218
1.0000 0.4333 0.0116
1.0000 0.4340 0.0036
1.0000 0.4345 0.0000
0.0538 0.1483 0.1218
0.0538 0.1483 0.1218
0.0524 0.1497 0.1229
0.0505 0.1515 0.1244
0.0487 0.1540 0.1268
0.0521 0.1531 0.1271
0.0564 0.1540 0.1303
0.0635 0.1546 0.1276
0.0785 0.1522 0.1325
0.1044 0.1402 0.1271
0.1348 0.1353 0.1259
0.1765 0.1454 0.1233
0.2255 0.1567 0.1161
0.2839 0.1709 0.1095
0.3476 0.1863 0.1047
0.4120 0.1998 0.0989
0.4778 0.2135 0.0937
0.5460 0.2304 0.0844
0.6097 0.2464 0.0832
0.6795 0.2642 0.0745
0.7568 0.2850 0.0578
0.8257 0.3105 0.0548
0.8959 0.3372 0.0418
0.9655 0.3677 0.0288
0.9582 0.4069 0.0617
0.9839 0.4177 0.0529
0.9980 0.4236 0.0474
1.0000 0.4296 0.0399
1.0000 0.4319 0.0168
1.0000 0.4331 0.0036
1.0000 0.4340 0.0000
1.0000 0.4362 0.0000
1.0000 0.4382 0.0000
0.0564 0.1704 0.1348
0.0564 0.1704 0.1348
0.0560 0.1710 0.1350
0.0568 0.1711 0.1344
0.0595 0.1716 0.1324
0.0619 0.1723 0.1341
0.0660 0.1728 0.1373
0.0760 0.1695 0.1321
0.0879 0.1673 0.1370
0.1099 0.1548 0.1318
0.1384 0.1436 0.1293
0.1786 0.1516 0.1235
0.2320 0.1649 0.1188
0.2877 0.1784 0.1107
0.3505 0.1925 0.1048
0.4124 0.2063 0.1025
0.4773 0.2206 0.0953
0.5428 0.2360 0.0876
0.6070 0.2516 0.0821
0.6813 0.2719 0.0736
0.7499 0.2903 0.0600
0.8198 0.3153 0.0535
0.8907 0.3427 0.0446
0.9591 0.3699 0.0289
0.9600 0.4145 0.0600
0.9765 0.4203 0.0528
0.9953 0.4279 0.0442
1.0000 0.4308 0.0133
1.0000 0.4368 0.0030
1.0000 0.4416 0.0055
1.0000 0.4453 0.0076
1.0000 0.4482 0.0091
1.0000 0.4501 0.0101
0.0656 0.1917 0.1441
0.0656 0.1917 0.1441
0.0667 0.1914 0.1439
0.0680 0.1911 0.1436
0.0728 0.1903 0.1432
0.0786 0.1900 0.1429
0.0829 0.1890 0.1399
0.0891 0.1872 0.1384
0.1019 0.1863 0.1448
0.1226 0.1741 0.1413
0.1492 0.1599 0.1372
0.1889 0.1604 0.1282
0.2405 0.1734 0.1204
0.2955 0.1866 0.1133
0.3570 0.2005 0.1042
0.4194 0.2161 0.1035
0.4785 0.2295 0.0967
0.5480 0.2444 0.0896
0.6187 0.2619 0.0851
0.6784 0.2810 0.0742
0.7484 0.2991 0.0623
0.8167 0.3226 0.0541
0.8882 0.3508 0.0457
0.9530 0.3771 0.0251
0.9517 0.4172 0.0584
0.9736 0.4250 0.0489
1.0000 0.4290 0.0181
1.0000 0.4372 0.0077
1.0000 0.4472 0.0172
1.0000 0.4514 0.0172
1.0000 0.4538 0.0152
1.0000 0.4557 0.0136
1.0000 0.4569 0.0126
0.0847 0.2217 0.1567
0.0847 0.2217 0.1567
0.0854 0.2216 0.1567
0.0863 0.2216 0.1567
0.0894 0.2218 0.1571
0.0938 0.2226 0.1588
0.1001 0.2204 0.1588
0.1097 0.2176 0.1582
0.1199 0.2165 0.1573
0.1426 0.1985 0.1529
0.1709 0.1816 0.1459
0.2039 0.1776 0.1373
0.2526 0.1870 0.1277
0.3136 0.2002 0.1181
0.3647 0.2125 0.1104
0.4284 0.2264 0.1041
0.4897 0.2409 0.0950
0.5572 0.2579 0.0909
0.6128 0.2733 0.0849
0.6800 0.2893 0.0738
0.7482 0.3080 0.0636
0.8150 0.3317 0.0546
0.8877 0.3600 0.0415
0.9545 0.3864 0.0241
0.9678 0.4200 0.0434
1.0000 0.4271 0.0200
1.0000 0.4377 0.0139
1.0000 0.4489 0.0217
1.0000 0.4555 0.0210
1.0000 0.4589 0.0192
1.0000 0.4606 0.0158
1.0000 0.4618 0.0132
1.0000 0.4627 0.0114
0.1135 0.2504 0.1709
0.1135 0.2504 0.1709
0.1144 0.2506 0.1712
0.1155 0.2508 0.1715
0.1194 0.2514 0.1727
0.1236 0.2495 0.1718
0.1292 0.2489 0.1722
0.1402 0.2482 0.1761
0.1519 0.2455 0.1724
0.1658 0.2311 0.1668
0.1992 0.2125 0.1597
0.2356 0.2024 0.1458
0.2684 0.2014 0.1321
0.3285 0.2142 0.1245
0.3827 0.2264 0.1152
0.4404 0.2423 0.1075
0.5024 0.2539 0.0986
0.5624 0.2678 0.0882
0.6179 0.2841 0.0839
0.6862 0.3012 0.0758
0.7507 0.3202 0.0622
0.8157 0.3424 0.0504
0.8837 0.3687 0.0412
0.9521 0.3969 0.0268
1.0000 0.4237 0.0155
0.9834 0.4408 0.0274
0.9965 0.4514 0.0263
1.0000 0.4581 0.0225
1.0000 0.4618 0.0172
1.0000 0.4657 0.0145
1.0000 0.4689 0.0130
1.0000 0.4712 0.0116
1.0000 0.4727 0.0107
0.1407 0.2858 0.1834
0.1407 0.2858 0.1834
0.1417 0.2855 0.1835
0.1430 0.2850 0.1838
0.1480 0.2838 0.1846
0.1530 0.2837 0.1864
0.1595 0.2821 0.1884
0.1695 0.2804 0.1881
0.1812 0.2740 0.1838
0.2032 0.2618 0.1794
0.2315 0.2444 0.1689
0.2752 0.2322 0.1575
0.2954 0.2289 0.1418
0.3458 0.2314 0.1321
0.4016 0.2426 0.1188
0.4601 0.2588 0.1121
0.5132 0.2682 0.1003
0.5678 0.2825 0.0887
0.6227 0.2966 0.0782
0.6859 0.3135 0.0731
0.7524 0.3312 0.0596
0.8152 0.3540 0.0486
0.8841 0.3767 0.0346
0.9461 0.4060 0.0241
0.9783 0.4405 0.0267
0.9755 0.4529 0.0341
0.9932 0.4592 0.0240
1.0000 0.4655 0.0181
1.0000 0.4735 0.0180
1.0000 0.4785 0.0158
1.0000 0.4802 0.0105
1.0000 0.4814 0.0065
1.0000 0.4821 0.0038
0.1734 0.3184 0.2009
0.1734 0.3184 0.2009
0.1749 0.3185 0.2013
0.1770 0.3186 0.2019
0.1842 0.3186 0.2040
0.1885 0.3181 0.2024
0.1958 0.3171 0.2021
0.2073 0.3179 0.2049
0.2212 0.3105 0.1999
0.2412 0.2944 0.1897
0.2674 0.2774 0.1783
0.3147 0.2608 0.1665
0.3378 0.2573 0.1531
0.3619 0.2506 0.1323
0.4222 0.2588 0.1189
0.4803 0.2726 0.1125
0.5361 0.2861 0.1061
0.5901 0.2986 0.0921
0.6385 0.3098 0.0812
0.6972 0.3275 0.0721
0.7588 0.3453 0.0598
0.8180 0.3671 0.0473
0.8888 0.3914 0.0334
0.9510 0.4180 0.0190
0.9832 0.4497 0.0209
0.9695 0.4599 0.0292
0.9953 0.4712 0.0248
1.0000 0.4774 0.0159
1.0000 0.4811 0.0062
1.0000 0.4848 0.0000
1.0000 0.4887 0.0000
1.0000 0.4909 0.0000
1.0000 0.4924 0.0000
0.2113 0.3555 0.2144
0.2113 0.3555 0.2144
0.2130 0.3550 0.2145
0.2151 0.3544 0.2145
0.2236 0.3535 0.2148
0.2288 0.3553 0.2156
0.2366 0.3575 0.2167
0.2479 0.3559 0.2159
0.2611 0.3469 0.2103
0.2861 0.3308 0.2026
0.3147 0.3109 0.1917
0.3651 0.2931 0.1763
0.3837 0.2887 0.1623
0.3985 0.2815 0.1401
0.4395 0.2759 0.1261
0.4975 0.2878 0.1149
0.5525 0.3012 0.1033
0.6036 0.3134 0.0899
0.6566 0.3281 0.0817
0.7112 0.3433 0.0690
0.7643 0.3615 0.0598
0.8262 0.3802 0.0444
0.8946 0.4063 0.0263
0.9545 0.4304 0.0178
0.9813 0.4593 0.0238
0.9739 0.4732 0.0292
0.9926 0.4787 0.0132
1.0000 0.4872 0.0003
1.0000 0.4928 0.0000
1.0000 0.4970 0.0000
1.0000 0.4992 0.0000
1.0000 0.5007 0.0000
1.0000 0.5014 0.0000
0.2507 0.3966 0.2252
0.2507 0.3966 0.2252
0.2518 0.3964 0.2259
0.2532 0.3962 0.2268
0.2580 0.3958 0.2298
0.2637 0.3962 0.2310
0.2714 0.3962 0.2301
0.2826 0.3902 0.2252
0.2987 0.3813 0.2190
0.3221 0.3713 0.2154
0.3540 0.3471 0.2024
0.3979 0.3271 0.1870
0.4351 0.3223 0.1682
0.4485 0.3171 0.1530
0.4539 0.3035 0.1300
0.5162 0.3028 0.1183
0.5648 0.3143 0.1046
0.6221 0.3302 0.0938
0.6753 0.3449 0.0810
0.7280 0.3595 0.0693
0.7781 0.3768 0.0582
0.8340 0.3925 0.0393
0.8946 0.4170 0.0233
0.9541 0.4419 0.0125
0.9797 0.4696 0.0163
0.9721 0.4798 0.0129
0.9947 0.4918 0.0000
1.0000 0.4972 0.0000
1.0000 0.5004 0.0000
1.0000 0.5031 0.0000
1.0000 0.5056 0.0000
1.0000 0.5072 0.0000
1.0000 0.5083 0.0000
0.2965 0.4347 0.2367
0.2965 0.4347 0.2367
0.2980 0.4353 0.2367
0.3000 0.4362 0.2368
0.3064 0.4388 0.2373
0.3136 0.4402 0.2370
0.3205 0.4367 0.2350
0.3315 0.4318 0.2312
0.3461 0.4201 0.2240
0.3688 0.4054 0.2193
0.3930 0.3835 0.2104
0.4384 0.3642 0.1949
0.4830 0.3551 0.1791
0.4937 0.3503 0.1618
0.5015 0.3390 0.1408
0.5241 0.3317 0.1235
0.5911 0.3363 0.1109
0.6462 0.3498 0.1006
0.6888 0.3610 0.0866
0.7441 0.3782 0.0731
0.7966 0.3932 0.0555
0.8507 0.4111 0.0420
0.9065 0.4313 0.0230
0.9617 0.4551 0.0037
0.9676 0.4819 0.0098
0.9765 0.4933 0.0047
0.9998 0.4984 0.0000
1.0000 0.5049 0.0000
1.0000 0.5095 0.0000
1.0000 0.5129 0.0000
1.0000 0.5151 0.0000
1.0000 0.5167 0.0000
1.0000 0.5180 0.0000
0.3418 0.4805 0.2513
0.3418 0.4805 0.2513
0.3429 0.4804 0.2513
0.3444 0.4805 0.2515
0.3495 0.4806 0.2520
0.3539 0.4778 0.2489
0.3616 0.4746 0.2453
0.3728 0.4677 0.2410
0.3884 0.4591 0.2334
0.4133 0.4437 0.2252
0.4409 0.4220 0.2137
0.4837 0.4026 0.1996
0.5323 0.3882 0.1864
0.5337 0.3787 0.1650
0.5442 0.3711 0.1449
0.5432 0.3592 0.1274
0.5956 0.3534 0.1137
0.6593 0.3645 0.1003
0.7074 0.3758 0.0880
0.7587 0.3923 0.0692
0.8121 0.4089 0.0579
0.8642 0.4260 0.0410
0.9172 0.4437 0.0180
0.9657 0.4660 0.0000
0.9617 0.4922 0.0088
0.9932 0.4988 0.0000
1.0000 0.5067 0.0000
1.0000 0.5132 0.0000
1.0000 0.5169 0.0000
1.0000 0.5198 0.0000
1.0000 0.5227 0.0000
1.0000 0.5245 0.0000
1.0000 0.5258 0.0000
0.3898 0.5309 0.2681
0.3898 0.5309 0.2681
0.3911 0.5310 0.2675
0.3926 0.5312 0.2668
0.3959 0.5281 0.2635
0.3986 0.5240 0.2613
0.4050 0.5183 0.2591
0.4167 0.5098 0.2517
0.4308 0.5003 0.2439
0.4580 0.4819 0.2340
0.4894 0.4667 0.2231
0.5265 0.4492 0.2104
0.5866 0.4316 0.1953
0.6084 0.4226 0.1720
0.6110 0.4124 0.1493
0.5905 0.3952 0.1338
0.6010 0.3837 0.1164
0.6630 0.3837 0.1018
0.7231 0.3939 0.0869
0.7724 0.4079 0.0750
0.8272 0.4258 0.0548
0.8746 0.4412 0.0384
0.9256 0.4590 0.0205
0.9707 0.4786 0.0006
1.0000 0.5037 0.0000
1.0000 0.5096 0.0000
1.0000 0.5153 0.0000
1.0000 0.5218 0.0000
1.0000 0.5256 0.0000
1.0000 0.5290 0.0000
1.0000 0.5312 0.0000
1.0000 0.5326 0.0000
1.0000 0.5337 0.0000
0.4418 0.5818 0.2820
0.4418 0.5818 0.2820
0.4428 0.5809 0.2813
0.4443 0.5799 0.2805
0.4501 0.5762 0.2779
0.4566 0.5720 0.2736
0.4647 0.5669 0.2714
0.4727 0.5617 0.2664
0.4901 0.5497 0.2546
0.5120 0.5362 0.2465
0.5329 0.5111 0.2322
0.5700 0.4934 0.2235
0.6194 0.4754 0.2068
0.6637 0.4640 0.1876
0.6647 0.4508 0.1575
0.6619 0.4399 0.1347
0.6598 0.4280 0.1172
0.6685 0.4154 0.1020
0.7244 0.4183 0.0952
0.7900 0.4313 0.0820
0.8439 0.4472 0.0617
0.8866 0.4591 0.0484
0.9380 0.4784 0.0183
0.9841 0.4963 0.0021
0.9558 0.5160 0.0129
0.9762 0.5208 0.0000
0.9959 0.5266 0.0000
1.0000 0.5310 0.0000
1.0000 0.5346 0.0000
1.0000 0.5380 0.0000
1.0000 0.5411 0.0000
1.0000 0.5434 0.0000
1.0000 0.5452 0.0000
0.4884 0.6351 0.3063
0.4884 0.6351 0.3063
0.4895 0.6338 0.3058
0.4912 0.6325 0.3052
0.4971 0.6289 0.3027
0.5023 0.6261 0.3006
0.5125 0.6217 0.2941
0.5242 0.6123 0.2833
0.5399 0.6026 0.2744
0.5656 0.5880 0.2617
0.5897 0.5654 0.2511
0.6239 0.5474 0.2365
0.6596 0.5305 0.2213
0.7057 0.5041 0.2015
0.7135 0.4947 0.1713
0.7158 0.4807 0.1464
0.7105 0.4686 0.1227
0.7103 0.4546 0.1055
0.7234 0.4491 0.0905
0.7893 0.4518 0.0737
0.8525 0.4625 0.0604
0.8950 0.4787 0.0409
0.9485 0.4967 0.0198
0.9917 0.5156 0.0001
0.9604 0.5280 0.0111
0.9813 0.5320 0.0000
0.9991 0.5391 0.0000
1.0000 0.5446 0.0000
1.0000 0.5485 0.0000
1.0000 0.5506 0.0000
1.0000 0.5530 0.0000
1.0000 0.5550 0.0000
1.0000 0.5561 0.0000
0.5426 0.6989 0.3531
0.5426 0.6989 0.3531
0.5439 0.6982 0.3526
0.5455 0.6974 0.3520
0.5488 0.6934 0.3490
0.5542 0.6890 0.3459
0.5625 0.6821 0.3401
0.5696 0.6737 0.3300
0.5821 0.6611 0.3123
0.6015 0.6431 0.2968
0.6286 0.6258 0.2812
0.6633 0.6053 0.2656
0.7010 0.5848 0.2462
0.7484 0.5667 0.2315
0.7808 0.5530 0.2055
0.7837 0.5393 0.1728
0.7786 0.5230 0.1406
0.7712 0.5094 0.1164
0.7739 0.4969 0.0993
0.7875 0.4869 0.0727
0.8482 0.4930 0.0637
0.9051 0.5016 0.0465
0.9585 0.5185 0.0248
0.9948 0.5368 0.0106
0.9634 0.5464 0.0164
0.9824 0.5503 0.0027
1.0000 0.5546 0.0000
1.0000 0.5584 0.0000
1.0000 0.5613 0.0000
1.0000 0.5630 0.0000
1.0000 0.5646 0.0000
1.0000 0.5658 0.0000
1.0000 0.5670 0.0000
0.5804 0.7519 0.3993
0.5804 0.7519 0.3993
0.5816 0.7512 0.3988
0.5829 0.7505 0.3982
0.5872 0.7480 0.3953
0.5932 0.7437 0.3906
0.6001 0.7350 0.3800
0.6094 0.7289 0.3725
0.6219 0.7189 0.3631
0.6433 0.7041 0.3497
0.6661 0.6883 0.3322
0.6929 0.6683 0.3164
0.7298 0.6375 0.2728
0.7645 0.6177 0.2627
0.8099 0.6015 0.2477
0.8193 0.5867 0.2062
0.8267 0.5746 0.1693
0.8303 0.5627 0.1415
0.8305 0.5479 0.1106
0.8356 0.5373 0.0785
0.8437 0.5237 0.0591
0.9005 0.5331 0.0470
0.9598 0.5395 0.0375
0.9953 0.5541 0.0166
0.9634 0.5621 0.0320
0.9807 0.5653 0.0170
0.9996 0.5696 0.0056
1.0000 0.5746 0.0000
1.0000 0.5785 0.0000
1.0000 0.5810 0.0000
1.0000 0.5834 0.0000
1.0000 0.5842 0.0000
1.0000 0.5850 0.0000
0.5918 0.8192 0.5399
0.5918 0.8192 0.5399
0.5932 0.8183 0.5395
0.5950 0.8172 0.5390
0.6032 0.8105 0.5183
0.6129 0.8032 0.4879
0.6267 0.7938 0.4511
0.6399 0.7845 0.4286
0.6492 0.7766 0.4189
0.6675 0.7597 0.4003
0.6867 0.7444 0.3788
0.7167 0.7267 0.3650
0.7500 0.7033 0.3459
0.7853 0.6838 0.3312
0.8186 0.6649 0.3157
0.8531 0.6432 0.2754
0.8648 0.6269 0.2231
0.8719 0.6120 0.1822
0.8793 0.6010 0.1431
0.8858 0.5903 0.1118
0.8911 0.5769 0.0754
0.8983 0.5699 0.0426
0.9526 0.5735 0.0273
0.9997 0.5786 0.0130
0.9972 0.5816 0.0302
1.0000 0.5854 0.0087
1.0000 0.5890 0.0000
1.0000 0.5920 0.0000
1.0000 0.5957 0.0000
1.0000 0.5986 0.0000
1.0000 0.6001 0.0000
1.0000 0.6014 0.0000
1.0000 0.6025 0.0000
0.6132 0.8653 0.5824
0.6132 0.8653 0.5824
0.6146 0.8652 0.5823
0.6163 0.8647 0.5820
0.6227 0.8609 0.5783
0.6285 0.8585 0.5755
0.6356 0.8549 0.5721
0.6443 0.8488 0.5679
0.6544 0.8400 0.5593
0.6734 0.8272 0.5445
0.6958 0.8113 0.5350
0.7345 0.7819 0.4273
0.7590 0.7604 0.4060
0.7905 0.7371 0.3813
0.8209 0.7180 0.3687
0.8585 0.7017 0.3581
0.8775 0.6864 0.3216
0.8933 0.6703 0.2714
0.9064 0.6558 0.2179
0.9206 0.6398 0.1583
0.9325 0.6310 0.1222
0.9439 0.6178 0.0793
0.9558 0.6124 0.0327
0.9889 0.6149 0.0000
0.9984 0.6253 0.0903
1.0000 0.6137 0.0590
1.0000 0.6122 0.0464
1.0000 0.6150 0.0399
1.0000 0.6174 0.0341
1.0000 0.6193 0.0296
1.0000 0.6208 0.0259
1.0000 0.6220 0.0233
1.0000 0.6229 0.0217
0.6272 0.9053 0.6180
0.6272 0.9053 0.6180
0.6284 0.9052 0.6175
0.6297 0.9050 0.6168
0.6340 0.9047 0.6151
0.6389 0.9036 0.6124
0.6473 0.8983 0.6084
0.6540 0.8933 0.6050
0.6644 0.8856 0.5982
0.6830 0.8718 0.5879
0.7028 0.8580 0.5757
0.7284 0.8402 0.5666
0.7513 0.8240 0.5508
0.7843 0.8035 0.5379
0.8216 0.7683 0.4363
0.8476 0.7479 0.4051
0.8783 0.7381 0.3931
0.9007 0.7221 0.3572
0.9169 0.7086 0.3112
0.9330 0.6919 0.2457
0.9468 0.6767 0.1958
0.9591 0.6637 0.1422
0.9832 0.6545 0.0817
0.9998 0.6506 0.0270
1.0000 0.6693 0.1492
1.0000 0.6574 0.1218
1.0000 0.6437 0.0899
1.0000 0.6361 0.0670
1.0000 0.6383 0.0612
1.0000 0.6406 0.0558
1.0000 0.6424 0.0520
1.0000 0.6433 0.0484
1.0000 0.6437 0.0459
0.6283 0.9239 0.6260
0.6283 0.9239 0.6260
0.6294 0.9240 0.6254
0.6308 0.9242 0.6247
0.6345 0.9244 0.6229
0.6372 0.9247 0.6223
0.6461 0.9231 0.6227
0.6591 0.9171 0.6210
0.6715 0.9125 0.6188
