src/colors/dark_&_moody/cold_shadows.cube
TITLE "ColorFinale Export"
# Created by Sverre Ryland Glomnes on 2018-02-05 13:57:31 +0000
# Color Finale Plugin v.1.8.1 (222)
DOMAIN_MIN 0.0 0.0 0.0
DOMAIN_MAX 1.0 1.0 1.0
LUT_3D_SIZE 9
0.0508 0.1150 0.1108
0.0349 0.1206 0.1170
0.0682 0.1158 0.1155
0.2166 0.1402 0.1079
0.4792 0.2012 0.0909
0.7635 0.2713 0.0610
0.9663 0.3962 0.0715
1.0000 0.4265 0.0406
1.0000 0.4333 0.0290
0.0557 0.1189 0.1090
0.0377 0.1254 0.1169
0.0705 0.1226 0.1165
0.2186 0.1429 0.1100
0.4772 0.2024 0.0902
0.7586 0.2720 0.0639
0.9642 0.3974 0.0699
1.0000 0.4277 0.0397
1.0000 0.4339 0.0234
0.0538 0.1483 0.1218
0.0487 0.1540 0.1268
0.0785 0.1522 0.1325
0.2255 0.1567 0.1161
0.4778 0.2135 0.0937
0.7568 0.2850 0.0578
0.9582 0.4069 0.0617
1.0000 0.4319 0.0168
1.0000 0.4382 0.0000
0.1135 0.2504 0.1709
0.1194 0.2514 0.1727
0.1519 0.2455 0.1724
0.2684 0.2014 0.1321
0.5024 0.2539 0.0986
0.7507 0.3202 0.0622
1.0000 0.4237 0.0155
1.0000 0.4618 0.0172
1.0000 0.4727 0.0107
0.2507 0.3966 0.2252
0.2580 0.3958 0.2298
0.2987 0.3813 0.2190
0.4351 0.3223 0.1682
0.5648 0.3143 0.1046
0.7781 0.3768 0.0582
0.9797 0.4696 0.0163
1.0000 0.5004 0.0000
1.0000 0.5083 0.0000
0.4418 0.5818 0.2820
0.4501 0.5762 0.2779
0.4901 0.5497 0.2546
0.6194 0.4754 0.2068
0.6598 0.4280 0.1172
0.8439 0.4472 0.0617
0.9558 0.5160 0.0129
1.0000 0.5346 0.0000
1.0000 0.5452 0.0000
0.5918 0.8192 0.5399
0.6032 0.8105 0.5183
0.6492 0.7766 0.4189
0.7500 0.7033 0.3459
0.8648 0.6269 0.2231
0.8911 0.5769 0.0754
0.9972 0.5816 0.0302
1.0000 0.5957 0.0000
1.0000 0.6025 0.0000
0.6281 0.9345 0.6266
0.6346 0.9351 0.6236
0.6714 0.9229 0.6191
0.7550 0.8843 0.5916
0.8506 0.8015 0.4968
0.9604 0.7424 0.3119
1.0000 0.7173 0.1922
1.0000 0.6812 0.0859
1.0000 0.6707 0.0921
0.6277 0.9547 0.6278
0.6347 0.9558 0.6249
0.6713 0.9429 0.6196
0.7565 0.9117 0.6021
0.8477 0.8535 0.5490
0.9378 0.7799 0.3682
1.0000 0.7516 0.2569
1.0000 0.7162 0.1766
1.0000 0.6996 0.0871
0.0518 0.1133 0.1137
0.0374 0.1207 0.1187
0.0668 0.1182 0.1224
0.2118 0.1399 0.1108
0.4749 0.2021 0.0957
0.7565 0.2706 0.0659
0.9633 0.3970 0.0757
1.0000 0.4274 0.0454
1.0000 0.4340 0.0326
0.0539 0.1179 0.1117
0.0374 0.1287 0.1193
0.0709 0.1240 0.1208
0.2160 0.1452 0.1149
0.4774 0.2046 0.0958
0.7569 0.2736 0.0689
0.9614 0.3991 0.0733
1.0000 0.4295 0.0447
1.0000 0.4347 0.0205
0.0573 0.1463 0.1221
0.0498 0.1553 0.1300
0.0787 0.1545 0.1368
0.2254 0.1610 0.1241
0.4778 0.2161 0.0997
0.7558 0.2874 0.0643
0.9594 0.4106 0.0668
1.0000 0.4327 0.0138
1.0000 0.4425 0.0048
0.1112 0.2516 0.1740
0.1191 0.2554 0.1807
0.1509 0.2496 0.1792
0.2686 0.2038 0.1421
0.5010 0.2578 0.1057
0.7505 0.3224 0.0685
1.0000 0.4274 0.0238
1.0000 0.4638 0.0229
1.0000 0.4766 0.0189
0.2480 0.3966 0.2292
0.2579 0.3974 0.2388
0.3002 0.3885 0.2279
0.4373 0.3272 0.1776
0.5683 0.3155 0.1106
0.7769 0.3790 0.0648
0.9823 0.4716 0.0170
1.0000 0.5027 0.0000
1.0000 0.5113 0.0000
0.4399 0.5834 0.2869
0.4495 0.5831 0.2876
0.4912 0.5583 0.2660
0.6180 0.4793 0.2139
0.6627 0.4337 0.1277
0.8403 0.4483 0.0712
0.9549 0.5189 0.0205
1.0000 0.5383 0.0000
1.0000 0.5493 0.0000
0.5912 0.8204 0.5443
0.6003 0.8169 0.5432
0.6504 0.7786 0.4278
0.7506 0.7088 0.3565
0.8648 0.6313 0.2374
0.8936 0.5819 0.0878
1.0000 0.5853 0.0297
1.0000 0.6006 0.0009
1.0000 0.6075 0.0038
0.6274 0.9344 0.6284
0.6347 0.9366 0.6288
0.6694 0.9243 0.6230
0.7530 0.8879 0.5973
0.8484 0.8060 0.5073
0.9567 0.7462 0.3273
1.0000 0.7198 0.1881
1.0000 0.6804 0.0601
1.0000 0.6757 0.1021
0.6272 0.9547 0.6294
0.6347 0.9573 0.6301
0.6692 0.9447 0.6239
0.7547 0.9168 0.6082
0.8436 0.8579 0.5562
0.9348 0.7841 0.3853
1.0000 0.7505 0.2509
1.0000 0.7253 0.2011
1.0000 0.7092 0.1471
0.0611 0.1296 0.1446
0.0486 0.1349 0.1452
0.0583 0.1244 0.1443
0.1905 0.1264 0.1210
0.4508 0.1984 0.1248
0.7318 0.2666 0.0949
0.9864 0.3886 0.0658
1.0000 0.4335 0.0669
1.0000 0.4385 0.0381
0.0610 0.1327 0.1380
0.0510 0.1406 0.1449
0.0631 0.1312 0.1461
0.1945 0.1334 0.1316
0.4537 0.2046 0.1259
0.7299 0.2719 0.0966
0.9818 0.3940 0.0704
1.0000 0.4353 0.0603
1.0000 0.4395 0.0258
0.0490 0.1519 0.1354
0.0577 0.1505 0.1361
0.0799 0.1661 0.1687
0.2201 0.1781 0.1655
0.4751 0.2336 0.1354
0.7506 0.3005 0.0979
0.9567 0.4205 0.0927
1.0000 0.4500 0.0606
1.0000 0.4597 0.0557
0.0986 0.2619 0.1958
0.1075 0.2660 0.1967
0.1471 0.2692 0.2144
0.2632 0.2270 0.1906
0.4939 0.2755 0.1455
0.7452 0.3371 0.0995
0.9885 0.4414 0.0609
1.0000 0.4801 0.0544
1.0000 0.4913 0.0473
0.2380 0.3977 0.2522
0.2445 0.3985 0.2536
0.2891 0.4088 0.2719
0.4495 0.3503 0.2302
0.5719 0.3419 0.1539
0.7713 0.3919 0.0930
0.9972 0.4809 0.0445
1.0000 0.5157 0.0166
1.0000 0.5249 0.0183
0.4238 0.5818 0.3103
0.4346 0.5856 0.3150
0.4833 0.5916 0.3248
0.6052 0.5133 0.2720
0.6750 0.4534 0.1694
0.8341 0.4636 0.1022
0.9587 0.5352 0.0507
1.0000 0.5567 0.0098
1.0000 0.5653 0.0066
0.5839 0.8150 0.5456
0.5898 0.8166 0.5430
0.6339 0.8074 0.5176
0.7352 0.7363 0.4221
0.8595 0.6614 0.3241
0.8997 0.6030 0.1450
0.9814 0.6099 0.1177
1.0000 0.6217 0.0656
1.0000 0.6297 0.0565
0.6279 0.9355 0.6375
0.6335 0.9339 0.6398
0.6587 0.9341 0.6516
0.7423 0.9050 0.6354
0.8386 0.8321 0.5647
0.9446 0.7649 0.3969
1.0000 0.7232 0.1800
1.0000 0.7088 0.1947
1.0000 0.6836 0.0704
0.6283 0.9553 0.6388
0.6340 0.9541 0.6414
0.6586 0.9541 0.6527
0.7423 0.9260 0.6378
0.8350 0.8803 0.6018
0.9240 0.8070 0.4627
1.0000 0.7502 0.2127
1.0000 0.7448 0.2801
1.0000 0.7296 0.2305
0.0681 0.2011 0.2627
0.0707 0.1997 0.2581
0.0612 0.1803 0.2382
0.1268 0.1495 0.2322
0.3747 0.1802 0.2123
0.6808 0.2491 0.1973
0.9538 0.3552 0.1543
1.0000 0.4344 0.1575
1.0000 0.4447 0.1412
0.0670 0.2013 0.2668
0.0734 0.2093 0.2643
0.0835 0.1910 0.2528
0.1300 0.1558 0.2349
0.4231 0.1753 0.2382
0.6804 0.2567 0.1996
0.9544 0.3620 0.1565
1.0000 0.4389 0.1559
1.0000 0.4465 0.1226
0.0767 0.2116 0.2503
0.0831 0.2131 0.2561
0.1096 0.2314 0.2699
0.1730 0.2031 0.2765
0.4368 0.2191 0.2504
0.6917 0.2950 0.2099
0.9577 0.3948 0.1536
1.0000 0.4684 0.1547
1.0000 0.4808 0.1421
0.1243 0.2485 0.1998
0.1289 0.2513 0.2044
0.1189 0.2826 0.2490
0.2564 0.3133 0.3251
0.4887 0.3387 0.2744
0.7334 0.3914 0.2182
0.9841 0.4812 0.1653
1.0000 0.5212 0.1482
1.0000 0.5249 0.1153
0.2189 0.4336 0.3057
0.2284 0.4355 0.3107
0.2626 0.4443 0.3341
0.3993 0.4663 0.3920
0.5618 0.4126 0.3028
0.7524 0.4444 0.2231
0.9811 0.5231 0.1494
1.0000 0.5612 0.1352
1.0000 0.5685 0.1225
0.3839 0.5878 0.3763
0.3903 0.5914 0.3812
0.4303 0.6050 0.4076
0.5659 0.6366 0.4660
0.7122 0.5537 0.3677
0.8065 0.5220 0.2516
0.9908 0.5770 0.1586
1.0000 0.6013 0.1089
1.0000 0.6116 0.1170
0.5690 0.7957 0.5126
0.5770 0.7970 0.5169
0.6052 0.8011 0.5339
0.6919 0.8111 0.5811
0.8081 0.7461 0.5465
0.8983 0.6762 0.3659
0.9993 0.6445 0.2006
1.0000 0.6835 0.2616
1.0000 0.6864 0.2435
0.6260 0.9345 0.6682
0.6330 0.9341 0.6712
0.6530 0.9339 0.6782
0.7134 0.9347 0.7072
0.8081 0.8963 0.6904
0.8855 0.8220 0.5906
1.0000 0.7639 0.3605
1.0000 0.7655 0.4323
1.0000 0.7572 0.4077
0.6281 0.9547 0.6699
0.6353 0.9541 0.6730
0.6538 0.9543 0.6797
0.7136 0.9546 0.7086
0.8132 0.9216 0.6951
0.8911 0.8681 0.6370
0.9920 0.8012 0.4509
1.0000 0.7956 0.4638
1.0000 0.7824 0.4299
0.1391 0.2984 0.3971
0.1399 0.2962 0.4023
0.1605 0.2844 0.3985
0.1890 0.2478 0.3885
0.2923 0.2165 0.3729
0.6215 0.2184 0.3896
0.8989 0.3259 0.3344
0.9871 0.4524 0.3565
1.0000 0.4620 0.3369
0.1388 0.3013 0.3947
0.1433 0.3028 0.4015
0.1624 0.2917 0.4007
0.1967 0.2567 0.3928
0.2957 0.2220 0.3738
0.6231 0.2248 0.3908
0.8992 0.3322 0.3343
0.9881 0.4581 0.3577
1.0000 0.4667 0.3377
0.1383 0.3147 0.3813
0.1447 0.3181 0.3871
0.1790 0.3275 0.4126
0.2152 0.2949 0.4083
0.3403 0.2602 0.4372
0.6425 0.2654 0.4058
0.9096 0.3785 0.3453
0.9856 0.4854 0.3685
1.0000 0.4760 0.3045
0.1539 0.3607 0.3717
0.1626 0.3640 0.3742
0.1797 0.3758 0.3874
0.2710 0.4027 0.4487
0.4126 0.3833 0.4954
0.6944 0.4109 0.4590
0.9157 0.4971 0.3824
1.0000 0.5558 0.3348
1.0000 0.5765 0.3449
0.2014 0.4477 0.3597
0.1981 0.4547 0.3691
0.2325 0.4635 0.3920
0.3466 0.4957 0.4602
0.5415 0.5751 0.5894
0.7345 0.5734 0.5016
0.9350 0.6052 0.3975
1.0000 0.6478 0.3736
1.0000 0.6531 0.3620
0.3693 0.6412 0.4733
0.3759 0.6443 0.4801
0.4019 0.6570 0.5020
0.4945 0.6776 0.5615
0.6466 0.6988 0.6385
0.7623 0.6347 0.5264
0.9413 0.6514 0.4153
0.9997 0.6986 0.4268
1.0000 0.7051 0.4245
0.5350 0.8058 0.5771
0.5390 0.8080 0.5801
0.5676 0.8103 0.5994
0.6364 0.8171 0.6448
0.7440 0.8335 0.7028
0.8524 0.7948 0.6847
0.9455 0.7201 0.4612
1.0000 0.7738 0.5451
1.0000 0.7762 0.5353
0.6256 0.9435 0.7090
0.6301 0.9443 0.7117
0.6471 0.9421 0.7194
0.7012 0.9401 0.7439
0.7700 0.9445 0.7776
0.8522 0.9097 0.7635
0.9431 0.8419 0.6589
1.0000 0.8187 0.5891
1.0000 0.8292 0.6242
0.6289 0.9638 0.7113
0.6338 0.9635 0.7135
0.6497 0.9615 0.7205
0.7026 0.9598 0.7452
0.7694 0.9636 0.7787
0.8520 0.9377 0.7702
0.9435 0.8762 0.6896
0.9930 0.8544 0.6570
1.0000 0.8423 0.6280
0.1968 0.3819 0.5054
0.2012 0.3817 0.5093
0.2172 0.3712 0.5218
0.2609 0.3412 0.5167
0.3454 0.3232 0.5174
0.4702 0.3104 0.5510
0.8166 0.3448 0.5803
0.9802 0.4518 0.5595
0.9760 0.4958 0.5790
0.1973 0.3894 0.5092
0.2071 0.3942 0.5164
0.2202 0.3816 0.5231
0.2630 0.3486 0.5187
0.3492 0.3288 0.5191
0.4850 0.3160 0.5714
0.8184 0.3530 0.5827
0.9870 0.4542 0.5580
0.9773 0.5017 0.5792
0.2131 0.4107 0.5065
0.2197 0.4126 0.5130
0.2471 0.4233 0.5385
0.2854 0.3935 0.5406
0.3737 0.3687 0.5459
0.5248 0.3542 0.6207
0.8242 0.3881 0.5962
0.9488 0.5190 0.6102
0.9766 0.5293 0.5982
0.2291 0.4648 0.5003
0.2348 0.4668 0.5050
0.2454 0.4771 0.5285
0.3395 0.5052 0.5850
0.4572 0.4909 0.6160
0.5908 0.4778 0.6715
0.8457 0.5235 0.6498
0.9533 0.6186 0.6559
0.9762 0.6294 0.6298
0.2574 0.5433 0.5014
0.2684 0.5426 0.5060
0.2723 0.5455 0.5082
0.3765 0.5718 0.5794
0.5633 0.6406 0.6919
0.6748 0.6350 0.7251
0.8644 0.6704 0.6955
0.9507 0.7153 0.6587
0.9712 0.7184 0.6359
0.3385 0.6638 0.5303
0.3421 0.6640 0.5309
0.3728 0.6703 0.5535
0.4625 0.6844 0.6087
0.5985 0.7164 0.6883
0.7442 0.7625 0.7725
0.8766 0.7479 0.6799
0.9633 0.7902 0.6780
0.9906 0.7954 0.6810
0.5230 0.8313 0.6427
0.5270 0.8330 0.6467
0.5470 0.8335 0.6622
0.6091 0.8429 0.7023
0.7006 0.8540 0.7530
0.7943 0.8607 0.7991
0.8911 0.8122 0.7421
0.9722 0.8459 0.7557
0.9974 0.8499 0.7443
0.6264 0.9484 0.7418
0.6289 0.9478 0.7429
0.6446 0.9469 0.7514
0.6934 0.9455 0.7793
0.7565 0.9504 0.8106
0.8268 0.9513 0.8466
0.9033 0.9112 0.8188
0.9613 0.8857 0.7859
0.9835 0.8836 0.7733
0.6294 0.9673 0.7431
0.6322 0.9671 0.7445
0.6479 0.9660 0.7531
0.6960 0.9647 0.7816
0.7574 0.9693 0.8125
0.8268 0.9704 0.8482
0.9086 0.9380 0.8251
0.9734 0.9153 0.7997
0.9927 0.9007 0.7791
0.2792 0.4881 0.6351
0.2867 0.4928 0.6428
0.3028 0.4802 0.6466
0.3557 0.4699 0.6697
0.4087 0.4522 0.6771
0.5702 0.4806 0.7444
0.7108 0.4477 0.7831
0.8885 0.4777 0.7552
0.9425 0.5177 0.7527
0.2780 0.4899 0.6329
0.2905 0.5016 0.6463
0.3082 0.4896 0.6511
0.3606 0.4792 0.6740
0.4116 0.4593 0.6806
0.5745 0.4891 0.7472
0.7120 0.4537 0.7814
0.8885 0.4831 0.7592
0.9358 0.5274 0.7593
0.2780 0.5051 0.6276
0.2859 0.5091 0.6336
0.3287 0.5355 0.6704
0.3795 0.5185 0.6897
0.4399 0.5024 0.7045
0.5968 0.5284 0.7635
0.7261 0.4910 0.7912
0.8981 0.5185 0.7703
0.9089 0.5674 0.7852
0.2894 0.5595 0.6253
0.2961 0.5628 0.6301
0.3244 0.5796 0.6600
0.4319 0.6301 0.7351
0.5564 0.6245 0.7733
0.6564 0.6211 0.7952
0.7607 0.5872 0.8161
0.9027 0.6148 0.7987
0.9113 0.6515 0.8120
0.3218 0.6357 0.6301
0.3269 0.6384 0.6335
0.3326 0.6383 0.6448
0.4466 0.6775 0.7179
0.6286 0.7315 0.8161
0.7110 0.7198 0.8309
0.7981 0.6975 0.8459
0.9162 0.7228 0.8291
0.9161 0.7446 0.8316
0.3696 0.7099 0.6309
0.3749 0.7111 0.6335
0.4069 0.7170 0.6575
0.5033 0.7396 0.7154
0.6380 0.7785 0.7951
0.7560 0.8087 0.8593
0.8325 0.7928 0.8697
0.9306 0.8122 0.8479
0.9449 0.8250 0.8450
0.5038 0.8394 0.6916
0.5070 0.8394 0.6938
0.5333 0.8399 0.7081
0.5974 0.8471 0.7459
0.6883 0.8561 0.7967
0.7701 0.8711 0.8418
0.8664 0.8896 0.9005
0.9323 0.9079 0.8968
0.9554 0.9115 0.8897
0.6311 0.9470 0.7779
0.6338 0.9464 0.7790
0.6500 0.9480 0.7881
0.6937 0.9482 0.8149
0.7539 0.9492 0.8447
0.8132 0.9545 0.8771
0.8815 0.9650 0.9144
0.9424 0.9447 0.9113
0.9606 0.9401 0.9035
0.6368 0.9664 0.7799
0.6393 0.9665 0.7815
0.6542 0.9675 0.7903
0.6966 0.9673 0.8166
0.7556 0.9683 0.8461
0.8145 0.9734 0.8785
0.8815 0.9837 0.9154
0.9490 0.9613 0.9084
0.9698 0.9526 0.9023
0.3602 0.5913 0.7494
0.3735 0.6011 0.7616
0.3941 0.5953 0.7711
0.4654 0.6041 0.8120
0.5676 0.5994 0.8363
0.6705 0.5972 0.8594
0.7572 0.5884 0.8806
0.8344 0.5620 0.8886
0.8796 0.5528 0.8861
0.3582 0.5925 0.7467
0.3774 0.6089 0.7645
0.3997 0.6058 0.7767
0.4664 0.6105 0.8123
0.5742 0.6060 0.8388
0.6756 0.6051 0.8639
0.7610 0.5952 0.8831
0.8377 0.5697 0.8892
0.8801 0.5581 0.8856
0.3543 0.6057 0.7450
0.3652 0.6129 0.7529
0.4231 0.6504 0.7991
0.4869 0.6502 0.8279
0.6088 0.6468 0.8625
0.6935 0.6367 0.8750
0.7749 0.6229 0.8908
0.8448 0.5957 0.8962
0.8864 0.5866 0.8939
0.3627 0.6630 0.7463
0.3707 0.6668 0.7526
0.4161 0.6907 0.7861
0.5336 0.7379 0.8614
0.6748 0.7391 0.9078
0.7447 0.7230 0.9101
0.8006 0.6985 0.9126
0.8650 0.6681 0.9129
0.8996 0.6590 0.9087
0.3822 0.7202 0.7412
0.3888 0.7231 0.7465
0.4171 0.7438 0.7741
0.5341 0.7815 0.8496
0.6965 0.8136 0.9182
0.7701 0.7995 0.9349
0.8327 0.7857 0.9376
0.8842 0.7516 0.9296
0.9143 0.7448 0.9263
0.4542 0.7823 0.7515
0.4603 0.7841 0.7564
0.4977 0.7953 0.7799
0.5915 0.8264 0.8385
0.7066 0.8563 0.9035
0.7880 0.8673 0.9433
0.8490 0.8493 0.9493
0.9016 0.8246 0.9452
0.9199 0.8235 0.9389
0.5358 0.8689 0.7716
0.5392 0.8688 0.7734
0.5594 0.8679 0.7859
0.6305 0.8753 0.8252
0.7288 0.9025 0.8831
0.8048 0.9221 0.9289
0.8747 0.9276 0.9648
0.9204 0.9032 0.9625
0.9407 0.8993 0.9548
0.6378 0.9459 0.8084
0.6402 0.9455 0.8097
0.6567 0.9453 0.8204
0.6987 0.9512 0.8477
0.7555 0.9554 0.8783
0.8141 0.9640 0.9117
0.8787 0.9742 0.9468
0.9411 0.9694 0.9727
0.9564 0.9655 0.9697
0.6498 0.9703 0.8167
0.6529 0.9693 0.8183
0.6670 0.9698 0.8277
0.7065 0.9746 0.8542
0.7599 0.9753 0.8815
0.8165 0.9828 0.9134
0.8797 0.9929 0.9482
0.9429 0.9877 0.9722
0.9574 0.9822 0.9714
0.3891 0.6286 0.7889
0.4026 0.6387 0.8019
0.4306 0.6398 0.8179
0.4998 0.6417 0.8528
0.6259 0.6434 0.8830
0.7098 0.6352 0.8968
0.7821 0.6255 0.9122
0.8426 0.6045 0.9158
0.8682 0.5949 0.9167
0.3912 0.6342 0.7907
0.4050 0.6440 0.8027
0.4337 0.6464 0.8202
0.5048 0.6509 0.8577
0.6306 0.6496 0.8864
0.7131 0.6418 0.8990
0.7840 0.6306 0.9133
0.8447 0.6107 0.9178
0.8687 0.6007 0.9177
0.3902 0.6499 0.7891
0.4002 0.6561 0.7972
0.4560 0.6899 0.8415
0.5253 0.6903 0.8738
0.6516 0.6850 0.9045
0.7290 0.6732 0.9124
0.7948 0.6576 0.9234
0.8517 0.6365 0.9239
0.8780 0.6245 0.9251
0.3954 0.7016 0.7907
0.4034 0.7047 0.7968
0.4520 0.7285 0.8326
0.5678 0.7709 0.8983
0.6811 0.7497 0.9254
0.7499 0.7342 0.9281
0.8152 0.7233 0.9410
0.8724 0.6987 0.9413
0.8931 0.6879 0.9392
0.4071 0.7622 0.7887
0.4131 0.7652 0.7932
0.4541 0.7810 0.8225
0.5767 0.8127 0.8862
0.6984 0.8216 0.9344
0.7711 0.8070 0.9513
0.8333 0.7933 0.9550
0.8895 0.7693 0.9536
0.9093 0.7596 0.9563
0.4903 0.8138 0.7972
0.4957 0.8157 0.8001
0.5307 0.8278 0.8224
0.6248 0.8553 0.8791
0.7197 0.8781 0.9300
0.7899 0.8756 0.9601
0.8493 0.8567 0.9655
0.9028 0.8357 0.9670
0.9211 0.8258 0.9613
0.5476 0.8782 0.7954
0.5519 0.8784 0.7978
0.5830 0.8831 0.8155
0.6668 0.9039 0.8685
0.7486 0.9265 0.9172
0.8058 0.9332 0.9501
0.8758 0.9356 0.9828
0.9224 0.9114 0.9832
0.9336 0.9003 0.9730
0.6456 0.9562 0.8321
0.6484 0.9562 0.8342
0.6620 0.9557 0.8421
0.7047 0.9643 0.8721
0.7593 0.9712 0.9044
0.8150 0.9764 0.9319
0.8770 0.9788 0.9619
0.9409 0.9765 0.9918
0.9535 0.9661 0.9891
0.6549 0.9692 0.8288
0.6582 0.9702 0.8314
0.6729 0.9724 0.8419
0.7081 0.9760 0.8642
0.7607 0.9791 0.8952
0.8148 0.9894 0.9265
0.8751 0.9909 0.9540
0.9410 0.9903 0.9828
0.9586 0.9861 0.9891
