src/colors/dark_&_moody/cold_shadows.cube
TITLE "ColorFinale Export"
# Created by Sverre Ryland Glomnes on 2018-02-05 13:57:31 +0000
# Color Finale Plugin v.1.8.1 (222)
DOMAIN_MIN 0.0 0.0 0.0
DOMAIN_MAX 1.0 1.0 1.0
LUT_3D_SIZE 5
0.0508 0.1150 0.1108
0.0682 0.1158 0.1155
0.4792 0.2012 0.0909
0.9663 0.3962 0.0715
1.0000 0.4333 0.0290
0.0538 0.1483 0.1218
0.0785 0.1522 0.1325
0.4778 0.2135 0.0937
0.9582 0.4069 0.0617
1.0000 0.4382 0.0000
0.2507 0.3966 0.2252
0.2987 0.3813 0.2190
0.5648 0.3143 0.1046
0.9797 0.4696 0.0163
1.0000 0.5083 0.0000
0.5918 0.8192 0.5399
0.6492 0.7766 0.4189
0.8648 0.6269 0.2231
0.9972 0.5816 0.0302
1.0000 0.6025 0.0000
0.6277 0.9547 0.6278
0.6713 0.9429 0.6196
0.8477 0.8535 0.5490
1.0000 0.7516 0.2569
1.0000 0.6996 0.0871
0.0611 0.1296 0.1446
0.0583 0.1244 0.1443
0.4508 0.1984 0.1248
0.9864 0.3886 0.0658
1.0000 0.4385 0.0381
0.0490 0.1519 0.1354
0.0799 0.1661 0.1687
0.4751 0.2336 0.1354
0.9567 0.4205 0.0927
1.0000 0.4597 0.0557
0.2380 0.3977 0.2522
0.2891 0.4088 0.2719
0.5719 0.3419 0.1539
0.9972 0.4809 0.0445
1.0000 0.5249 0.0183
0.5839 0.8150 0.5456
0.6339 0.8074 0.5176
0.8595 0.6614 0.3241
0.9814 0.6099 0.1177
1.0000 0.6297 0.0565
0.6283 0.9553 0.6388
0.6586 0.9541 0.6527
0.8350 0.8803 0.6018
1.0000 0.7502 0.2127
1.0000 0.7296 0.2305
0.1391 0.2984 0.3971
0.1605 0.2844 0.3985
0.2923 0.2165 0.3729
0.8989 0.3259 0.3344
1.0000 0.4620 0.3369
0.1383 0.3147 0.3813
0.1790 0.3275 0.4126
0.3403 0.2602 0.4372
0.9096 0.3785 0.3453
1.0000 0.4760 0.3045
0.2014 0.4477 0.3597
0.2325 0.4635 0.3920
0.5415 0.5751 0.5894
0.9350 0.6052 0.3975
1.0000 0.6531 0.3620
0.5350 0.8058 0.5771
0.5676 0.8103 0.5994
0.7440 0.8335 0.7028
0.9455 0.7201 0.4612
1.0000 0.7762 0.5353
0.6289 0.9638 0.7113
0.6497 0.9615 0.7205
0.7694 0.9636 0.7787
0.9435 0.8762 0.6896
1.0000 0.8423 0.6280
0.2792 0.4881 0.6351
0.3028 0.4802 0.6466
0.4087 0.4522 0.6771
0.7108 0.4477 0.7831
0.9425 0.5177 0.7527
0.2780 0.5051 0.6276
0.3287 0.5355 0.6704
0.4399 0.5024 0.7045
0.7261 0.4910 0.7912
0.9089 0.5674 0.7852
0.3218 0.6357 0.6301
0.3326 0.6383 0.6448
0.6286 0.7315 0.8161
0.7981 0.6975 0.8459
0.9161 0.7446 0.8316
0.5038 0.8394 0.6916
0.5333 0.8399 0.7081
0.6883 0.8561 0.7967
0.8664 0.8896 0.9005
0.9554 0.9115 0.8897
0.6368 0.9664 0.7799
0.6542 0.9675 0.7903
0.7556 0.9683 0.8461
0.8815 0.9837 0.9154
0.9698 0.9526 0.9023
0.3891 0.6286 0.7889
0.4306 0.6398 0.8179
0.6259 0.6434 0.8830
0.7821 0.6255 0.9122
0.8682 0.5949 0.9167
0.3902 0.6499 0.7891
0.4560 0.6899 0.8415
0.6516 0.6850 0.9045
0.7948 0.6576 0.9234
0.8780 0.6245 0.9251
0.4071 0.7622 0.7887
0.4541 0.7810 0.8225
0.6984 0.8216 0.9344
0.8333 0.7933 0.9550
0.9093 0.7596 0.9563
0.5476 0.8782 0.7954
0.5830 0.8831 0.8155
0.7486 0.9265 0.9172
0.8758 0.9356 0.9828
0.9336 0.9003 0.9730
0.6549 0.9692 0.8288
0.6729 0.9724 0.8419
0.7607 0.9791 0.8952
0.8751 0.9909 0.9540
0.9586 0.9861 0.9891
