src/colors/dark_&_moody/cool_haze.cube
TITLE "Generated by Resolve"
LUT_3D_SIZE 5
0.0342412 0.0342412 0.0342412
0.0342412 0.0342412 0.0342412
0.0905928 0.0438392 0.0505226
0.498131 0.122515 0.0831159
0.755795 0.186252 0.108095
0.0342412 0.0342412 0.0342412
0.0342412 0.0342412 0.0342412
0.0833295 0.0426337 0.0487068
0.498436 0.122576 0.0831311
0.755795 0.186252 0.108095
0.0509041 0.0567636 0.0447089
0.0512245 0.0561837 0.0448005
0.0934615 0.0605173 0.0513924
0.485771 0.151888 0.0827497
0.763882 0.225925 0.113787
0.316121 0.421469 0.297398
0.311528 0.417685 0.293935
0.285115 0.391882 0.270939
0.491829 0.414893 0.217075
0.894636 0.557885 0.146807
0.404486 0.583093 0.459129
0.404486 0.583093 0.459129
0.409003 0.587671 0.461173
0.674418 0.72015 0.523293
0.920119 0.826032 0.642237
0.0342412 0.0342412 0.0342412
0.0342412 0.0342412 0.0342412
0.0807507 0.0422217 0.0480659
0.480659 0.118685 0.0822309
0.755795 0.186252 0.108095
0.0342412 0.0342412 0.0342412
0.0342412 0.0342412 0.0342412
0.0741436 0.0411078 0.0463264
0.482094 0.119005 0.0823072
0.755795 0.186252 0.108095
0.0500649 0.0521096 0.0442359
0.0502327 0.0523232 0.0442969
0.0832685 0.0556954 0.0501564
0.475135 0.143252 0.0814069
0.762158 0.219562 0.112871
0.295567 0.404791 0.282383
0.294286 0.403754 0.281453
0.270954 0.381308 0.261662
0.488975 0.412284 0.215488
0.891157 0.547433 0.146166
0.404486 0.583093 0.459129
0.404486 0.583093 0.459129
0.404486 0.583093 0.459129
0.666453 0.717952 0.523873
0.920119 0.826032 0.642237
0.0361791 0.0374609 0.0443122
0.0357977 0.0368353 0.0426337
0.0596475 0.0416419 0.058381
0.435889 0.102464 0.0935988
0.755795 0.186252 0.108095
0.0357671 0.0367895 0.0425116
0.035584 0.0364538 0.0416876
0.0557717 0.0406806 0.0553292
0.447501 0.10251 0.0968948
0.75787 0.179492 0.133303
0.0371405 0.0417639 0.0464027
0.0370031 0.041062 0.0459297
0.0592355 0.0504768 0.0607919
0.453712 0.118853 0.0918135
0.759915 0.199817 0.123568
0.235691 0.352911 0.239872
0.247776 0.363882 0.248325
0.222538 0.339834 0.231098
0.459968 0.385183 0.198795
0.87924 0.511955 0.143328
0.404486 0.583093 0.459129
0.404486 0.583093 0.459129
0.404486 0.583093 0.459129
0.649165 0.713222 0.52462
0.920119 0.826032 0.642237
0.0626383 0.132509 0.215793
0.0623789 0.130358 0.212955
0.0619059 0.125444 0.206943
0.287587 0.0938582 0.213764
0.666972 0.107012 0.357336
0.0622416 0.129107 0.211292
0.062089 0.127886 0.209674
0.0613718 0.122286 0.202121
0.304219 0.0987564 0.225925
0.591959 0.134646 0.388632
0.0604257 0.116136 0.193042
0.0615702 0.12372 0.204013
0.0619974 0.127016 0.208499
0.307271 0.099733 0.228443
0.607416 0.128038 0.386755
0.0649577 0.276951 0.272953
0.0708171 0.289662 0.284627
0.0697032 0.286824 0.282536
0.368582 0.436301 0.430304
0.83769 0.444816 0.431876
0.172305 0.405371 0.341283
0.165103 0.401511 0.343282
0.170535 0.404349 0.341482
0.466239 0.631083 0.527703
0.930373 0.852934 0.699489
0.0812238 0.238666 0.333715
0.0812238 0.238666 0.333715
0.0812238 0.238666 0.333715
0.104509 0.280415 0.388617
0.534295 0.288457 0.434455
0.0812238 0.238666 0.333715
0.0812238 0.238666 0.333715
0.0812238 0.238666 0.333715
0.121523 0.285985 0.397543
0.534295 0.288457 0.434455
0.0812238 0.238666 0.333715
0.0812238 0.238666 0.333715
0.0812238 0.238666 0.333715
0.14934 0.291707 0.406867
0.534295 0.288457 0.434455
0.101427 0.308171 0.374441
0.122606 0.344244 0.399222
0.122133 0.343557 0.398688
0.139345 0.354788 0.429038
0.644846 0.461631 0.565164
0.163439 0.465797 0.460426
0.170291 0.486 0.4813
0.170291 0.486 0.4813
0.252949 0.53933 0.533898
0.857374 0.864134 0.853788
