src/colors/dark_&_moody/cool_haze.cube
TITLE "Generated by Resolve"
LUT_3D_SIZE 33
0.0342412 0.0342412 0.0342412
0.0342412 0.0342412 0.0342412
0.0342412 0.0342412 0.0342412
0.0342412 0.0342412 0.0342412
0.0342412 0.0342412 0.0342412
0.0342412 0.0342412 0.0342412
0.0342412 0.0342412 0.0342412
0.0342412 0.0342412 0.0342412
0.0342412 0.0342412 0.0342412
0.0342412 0.0342412 0.0342412
0.0342412 0.0342412 0.0342412
0.0342412 0.0342412 0.0342412
0.0342412 0.0342412 0.0342412
0.0342412 0.0342412 0.0342412
0.0450904 0.0357061 0.0374456
0.0632944 0.0392462 0.0433051
0.0905928 0.0438392 0.0505226
0.12668 0.0509041 0.0590677
0.169787 0.0599527 0.0679332
0.213489 0.068925 0.0738994
0.258701 0.0769818 0.0764324
0.30988 0.0862593 0.0780499
0.366766 0.0965286 0.0792248
0.430671 0.108598 0.0806134
0.498131 0.122515 0.0831159
0.567025 0.138003 0.0876783
0.638209 0.156466 0.0948348
0.716426 0.176608 0.103716
0.755795 0.186252 0.108095
0.755795 0.186252 0.108095
0.755795 0.186252 0.108095
0.755795 0.186252 0.108095
0.755795 0.186252 0.108095
0.0342412 0.0342412 0.0342412
0.0342412 0.0342412 0.0342412
0.0342412 0.0342412 0.0342412
0.0342412 0.0342412 0.0342412
0.0342412 0.0342412 0.0342412
0.0342412 0.0342412 0.0342412
0.0342412 0.0342412 0.0342412
0.0342412 0.0342412 0.0342412
0.0342412 0.0342412 0.0342412
0.0342412 0.0342412 0.0342412
0.0342412 0.0342412 0.0342412
0.0342412 0.0342412 0.0342412
0.0342412 0.0342412 0.0342412
0.0342412 0.0342412 0.0342412
0.0446937 0.0356298 0.0373236
0.0626993 0.0391394 0.0431525
0.0899519 0.0437324 0.0503548
0.125902 0.0507515 0.0588998
0.169039 0.0598001 0.0677958
0.213001 0.0688334 0.0738689
0.258274 0.0769055 0.0764019
0.309422 0.086183 0.0780346
0.366766 0.0965286 0.0792248
0.431067 0.108675 0.0806134
0.499168 0.122744 0.0831617
0.569543 0.138582 0.0878767
0.644785 0.158221 0.0955062
0.722011 0.177966 0.104356
0.755795 0.186252 0.108095
0.755795 0.186252 0.108095
0.755795 0.186252 0.108095
0.755795 0.186252 0.108095
0.755795 0.186252 0.108095
0.0342412 0.0342412 0.0342412
0.0342412 0.0342412 0.0342412
0.0342412 0.0342412 0.0342412
0.0342412 0.0342412 0.0342412
0.0342412 0.0342412 0.0342412
0.0342412 0.0342412 0.0342412
0.0342412 0.0342412 0.0342412
0.0342412 0.0342412 0.0342412
0.0342412 0.0342412 0.0342412
0.0342412 0.0342412 0.0342412
0.0342412 0.0342412 0.0342412
0.0342412 0.0342412 0.0342412
0.0342412 0.0342412 0.0342412
0.0342412 0.0342412 0.0342412
0.0442206 0.0355383 0.0371557
0.0619821 0.0390173 0.0429389
0.0890974 0.043595 0.0501411
0.124941 0.0505531 0.0587015
0.168215 0.059617 0.0676432
0.21236 0.0687114 0.0738231
0.257298 0.0767224 0.0763561
0.308873 0.0860914 0.0780346
0.366476 0.0964828 0.0792248
0.431067 0.108675 0.0806134
0.499992 0.122911 0.0832074
0.571557 0.139055 0.0880446
0.651835 0.160098 0.0962387
0.724956 0.178683 0.104692
0.755795 0.186252 0.108095
0.755795 0.186252 0.108095
0.755795 0.186252 0.108095
0.755795 0.186252 0.108095
0.755795 0.186252 0.108095
0.0342412 0.0342412 0.0342412
0.0342412 0.0342412 0.0342412
0.0342412 0.0342412 0.0342412
0.0342412 0.0342412 0.0342412
0.0342412 0.0342412 0.0342412
0.0342412 0.0342412 0.0342412
0.0342412 0.0342412 0.0342412
0.0342412 0.0342412 0.0342412
0.0342412 0.0342412 0.0342412
0.0342412 0.0342412 0.0342412
0.0342412 0.0342412 0.0342412
0.0342412 0.0342412 0.0342412
0.0342412 0.0342412 0.0342412
0.0342412 0.0342412 0.0342412
0.0439155 0.0354772 0.0370642
0.0615091 0.0389105 0.0427863
0.0883192 0.0434577 0.049958
0.123903 0.0503548 0.0584878
0.167208 0.0594034 0.0674601
0.21146 0.0685435 0.0737621
0.256413 0.0765545 0.0763104
0.308064 0.0859693 0.0780194
0.365408 0.0962844 0.0792096
0.430671 0.108598 0.0806134
0.499779 0.122866 0.0831922
0.572869 0.139361 0.0881514
0.654154 0.160693 0.0964981
0.726177 0.178988 0.104845
0.755795 0.186252 0.108095
0.755795 0.186252 0.108095
0.755795 0.186252 0.108095
0.755795 0.186252 0.108095
0.755795 0.186252 0.108095
0.0342412 0.0342412 0.0342412
0.0342412 0.0342412 0.0342412
0.0342412 0.0342412 0.0342412
0.0342412 0.0342412 0.0342412
0.0342412 0.0342412 0.0342412
0.0342412 0.0342412 0.0342412
0.0342412 0.0342412 0.0342412
0.0342412 0.0342412 0.0342412
0.0342412 0.0342412 0.0342412
0.0342412 0.0342412 0.0342412
0.0342412 0.0342412 0.0342412
0.0342412 0.0342412 0.0342412
0.0342412 0.0342412 0.0342412
0.0342412 0.0342412 0.0342412
0.0434119 0.0353857 0.0368963
0.0609293 0.0388037 0.0425879
0.087602 0.0433356 0.0497749
0.123033 0.0501717 0.0583047
0.166278 0.0592203 0.067277
0.210391 0.0683452 0.0737011
0.255268 0.0763409 0.0762646
0.306767 0.0857557 0.0779889
0.364065 0.0960403 0.0791791
0.429648 0.108385 0.0805829
0.498955 0.122698 0.0831617
0.573159 0.139437 0.0881666
0.654551 0.1608 0.0965438
0.726574 0.17908 0.104891
0.755795 0.186252 0.108095
0.755795 0.186252 0.108095
0.755795 0.186252 0.108095
0.755795 0.186252 0.108095
0.755795 0.186252 0.108095
0.0342412 0.0342412 0.0342412
0.0342412 0.0342412 0.0342412
0.0342412 0.0342412 0.0342412
0.0342412 0.0342412 0.0342412
0.0342412 0.0342412 0.0342412
0.0342412 0.0342412 0.0342412
0.0342412 0.0342412 0.0342412
0.0342412 0.0342412 0.0342412
0.0342412 0.0342412 0.0342412
0.0342412 0.0342412 0.0342412
0.0342412 0.0342412 0.0342412
0.0342412 0.0342412 0.0342412
0.0342412 0.0342412 0.0342412
0.0342412 0.0342412 0.0342412
0.0428473 0.0352636 0.0367132
0.0603037 0.0386816 0.0423896
0.0868238 0.0432136 0.0495766
0.122148 0.0500038 0.0581216
0.164996 0.0589456 0.0670481
0.209171 0.0681163 0.0736095
0.254215 0.0761425 0.0762036
0.305592 0.0855573 0.0779736
0.362905 0.0958267 0.0791638
0.428031 0.108064 0.0805524
0.497414 0.122362 0.0830854
0.571649 0.139086 0.0880446
0.653452 0.16051 0.0964218
0.72546 0.178805 0.104753
0.755795 0.186252 0.108095
0.755795 0.186252 0.108095
0.755795 0.186252 0.108095
0.755795 0.186252 0.108095
0.755795 0.186252 0.108095
0.0342412 0.0342412 0.0342412
0.0342412 0.0342412 0.0342412
0.0342412 0.0342412 0.0342412
0.0342412 0.0342412 0.0342412
0.0342412 0.0342412 0.0342412
0.0342412 0.0342412 0.0342412
0.0342412 0.0342412 0.0342412
0.0342412 0.0342412 0.0342412
0.0342412 0.0342412 0.0342412
0.0342412 0.0342412 0.0342412
0.0342412 0.0342412 0.0342412
0.0342412 0.0342412 0.0342412
0.0342412 0.0342412 0.0342412
0.0342412 0.0342412 0.0342412
0.0424048 0.0351873 0.0365606
0.0595407 0.038529 0.0421454
0.0857557 0.0430457 0.0493172
0.12076 0.0497292 0.0578317
0.163607 0.0586557 0.0667887
0.208194 0.0679332 0.0735485
0.253239 0.0759747 0.076173
0.304479 0.0853895 0.0779583
0.361852 0.0956283 0.0791485
0.42681 0.10782 0.0805219
0.496284 0.122118 0.0830243
0.570443 0.138796 0.087953
0.651835 0.160098 0.0962387
0.723735 0.178393 0.104555
0.755795 0.186252 0.108095
0.755795 0.186252 0.108095
0.755795 0.186252 0.108095
0.755795 0.186252 0.108095
0.755795 0.186252 0.108095
0.0342412 0.0342412 0.0342412
0.0342412 0.0342412 0.0342412
0.0342412 0.0342412 0.0342412
0.0342412 0.0342412 0.0342412
0.0342412 0.0342412 0.0342412
0.0342412 0.0342412 0.0342412
0.0342412 0.0342412 0.0342412
0.0342412 0.0342412 0.0342412
0.0342412 0.0342412 0.0342412
0.0342412 0.0342412 0.0342412
0.0342412 0.0342412 0.0342412
0.0342412 0.0342412 0.0342412
0.0342412 0.0342412 0.0342412
0.0342412 0.0342412 0.0342412
0.0417029 0.03505 0.0363317
0.0588083 0.0383764 0.0419165
0.084535 0.0428473 0.049012
0.119539 0.049485 0.0575723
0.162402 0.0584115 0.0665751
0.207187 0.0677348 0.0734569
0.252094 0.075761 0.076112
0.303563 0.0852369 0.0779431
0.360983 0.0954757 0.079118
0.426215 0.107698 0.0805066
0.496284 0.122118 0.0830243
0.573968 0.13962 0.0882429
0.651743 0.160067 0.0962234
0.72282 0.178164 0.104448
0.755795 0.186252 0.108095
0.755795 0.186252 0.108095
0.755795 0.186252 0.108095
0.755795 0.186252 0.108095
0.755795 0.186252 0.108095
0.0342412 0.0342412 0.0342412
0.0342412 0.0342412 0.0342412
0.0342412 0.0342412 0.0342412
0.0342412 0.0342412 0.0342412
0.0342412 0.0342412 0.0342412
0.0342412 0.0342412 0.0342412
0.0342412 0.0342412 0.0342412
0.0342412 0.0342412 0.0342412
0.0342412 0.0342412 0.0342412
0.0342412 0.0342412 0.0342412
0.0342412 0.0342412 0.0342412
0.0342412 0.0342412 0.0342412
0.0342412 0.0342412 0.0342412
0.0342412 0.0342412 0.0342412
0.0410773 0.0349584 0.0361486
0.0578927 0.0382086 0.0416114
0.0833295 0.0426337 0.0487068
0.118151 0.0492103 0.0572824
0.161288 0.0581674 0.066331
0.206271 0.0675517 0.0733349
0.251392 0.0756237 0.0760815
0.303105 0.0851606 0.0779278
0.361074 0.095491 0.0791333
0.426917 0.107836 0.0805219
0.498436 0.122576 0.0831311
0.579248 0.140948 0.0887312
0.652338 0.16022 0.0962844
0.722927 0.178195 0.104463
0.755795 0.186252 0.108095
0.755795 0.186252 0.108095
0.755795 0.186252 0.108095
0.755795 0.186252 0.108095
0.755795 0.186252 0.108095
0.0342412 0.0342412 0.0342412
0.0342412 0.0342412 0.0342412
0.0342412 0.0342412 0.0342412
0.0342412 0.0342412 0.0342412
0.0342412 0.0342412 0.0342412
0.0342412 0.0342412 0.0342412
0.0342412 0.0342412 0.0342412
0.0342412 0.0342412 0.0342412
0.0342412 0.0342412 0.0342412
0.0342412 0.0342412 0.0342412
0.0342412 0.0342412 0.0342412
0.0342412 0.0342412 0.0342412
0.0342412 0.0342412 0.0342412
0.0342412 0.0342412 0.0342412
0.0404212 0.0348821 0.0359655
0.0570382 0.0380255 0.0413367
0.0823987 0.0424964 0.0484779
0.117113 0.0489967 0.0570687
0.160159 0.0579232 0.0661021
0.205341 0.0673533 0.073228
0.250858 0.0755322 0.076051
0.302922 0.0851301 0.0779278
0.361563 0.0955825 0.0791333
0.428641 0.108186 0.0805676
0.507088 0.124453 0.0835584
0.582086 0.14168 0.0890059
0.65304 0.160418 0.096376
0.722927 0.178195 0.104463
0.755795 0.186252 0.108095
0.755795 0.186252 0.108095
0.755795 0.186252 0.108095
0.755795 0.186252 0.108095
0.755795 0.186252 0.108095
0.0342412 0.0342412 0.0342412
0.0342412 0.0342412 0.0342412
0.0342412 0.0342412 0.0342412
0.0342412 0.0342412 0.0342412
0.0342412 0.0342412 0.0342412
0.0342412 0.0342412 0.0342412
0.0342412 0.0342412 0.0342412
0.0342412 0.0342412 0.0342412
0.0342412 0.0342412 0.0342412
0.0342412 0.0342412 0.0342412
0.0342412 0.0342412 0.0342412
0.0342412 0.0342412 0.0342412
0.0342412 0.0342412 0.0342412
0.0342412 0.0342412 0.0342412
0.0397192 0.0348058 0.0357671
0.0561227 0.0378576 0.0410468
0.081178 0.042298 0.0481727
0.115999 0.0487678 0.0568246
0.159319 0.0577401 0.065919
0.205005 0.0672923 0.0731823
0.250767 0.0755169 0.076051
0.303655 0.0852522 0.0779431
0.363378 0.0959182 0.0791638
0.435828 0.109636 0.0807355
0.512413 0.125612 0.0838483
0.584009 0.142168 0.089189
0.653651 0.160571 0.096437
0.722713 0.178134 0.104433
0.755795 0.186252 0.108095
0.755795 0.186252 0.108095
0.755795 0.186252 0.108095
0.755795 0.186252 0.108095
0.755795 0.186252 0.108095
0.0342412 0.0342412 0.0342412
0.0342412 0.0342412 0.0342412
0.0342412 0.0342412 0.0342412
0.0342412 0.0342412 0.0342412
0.0342412 0.0342412 0.0342412
0.0342412 0.0342412 0.0342412
0.0342412 0.0342412 0.0342412
0.0342412 0.0342412 0.0342412
0.0342412 0.0342412 0.0342412
0.0342412 0.0342412 0.0342412
0.0342412 0.0342412 0.0342412
0.0342412 0.0342412 0.0342412
0.0342412 0.0342412 0.0342412
0.0342412 0.0342412 0.0342412
0.0389715 0.0347295 0.0355535
0.0551614 0.0376593 0.0407263
0.0799725 0.0420996 0.0478676
0.114702 0.0485084 0.0565042
0.15848 0.057557 0.0657359
0.204913 0.0672618 0.0731823
0.251652 0.0756695 0.0760967
0.306127 0.0856489 0.0779889
0.373419 0.0978256 0.0793317
0.444404 0.11136 0.0809339
0.515068 0.126192 0.0839857
0.584619 0.142321 0.0892348
0.653849 0.160616 0.0964675
0.722103 0.177996 0.104372
0.755795 0.186252 0.108095
0.755795 0.186252 0.108095
0.755795 0.186252 0.108095
0.755795 0.186252 0.108095
0.755795 0.186252 0.108095
0.0342412 0.0342412 0.0342412
0.0342412 0.0342412 0.0342412
0.0342412 0.0342412 0.0342412
0.0342412 0.0342412 0.0342412
0.0342412 0.0342412 0.0342412
0.0342412 0.0342412 0.0342412
0.0342412 0.0342412 0.0342412
0.0342412 0.0342412 0.0342412
0.0342412 0.0342412 0.0342412
0.0342412 0.0342412 0.0342412
0.0342412 0.0342412 0.0342412
0.0342412 0.0342412 0.0342412
0.0342412 0.0342412 0.0342412
0.0342412 0.0342412 0.0342412
0.038117 0.034638 0.0353246
0.0540627 0.0374456 0.0403754
0.0787518 0.0419013 0.0475776
0.114137 0.0484016 0.0563668
0.158389 0.0575418 0.0657206
0.206012 0.0674907 0.0733043
0.25536 0.0763561 0.0762646
0.316854 0.0873884 0.0781567
0.379416 0.0989853 0.0794232
0.446342 0.111742 0.0809949
0.515373 0.126268 0.0840009
0.584207 0.142214 0.0892042
0.652537 0.160281 0.0963149
0.720577 0.177615 0.104189
0.755795 0.186252 0.108095
0.755795 0.186252 0.108095
0.755795 0.186252 0.108095
0.755795 0.186252 0.108095
0.755795 0.186252 0.108095
0.0342412 0.0342412 0.0342412
0.0342412 0.0342412 0.0342412
0.0342412 0.0342412 0.0342412
0.0342412 0.0342412 0.0342412
0.0342412 0.0342412 0.0342412
0.0342412 0.0342412 0.0342412
0.0342412 0.0342412 0.0342412
0.0342412 0.0342412 0.0342412
0.0342412 0.0342412 0.0342412
0.0342412 0.0342412 0.0342412
0.0342412 0.0342412 0.0342412
0.0342412 0.0342412 0.0342412
0.0342412 0.0342412 0.0342412
0.0342412 0.0342412 0.0342412
0.0368811 0.0345159 0.0349737
0.0528115 0.0372015 0.0399634
0.0776837 0.0417182 0.047303
0.114137 0.0484016 0.0563668
0.161288 0.0581674 0.066331
0.214954 0.0691997 0.0740063
0.264958 0.0781415 0.0767224
0.3196 0.0878614 0.0782177
0.379705 0.0990463 0.0794385
0.445533 0.111574 0.0809644
0.513634 0.125887 0.0839094
0.581979 0.141649 0.0889906
0.650126 0.15964 0.0960555
0.717845 0.176944 0.103883
0.755795 0.186252 0.108095
0.755795 0.186252 0.108095
0.755795 0.186252 0.108095
0.755795 0.186252 0.108095
0.755795 0.186252 0.108095
0.0352178 0.0353246 0.0352178
0.0351873 0.0352941 0.0351873
0.0351415 0.0352331 0.0351415
0.0350805 0.035172 0.0350805
0.0350042 0.0350805 0.0350042
0.0349279 0.0349889 0.0349279
0.0348669 0.0349279 0.0348669
0.0348058 0.0348669 0.0348058
0.0347601 0.0348058 0.0347601
0.0347143 0.0347601 0.0347143
0.034638 0.0346685 0.0346227
0.0345769 0.0346075 0.0345769
0.0345006 0.0345312 0.0345006
0.0344091 0.0344396 0.0344091
0.0342412 0.0342412 0.0342412
0.0492561 0.0364996 0.038819
0.0790417 0.0419471 0.0476387
0.120317 0.0501564 0.0577707
0.167803 0.0603494 0.067628
0.214725 0.0700389 0.0739452
0.26276 0.0784619 0.076524
0.316213 0.0877089 0.0780804
0.375219 0.0982223 0.0793469
0.440558 0.110582 0.0808423
0.508629 0.124788 0.08365
0.576806 0.140337 0.0885023
0.645075 0.158297 0.0955367
0.712963 0.175753 0.103319
0.755795 0.186252 0.108095
0.755795 0.186252 0.108095
0.755932 0.187015 0.108202
0.756161 0.18822 0.108385
0.75642 0.18967 0.108598
0.0408484 0.0415503 0.0398108
0.0407874 0.0414893 0.0397955
0.0407111 0.041413 0.0397498
0.0405585 0.0412451 0.0396735
0.0403601 0.0410315 0.0395666
0.040177 0.0408484 0.0394751
0.0400549 0.0406958 0.0393835
0.0400244 0.0406653 0.0393683
0.0400244 0.0406653 0.0393683
0.0400854 0.0407263 0.0394141
0.0401312 0.0407874 0.0394446
0.0405127 0.0411994 0.0396429
0.0417639 0.0425116 0.0402838
0.0420081 0.0427863 0.0404212
0.0415045 0.042237 0.0401617
0.0614633 0.0467231 0.0450599
0.0894942 0.0539101 0.0518807
0.125002 0.0626993 0.0595865
0.166339 0.0724956 0.0672313
0.209384 0.0817578 0.072282
0.255253 0.0897841 0.0741436
0.3075 0.0981918 0.0752422
0.365148 0.108431 0.0764324
0.430838 0.120714 0.0785382
0.501045 0.13547 0.0827802
0.569497 0.151934 0.0888228
0.637766 0.169741 0.0962997
0.706401 0.187778 0.104234
0.758572 0.201129 0.110307
0.758709 0.202075 0.110445
0.758877 0.203128 0.110582
0.75906 0.204334 0.11075
0.759289 0.205783 0.110948
0.0509041 0.0567636 0.0447089
0.0508736 0.0568093 0.0446937
0.0509041 0.0567636 0.0447089
0.0509499 0.0566873 0.0447089
0.0510109 0.0565652 0.0447395
0.0511025 0.0564126 0.0447547
0.0511788 0.0562753 0.0447852
0.0512245 0.056199 0.0448005
0.0512245 0.0561837 0.0448005
0.0512398 0.0561685 0.0448005
0.0512551 0.0561379 0.0448005
0.0512856 0.0560616 0.0448157
0.0513466 0.0559548 0.044831
0.0514992 0.0556954 0.0448768
0.0518044 0.0551308 0.0449836
0.0689555 0.0546426 0.0453498
0.0934615 0.0605173 0.0513924
0.129671 0.0754101 0.0576944
0.172396 0.088014 0.0632944
0.214405 0.0966812 0.0673533
0.259037 0.10486 0.0699626
0.308568 0.113695 0.0719463
0.362249 0.124208 0.0741894
0.422751 0.136782 0.07776
0.485771 0.151888 0.0827497
0.551354 0.167987 0.0890974
0.618509 0.185809 0.0967422
0.687037 0.203769 0.104707
0.755459 0.221683 0.112581
0.763455 0.224384 0.113558
0.763592 0.224918 0.113634
0.763668 0.225177 0.11368
0.763882 0.225925 0.113787
0.0458534 0.0690166 0.0473945
0.0458534 0.0690166 0.0473945
0.0458686 0.068986 0.047364
0.0459297 0.0688334 0.0472877
0.0460059 0.0685893 0.0471656
0.046128 0.0682536 0.0469978
0.0462501 0.0679332 0.0468299
0.0463264 0.0677195 0.0467231
0.0464027 0.0675059 0.0466011
0.046479 0.0672923 0.0464942
0.0465858 0.0669718 0.0463264
0.0466926 0.0666819 0.0461738
0.0468452 0.0662394 0.0459602
0.0471199 0.0654917 0.0455634
0.0474708 0.0645457 0.0452583
0.064332 0.0665141 0.0411078
0.0927291 0.0719463 0.0426337
0.127275 0.0852064 0.0496529
0.172702 0.106874 0.0572366
0.218006 0.120226 0.0626688
0.264195 0.128923 0.0670329
0.312749 0.137774 0.070573
0.36524 0.148287 0.074342
0.423056 0.160723 0.0789654
0.483986 0.175372 0.0845502
0.547372 0.190372 0.0913252
0.612696 0.207019 0.0988327
0.679591 0.224155 0.106615
0.746777 0.24152 0.114168
0.770871 0.2486 0.116854
0.771145 0.249424 0.11696
0.771496 0.250492 0.117113
0.771878 0.251637 0.117266
0.0449836 0.0883803 0.0558633
0.0449836 0.088426 0.0558785
0.0449836 0.0883803 0.0558633
0.0449836 0.0882429 0.0557717
0.0449989 0.0879683 0.0556191
0.0450294 0.087541 0.0553902
0.0450446 0.087129 0.0551461
0.0450752 0.086717 0.0549172
0.0450904 0.0862135 0.0546273
0.0451209 0.085832 0.0544137
0.0451362 0.08542 0.0541695
0.0451667 0.0849165 0.0538796
0.0451667 0.0842145 0.0535439
0.0450752 0.0834211 0.0532692
0.044892 0.0819562 0.0527504
0.0564126 0.0850385 0.045243
0.0884413 0.0928511 0.0415045
0.125399 0.101961 0.0435798
0.163653 0.119646 0.0479438
0.216968 0.147539 0.057023
0.268559 0.162646 0.0653086
0.318563 0.171695 0.0708476
0.371237 0.180499 0.0759289
0.428122 0.191516 0.0814221
0.487434 0.203876 0.0876631
0.549599 0.217884 0.0946059
0.612863 0.233204 0.101946
0.6795 0.249165 0.109407
0.745998 0.266896 0.116701
0.780728 0.276219 0.120241
0.781079 0.277043 0.120348
0.781521 0.278065 0.12047
0.78201 0.27924 0.120607
0.0484169 0.115694 0.073579
0.0484169 0.115755 0.0736248
0.0484169 0.115694 0.073579
0.0483864 0.115526 0.0734722
0.0483406 0.115251 0.0732738
0.0482643 0.114794 0.0729686
0.0481727 0.114244 0.0725872
0.0480964 0.113741 0.0722362
0.0480049 0.113237 0.0718853
0.0478981 0.112566 0.0714275
0.0477913 0.111955 0.0710002
0.0476387 0.111162 0.0704662
0.0474098 0.110079 0.0697337
0.0471351 0.108797 0.068864
0.0466926 0.106676 0.0674144
0.0508125 0.107729 0.0593271
0.0748913 0.116167 0.0505684
0.124147 0.127504 0.0483558
0.161654 0.134554 0.0500801
0.207874 0.160632 0.0562142
0.267567 0.193866 0.0651713
0.323735 0.211978 0.0727703
0.377737 0.221241 0.0800183
0.435035 0.229389 0.0864118
0.494453 0.239216 0.092546
0.55552 0.251179 0.0991989
0.618875 0.264958 0.106188
0.684077 0.280125 0.113008
0.750546 0.296803 0.119692
0.794064 0.307332 0.123781
0.794354 0.307988 0.123857
0.794736 0.308873 0.123949
0.795209 0.309972 0.124071
0.0551614 0.144961 0.0923018
0.0551766 0.145037 0.0923323
0.0551766 0.145037 0.0923323
0.0551308 0.1449 0.092256
0.0550393 0.144594 0.0920729
0.054902 0.144091 0.0917678
0.0547036 0.143465 0.0913863
0.054551 0.142916 0.0910353
0.0543679 0.14229 0.0906539
0.0541085 0.141405 0.0901198
0.0538949 0.140719 0.0897078
0.0536965 0.139925 0.0892195
0.0534066 0.138857 0.0885634
0.0531014 0.137667 0.0878309
0.0526131 0.135744 0.086656
0.0539254 0.134203 0.081117
0.062501 0.140734 0.0684672
0.115648 0.157061 0.059678
0.173648 0.167742 0.0656901
0.21059 0.175723 0.0705425
0.260243 0.207416 0.0758221
0.323293 0.244511 0.0822309
0.383047 0.265812 0.0881514
0.443366 0.276524 0.0937057
0.5028 0.283513 0.099443
0.564828 0.292607 0.105333
0.627695 0.302968 0.11133
0.693172 0.316655 0.117296
0.759411 0.33109 0.123033
0.810987 0.342718 0.127169
0.811322 0.343435 0.12723
0.811704 0.344244 0.127306
0.812161 0.345205 0.127382
0.0685435 0.183856 0.116258
0.0686809 0.184131 0.116442
0.0686809 0.184131 0.116442
0.0684672 0.183658 0.116136
0.0682994 0.183291 0.115892
0.0680552 0.182727 0.115541
0.0676432 0.181781 0.114931
0.0672007 0.180758 0.11426
0.066743 0.179721 0.113603
0.0663005 0.178683 0.112932
0.0657969 0.177554 0.112215
0.065156 0.176059 0.111254
0.0645304 0.174517 0.110277
0.0639963 0.17293 0.109316
0.0632181 0.170565 0.107866
0.0633402 0.168399 0.105028
0.0728618 0.176379 0.0971542
0.11754 0.197055 0.0929732
0.197024 0.214405 0.107561
0.23621 0.217777 0.111574
0.26833 0.223529 0.109331
0.316701 0.257404 0.107759
0.380545 0.297078 0.107317
0.446891 0.321965 0.108736
0.511894 0.335363 0.110521
0.57406 0.341619 0.113497
0.637659 0.349096 0.117479
0.704295 0.360403 0.122011
0.771038 0.372778 0.126192
0.830488 0.385214 0.130083
0.830732 0.385763 0.130129
0.830976 0.386328 0.130159
0.831342 0.387152 0.130205
0.123476 0.2486 0.166293
0.123629 0.248753 0.1664
0.123629 0.248753 0.1664
0.123476 0.2486 0.166293
0.123049 0.248188 0.165927
0.122026 0.247196 0.165103
0.120714 0.245914 0.164034
0.119265 0.244511 0.16286
0.117662 0.242969 0.161547
0.11548 0.240864 0.159777
0.113588 0.239048 0.158251
0.111406 0.236942 0.156481
0.108797 0.23444 0.15436
0.105455 0.23125 0.151644
0.101595 0.22739 0.148455
0.0976272 0.222721 0.144564
0.116686 0.231571 0.14519
0.165652 0.254078 0.150774
0.232258 0.271412 0.162387
0.276097 0.27718 0.16524
0.303883 0.274495 0.164462
0.329427 0.276829 0.155962
0.374975 0.309453 0.145983
0.441093 0.350469 0.136416
0.511498 0.379889 0.129824
0.581674 0.39707 0.127596
0.648112 0.405783 0.127886
0.715343 0.414176 0.129961
0.783368 0.424628 0.132433
0.850858 0.436179 0.134737
0.851621 0.436408 0.134768
0.851743 0.436713 0.134813
0.852018 0.43743 0.134905
0.223133 0.340459 0.231479
0.223743 0.341085 0.231876
0.223743 0.341085 0.231876
0.223743 0.341085 0.231876
0.223285 0.340627 0.231571
0.222538 0.339834 0.231098
0.221027 0.338277 0.230106
0.219501 0.336706 0.229129
0.217685 0.334844 0.227955
0.215717 0.332815 0.226688
0.213581 0.330632 0.225315
0.211292 0.328298 0.22385
0.208545 0.325521 0.222095
0.204868 0.321798 0.219745
0.200565 0.317479 0.216999
0.193942 0.310872 0.212787
0.199161 0.311101 0.207736
0.230442 0.322866 0.210346
0.282414 0.335027 0.22063
0.32166 0.340688 0.222202
0.347936 0.340856 0.221256
0.369009 0.334386 0.216663
0.390829 0.333547 0.20206
0.434501 0.36202 0.183169
0.500542 0.404837 0.164553
0.576211 0.439979 0.150378
0.653315 0.463691 0.144396
0.725994 0.476188 0.141802
0.794522 0.484276 0.141405
0.863706 0.493523 0.141604
0.873106 0.494575 0.141604
0.873075 0.494469 0.141588
0.873106 0.494575 0.141604
0.316121 0.421469 0.297398
0.316823 0.422065 0.297932
0.316976 0.422171 0.298039
0.317113 0.422293 0.298146
0.316976 0.422171 0.298039
0.315969 0.421347 0.297292
0.314824 0.420401 0.296422
0.313252 0.419104 0.295232
0.311528 0.417685 0.293935
0.309422 0.415991 0.292424
0.307332 0.414298 0.290898
0.304753 0.412207 0.289036
0.302007 0.409995 0.287053
0.298314 0.407004 0.284367
0.293797 0.403372 0.281102
0.287358 0.398169 0.276432
0.285115 0.391882 0.270939
0.308522 0.394766 0.274296
0.339391 0.400671 0.278935
0.37261 0.40531 0.280217
0.396811 0.405615 0.276295
0.416861 0.401785 0.274495
0.433188 0.392004 0.266072
0.450889 0.388357 0.244388
0.491829 0.414893 0.217075
0.561456 0.461189 0.190173
0.644923 0.503151 0.170596
0.727291 0.532067 0.15935
0.804761 0.548699 0.151705
0.8766 0.557412 0.147814
0.894942 0.558801 0.146868
0.894743 0.558221 0.146822
0.894636 0.557885 0.146807
0.399558 0.489433 0.360861
0.400351 0.49012 0.361501
0.400565 0.490303 0.3617
0.400916 0.490608 0.361975
0.400565 0.490303 0.3617
0.400229 0.490013 0.36141
0.399451 0.489326 0.360754
0.398322 0.48835 0.359823
0.396841 0.487068 0.358618
0.395499 0.485893 0.357504
0.393805 0.484428 0.3561
0.391775 0.482658 0.354437
0.389853 0.480995 0.35285
0.387457 0.478935 0.350912
0.383948 0.476005 0.348119
0.378744 0.471962 0.344274
0.373617 0.46656 0.339193
0.382559 0.463355 0.336309
