src/colors/dark_&_moody/cool_haze.cube
TITLE "Generated by Resolve"
LUT_3D_SIZE 9
0.0342412 0.0342412 0.0342412
0.0342412 0.0342412 0.0342412
0.0342412 0.0342412 0.0342412
0.0342412 0.0342412 0.0342412
0.0905928 0.0438392 0.0505226
0.258701 0.0769818 0.0764324
0.498131 0.122515 0.0831159
0.755795 0.186252 0.108095
0.755795 0.186252 0.108095
0.0342412 0.0342412 0.0342412
0.0342412 0.0342412 0.0342412
0.0342412 0.0342412 0.0342412
0.0342412 0.0342412 0.0342412
0.087602 0.0433356 0.0497749
0.255268 0.0763409 0.0762646
0.498955 0.122698 0.0831617
0.755795 0.186252 0.108095
0.755795 0.186252 0.108095
0.0342412 0.0342412 0.0342412
0.0342412 0.0342412 0.0342412
0.0342412 0.0342412 0.0342412
0.0342412 0.0342412 0.0342412
0.0833295 0.0426337 0.0487068
0.251392 0.0756237 0.0760815
0.498436 0.122576 0.0831311
0.755795 0.186252 0.108095
0.755795 0.186252 0.108095
0.0342412 0.0342412 0.0342412
0.0342412 0.0342412 0.0342412
0.0342412 0.0342412 0.0342412
0.0342412 0.0342412 0.0342412
0.0787518 0.0419013 0.0475776
0.25536 0.0763561 0.0762646
0.515373 0.126268 0.0840009
0.755795 0.186252 0.108095
0.755795 0.186252 0.108095
0.0509041 0.0567636 0.0447089
0.0510109 0.0565652 0.0447395
0.0512245 0.0561837 0.0448005
0.0513466 0.0559548 0.044831
0.0934615 0.0605173 0.0513924
0.259037 0.10486 0.0699626
0.485771 0.151888 0.0827497
0.755459 0.221683 0.112581
0.763882 0.225925 0.113787
0.0551614 0.144961 0.0923018
0.0550393 0.144594 0.0920729
0.0543679 0.14229 0.0906539
0.0534066 0.138857 0.0885634
0.062501 0.140734 0.0684672
0.260243 0.207416 0.0758221
0.5028 0.283513 0.099443
0.759411 0.33109 0.123033
0.812161 0.345205 0.127382
0.316121 0.421469 0.297398
0.316976 0.422171 0.298039
0.311528 0.417685 0.293935
0.302007 0.409995 0.287053
0.285115 0.391882 0.270939
0.396811 0.405615 0.276295
0.491829 0.414893 0.217075
0.804761 0.548699 0.151705
0.894636 0.557885 0.146807
0.412985 0.584573 0.457557
0.412726 0.584527 0.457618
0.414405 0.584833 0.457313
0.416846 0.584985 0.456275
0.42388 0.587076 0.453635
0.543664 0.630182 0.476341
0.645975 0.637308 0.458015
0.799268 0.678447 0.343923
0.9523 0.772763 0.243168
0.404486 0.583093 0.459129
0.404486 0.583093 0.459129
0.404486 0.583093 0.459129
0.404486 0.583093 0.459129
0.409003 0.587671 0.461173
0.517403 0.670375 0.493111
0.674418 0.72015 0.523293
0.841947 0.767407 0.521782
0.920119 0.826032 0.642237
0.0342412 0.0342412 0.0342412
0.0342412 0.0342412 0.0342412
0.0342412 0.0342412 0.0342412
0.0342412 0.0342412 0.0342412
0.0870375 0.0432441 0.0496376
0.253773 0.0760662 0.0761883
0.4916 0.12108 0.0827802
0.755795 0.186252 0.108095
0.755795 0.186252 0.108095
0.0342412 0.0342412 0.0342412
0.0342412 0.0342412 0.0342412
0.0342412 0.0342412 0.0342412
0.0342412 0.0342412 0.0342412
0.0840314 0.0427558 0.0488899
0.250767 0.0755169 0.076051
0.494347 0.121691 0.0829175
0.755795 0.186252 0.108095
0.755795 0.186252 0.108095
0.0342412 0.0342412 0.0342412
0.0342412 0.0342412 0.0342412
0.0342412 0.0342412 0.0342412
0.0342412 0.0342412 0.0342412
0.0798962 0.0420844 0.0478523
0.246738 0.0748302 0.0758526
0.493126 0.121416 0.0828565
0.755795 0.186252 0.108095
0.755795 0.186252 0.108095
0.0342412 0.0342412 0.0342412
0.0342412 0.0342412 0.0342412
0.0342412 0.0342412 0.0342412
0.0342412 0.0342412 0.0342412
0.0753796 0.0413214 0.0466773
0.25034 0.0754253 0.0760357
0.510979 0.125292 0.083772
0.755795 0.186252 0.108095
0.755795 0.186252 0.108095
0.051606 0.0555123 0.0449073
0.0515755 0.0555581 0.0449073
0.0518196 0.0551156 0.0449836
0.0518654 0.0550393 0.0449836
0.0902113 0.0589609 0.0509804
0.254749 0.102373 0.0701762
0.48246 0.149172 0.0823072
0.753765 0.219181 0.112139
0.763333 0.223957 0.113497
0.0543069 0.142092 0.090547
0.0542306 0.141848 0.0903944
0.0536355 0.139696 0.0890822
0.052842 0.136645 0.0872206
0.0603647 0.137728 0.067689
0.257069 0.204593 0.0743877
0.500618 0.281605 0.0990005
0.755459 0.327764 0.12253
0.81117 0.343114 0.127199
0.310231 0.416632 0.293004
0.311833 0.417929 0.294163
0.306691 0.413779 0.29044
0.297505 0.406363 0.283787
0.282216 0.389471 0.268772
0.396765 0.40531 0.276005
0.493019 0.416007 0.217838
0.801434 0.545235 0.1514
0.893797 0.555383 0.14667
0.414832 0.584909 0.457221
0.41445 0.584833 0.457298
0.415885 0.585061 0.456962
0.41799 0.584894 0.455436
0.423529 0.585718 0.452583
0.541772 0.627665 0.474739
0.643534 0.634852 0.456626
0.79498 0.674983 0.342153
0.952422 0.771298 0.238788
0.404486 0.583093 0.459129
0.404486 0.583093 0.459129
0.404486 0.583093 0.459129
0.404486 0.583093 0.459129
0.407019 0.585657 0.460273
0.513237 0.668894 0.49163
0.671824 0.719432 0.523491
0.83769 0.766232 0.521935
0.920119 0.826032 0.642237
0.0342412 0.0342412 0.0342412
0.0342412 0.0342412 0.0342412
0.0342412 0.0342412 0.0342412
0.0342412 0.0342412 0.0342412
0.0807507 0.0422217 0.0480659
0.245884 0.0746929 0.0758068
0.480659 0.118685 0.0822309
0.755795 0.186252 0.108095
0.755795 0.186252 0.108095
0.0342412 0.0342412 0.0342412
0.0342412 0.0342412 0.0342412
0.0342412 0.0342412 0.0342412
0.0342412 0.0342412 0.0342412
0.0778363 0.0417487 0.0473487
0.243687 0.0743114 0.0757
0.485069 0.119646 0.0824445
0.755795 0.186252 0.108095
0.755795 0.186252 0.108095
0.0342412 0.0342412 0.0342412
0.0342412 0.0342412 0.0342412
0.0342412 0.0342412 0.0342412
0.0342412 0.0342412 0.0342412
0.0741436 0.0411078 0.0463264
0.239124 0.0735485 0.0754711
0.482094 0.119005 0.0823072
0.755795 0.186252 0.108095
0.755795 0.186252 0.108095
0.0342412 0.0342412 0.0342412
0.0342412 0.0342412 0.0342412
0.0342412 0.0342412 0.0342412
0.0342412 0.0342412 0.0342412
0.0700694 0.0404059 0.0451972
0.240558 0.0737926 0.0755322
0.501518 0.123247 0.0832837
0.755795 0.186252 0.108095
0.755795 0.186252 0.108095
0.0500649 0.0521096 0.0442359
0.0507515 0.0529793 0.0445106
0.0502327 0.0523232 0.0442969
0.0503853 0.0525216 0.044358
0.0832685 0.0556954 0.0501564
0.245335 0.0969558 0.0708171
0.475135 0.143252 0.0814069
0.753231 0.213733 0.111421
0.762158 0.219562 0.112871
0.0528572 0.136706 0.0872511
0.0528878 0.136812 0.0873121
0.0523842 0.134844 0.0861067
0.0516518 0.132006 0.0843824
0.0587015 0.131792 0.0669566
0.248203 0.197055 0.0704662
0.491753 0.273671 0.0971847
0.747036 0.320729 0.121431
0.808347 0.337163 0.12668
0.295567 0.404791 0.282383
0.298787 0.407401 0.284718
0.294286 0.403754 0.281453
0.285908 0.396994 0.27538
0.270954 0.381308 0.261662
0.388815 0.399039 0.270817
0.488975 0.412284 0.215488
0.794202 0.537758 0.150652
0.891157 0.547433 0.146166
0.417639 0.584909 0.455695
0.417319 0.584939 0.455924
0.41828 0.584863 0.455222
0.42031 0.58471 0.453742
0.424338 0.584161 0.450614
0.538109 0.622751 0.471534
0.638331 0.629633 0.453513
0.783444 0.665599 0.337407
0.95259 0.767315 0.227634
0.404486 0.583093 0.459129
0.404486 0.583093 0.459129
0.404486 0.583093 0.459129
0.404486 0.583093 0.459129
0.404486 0.583093 0.459129
0.50573 0.665904 0.489067
0.666453 0.717952 0.523873
0.82977 0.76405 0.522179
0.920119 0.826032 0.642237
0.0342412 0.0342412 0.0342412
0.0342412 0.0342412 0.0342412
0.0342412 0.0342412 0.0342412
0.0342412 0.0342412 0.0342412
0.0717937 0.0407111 0.0456703
0.233143 0.0725414 0.0751659
0.463294 0.115053 0.0815137
0.733379 0.180743 0.105638
0.755795 0.186252 0.108095
0.0342412 0.0342412 0.0342412
0.0342412 0.0342412 0.0342412
0.0342412 0.0342412 0.0342412
0.0342412 0.0342412 0.0342412
0.0698405 0.0403754 0.0451362
0.232563 0.0724498 0.0751354
0.470817 0.116548 0.0817578
0.755795 0.186252 0.108095
0.755795 0.186252 0.108095
0.0342412 0.0342412 0.0342412
0.0342412 0.0342412 0.0342412
0.0342412 0.0342412 0.0342412
0.0342412 0.0342412 0.0342412
0.0658274 0.0396735 0.0440223
0.227634 0.0716106 0.074876
0.467872 0.115953 0.081651
0.755795 0.186252 0.108095
0.755795 0.186252 0.108095
0.0342412 0.0342412 0.0342412
0.0342412 0.0342412 0.0342412
0.0342412 0.0342412 0.0342412
0.0342412 0.0342412 0.0342412
0.0620279 0.0390173 0.0429541
0.227893 0.0716564 0.0749065
0.486793 0.120027 0.082536
0.755795 0.186252 0.108095
0.755795 0.186252 0.108095
0.0449836 0.0459449 0.0419623
0.0458991 0.0469062 0.0424353
0.0457618 0.0467842 0.0423743
0.0471656 0.0483711 0.0430304
0.07364 0.0516213 0.0482643
0.232547 0.0905776 0.0717937
0.464469 0.134081 0.0802014
0.74667 0.204685 0.109758
0.760388 0.212451 0.111849
0.0507362 0.128344 0.0821546
0.0509804 0.129351 0.0827649
0.0505684 0.127657 0.0817273
0.0499733 0.124956 0.0800031
0.0552071 0.122591 0.0667124
0.234684 0.184909 0.065156
0.476478 0.259541 0.0939193
0.732845 0.309163 0.119509
0.803601 0.32726 0.12578
0.271702 0.385565 0.265064
0.277684 0.390387 0.269398
0.274769 0.388037 0.267292
0.266545 0.380941 0.261418
0.249851 0.364981 0.248569
0.371771 0.38468 0.259083
0.476036 0.400488 0.208286
0.781048 0.523781 0.148775
0.886366 0.532891 0.145129
0.422507 0.584527 0.452155
0.421424 0.584619 0.452934
0.422065 0.584573 0.452476
0.424063 0.584329 0.450935
0.427161 0.582467 0.447135
0.531029 0.613993 0.465446
0.629923 0.621408 0.448417
0.76408 0.649699 0.329915
0.95169 0.759945 0.213977
0.404486 0.583093 0.459129
0.404486 0.583093 0.459129
0.404486 0.583093 0.459129
0.404486 0.583093 0.459129
0.404486 0.583093 0.459129
0.494835 0.661433 0.485359
0.658839 0.715862 0.524285
0.817273 0.760601 0.522194
0.920119 0.826032 0.642237
0.0361791 0.0374609 0.0443122
0.0359655 0.0371405 0.0434272
0.0357977 0.0368353 0.0426337
0.0355688 0.036408 0.0415961
0.0596475 0.0416419 0.058381
0.2168 0.0584115 0.0852216
0.435889 0.102464 0.0935988
0.70277 0.171252 0.108431
0.755795 0.186252 0.108095
0.0359045 0.0370489 0.0431678
0.0357977 0.0368505 0.0426642
0.0356756 0.0366369 0.0421302
0.035462 0.0362402 0.0411688
0.0588235 0.041474 0.0578164
0.218311 0.0585184 0.0861524
0.446937 0.101869 0.0973983
0.746853 0.17818 0.128191
0.757778 0.180423 0.130449
0.0357671 0.0367895 0.0425116
0.0356909 0.0366674 0.0422217
0.035584 0.0364538 0.0416876
0.0352636 0.0358587 0.040238
0.0557717 0.0406806 0.0553292
0.213962 0.0585794 0.0834669
0.447501 0.10251 0.0968948
0.754925 0.179782 0.130037
0.75787 0.179492 0.133303
0.0353399 0.0360113 0.0406195
0.0354467 0.0362097 0.0411078
0.0353246 0.0359655 0.0405127
0.0350652 0.0355077 0.0392309
0.0533455 0.0397192 0.0525216
0.213046 0.0589914 0.082887
0.465461 0.100359 0.10164
0.750332 0.180056 0.125277
0.757702 0.18085 0.129122
0.0371405 0.0417639 0.0464027
0.0372473 0.0417792 0.047013
0.0370031 0.041062 0.0459297
0.0379034 0.0435187 0.0496681
0.0592355 0.0504768 0.0607919
0.219013 0.0753338 0.0822461
0.453712 0.118853 0.0918135
0.734539 0.190265 0.11667
0.759915 0.199817 0.123568
0.0415351 0.109316 0.0787213
0.0419165 0.111574 0.0802625
0.04271 0.111086 0.0791028
0.0429999 0.109071 0.0770733
0.0444343 0.104479 0.0700999
0.21297 0.165957 0.0579538
0.454383 0.23975 0.0894179
0.712657 0.292744 0.116503
0.796811 0.313451 0.124422
0.235691 0.352911 0.239872
0.246235 0.362478 0.247242
0.247776 0.363882 0.248325
0.239353 0.356222 0.242435
0.222538 0.339834 0.231098
0.347768 0.365026 0.242893
0.459968 0.385183 0.198795
0.762142 0.504417 0.146075
0.87924 0.511955 0.143328
0.428702 0.581537 0.445258
0.426947 0.582589 0.447395
0.426749 0.582712 0.447654
0.428138 0.581872 0.445945
0.430747 0.580255 0.44271
0.520607 0.601572 0.456809
0.617807 0.609583 0.441154
0.744732 0.633875 0.323232
0.950027 0.749767 0.197131
0.404486 0.583093 0.459129
0.404486 0.583093 0.459129
0.404486 0.583093 0.459129
0.404486 0.583093 0.459129
0.404486 0.583093 0.459129
0.482841 0.654871 0.482033
0.649165 0.713222 0.52462
0.802884 0.756603 0.521233
0.920119 0.826032 0.642237
0.0511788 0.0704509 0.120928
0.0509804 0.0693217 0.119188
0.050782 0.0681163 0.117327
0.0501717 0.0659495 0.113481
0.0507973 0.0665446 0.117937
0.171099 0.0676432 0.135195
0.370428 0.066743 0.177676
0.655055 0.0782635 0.197055
0.749767 0.0879072 0.189578
0.0509651 0.0691844 0.11899
0.0508125 0.0682994 0.117632
0.0505226 0.067216 0.11574
0.0500038 0.0654002 0.112505
0.0508278 0.0666972 0.118242
0.173846 0.0685588 0.138125
0.378332 0.0679332 0.186038
0.67863 0.0826276 0.222843
0.73431 0.0903944 0.2477
0.0509041 0.0688792 0.118517
0.050721 0.0679332 0.117006
0.0501564 0.0659342 0.113436
0.049485 0.0635386 0.109163
0.050309 0.0645762 0.114015
0.172351 0.0680858 0.136629
0.38555 0.0690929 0.1935
0.707454 0.088838 0.257496
0.725933 0.0917678 0.269093
0.0507057 0.0678416 0.116854
0.0504311 0.0668956 0.115175
0.0497749 0.0645914 0.11104
0.0492866 0.0628824 0.108003
0.0495308 0.0619211 0.108446
0.170718 0.0674907 0.134737
0.392798 0.0703288 0.201511
0.704601 0.0877852 0.250263
0.729717 0.0911269 0.259876
0.0470588 0.0575265 0.0950179
0.0492409 0.0627146 0.107713
0.0496071 0.0640116 0.110018
0.0486 0.0605783 0.103777
0.0493935 0.0666209 0.110445
0.179583 0.0702068 0.142992
0.388144 0.0700694 0.195941
0.69514 0.085481 0.235248
0.735622 0.092134 0.24358
0.0390173 0.149523 0.153826
0.0395209 0.154604 0.159655
0.0395666 0.155383 0.160372
0.039353 0.151644 0.156558
0.0394598 0.145586 0.150591
0.129595 0.175036 0.180911
0.434623 0.202548 0.201877
0.687343 0.222095 0.194522
0.790341 0.244251 0.19646
0.0607767 0.21651 0.171649
0.0637217 0.22446 0.179736
0.0649729 0.227115 0.181949
0.0637827 0.224048 0.17879
0.0617838 0.218601 0.173037
0.101381 0.253773 0.191485
0.439673 0.372122 0.225818
0.741939 0.469932 0.208316
0.873991 0.476905 0.212711
0.323262 0.484047 0.392294
0.305318 0.474403 0.385199
0.306661 0.477729 0.388251
0.311131 0.480034 0.389914
0.313573 0.478737 0.388403
0.415396 0.553414 0.424018
0.594827 0.59884 0.442298
0.715663 0.6112 0.326238
0.947555 0.732509 0.208988
0.324315 0.520928 0.42388
0.311498 0.51133 0.416602
0.313802 0.513085 0.417975
0.322454 0.51957 0.422904
0.329595 0.524758 0.426657
0.431373 0.604868 0.48246
0.617258 0.710826 0.534051
0.784573 0.755383 0.527138
0.919264 0.827298 0.649363
0.0626383 0.132509 0.215793
0.0625315 0.13164 0.214633
0.0623789 0.130358 0.212955
0.0623789 0.130251 0.212802
0.0619059 0.125444 0.206943
0.0659342 0.137072 0.244602
0.287587 0.0938582 0.213764
0.495338 0.0946975 0.304906
0.666972 0.107012 0.357336
0.062501 0.131411 0.214343
0.0624552 0.130922 0.213703
0.0623026 0.129732 0.212131
0.0620737 0.127672 0.209369
0.0615396 0.123018 0.203449
0.0661479 0.135241 0.242466
0.292119 0.0950942 0.217212
0.506981 0.100542 0.318242
0.64387 0.114992 0.373754
0.0622416 0.129107 0.211292
0.0622263 0.129 0.211139
0.062089 0.127886 0.209674
0.0619059 0.126207 0.207446
0.0613718 0.122286 0.202121
0.0674449 0.135927 0.244282
0.304219 0.0987564 0.225925
0.536995 0.121798 0.354116
0.591959 0.134646 0.388632
0.0617838 0.1252 0.206088
0.0618448 0.125734 0.206806
0.0619974 0.127062 0.208576
0.0617227 0.124743 0.205478
0.0610819 0.120562 0.199496
0.0661936 0.134859 0.241886
0.30901 0.100298 0.22974
0.537194 0.119997 0.352285
0.595651 0.132906 0.388479
0.0604257 0.116136 0.193042
0.0608682 0.119173 0.197513
0.0615702 0.12372 0.204013
0.061738 0.124804 0.205554
0.0619974 0.127016 0.208499
0.0702831 0.138933 0.250385
0.307271 0.099733 0.228443
0.533852 0.115404 0.346273
0.607416 0.128038 0.386755
0.0596933 0.181659 0.233387
0.0608682 0.194965 0.245655
0.0623026 0.200641 0.254612
0.0629282 0.196216 0.254627
0.061677 0.189914 0.246021
0.065156 0.195544 0.26392
0.333303 0.145556 0.260533
0.542489 0.115648 0.329549
0.702525 0.230961 0.412284
0.0649577 0.276951 0.272953
0.0684062 0.284398 0.279911
0.0708171 0.289662 0.284627
0.0703746 0.288716 0.283833
0.0697032 0.286824 0.282536
0.0658579 0.278523 0.27483
0.368582 0.436301 0.430304
0.698573 0.443351 0.447013
0.83769 0.444816 0.431876
0.106798 0.323781 0.285939
0.111315 0.331838 0.294408
0.113878 0.336492 0.299306
0.115862 0.338338 0.30016
0.115572 0.336507 0.297414
0.112093 0.32874 0.288548
0.421225 0.551263 0.483543
0.723766 0.634241 0.481102
0.950515 0.717235 0.385992
0.172305 0.405371 0.341283
0.1673 0.40264 0.342443
0.165103 0.401511 0.343282
0.167376 0.40267 0.342412
0.170535 0.404349 0.341482
0.207919 0.432746 0.361166
0.466239 0.631083 0.527703
0.764965 0.769574 0.569162
0.930373 0.852934 0.699489
0.0743114 0.212543 0.307393
0.0741131 0.211795 0.30663
0.0736706 0.209873 0.304677
0.0731975 0.207111 0.301762
0.0721141 0.20061 0.294957
0.0745861 0.206165 0.307332
0.127535 0.213504 0.359808
0.402426 0.149691 0.303471
0.531121 0.178012 0.384649
0.0741436 0.211902 0.306752
0.0741436 0.211902 0.306752
0.0738384 0.210666 0.305501
0.0733806 0.20824 0.302968
0.0724804 0.202899 0.297353
0.0757153 0.210727 0.312535
0.135943 0.224353 0.372
0.419059 0.163592 0.317861
0.525048 0.189502 0.385336
0.0735637 0.209277 0.304036
0.0738079 0.210513 0.305333
0.0737469 0.2103 0.305104
0.0734112 0.208392 0.30312
0.0728161 0.204868 0.299413
0.0775311 0.217304 0.319936
0.146761 0.232715 0.382834
0.467094 0.211139 0.362676
0.518029 0.236286 0.398795
0.0727398 0.204379 0.298894
0.0730907 0.2065 0.301137
0.0731975 0.207141 0.301808
0.0729076 0.205432 0.300023
0.0724498 0.20267 0.297108
0.0770886 0.215854 0.318151
0.156832 0.242191 0.393606
0.47715 0.222339 0.373098
0.519081 0.244297 0.402884
0.0709239 0.194369 0.288365
0.0718547 0.199237 0.293507
0.0728161 0.204837 0.299382
0.0728161 0.204868 0.299413
0.0734569 0.208621 0.303365
0.0804913 0.227253 0.330632
0.155962 0.243183 0.393713
0.470451 0.214939 0.366262
0.518013 0.236118 0.398703
0.0693828 0.200397 0.283284
0.0744945 0.232227 0.310628
0.0768902 0.24387 0.320272
0.0766155 0.242405 0.319142
0.0757153 0.237919 0.315541
0.0778668 0.236896 0.322362
0.141115 0.268345 0.383062
0.442084 0.18587 0.338994
0.547723 0.251316 0.420371
0.100389 0.317922 0.364446
0.110811 0.332967 0.379156
0.117571 0.341878 0.387442
0.118044 0.342458 0.388052
0.114961 0.338567 0.384314
0.108949 0.32987 0.377218
0.163409 0.359792 0.416464
0.588449 0.428092 0.518257
0.690379 0.455253 0.582605
0.112123 0.350881 0.343465
0.118639 0.360021 0.352544
0.124727 0.369162 0.361822
0.125338 0.370153 0.362814
0.123659 0.367468 0.360128
0.119631 0.360632 0.35317
0.127642 0.36701 0.360311
0.641123 0.665217 0.658747
0.895171 0.661006 0.670558
0.153826 0.410941 0.379599
0.156573 0.419226 0.392309
0.157122 0.426123 0.402502
0.157076 0.425284 0.401266
0.156939 0.422049 0.396551
0.166644 0.422736 0.393118
0.265538 0.507164 0.469825
0.640635 0.761303 0.699519
0.927749 0.866331 0.787457
0.0812238 0.238666 0.333715
0.0812238 0.238666 0.333715
0.0812238 0.238666 0.333715
0.0812238 0.238666 0.333715
0.0812238 0.238666 0.333715
0.0845045 0.245945 0.342962
0.104509 0.280415 0.388617
0.303471 0.313237 0.463752
0.534295 0.288457 0.434455
0.0812238 0.238666 0.333715
0.0812238 0.238666 0.333715
0.0812238 0.238666 0.333715
0.0812238 0.238666 0.333715
0.0812238 0.238666 0.333715
0.0847486 0.24654 0.343633
0.107622 0.281483 0.390433
0.364782 0.32694 0.479347
0.534295 0.288457 0.434455
0.0812238 0.238666 0.333715
0.0812238 0.238666 0.333715
0.0812238 0.238666 0.333715
0.0812238 0.238666 0.333715
0.0812238 0.238666 0.333715
0.0856947 0.248524 0.346136
0.121523 0.285985 0.397543
0.48188 0.334478 0.477363
0.534295 0.288457 0.434455
0.0812238 0.238666 0.333715
0.0812238 0.238666 0.333715
0.0812238 0.238666 0.333715
0.0812238 0.238666 0.333715
0.0812238 0.238666 0.333715
0.0866712 0.250416 0.348623
0.153002 0.291875 0.407233
0.510109 0.307561 0.449577
0.534295 0.288457 0.434455
0.0812238 0.238666 0.333715
0.0812238 0.238666 0.333715
0.0812238 0.238666 0.333715
0.0812238 0.238666 0.333715
0.0812238 0.238666 0.333715
0.0881361 0.253315 0.352346
0.14934 0.291707 0.406867
0.507225 0.310567 0.451987
0.534295 0.288457 0.434455
0.0825666 0.244205 0.337377
0.0839399 0.25008 0.340948
0.0866865 0.264164 0.349126
0.0870375 0.26566 0.349966
0.0864881 0.263401 0.348684
0.0885634 0.263706 0.352728
0.114931 0.295476 0.398611
0.490166 0.357244 0.49601
0.549981 0.313359 0.453651
0.101427 0.308171 0.374441
0.113771 0.331228 0.389563
0.122606 0.344244 0.399222
0.124559 0.346944 0.401358
0.122133 0.343557 0.398688
0.117891 0.336675 0.394903
0.139345 0.354788 0.429038
0.361044 0.44033 0.517632
0.644846 0.461631 0.565164
0.16701 0.404547 0.443915
0.166232 0.409094 0.439124
0.164431 0.413153 0.436362
0.163775 0.414878 0.436133
0.164202 0.413748 0.436286
0.166064 0.412375 0.438529
0.18645 0.429953 0.469566
0.392172 0.562295 0.598779
0.779583 0.650095 0.727108
0.163439 0.465797 0.460426
0.170291 0.486 0.4813
0.170291 0.486 0.4813
0.170291 0.486 0.4813
0.170291 0.486 0.4813
0.170718 0.486183 0.481483
0.252949 0.53933 0.533898
0.441871 0.686275 0.679164
0.857374 0.864134 0.853788
