src/colors/dark_&_moody/dramatic_warmth.cube
LUT_3D_SIZE 16
0.071504 0.026912 0.004055
0.082587 0.026851 0.003593
0.105877 0.028380 0.003065
0.134364 0.030923 0.002673
0.171258 0.034019 0.002328
0.221243 0.036342 0.001808
0.276550 0.038007 0.001222
0.334537 0.038380 0.000676
0.392997 0.037165 0.000274
0.447288 0.034738 0.000073
0.495337 0.031418 0.000015
0.537711 0.028231 0.000002
0.575873 0.024651 0.000000
0.608821 0.021283 0.000000
0.633496 0.019416 0.000000
0.657442 0.017850 0.000000
0.057706 0.041352 0.006149
0.067633 0.039673 0.005054
0.088077 0.040616 0.004015
0.113124 0.043599 0.003428
0.144070 0.047897 0.002994
0.184238 0.052992 0.002533
0.234339 0.058017 0.001932
0.294229 0.061836 0.001218
0.359766 0.063203 0.000554
0.418567 0.061487 0.000197
0.468277 0.057732 0.000040
0.516388 0.052484 0.000005
0.562645 0.045805 0.000000
0.602040 0.039563 0.000000
0.627434 0.036221 0.000000
0.651729 0.033360 0.000000
0.031726 0.071962 0.008956
0.042026 0.069412 0.007699
0.063649 0.068059 0.006263
0.087060 0.070807 0.005460
0.115928 0.075018 0.004830
0.153896 0.080062 0.004179
0.202177 0.085433 0.003378
0.262074 0.090218 0.002089
0.327280 0.094211 0.001077
0.393876 0.095049 0.000421
0.445757 0.093076 0.000133
0.495397 0.089502 0.000015
0.544314 0.084577 0.000000
0.589751 0.079597 0.000000
0.625066 0.076130 0.000000
0.649718 0.074111 0.000000
0.028479 0.099687 0.010210
0.034638 0.098133 0.009156
0.046244 0.099068 0.008203
0.064595 0.101091 0.007495
0.095689 0.104996 0.006717
0.133502 0.109654 0.005966
0.178681 0.114921 0.005200
0.233918 0.120316 0.004370
0.299876 0.124709 0.002624
0.374855 0.126544 0.000746
0.431065 0.126765 0.000279
0.481521 0.125667 0.000046
0.530239 0.123475 0.000002
0.578863 0.120640 0.000000
0.622951 0.117828 0.000000
0.650647 0.116697 0.000000
0.023045 0.130303 0.011876
0.031149 0.128446 0.010598
0.043567 0.128892 0.009617
0.057871 0.131601 0.009005
0.076762 0.136561 0.008590
0.112786 0.142412 0.007927
0.158635 0.147421 0.007083
0.212215 0.152891 0.006256
0.275830 0.157936 0.004492
0.349021 0.161134 0.001970
0.417191 0.161572 0.000812
0.472782 0.160831 -0.000215
0.521230 0.160031 0.000010
0.570392 0.158825 0.000000
0.619162 0.157187 0.000000
0.653672 0.156371 0.000000
0.013386 0.167477 0.018018
0.022297 0.166044 0.013027
0.037087 0.166146 0.011789
0.052993 0.168372 0.011015
0.073541 0.173123 0.010418
0.099031 0.179205 0.009894
0.134037 0.188102 0.009508
0.190569 0.192964 0.008504
0.254163 0.197540 0.006317
0.326424 0.200870 0.003407
0.402380 0.201895 0.001433
0.461102 0.201703 -0.000629
0.512125 0.200898 -0.000803
0.562852 0.199924 -0.000595
0.612898 0.199103 0.000000
0.658924 0.198634 0.000000
0.012362 0.204826 0.029843
0.013138 0.203959 0.024017
0.025713 0.204240 0.014270
0.045138 0.206557 0.013431
0.068053 0.211512 0.012645
0.094803 0.217822 0.011896
0.126235 0.224954 0.011336
0.167246 0.235986 0.011128
0.231205 0.241927 0.008882
0.304905 0.245412 0.004772
0.384189 0.246909 0.001961
0.448888 0.247336 -0.000948
0.503891 0.247031 -0.001289
0.555580 0.246779 -0.001227
0.606912 0.246475 -0.001109
0.658802 0.246087 -0.000934
0.012519 0.243851 0.038403
0.012622 0.243235 0.034115
0.014497 0.243707 0.025406
0.032093 0.246330 0.015788
0.059228 0.251497 0.015147
0.088191 0.257944 0.014159
0.120998 0.265345 0.013346
0.159708 0.273715 0.012820
0.210028 0.286225 0.011570
0.282322 0.291695 0.006207
0.364225 0.293036 0.002423
0.436046 0.293249 -0.001324
0.495977 0.292977 -0.001708
0.548462 0.292705 -0.001667
0.600589 0.292602 -0.001595
0.653999 0.292447 -0.001505
0.013565 0.285109 0.045732
0.013548 0.284628 0.041301
0.013822 0.284990 0.035841
0.016389 0.287645 0.025263
0.045711 0.292816 0.017556
0.078740 0.299092 0.016470
0.113560 0.306417 0.015368
0.153087 0.314598 0.014604
0.199640 0.323804 0.013362
0.262434 0.337665 0.007477
0.342901 0.340361 0.002873
0.422586 0.340224 -0.001844
0.487827 0.339747 -0.002143
0.541818 0.339388 -0.002086
0.594862 0.339272 -0.002023
0.648729 0.339281 -0.001958
0.014854 0.324295 0.052906
0.014857 0.324435 0.048227
0.014935 0.325433 0.042362
0.015822 0.328500 0.035616
0.021041 0.334185 0.019157
0.065304 0.340888 0.018725
0.103036 0.348457 0.017322
0.144112 0.356813 0.016330
0.191074 0.365991 0.014158
0.248985 0.376560 0.007810
0.323712 0.389802 0.002886
0.408540 0.389344 -0.002470
0.479202 0.388115 -0.002598
0.535281 0.387108 -0.002517
0.589654 0.386629 -0.002448
0.644067 0.386565 -0.002387
0.016056 0.358936 0.060567
0.016060 0.359129 0.055771
0.016090 0.360005 0.049483
0.016352 0.363042 0.043352
0.017644 0.368487 0.035058
0.048709 0.375118 0.020967
0.089888 0.382553 0.019323
0.133298 0.390843 0.017971
0.180989 0.400197 0.015698
0.237915 0.410822 0.008028
0.307880 0.422346 0.003064
0.389654 0.432136 -0.002930
0.466339 0.430861 -0.003019
0.527496 0.430007 -0.002920
0.583269 0.429678 -0.002844
0.638508 0.429760 -0.002780
0.017251 0.392340 0.068768
0.017252 0.392411 0.063826
0.017287 0.393360 0.057116
0.017395 0.396457 0.050626
0.017961 0.401654 0.043386
0.021582 0.408105 0.025600
0.073329 0.415435 0.021679
0.120522 0.423483 0.019787
0.169779 0.432650 0.017854
0.226734 0.443085 0.008585
0.295291 0.454671 0.003137
0.375656 0.466501 -0.003116
0.451698 0.470572 -0.003437
0.518818 0.469287 -0.003308
0.575973 0.468301 -0.003213
0.631988 0.467961 -0.003136
0.018383 0.423220 0.078308
0.018392 0.423495 0.073100
0.018442 0.424943 0.065693
0.018560 0.428238 0.058469
0.018858 0.433494 0.050991
0.019618 0.439737 0.041926
0.056293 0.447066 0.024508
0.105361 0.454916 0.021901
0.157396 0.463708 0.020275
0.215076 0.473965 0.010622
0.282545 0.485318 0.004158
0.361385 0.497144 -0.003305
0.441499 0.507505 -0.003704
0.509789 0.507052 -0.003700
0.568180 0.505776 -0.003588
0.625375 0.505040 -0.003495
0.019411 0.450856 0.090295
0.019429 0.451374 0.084747
0.019491 0.453423 0.076515
0.019486 0.457179 0.068406
0.019479 0.462591 0.060193
0.019471 0.468766 0.051277
0.032270 0.476250 0.025911
0.087352 0.484092 0.024633
0.143957 0.492986 0.022162
0.202893 0.503203 0.014697
0.269998 0.514709 0.006149
0.347883 0.526701 -0.003296
0.429347 0.537772 -0.003856
0.502873 0.543877 -0.004015
0.560197 0.542779 -0.003974
0.618705 0.541977 -0.003866
0.019462 0.474604 0.105069
0.019461 0.474988 0.099345
0.019458 0.477384 0.090597
0.019453 0.481352 0.081823
0.019447 0.486631 0.072788
0.019438 0.492976 0.062768
0.023045 0.500656 0.048389
0.065942 0.509212 0.028668
0.129451 0.518468 0.024775
0.190458 0.529086 0.021474
0.257425 0.541165 0.010183
0.334279 0.553712 -0.002455
0.417610 0.566002 -0.003946
0.495659 0.576025 -0.004196
0.553423 0.578423 -0.004300
0.611875 0.577496 -0.004239
0.019430 0.497885 0.122545
0.019430 0.498008 0.116745
0.019428 0.500819 0.107480
0.019422 0.504901 0.098143
0.019414 0.510108 0.088495
0.019406 0.516250 0.077849
0.020397 0.523771 0.065569
0.034617 0.532316 0.032554
0.111781 0.541336 0.029492
0.176946 0.551742 0.025389
0.244488 0.563432 0.017167
0.320663 0.575990 0.006677
0.405433 0.588704 -0.003758
0.484135 0.599138 -0.004321
0.547115 0.605980 -0.004453
0.603734 0.606384 -0.004547
0.075058 0.027375 0.006957
0.087736 0.027569 0.006126
0.113137 0.029142 0.005226
0.143248 0.031480 0.004567
0.182528 0.034262 0.004031
0.234789 0.035679 0.003237
0.289743 0.036710 0.002371
0.346922 0.036490 0.001477
0.405795 0.034584 0.000686
0.458514 0.032464 0.000203
0.505849 0.029810 0.000040
0.546863 0.026526 0.000005
0.583446 0.022646 0.000000
0.615236 0.019108 0.000000
0.639382 0.017108 0.000000
0.663235 0.015390 0.000000
0.059776 0.041306 0.011171
0.070442 0.039923 0.008726
0.093209 0.040353 0.006428
0.120533 0.042814 0.005351
0.153014 0.046840 0.004780
0.196757 0.050808 0.004026
0.249397 0.054603 0.003124
0.310468 0.056959 0.002078
0.375830 0.056826 0.001062
0.432077 0.054339 0.000397
0.481251 0.050294 0.000078
0.528074 0.044863 0.000007
0.571664 0.038357 0.000000
0.608225 0.032470 0.000000
0.633056 0.029220 0.000000
0.657312 0.026431 0.000000
0.027552 0.072939 0.017300
0.038608 0.070949 0.013972
0.063881 0.069219 0.010491
0.089264 0.071423 0.008655
0.119575 0.075189 0.007402
0.159025 0.079886 0.006251
0.209281 0.084873 0.005034
0.270390 0.089364 0.003520
0.336488 0.092635 0.002152
0.402086 0.092552 0.000973
0.452883 0.089786 0.000307
0.502534 0.085444 0.000031
0.551110 0.079895 0.000000
0.595389 0.074457 0.000000
0.628752 0.070824 0.000000
0.653458 0.068538 0.000000
0.018476 0.101145 0.020245
0.028900 0.099813 0.015939
0.044181 0.100683 0.013407
0.064441 0.102667 0.011668
0.097660 0.105842 0.010061
0.136921 0.109977 0.008615
0.183669 0.114886 0.007262
0.240554 0.119838 0.005823
0.307868 0.123666 0.004154
0.382689 0.125037 0.001641
0.437039 0.124726 0.000661
0.487021 0.123100 0.000103
0.535980 0.120491 0.000004
0.584468 0.117312 0.000000
0.627254 0.114354 0.000000
0.653977 0.113147 0.000000
0.014871 0.131474 0.030620
0.018522 0.130298 0.017982
0.039027 0.130668 0.015411
0.056197 0.133317 0.013861
0.076665 0.137983 0.012652
0.114801 0.143289 0.011141
0.162415 0.147715 0.009578
0.217469 0.152780 0.008040
0.282405 0.157363 0.006479
0.356572 0.160033 0.004091
0.423051 0.159914 0.001489
0.478029 0.158797 0.000249
0.526079 0.157859 0.000020
0.575629 0.156342 0.000000
0.624591 0.154419 0.000000
0.657023 0.153585 0.000000
0.012947 0.168527 0.040340
0.014600 0.167433 0.031824
0.027382 0.167795 0.018013
0.049109 0.170000 0.016435
0.072017 0.174587 0.015061
0.099181 0.180503 0.013680
0.136310 0.188917 0.012399
0.194561 0.193310 0.010594
0.259660 0.197482 0.008888
0.332888 0.200290 0.006846
0.407945 0.200734 0.002892
0.466132 0.200184 0.000731
0.516850 0.199058 -0.000739
0.567894 0.197856 -0.000515
0.617685 0.196969 0.000000
0.661963 0.196378 0.000000
0.012111 0.205926 0.049398
0.012630 0.205126 0.042189
0.016465 0.205617 0.031185
0.037091 0.208227 0.019072
0.064814 0.213025 0.017823
0.093870 0.219191 0.016179
0.126852 0.226230 0.014687
0.169251 0.237110 0.013479
0.235644 0.242292 0.011668
0.310313 0.245373 0.009738
0.389853 0.246372 0.004220
0.453767 0.246420 0.000998
0.508246 0.245935 -0.001237
0.560031 0.245486 -0.001205
0.611610 0.245011 -0.001079
0.663463 0.244472 -0.000889
0.012439 0.244946 0.057588
0.012457 0.244357 0.050383
0.014086 0.244907 0.042828
0.019368 0.247762 0.028787
0.053465 0.252982 0.020767
0.086123 0.259386 0.018845
0.120814 0.266648 0.017047
0.160928 0.274893 0.015487
0.212812 0.287212 0.014408
0.286989 0.291852 0.012706
0.369581 0.292747 0.005684
0.440416 0.292700 0.001027
0.499679 0.292136 -0.001671
0.552417 0.291751 -0.001653
0.604758 0.291505 -0.001578
0.658416 0.291261 -0.001484
0.013606 0.286209 0.065120
0.013585 0.285672 0.057341
0.013709 0.286038 0.050896
0.015917 0.288671 0.043313
0.033509 0.294071 0.022739
0.075161 0.300355 0.021488
0.112555 0.307566 0.019351
0.153686 0.315644 0.017470
0.201650 0.324735 0.016064
0.265784 0.338393 0.015270
0.347548 0.340085 0.007028
0.426483 0.339709 -0.000823
0.491042 0.339046 -0.002116
0.545126 0.338505 -0.002074
0.598347 0.338388 -0.002011
0.652464 0.338302 -0.001944
0.014922 0.326104 0.072700
0.014910 0.325834 0.064502
0.014974 0.326869 0.057177
0.015710 0.329887 0.050507
0.018835 0.335557 0.040246
0.059364 0.342454 0.023935
0.101170 0.349894 0.021433
0.144179 0.358069 0.019250
0.192579 0.366958 0.017624
0.251662 0.377252 0.015978
0.327027 0.389939 0.007584
0.412168 0.388978 -0.002069
0.482363 0.387574 -0.002589
0.538262 0.386496 -0.002508
0.592708 0.386017 -0.002440
0.647379 0.385842 -0.002377
0.016133 0.360877 0.081087
0.016116 0.360524 0.072463
0.016146 0.361439 0.064625
0.016381 0.364505 0.057846
0.017513 0.369871 0.050210
0.036476 0.376667 0.025404
0.086801 0.383994 0.023752
0.132788 0.392220 0.021100
0.181911 0.401371 0.019125
0.240149 0.411930 0.016738
0.310991 0.423351 0.007876
0.393587 0.432367 -0.002548
0.469785 0.430988 -0.003015
0.530217 0.430063 -0.002917
0.586115 0.429666 -0.002840
0.641685 0.429739 -0.002776
0.017337 0.394482 0.090598
0.017316 0.393991 0.081433
0.017349 0.394982 0.073059
0.017458 0.398063 0.065734
0.017955 0.403204 0.058228
0.021140 0.409475 0.045639
0.067551 0.416988 0.026837
0.119237 0.424903 0.023420
0.170302 0.433885 0.020788
0.228561 0.444264 0.017969
0.297834 0.455810 0.008099
0.379139 0.467645 -0.002760
0.454869 0.470935 -0.003435
0.521279 0.469504 -0.003307
0.578566 0.468507 -0.003212
0.634759 0.468129 -0.003135
0.018491 0.425899 0.101791
0.018468 0.425412 0.091921
0.018519 0.426870 0.082853
0.018639 0.430190 0.074794
0.018891 0.435241 0.066815
0.019514 0.441275 0.057685
0.043607 0.448845 0.029339
0.102390 0.456414 0.026501
0.157198 0.465157 0.022955
0.216410 0.475237 0.020887
0.284649 0.486577 0.009644
0.364347 0.498264 -0.002938
0.444582 0.508477 -0.003715
0.511875 0.507468 -0.003701
0.570569 0.506122 -0.003587
0.627906 0.505471 -0.003496
0.019489 0.453968 0.115495
0.019490 0.453521 0.104917
0.019488 0.455786 0.095104
0.019483 0.459538 0.086235
0.019477 0.464624 0.077482
0.019468 0.470660 0.067984
0.026301 0.478104 0.048899
0.080419 0.486059 0.030914
0.142530 0.494712 0.026122
0.203597 0.504879 0.022936
0.271509 0.516174 0.013461
0.350104 0.528041 -0.002597
0.431546 0.538891 -0.003866
0.504655 0.544666 -0.004023
0.562216 0.543462 -0.003977
0.620964 0.542544 -0.003869
0.019458 0.477831 0.131937
0.019459 0.477277 0.120735
0.019454 0.479774 0.110429
0.019451 0.483693 0.101005
0.019443 0.489012 0.091496
0.019435 0.495326 0.081087
0.022621 0.502920 0.068129
0.047476 0.511758 0.036074
0.125641 0.520747 0.030924
0.190005 0.531366 0.026003
0.258337 0.543081 0.021177
0.335849 0.555636 0.005152
0.419292 0.567649 -0.003842
0.497177 0.577437 -0.004207
0.555117 0.579667 -0.004310
0.613809 0.578441 -0.004245
0.019425 0.501022 0.150688
0.019428 0.500393 0.139109
0.019424 0.503211 0.128361
0.019419 0.507437 0.118376
0.019411 0.512464 0.108366
0.019403 0.518642 0.097308
0.020210 0.526018 0.084812
0.032147 0.534546 0.063288
0.102984 0.543974 0.038770
0.174935 0.554112 0.031349
0.244807 0.565587 0.026344
0.321556 0.578133 0.014856
0.406784 0.590679 -0.003092
0.485611 0.600872 -0.004333
0.548473 0.607546 -0.004465
0.605416 0.607932 -0.004559
0.082898 0.028363 0.016917
0.099732 0.028824 0.015017
0.128948 0.030219 0.012617
0.163057 0.032110 0.011066
0.202726 0.034250 0.009789
0.253612 0.035385 0.008462
0.307151 0.036493 0.007115
0.364024 0.036412 0.005455
0.423157 0.035033 0.003645
0.473519 0.032528 0.002121
0.518351 0.029275 0.001106
0.558637 0.025091 0.000476
0.594177 0.020641 0.000144
0.624447 0.016924 0.000023
0.648459 0.014722 0.000002
0.672332 0.012812 0.000001
0.065859 0.041358 0.024166
0.078627 0.039803 0.018244
0.102734 0.041223 0.014181
0.131248 0.044420 0.012877
0.165274 0.048257 0.011832
0.210527 0.052037 0.010642
0.264895 0.055442 0.009118
0.327674 0.057288 0.007173
0.394237 0.056594 0.004962
0.446649 0.053359 0.003065
0.494800 0.048387 0.001609
0.541729 0.041625 0.000698
0.583708 0.034328 0.000233
0.617730 0.028185 0.000047
0.642385 0.024553 0.000002
0.666662 0.021400 0.000001
0.023713 0.074569 0.046122
0.033512 0.073542 0.038978
0.065577 0.071405 0.027057
0.095292 0.072295 0.020613
0.128161 0.075041 0.016581
0.170264 0.079032 0.013715
0.224029 0.083377 0.011405
0.285780 0.087668 0.009230
0.354324 0.089220 0.006672
0.415780 0.087285 0.004159
0.466311 0.082741 0.002211
0.516476 0.076346 0.000912
0.564379 0.069058 0.000306
0.605995 0.062478 0.000079
0.635961 0.058255 0.000007
0.660726 0.055143 0.000001
0.017599 0.103013 0.054413
0.021768 0.102446 0.047496
0.034820 0.104161 0.033805
0.063975 0.105896 0.028210
0.102711 0.107324 0.022614
0.144607 0.110392 0.018509
0.194088 0.114578 0.015345
0.253686 0.118910 0.012536
0.322702 0.121876 0.009533
0.394681 0.122658 0.006174
0.447288 0.121133 0.003621
0.496953 0.118359 0.001633
0.546542 0.114631 0.000599
0.594628 0.110604 0.000176
0.634525 0.107330 0.000023
0.660034 0.105828 0.000002
0.014240 0.133370 0.063692
0.017085 0.132585 0.056929
0.026388 0.133753 0.043177
0.048641 0.136831 0.031702
0.075205 0.141137 0.027975
0.119642 0.144846 0.023242
0.170549 0.148132 0.019285
0.228177 0.152436 0.015968
0.295083 0.156323 0.012706
0.370733 0.158062 0.009014
0.433632 0.157028 0.005462
0.486340 0.155512 0.002471
0.534847 0.153794 0.000997
0.584754 0.151549 0.000297
0.633690 0.149070 0.000034
0.662548 0.148167 0.000002
0.012491 0.170656 0.074004
0.013720 0.169699 0.067634
0.019498 0.170255 0.055213
0.032104 0.173370 0.038030
0.065789 0.177762 0.031450
0.098506 0.183323 0.027503
0.141483 0.190423 0.023594
0.203174 0.193699 0.019618
0.270582 0.197074 0.015953
0.345316 0.199018 0.012092
0.417702 0.198686 0.008340
0.474808 0.197345 0.004734
0.525393 0.195628 0.001821
0.576643 0.193867 0.000423
0.626086 0.192757 0.000070
0.667012 0.191987 0.000002
0.011957 0.208606 0.084404
0.012256 0.207838 0.078124
0.015357 0.208230 0.066361
0.023921 0.211168 0.054188
0.050562 0.216455 0.035000
0.089623 0.222356 0.031097
0.127299 0.228973 0.027093
0.173120 0.239146 0.023277
0.244816 0.242670 0.019180
0.321225 0.244886 0.015057
0.400459 0.245203 0.011000
0.462574 0.244563 0.006883
0.515870 0.243447 0.002825
0.567809 0.242638 0.000503
0.619726 0.241837 -0.000952
0.670912 0.241094 -0.000791
0.012461 0.248024 0.094682
0.012439 0.247434 0.088169
0.013614 0.247705 0.076182
0.018222 0.250612 0.067097
0.032043 0.256305 0.047964
0.076879 0.262688 0.034930
0.118462 0.269596 0.030502
0.162773 0.277510 0.026279
0.218199 0.289277 0.022318
0.296444 0.292087 0.018014
0.380126 0.292183 0.013719
0.448843 0.291443 0.008814
0.506464 0.290511 0.003492
0.559457 0.289744 -0.000400
0.612087 0.289250 -0.001474
0.666438 0.288759 -0.001442
0.013735 0.289527 0.104769
0.013709 0.288870 0.097819
0.013747 0.288923 0.084970
0.015293 0.291530 0.077205
0.023566 0.296815 0.065300
0.056899 0.303761 0.038819
0.106849 0.310519 0.033979
0.153398 0.318234 0.029261
0.205210 0.327023 0.024896
0.271899 0.339615 0.020875
0.356871 0.339805 0.016574
0.433892 0.338749 0.010374
0.497197 0.337679 0.003777
0.551387 0.336852 -0.001145
0.604854 0.336430 -0.001935
0.659502 0.336265 -0.001916
0.015101 0.330552 0.114868
0.015086 0.330299 0.107644
0.015101 0.330626 0.093247
0.015532 0.333686 0.085000
0.017434 0.338984 0.077026
0.034088 0.346138 0.053236
0.090510 0.353428 0.037282
0.141498 0.360887 0.032014
0.194352 0.369358 0.027118
0.256709 0.379307 0.022755
0.333418 0.390358 0.019539
0.418978 0.388570 0.011172
0.488118 0.386788 0.003490
0.543834 0.385429 -0.001827
0.598535 0.384807 -0.002409
0.653775 0.384478 -0.002357
0.016325 0.365564 0.125767
0.016309 0.365269 0.118275
0.016307 0.365510 0.102589
0.016480 0.368465 0.093775
0.017191 0.373666 0.085724
0.025833 0.380316 0.071160
0.066192 0.388297 0.041573
0.126870 0.395996 0.035471
0.181739 0.404751 0.029824
0.243542 0.414949 0.024821
0.316994 0.426071 0.021131
0.401192 0.433539 0.013542
0.476449 0.431715 0.004240
0.535423 0.430528 -0.002278
0.591635 0.429889 -0.002836
0.647511 0.429720 -0.002769
0.017552 0.399528 0.137952
0.017528 0.399081 0.130169
0.017525 0.399247 0.113262
0.017627 0.402285 0.103728
0.017965 0.407235 0.095054
0.020242 0.413444 0.084492
0.038382 0.421320 0.057871
0.108078 0.429287 0.040131
0.167726 0.437927 0.033295
0.230328 0.447885 0.027272
0.302416 0.459062 0.022826
0.385810 0.470555 0.016484
0.461150 0.472627 0.005961
0.525953 0.470837 -0.002303
0.583450 0.469578 -0.003188
0.640129 0.469110 -0.003137
0.018724 0.431340 0.151355
0.018710 0.431115 0.143438
0.018709 0.431455 0.125404
0.018826 0.434774 0.115184
0.019043 0.439643 0.105871
0.019405 0.445559 0.095750
0.030091 0.452857 0.078331
0.080414 0.461328 0.046473
0.151273 0.469577 0.038182
0.216375 0.479250 0.030782
0.287801 0.490158 0.025056
0.369487 0.501554 0.019739
0.449691 0.511230 0.008419
0.515896 0.509525 -0.001778
0.574896 0.507832 -0.003475
0.632659 0.507032 -0.003504
0.019480 0.460010 0.166290
0.019480 0.459910 0.158611
0.019480 0.460643 0.139800
0.019476 0.464446 0.128910
0.019469 0.469346 0.118938
0.019461 0.475303 0.108111
0.024721 0.482456 0.094245
0.046217 0.491100 0.067664
0.130715 0.499852 0.045389
0.201123 0.509466 0.036176
0.273262 0.520229 0.028389
0.353917 0.531873 0.024103
0.435403 0.542223 0.011995
0.507934 0.547627 0.004163
0.566020 0.545985 -0.003648
0.625163 0.544764 -0.003884
0.019448 0.483755 0.182379
0.019448 0.483603 0.175111
0.019448 0.484649 0.156627
0.019443 0.488927 0.145444
0.019435 0.494131 0.134861
0.019428 0.500504 0.123348
0.022019 0.507944 0.110671
0.034801 0.516516 0.092775
0.101920 0.526840 0.055714
0.183632 0.536829 0.044192
0.258198 0.548095 0.033836
0.338560 0.560153 0.026795
0.421881 0.571745 0.018197
0.499524 0.580985 0.007332
0.558391 0.583013 -0.003368
0.617404 0.581427 -0.004246
0.019416 0.506904 0.199323
0.019416 0.506721 0.192433
0.019415 0.508021 0.174596
0.019410 0.512530 0.163678
0.019403 0.517567 0.153042
0.019395 0.523855 0.141018
0.019809 0.531150 0.127899
0.030405 0.539362 0.112469
0.063245 0.550050 0.085204
0.161922 0.560137 0.056297
0.241790 0.571097 0.043282
0.323059 0.582985 0.032131
0.408661 0.595066 0.027103
0.487327 0.604932 0.012887
0.550606 0.611368 0.005049
0.608522 0.611821 -0.004243
0.092620 0.029386 0.035221
0.113780 0.029983 0.031939
0.151673 0.030813 0.027257
0.189122 0.031745 0.023286
0.225060 0.033176 0.020596
0.272162 0.034239 0.018285
0.323881 0.035333 0.015728
0.380168 0.036446 0.012991
0.438677 0.037172 0.010281
0.487664 0.036020 0.007825
0.529733 0.033179 0.005710
0.569396 0.027416 0.003517
0.604025 0.021562 0.001926
0.632861 0.016822 0.000965
0.657062 0.013715 0.000489
0.680805 0.011285 0.000266
0.072573 0.041723 0.036957
0.085649 0.040980 0.033481
0.113663 0.042898 0.029267
0.144522 0.045659 0.026146
0.178240 0.049135 0.024222
0.223771 0.053073 0.022361
0.279187 0.057000 0.020103
0.342776 0.060105 0.017496
0.408929 0.059966 0.014135
0.459145 0.056290 0.010718
0.506294 0.050371 0.007534
0.553364 0.041978 0.004645
0.594040 0.033403 0.002533
0.625818 0.026465 0.001247
0.650586 0.021879 0.000575
0.674840 0.018200 0.000319
0.022936 0.077346 0.082627
0.030681 0.076723 0.075460
0.071824 0.072355 0.053220
0.103893 0.073371 0.041020
0.138353 0.076241 0.033224
0.182403 0.080718 0.027742
0.235476 0.086306 0.025075
0.299255 0.090552 0.021977
0.368467 0.091610 0.018074
0.427059 0.089013 0.013925
0.477533 0.083521 0.010073
0.528224 0.075541 0.006467
0.575656 0.066823 0.003566
0.615389 0.059262 0.001640
0.643930 0.054332 0.000658
0.668744 0.050658 0.000313
0.016965 0.105022 0.090185
0.020850 0.104711 0.083586
0.034182 0.106985 0.074201
0.064953 0.109127 0.062303
0.110093 0.108587 0.047994
0.154712 0.110577 0.038014
0.206810 0.114088 0.030806
0.268885 0.117950 0.025524
0.337638 0.120740 0.021040
0.406123 0.120729 0.016084
0.457692 0.117914 0.011673
0.507438 0.113622 0.007676
0.557782 0.108053 0.004223
0.605193 0.102353 0.001750
0.640883 0.098380 0.000521
0.666004 0.096303 0.000157
0.013762 0.135768 0.102141
0.016205 0.135111 0.095016
0.025640 0.136678 0.084165
0.043039 0.140301 0.072257
0.071022 0.145194 0.060614
0.125608 0.146645 0.048709
0.180692 0.148779 0.039120
0.241029 0.152169 0.032034
0.309522 0.155350 0.026245
0.386104 0.156413 0.020427
0.444462 0.154771 0.014986
0.494721 0.152686 0.010241
0.543685 0.149733 0.006124
0.593966 0.146206 0.002784
0.642221 0.142771 0.000733
0.667855 0.141614 0.000203
0.012078 0.173390 0.115424
0.012947 0.172484 0.108120
0.018579 0.173317 0.096501
0.031135 0.176268 0.083679
0.054565 0.181671 0.068270
0.094586 0.187175 0.056882
0.147142 0.192384 0.047734
0.213520 0.194168 0.038777
0.283368 0.196652 0.031754
0.359156 0.197941 0.025211
0.428078 0.196924 0.018693
0.484030 0.194878 0.013118
0.534416 0.192303 0.008194
0.584941 0.189936 0.003841
0.634344 0.187964 0.001176
0.671851 0.186885 0.000256
0.011884 0.211979 0.128987
0.012065 0.211221 0.121537
0.014868 0.211862 0.109352
0.022372 0.214406 0.096470
0.041380 0.219946 0.082185
0.077260 0.226740 0.061830
0.124882 0.232916 0.053632
0.178320 0.241594 0.045373
0.255321 0.243336 0.036963
0.333636 0.244635 0.029675
0.411671 0.244196 0.022122
0.471799 0.242982 0.015947
0.523976 0.241248 0.011027
0.575901 0.239636 0.006307
0.628011 0.238128 0.001884
0.677854 0.237067 -0.000449
0.012625 0.251966 0.142570
0.012597 0.251371 0.134942
0.013566 0.251996 0.122068
