src/colors/dark_&_moody/dramatic_warmth.cube
LUT_3D_SIZE 6
0.071504 0.026912 0.004055
0.134364 0.030923 0.002673
0.276550 0.038007 0.001222
0.447288 0.034738 0.000073
0.575873 0.024651 0.000000
0.657442 0.017850 0.000000
0.028479 0.099687 0.010210
0.064595 0.101091 0.007495
0.178681 0.114921 0.005200
0.374855 0.126544 0.000746
0.530239 0.123475 0.000002
0.650647 0.116697 0.000000
0.012362 0.204826 0.029843
0.045138 0.206557 0.013431
0.126235 0.224954 0.011336
0.304905 0.245412 0.004772
0.503891 0.247031 -0.001289
0.658802 0.246087 -0.000934
0.014854 0.324295 0.052906
0.015822 0.328500 0.035616
0.103036 0.348457 0.017322
0.248985 0.376560 0.007810
0.479202 0.388115 -0.002598
0.644067 0.386565 -0.002387
0.018383 0.423220 0.078308
0.018560 0.428238 0.058469
0.056293 0.447066 0.024508
0.215076 0.473965 0.010622
0.441499 0.507505 -0.003704
0.625375 0.505040 -0.003495
0.019430 0.497885 0.122545
0.019422 0.504901 0.098143
0.020397 0.523771 0.065569
0.176946 0.551742 0.025389
0.405433 0.588704 -0.003758
0.603734 0.606384 -0.004547
0.092620 0.029386 0.035221
0.189122 0.031745 0.023286
0.323881 0.035333 0.015728
0.487664 0.036020 0.007825
0.604025 0.021562 0.001926
0.680805 0.011285 0.000266
0.016965 0.105022 0.090185
0.064953 0.109127 0.062303
0.206810 0.114088 0.030806
0.406123 0.120729 0.016084
0.557782 0.108053 0.004223
0.666004 0.096303 0.000157
0.011884 0.211979 0.128987
0.022372 0.214406 0.096470
0.124882 0.232916 0.053632
0.333636 0.244635 0.029675
0.523976 0.241248 0.011027
0.677854 0.237067 -0.000449
0.015335 0.335797 0.168454
0.015491 0.338279 0.131098
0.062840 0.358074 0.081008
0.260547 0.382578 0.041976
0.494166 0.386538 0.018145
0.660416 0.383332 -0.001733
0.019007 0.437390 0.205965
0.019062 0.440032 0.167863
0.027548 0.457728 0.132331
0.208922 0.485316 0.062333
0.454835 0.514837 0.028421
0.637818 0.509419 -0.002012
0.019405 0.513505 0.249524
0.019401 0.518055 0.213261
0.019376 0.536718 0.179644
0.122051 0.568239 0.105545
0.409065 0.600672 0.048634
0.611973 0.616619 0.014809
0.145557 0.027191 0.169675
0.299499 0.029370 0.146138
0.390830 0.035488 0.106431
0.527670 0.032488 0.077294
0.635386 0.016033 0.056173
0.708241 0.006396 0.041884
0.015832 0.114483 0.268260
0.105424 0.109973 0.198662
0.247266 0.121968 0.144641
0.438867 0.134188 0.117971
0.590046 0.125725 0.091219
0.688331 0.115088 0.070460
0.012179 0.220759 0.301297
0.019414 0.227701 0.283389
0.124590 0.248470 0.267498
0.387937 0.252020 0.166532
0.554821 0.250681 0.128381
0.694117 0.242522 0.095358
0.016328 0.353199 0.344727
0.016469 0.357981 0.322396
0.051558 0.373473 0.293156
0.265875 0.401514 0.257948
0.523894 0.398051 0.177692
0.689606 0.392808 0.127133
0.019471 0.456620 0.369244
0.019466 0.462515 0.349125
0.022536 0.476602 0.315316
0.183778 0.508897 0.296337
0.466052 0.534903 0.221431
0.662759 0.526893 0.159962
0.019367 0.534179 0.392934
0.019359 0.541913 0.375229
0.019341 0.557223 0.344216
0.109312 0.589033 0.323454
0.396117 0.626796 0.263876
0.623414 0.639357 0.201026
0.240209 0.019619 0.318475
0.389322 0.024540 0.302748
0.500387 0.027197 0.256760
0.571471 0.019189 0.219305
0.666011 0.003600 0.201442
0.734950 0.000000 0.187453
0.040816 0.108519 0.413862
0.136389 0.110832 0.356114
0.302231 0.123912 0.299110
0.475659 0.127718 0.264876
0.622520 0.112484 0.234348
0.711250 0.099884 0.214582
0.013236 0.224257 0.455888
0.023716 0.231300 0.447205
0.180282 0.250709 0.426206
0.433144 0.263519 0.313776
0.583395 0.272428 0.290337
0.713032 0.275606 0.273889
0.016871 0.351425 0.488190
0.017183 0.360993 0.478124
0.058002 0.381937 0.470348
0.303355 0.414833 0.462854
0.559566 0.417403 0.342284
0.717066 0.423638 0.319865
0.019431 0.473625 0.525299
0.019422 0.483156 0.512937
0.023348 0.497714 0.490905
0.195232 0.527762 0.475745
0.480507 0.550797 0.454494
0.688632 0.551760 0.380326
0.019321 0.557585 0.544005
0.019312 0.565935 0.530481
0.019294 0.581444 0.507819
0.098942 0.610345 0.485726
0.416843 0.647651 0.474727
0.636210 0.660632 0.435300
0.361767 0.004785 0.422997
0.478258 0.005486 0.418563
0.586946 0.003131 0.384971
0.646085 0.000000 0.353598
0.699575 0.000000 0.333446
0.757599 0.000000 0.324057
0.111764 0.096960 0.496758
0.205309 0.094591 0.443705
0.374942 0.103555 0.428243
0.529190 0.096111 0.407681
0.653303 0.073410 0.371004
0.732775 0.057741 0.353444
0.016550 0.220101 0.570939
0.054500 0.228276 0.579888
0.268182 0.247655 0.510357
0.474049 0.260559 0.456781
0.617531 0.265881 0.427240
0.730420 0.267247 0.408733
0.017548 0.352002 0.601657
0.017979 0.359466 0.599740
0.096997 0.382135 0.611976
0.413418 0.414944 0.533981
0.588028 0.426160 0.479313
0.739942 0.436935 0.464840
0.019419 0.470595 0.626416
0.019405 0.480987 0.624510
0.026904 0.500763 0.623158
0.244213 0.541246 0.637523
0.559715 0.557296 0.513984
0.717060 0.571251 0.500734
0.019291 0.570542 0.651203
0.019275 0.582354 0.648916
0.019251 0.602645 0.644280
0.130401 0.633948 0.641061
0.439089 0.664997 0.637531
0.656491 0.677187 0.614662
0.491509 0.000000 0.509336
0.572375 0.000000 0.502397
0.649620 0.000000 0.478506
0.721854 0.000000 0.455503
0.734525 0.000000 0.430145
0.780108 0.000000 0.421664
0.208630 0.067656 0.538650
0.307297 0.057556 0.517674
0.447143 0.052454 0.516280
0.590893 0.031000 0.502393
0.683588 0.016549 0.474764
0.754335 0.014966 0.456398
0.066003 0.215236 0.664967
0.179391 0.235769 0.650655
0.360526 0.237095 0.556516
0.515155 0.245694 0.548448
0.660799 0.247863 0.530954
0.747848 0.248852 0.511899
0.018184 0.351735 0.693115
0.029439 0.358976 0.694346
0.188876 0.392835 0.722897
0.475874 0.413518 0.599896
0.625776 0.424578 0.583693
0.756686 0.432760 0.569149
0.019392 0.476848 0.719371
0.019382 0.485656 0.718357
0.053953 0.506253 0.722119
0.333815 0.550665 0.744236
0.591213 0.563930 0.616506
0.749376 0.577926 0.608009
0.019267 0.576450 0.738994
0.019255 0.587152 0.737996
0.021008 0.608578 0.737838
0.206715 0.649559 0.751782
0.475589 0.674677 0.746843
0.698983 0.687615 0.699445
