src/colors/dark_&_moody/icy_drama.cube
TITLE "Generated by Resolve"
LUT_3D_SIZE 9
0 0 0
0 0 0
0.0667277 0 0
0.180407 0 0
0.303258 0 0
0.435035 0 0
0.572641 0 0
0.714015 0 0
0.868238 0 0
0 0 0
0 0 0
0.0752422 0 0
0.190661 0 0
0.315633 0 0
0.450477 0 0
0.592813 0 0
0.740749 0 0
0.904601 0 0
0 0.0601816 0
0 0.0635386 0
0.0781567 0.0638285 0
0.198962 0.0570077 0
0.332052 0.0513313 0
0.476616 0.0461738 0
0.628107 0.0405585 0
0.789273 0.0340429 0
0.974762 0.0218204 0
0 0.156008 0
0 0.168475 0
0.0750896 0.178027 0
0.204501 0.179095 0
0.34548 0.178637 0
0.501778 0.174624 0
0.672786 0.168353 0
0.84773 0.160952 0
1 0.151171 0
0 0.287617 0
0 0.305913 0
0.066041 0.320287 0
0.201343 0.323705 0
0.351659 0.323812 0
0.51252 0.321004 0
0.678416 0.317708 0
0.840879 0.315236 0
1 0.312886 0
0 0.445335 0
0 0.464027 0
0.0475624 0.47715 0
0.191562 0.479423 0
0.344656 0.479408 0
0.501274 0.478553 0
0.656733 0.478889 0
0.811521 0.48043 0
0.975799 0.480369 0
0 0.602457 0
0 0.616388 0
0.0652171 0.626337 0
0.208072 0.630518 0
0.353552 0.634653 0
0.503792 0.638239 0
0.65713 0.641718 0
0.812192 0.645258 0
0.977523 0.646479 0
0 0.745403 0
0 0.764645 0
0.0915084 0.780667 0
0.224765 0.78967 0
0.365484 0.797238 0
0.513878 0.802792 0
0.666575 0.80647 0
0.818341 0.810422 0.000869764
0.974182 0.812741 0.0279088
0 0.906676 0
0 0.929137 0
0.102052 0.946349 0
0.240375 0.953826 0
0.386267 0.958541 0
0.539117 0.96051 0.0328679
0.694865 0.959411 0.102464
0.840406 0.959319 0.210468
0.966262 0.962737 0.362707
0 0 0
0 0 0
0.066743 0 0
0.18085 0 0
0.304082 0 0
0.435782 0 0
0.573938 0 0
0.715404 0 0
0.870207 0 0
0 0 0
0 0 0
0.0764172 0 0
0.19205 0 0
0.317296 0 0
0.452628 0 0
0.595819 0 0
0.745556 0 0
0.909987 0 0
0 0.0614328 0
0 0.0654154 0
0.0811627 0.066392 0
0.202777 0.0605783 0
0.337255 0.0562295 0
0.481773 0.0516518 0
0.635233 0.0461891 0
0.799084 0.0393225 0
0.988144 0.0260471 0
0 0.160266 0
0 0.173617 0
0.0814832 0.183291 0
0.210864 0.185061 0
0.35256 0.184421 0
0.510994 0.180453 0
0.681712 0.174029 0
0.855848 0.167315 0
1 0.158068 0
0 0.294102 0
0 0.312642 0
0.0714733 0.32726 0
0.207462 0.330373 0
0.357824 0.330251 0
0.518959 0.328038 0
0.683619 0.324865 0
0.843748 0.323583 0
1 0.322103 0
0 0.452415 0
0 0.470741 0
0.0555123 0.483375 0
0.2 0.485695 0
0.352407 0.485801 0
0.508034 0.485771 0
0.663111 0.486824 0
0.817868 0.488777 0
0.982086 0.488823 0
0 0.607874 0
0 0.621592 0
0.0778058 0.632532 0
0.217746 0.637598 0
0.362707 0.642588 0
0.512337 0.646586 0.00407416
0.665232 0.650172 0.0119631
0.820294 0.653956 0.0185855
0.984909 0.655268 0.0245823
0 0.752026 0
0 0.771634 0
0.102083 0.788312 0
0.234119 0.798184 0.00251774
0.374548 0.8056 0.013962
0.52311 0.811048 0.0272068
0.675807 0.815015 0.0452583
0.826719 0.819135 0.0677348
0.980041 0.821561 0.0990921
0 0.914504 0
0.00898756 0.936889 0
0.114733 0.953521 0.0033875
0.252918 0.960906 0.0302892
0.399496 0.96582 0.0603494
0.554711 0.966552 0.107683
0.710704 0.964965 0.184512
0.854414 0.965576 0.301549
0.974395 0.970428 0.45948
0 0 0.0349432
0 0 0.0309606
0.0655222 0 0.0248264
0.179889 0 0.00955215
0.30312 0 0
0.435309 0 0
0.573587 0 0
0.715373 0 0
0.870558 0 0
0 0 0.0362402
0 0 0.0381323
0.075761 0 0.0348363
0.191669 0 0.0221103
0.317449 0 0.00793469
0.453696 0 0
0.597925 0 0
0.748913 0 0
0.913863 0 0
0 0.0615396 0.0347143
0 0.0660868 0.0398718
0.0830396 0.0677195 0.0418097
0.205493 0.0634012 0.0369879
0.340673 0.0599222 0.0336004
0.486168 0.0556191 0.0290074
0.641001 0.0502632 0.0232242
0.807889 0.0424811 0.015259
1 0.0285801 0.000808728
0 0.163455 0.0191043
0 0.177127 0.0339666
0.086183 0.187457 0.0453498
0.215412 0.189654 0.0463874
0.358083 0.188632 0.0428321
0.518395 0.184619 0.035172
0.688487 0.178073 0.0259403
0.861784 0.172 0.0186313
1 0.163577 0.00981155
0 0.298924 0.0122835
0 0.31812 0.0257725
0.0752117 0.332097 0.0334173
0.212207 0.335393 0.0328679
0.362844 0.335119 0.0315709
0.523415 0.33315 0.0305333
0.686717 0.330587 0.0315251
0.844175 0.330098 0.0386053
1 0.329473 0.0466926
0 0.457557 0
0 0.47567 0.00427253
0.0623178 0.488029 0.0203708
0.20708 0.490669 0.031693
0.359457 0.491066 0.0462501
0.513558 0.491798 0.0596017
0.66833 0.49337 0.0699931
0.823178 0.495918 0.0786603
0.987564 0.496239 0.0834211
0 0.611154 0
0 0.625544 0.0189822
0.088365 0.637354 0.0474403
0.225803 0.643397 0.0641184
0.369772 0.648615 0.0773175
0.51931 0.653391 0.0877852
0.672236 0.657481 0.0950942
0.8271 0.661372 0.101579
0.990723 0.662699 0.108339
0 0.757519 0.0170748
0.00840772 0.777661 0.0472419
0.110719 0.794614 0.0706035
0.241291 0.804791 0.0847028
0.382223 0.812436 0.0969558
0.531395 0.81799 0.111681
0.683513 0.821881 0.129961
0.833646 0.826337 0.152468
0.984298 0.82945 0.189441
0 0.921279 0.0270695
0.0192874 0.943008 0.0570077
0.126528 0.959197 0.0876173
0.26479 0.966628 0.115175
0.412207 0.970794 0.146609
0.569589 0.970489 0.198825
0.726726 0.969131 0.281727
0.867826 0.970474 0.401938
0.98201 0.977371 0.560632
0 0 0.157549
0 0 0.153368
0.0604868 0 0.148363
0.175051 0 0.132845
0.298802 0 0.115846
0.430915 0 0.0967575
0.569589 0 0.0770733
0.712139 0 0.0578927
0.868147 0 0.0371557
0 0 0.160266
0 0 0.161883
0.0714427 0 0.15906
0.188037 0 0.146685
0.314519 0 0.133318
0.451591 0 0.119646
0.597025 0 0.107698
0.748852 0 0.0990463
0.914656 0 0.0886397
0 0.0581521 0.159503
0 0.0632944 0.165194
0.0810254 0.0660868 0.168475
0.205112 0.0630961 0.165377
0.340887 0.0601816 0.162249
0.486961 0.0561532 0.158221
0.644144 0.0505379 0.15378
0.814252 0.0417945 0.14757
1 0.0274662 0.136706
0 0.16321 0.147173
0 0.177432 0.162692
0.0870069 0.188312 0.174975
0.216342 0.190402 0.17734
0.36054 0.189303 0.176852
0.52134 0.185016 0.172869
0.690913 0.178729 0.166552
0.862425 0.172702 0.160357
1 0.165011 0.152499
0 0.300435 0.143694
0 0.319997 0.1608
0.074815 0.333379 0.172076
0.21297 0.336629 0.174228
0.363867 0.336461 0.174029
0.5243 0.334462 0.173144
0.686275 0.332937 0.173907
0.841321 0.333501 0.178714
1 0.333257 0.182391
0 0.458335 0.126665
0 0.476432 0.146639
0.0660716 0.488914 0.163272
0.210834 0.491539 0.173251
0.362783 0.493019 0.18497
0.516197 0.494606 0.194217
0.670405 0.496559 0.201312
0.824979 0.499306 0.207965
0.989807 0.500038 0.211368
0 0.610834 0.124697
0 0.625772 0.155627
0.0943313 0.6392 0.180621
0.230945 0.646097 0.19527
0.373938 0.651972 0.206622
0.52285 0.656779 0.215137
0.675364 0.660929 0.221561
0.830564 0.665187 0.228397
0.993317 0.667201 0.235767
0 0.759457 0.146929
0.0141451 0.780331 0.17554
0.115938 0.798016 0.198077
0.246036 0.80853 0.211704
0.387167 0.816037 0.224231
0.536431 0.821149 0.238468
0.688045 0.825605 0.25597
0.83743 0.830289 0.27863
0.984894 0.834089 0.316716
0 0.924483 0.15378
0.0268559 0.945998 0.184512
0.135912 0.96173 0.214893
0.273732 0.969131 0.240833
0.424155 0.972534 0.274189
0.584466 0.97174 0.32784
0.741985 0.970794 0.409598
0.881117 0.973739 0.525704
0.989029 0.983871 0.675059
0 0 0.298894
0 0 0.296101
0.053666 0 0.291341
0.168933 0 0.276265
0.292912 0 0.259144
0.425437 0 0.240589
0.564553 0 0.221302
0.7075 0 0.202792
0.864561 0 0.18323
0 0 0.303426
0 0 0.305592
0.0656443 0 0.302983
0.182864 0 0.290852
0.310109 0 0.278141
0.44828 0 0.265797
0.595163 0 0.255268
0.747723 0 0.247456
0.914565 0 0.237385
0 0.0535439 0.304158
0 0.0595102 0.31043
0.0778973 0.0633555 0.314717
0.203525 0.0614786 0.312871
0.339742 0.0590829 0.310369
0.487053 0.0552834 0.307561
0.646662 0.0490883 0.305455
0.819699 0.0393072 0.302663
1 0.0248875 0.296132
0 0.161654 0.295216
0 0.176608 0.311345
0.0861219 0.187762 0.32491
0.215747 0.189654 0.329946
0.361456 0.188266 0.333974
0.522118 0.183368 0.33315
0.691325 0.177951 0.329351
0.861891 0.172442 0.323812
1 0.165652 0.315877
0 0.300725 0.297765
0 0.31986 0.318898
0.0733043 0.333059 0.333547
0.211795 0.335668 0.33666
0.363592 0.336004 0.337423
0.523522 0.334691 0.335592
0.683711 0.334081 0.334386
0.837613 0.33579 0.335348
0.998901 0.335958 0.334936
0 0.457923 0.290135
0 0.475624 0.309789
0.0681163 0.488167 0.325017
0.213596 0.491112 0.332265
0.364416 0.493248 0.3393
0.517113 0.496025 0.345129
0.671244 0.498665 0.350027
0.826185 0.501625 0.354955
0.991089 0.502403 0.356817
0 0.609461 0.283391
0 0.62562 0.309514
0.0985885 0.639765 0.330587
0.234073 0.647517 0.342901
0.376776 0.653742 0.35285
0.525078 0.659098 0.360052
0.677989 0.663569 0.366201
0.832334 0.667903 0.372671
0.993988 0.669947 0.379019
0 0.760571 0.294606
0.0180972 0.781842 0.321279
0.119249 0.800107 0.342809
0.249104 0.810742 0.355993
0.391241 0.818235 0.368383
0.540642 0.823621 0.38201
0.691966 0.828077 0.397131
0.840208 0.833219 0.419547
0.984665 0.838773 0.456611
0 0.926116 0.29865
0.0334173 0.94699 0.32871
0.143236 0.962615 0.357473
0.282582 0.970214 0.382101
0.437079 0.972488 0.415244
0.600214 0.971771 0.466865
0.758663 0.971817 0.54316
0.895232 0.97731 0.649378
0.996689 0.991073 0.781491
0 0 0.450782
0 0 0.449897
0.0460059 0 0.445792
0.161593 0 0.430671
0.286244 0 0.414099
0.419135 0 0.395972
0.558572 0 0.377234
0.702251 0 0.359396
0.860166 0 0.341192
0 0 0.458167
0 0 0.460151
0.058854 0 0.457969
0.176867 0 0.44654
0.30518 0 0.434669
0.443976 0 0.423102
0.592538 0 0.414435
0.745754 0 0.407126
0.914733 0 0.398703
0 0.0484016 0.4598
0 0.0552529 0.467155
0.0746014 0.060441 0.472786
0.201297 0.0592203 0.471611
0.337972 0.0572366 0.469825
0.486732 0.0534218 0.469139
0.648402 0.0463264 0.469993
0.824552 0.0358129 0.47274
1 0.0212863 0.469047
0 0.15967 0.454307
0 0.175113 0.471489
0.0841688 0.186435 0.487511
0.214221 0.187945 0.496651
0.361089 0.186236 0.505425
0.521904 0.181415 0.50724
0.690105 0.175937 0.504097
0.860059 0.171481 0.498909
1 0.165515 0.489219
0 0.30013 0.466697
0 0.318608 0.491371
0.0710918 0.331777 0.508156
0.210422 0.334401 0.511727
0.36228 0.334798 0.511452
0.521599 0.334066 0.507881
0.680049 0.334401 0.502602
0.833555 0.337041 0.499123
0.995727 0.337667 0.495369
0 0.456611 0.465873
0 0.47425 0.484031
0.0705577 0.486809 0.496452
0.216266 0.49041 0.499229
0.365942 0.493584 0.501656
0.517662 0.496773 0.504372
0.672053 0.50013 0.507454
0.826368 0.503273 0.510399
0.991684 0.504189 0.511208
0 0.607309 0.449683
0 0.624826 0.471305
0.101961 0.639857 0.489189
0.236469 0.648188 0.49955
0.37879 0.655024 0.507836
0.527184 0.660853 0.514534
0.679591 0.665324 0.519753
0.833509 0.669917 0.525826
0.994385 0.67274 0.53106
0 0.760922 0.451804
0.0210422 0.782803 0.476646
0.121584 0.801358 0.496834
0.252171 0.812024 0.509743
0.39501 0.81944 0.521141
0.544305 0.825101 0.532555
0.695613 0.830289 0.545815
0.842924 0.836042 0.565927
0.983673 0.84358 0.598001
0 0.926894 0.453162
0.0403906 0.947585 0.48191
0.151446 0.963226 0.5084
0.292348 0.970169 0.530297
0.451545 0.97171 0.560571
0.617395 0.971298 0.605463
0.776745 0.973068 0.671946
0.910201 0.981247 0.761547
1 0.999252 0.87219
0 0 0.609796
0 0 0.609964
0.0378119 0 0.605844
0.154223 0 0.591409
0.279164 0 0.574853
0.412345 0 0.557214
0.552361 0 0.539422
0.696727 0 0.522866
0.855772 0 0.505943
0 0 0.618357
0 0 0.620279
0.0519875 0 0.618799
0.170962 0 0.608072
0.30042 0 0.597253
0.440528 0 0.587259
0.589746 0 0.579736
0.743603 0 0.572839
0.915373 0 0.567102
0 0.0431373 0.621576
0 0.0507362 0.629526
0.0713664 0.0575418 0.636606
0.198627 0.0567025 0.635798
0.336248 0.0551614 0.635554
0.486625 0.0509194 0.637995
0.650324 0.0427253 0.643641
0.828367 0.0318303 0.651789
1 0.0179446 0.650126
0 0.157519 0.619532
0 0.173312 0.6383
0.0812848 0.184451 0.657374
0.212284 0.185794 0.672602
0.359442 0.183322 0.684306
0.520882 0.179171 0.687907
0.68835 0.174044 0.684886
0.857206 0.170123 0.678767
1 0.16553 0.66656
0 0.298955 0.644999
0 0.317067 0.671931
0.0684215 0.329732 0.688869
0.208835 0.332784 0.692271
0.360723 0.333379 0.690257
0.519432 0.333715 0.683146
0.676478 0.335241 0.672724
0.83006 0.338262 0.664958
0.992981 0.339071 0.658946
0 0.454551 0.647028
0 0.472206 0.662501
0.0727703 0.484688 0.669718
0.218433 0.489479 0.667399
0.366934 0.493568 0.666453
0.518135 0.497368 0.666636
0.671977 0.500847 0.667857
0.826932 0.504845 0.67013
0.992523 0.505882 0.670237
0 0.605493 0.618235
0 0.624094 0.635935
0.105119 0.640085 0.651621
0.238788 0.648936 0.659922
0.380285 0.655955 0.666896
0.528267 0.661814 0.672679
0.680903 0.666743 0.677485
0.834775 0.671885 0.682368
0.9944 0.675105 0.685191
0 0.761212 0.613031
0.0236667 0.783825 0.636606
0.124178 0.80264 0.655665
0.255222 0.813031 0.667338
0.398825 0.820508 0.676875
0.548348 0.826444 0.685939
0.698909 0.831769 0.695293
0.845365 0.83859 0.710521
0.982818 0.848722 0.734295
0 0.927443 0.612238
0.0471351 0.947723 0.638163
0.159579 0.963333 0.661219
0.305226 0.969665 0.679988
0.468467 0.970733 0.703441
0.638392 0.971191 0.73904
0.797101 0.97496 0.789807
0.927138 0.986511 0.859312
1 1 0.942916
0 0 0.770764
0 0 0.771206
0.0298466 0 0.767498
0.146502 0 0.753048
0.272175 0 0.736965
0.405921 0 0.720211
0.546288 0 0.70338
0.691691 0 0.688014
0.851865 0 0.672648
0 0 0.779782
0 0 0.782513
0.0449683 0 0.781186
0.165057 0 0.771023
0.295415 0 0.761181
0.437247 0 0.752804
0.587243 0 0.745907
0.74226 0 0.740978
0.917174 0 0.738811
0 0.038117 0.784817
0 0.0467384 0.793591
0.0678416 0.0544442 0.801312
0.196201 0.0543832 0.801404
0.334859 0.0529183 0.803632
0.486503 0.0479133 0.810376
0.652918 0.0388952 0.822812
0.830701 0.0276493 0.833814
1 0.0149386 0.833356
0 0.155413 0.786511
0 0.171389 0.808072
0.0779583 0.182223 0.832074
0.210056 0.183383 0.853269
0.357931 0.18085 0.867033
0.519234 0.176791 0.870634
0.686381 0.172412 0.86685
0.853758 0.169085 0.858503
1 0.166461 0.842145
0 0.29691 0.826352
0 0.315267 0.855161
0.0659495 0.327657 0.871122
0.207065 0.330907 0.873335
0.359182 0.332036 0.868437
0.517006 0.333211 0.855833
0.673274 0.336065 0.840681
0.827131 0.339376 0.830137
0.990646 0.340322 0.822049
0 0.45243 0.828077
0 0.470405 0.839658
0.0762951 0.483268 0.840757
0.220523 0.488762 0.834104
0.3682 0.49398 0.830762
0.519097 0.498238 0.829419
0.672572 0.502174 0.829114
0.827085 0.505776 0.830014
0.992859 0.50695 0.829709
0 0.604242 0.785077
0.00177005 0.623529 0.800092
0.107424 0.639933 0.813382
0.240848 0.649653 0.820859
0.381811 0.657282 0.827237
0.529915 0.663294 0.832425
0.682033 0.668238 0.835889
0.835355 0.673533 0.838392
0.993988 0.677638 0.83859
0 0.761761 0.774426
0.0254215 0.78439 0.796567
0.126726 0.803555 0.815061
0.259022 0.814191 0.825299
0.402701 0.821591 0.832364
0.552346 0.827878 0.838102
0.703548 0.83389 0.843076
0.848844 0.842054 0.850095
0.982177 0.855589 0.861708
0 0.927367 0.770047
0.0545968 0.947738 0.793194
0.168704 0.963272 0.812497
0.319615 0.96846 0.825116
0.488441 0.969848 0.839628
0.660685 0.971405 0.860716
0.81915 0.97763 0.892332
0.94583 0.993103 0.938293
1 1 0.994965
0 0 0.944595
0 0 0.945556
0.0205692 0 0.941833
0.137682 0 0.927565
0.264439 0 0.91223
0.398291 0 0.895689
0.539574 0 0.879622
0.685695 0 0.865385
0.84773 0 0.85182
0 0 0.954757
0 0 0.957488
0.0371099 0 0.956802
0.15819 0 0.947433
0.289769 0 0.93817
0.433021 0 0.931472
0.58352 0 0.925139
0.740642 0 0.923201
0.919097 0 0.926055
0 0.0324407 0.961608
0 0.0424659 0.971908
0.0635691 0.0507515 0.980194
0.192844 0.0512398 0.981613
0.332509 0.0494698 0.98761
0.485298 0.0435187 1
0.654353 0.0337987 1
0.831159 0.0227054 1
1 0.0110628 1
0 0.152514 0.967529
0 0.168215 0.993378
0.0731823 0.179095 1
0.206043 0.179278 1
0.355077 0.177249 1
0.515831 0.173342 1
0.682689 0.169619 1
0.848661 0.167422 1
1 0.166827 1
0 0.294133 1
0 0.312032 1
0.0627604 0.324742 1
0.204364 0.327962 1
0.357 0.330068 1
0.514061 0.332311 1
0.669612 0.335729 1
0.824018 0.339834 1
0.987884 0.341024 0.997803
0 0.449485 1
0 0.46746 1
0.0790723 0.481132 1
0.221881 0.487602 1
0.368154 0.493141 1
0.518471 0.497795 1
0.672068 0.502251 1
0.826947 0.506279 1
0.992706 0.507637 1
0 0.602243 0.963165
0.00408942 0.622522 0.976532
0.109316 0.639475 0.988098
0.241657 0.649378 0.994507
0.382193 0.657267 1
0.530419 0.663569 1
0.682795 0.669078 1
0.83537 0.674723 1
0.992844 0.679469 1
0 0.76144 0.947982
0.0268101 0.784588 0.969924
0.128603 0.803433 0.986984
0.261692 0.813825 0.994324
0.406256 0.821714 0.998215
0.556115 0.828489 0.999878
0.707973 0.835126 0.996658
0.852552 0.845762 0.991165
0.981521 0.862913 0.984878
0 0.926818 0.939086
0.0618296 0.946914 0.958373
0.17966 0.961898 0.972427
0.337301 0.96669 0.975372
0.511101 0.96849 0.975509
0.686778 0.972 0.976928
0.84448 0.981414 0.983673
0.96614 1 1
1 1 1
