src/colors/dark_&_moody/icy_drama.cube
TITLE "Generated by Resolve"
LUT_3D_SIZE 5
0 0 0
0.0667277 0 0
0.303258 0 0
0.572641 0 0
0.868238 0 0
0 0.0601816 0
0.0781567 0.0638285 0
0.332052 0.0513313 0
0.628107 0.0405585 0
0.974762 0.0218204 0
0 0.287617 0
0.066041 0.320287 0
0.351659 0.323812 0
0.678416 0.317708 0
1 0.312886 0
0 0.602457 0
0.0652171 0.626337 0
0.353552 0.634653 0
0.65713 0.641718 0
0.977523 0.646479 0
0 0.906676 0
0.102052 0.946349 0
0.386267 0.958541 0
0.694865 0.959411 0.102464
0.966262 0.962737 0.362707
0 0 0.0349432
0.0655222 0 0.0248264
0.30312 0 0
0.573587 0 0
0.870558 0 0
0 0.0615396 0.0347143
0.0830396 0.0677195 0.0418097
0.340673 0.0599222 0.0336004
0.641001 0.0502632 0.0232242
1 0.0285801 0.000808728
0 0.298924 0.0122835
0.0752117 0.332097 0.0334173
0.362844 0.335119 0.0315709
0.686717 0.330587 0.0315251
1 0.329473 0.0466926
0 0.611154 0
0.088365 0.637354 0.0474403
0.369772 0.648615 0.0773175
0.672236 0.657481 0.0950942
0.990723 0.662699 0.108339
0 0.921279 0.0270695
0.126528 0.959197 0.0876173
0.412207 0.970794 0.146609
0.726726 0.969131 0.281727
0.98201 0.977371 0.560632
0 0 0.298894
0.053666 0 0.291341
0.292912 0 0.259144
0.564553 0 0.221302
0.864561 0 0.18323
0 0.0535439 0.304158
0.0778973 0.0633555 0.314717
0.339742 0.0590829 0.310369
0.646662 0.0490883 0.305455
1 0.0248875 0.296132
0 0.300725 0.297765
0.0733043 0.333059 0.333547
0.363592 0.336004 0.337423
0.683711 0.334081 0.334386
0.998901 0.335958 0.334936
0 0.609461 0.283391
0.0985885 0.639765 0.330587
0.376776 0.653742 0.35285
0.677989 0.663569 0.366201
0.993988 0.669947 0.379019
0 0.926116 0.29865
0.143236 0.962615 0.357473
0.437079 0.972488 0.415244
0.758663 0.971817 0.54316
0.996689 0.991073 0.781491
0 0 0.609796
0.0378119 0 0.605844
0.279164 0 0.574853
0.552361 0 0.539422
0.855772 0 0.505943
0 0.0431373 0.621576
0.0713664 0.0575418 0.636606
0.336248 0.0551614 0.635554
0.650324 0.0427253 0.643641
1 0.0179446 0.650126
0 0.298955 0.644999
0.0684215 0.329732 0.688869
0.360723 0.333379 0.690257
0.676478 0.335241 0.672724
0.992981 0.339071 0.658946
0 0.605493 0.618235
0.105119 0.640085 0.651621
0.380285 0.655955 0.666896
0.680903 0.666743 0.677485
0.9944 0.675105 0.685191
0 0.927443 0.612238
0.159579 0.963333 0.661219
0.468467 0.970733 0.703441
0.797101 0.97496 0.789807
1 1 0.942916
0 0 0.944595
0.0205692 0 0.941833
0.264439 0 0.91223
0.539574 0 0.879622
0.84773 0 0.85182
0 0.0324407 0.961608
0.0635691 0.0507515 0.980194
0.332509 0.0494698 0.98761
0.654353 0.0337987 1
1 0.0110628 1
0 0.294133 1
0.0627604 0.324742 1
0.357 0.330068 1
0.669612 0.335729 1
0.987884 0.341024 0.997803
0 0.602243 0.963165
0.109316 0.639475 0.988098
0.382193 0.657267 1
0.682795 0.669078 1
0.992844 0.679469 1
0 0.926818 0.939086
0.17966 0.961898 0.972427
0.511101 0.96849 0.975509
0.84448 0.981414 0.983673
1 1 1
