src/colors/dark_&_moody/icy_drama.cube
TITLE "Generated by Resolve"
LUT_3D_SIZE 33
0 0 0
0 0 0
0 0 0
0 0 0
0 0 0
0.0111696 0 0
0.0274357 0 0
0.0457465 0 0
0.0667277 0 0
0.0918135 0 0
0.12047 0 0
0.150134 0 0
0.180407 0 0
0.210452 0 0
0.240803 0 0
0.271717 0 0
0.303258 0 0
0.335485 0 0
0.368078 0 0
0.401236 0 0
0.435035 0 0
0.468849 0 0
0.503166 0 0
0.537713 0 0
0.572641 0 0
0.607675 0 0
0.642786 0 0
0.678187 0 0
0.714015 0 0
0.751141 0 0
0.789822 0 0
0.82884 0 0
0.868238 0 0
0 0 0
0 0 0
0 0 0
0 0 0
0 0 0
0.00923171 0 0
0.0270848 0 0
0.046891 0 0
0.0683146 0 0
0.0939498 0 0
0.122835 0 0
0.152712 0 0
0.18291 0 0
0.212879 0 0
0.24329 0 0
0.274571 0 0
0.306004 0 0
0.338491 0 0
0.370962 0 0
0.404349 0 0
0.437995 0 0
0.472099 0 0
0.50692 0 0
0.541405 0 0
0.576669 0 0
0.611566 0 0
0.647196 0 0
0.682567 0 0
0.718685 0 0
0.756329 0 0
0.795285 0 0
0.834913 0 0
0.874357 0 0
0 0 0
0 0 0
0 0 0
0 0 0
0 0 0
0.0129854 0 0
0.0311589 0 0
0.0508278 0 0
0.0728771 0 0
0.0982071 0 0
0.127031 0 0
0.156786 0 0
0.186862 0 0
0.21709 0 0
0.247623 0 0
0.27863 0 0
0.310582 0 0
0.342779 0 0
0.375708 0 0
0.409049 0 0
0.443244 0 0
0.477455 0 0
0.512016 0 0
0.54699 0 0
0.582452 0 0
0.618082 0 0
0.653849 0 0
0.689632 0 0
0.725765 0 0
0.764324 0 0
0.803525 0 0
0.843748 0 0
0.883772 0 0
0 0 0
0 0 0
0 0 0
0 0 0
0 0 0
0.0141909 0 0
0.0322118 0 0
0.0520638 0 0
0.0744182 0 0
0.0995041 0 0
0.128634 0 0
0.158801 0 0
0.189014 0 0
0.219303 0 0
0.249882 0 0
0.281209 0 0
0.312825 0 0
0.345449 0 0
0.378363 0 0
0.412039 0 0
0.446204 0 0
0.48072 0 0
0.515877 0 0
0.551125 0 0
0.586709 0 0
0.622705 0 0
0.659007 0 0
0.695827 0 0
0.732479 0 0
0.771313 0 0
0.811063 0 0
0.85211 0 0
0.893477 0 0
0 0 0
0 0 0
0 0 0
0 0 0
0 0 0
0.0150759 0 0
0.0333867 0 0
0.0532692 0 0
0.0752422 0 0
0.101076 0 0
0.130007 0 0
0.160342 0 0
0.190661 0 0
0.221134 0 0
0.252033 0 0
0.283253 0 0
0.315633 0 0
0.348486 0 0
0.381949 0 0
0.415885 0 0
0.450477 0 0
0.484932 0 0
0.520577 0 0
0.556268 0 0
0.592813 0 0
0.628992 0 0
0.665949 0 0
0.703197 0 0
0.740749 0 0
0.780423 0 0
0.821317 0 0
0.863127 0 0
0.904601 0 0
0 0.00816358 0
0 0.00863661 0
0 0.00946059 0
0 0.00973526 0
0 0.00975052 0
0.0155795 0.00924697 0
0.0341955 0.00883497 0
0.0541695 0.00798047 0
0.0763867 0.00674449 0
0.10222 0.00427253 0
0.131731 0.00138857 0
0.162158 0 0
0.192355 0 0
0.223239 0 0
0.2542 0 0
0.286213 0 0
0.318639 0 0
0.351949 0 0
0.385306 0 0
0.420157 0 0
0.455253 0 0
0.490471 0 0
0.526741 0 0
0.562951 0 0
0.600183 0 0
0.637629 0 0
0.675593 0 0
0.713298 0 0
0.751415 0 0
0.79202 0 0
0.832898 0 0
0.874861 0 0
0.916609 0 0
0 0.024445 0
0 0.024918 0
0 0.0260929 0
0 0.0263218 0
0 0.0262303 0
0.0162509 0.0263218 0
0.0348516 0.0258335 0
0.0551614 0.0253147 0
0.077348 0.0240482 0
0.103761 0.0221714 0
0.133043 0.0192111 0
0.163745 0.0163119 0
0.194553 0.0132448 0
0.22565 0.0107576 0
0.256977 0.00772107 0
0.289235 0.0049897 0
0.322026 0.00213626 0
0.356329 0 0
0.390631 0 0
0.425376 0 0
0.461173 0 0
0.4972 0 0
0.534417 0 0
0.571832 0 0
0.609598 0 0
0.647257 0 0
0.685573 0 0
0.723964 0 0
0.76289 0 0
0.80322 0 0
0.845121 0 0
0.888395 0 0
0.931823 0 0
0 0.0415351 0
0 0.0422675 0
0 0.043595 0
0 0.0439918 0
0 0.0443732 0
0.0158999 0.0441749 0
0.0350652 0.0441291 0
0.0554665 0.0438239 0
0.0784161 0.0431067 0
0.104631 0.0413214 0
0.134432 0.0389715 0
0.165423 0.0362707 0
0.196948 0.0339208 0
0.228275 0.0315557 0
0.260304 0.0294499 0
0.292973 0.0271305 0
0.326635 0.0249027 0
0.361257 0.0229648 0
0.396353 0.0210422 0
0.43212 0.0192874 0
0.468635 0.0174258 0
0.505745 0.0159457 0
0.543191 0.014374 0
0.58088 0.0127413 0
0.618982 0.0111238 0
0.657053 0.00970474 0
0.696056 0.00820935 0
0.735103 0.00689708 0
0.774884 0.00512703 0
0.816648 0.00288396 0
0.859968 0.000289921 0
0.904753 0 0
0.95053 0 0
0 0.0601816 0
0 0.0612039 0
0 0.0625772 0
0 0.0632181 0
0 0.0635386 0
0.0150454 0.064271 0
0.0342718 0.0643778 0
0.0550393 0.0643626 0
0.0781567 0.0638285 0
0.105287 0.0627604 0
0.13579 0.060914 0
0.167315 0.0587472 0
0.198962 0.0570077 0
0.230884 0.0551308 0
0.263706 0.0537423 0
0.297566 0.0527047 0
0.332052 0.0513313 0
0.367193 0.0498817 0
0.402853 0.0484169 0
0.439338 0.0472725 0
0.476616 0.0461738 0
0.513649 0.0449073 0
0.551278 0.0435035 0
0.589395 0.0420386 0
0.628107 0.0405585 0
0.667582 0.0391852 0
0.707515 0.0376287 0
0.748043 0.0359655 0
0.789273 0.0340429 0
0.832944 0.0315404 0
0.878737 0.0285649 0
0.926482 0.0253605 0
0.974762 0.0218204 0
0 0.080705 0
0 0.0818952 0
0 0.0835889 0
0 0.0847639 0
0 0.0855116 0
0.0115511 0.0864576 0
0.0316014 0.0870222 0
0.0533303 0.0877394 0
0.0771649 0.0879377 0
0.104555 0.087068 0
0.13576 0.085893 0
0.168185 0.0845655 0
0.200717 0.0835889 0
0.233967 0.0831922 0
0.267552 0.0822614 0
0.301503 0.0813458 0
0.336294 0.0804456 0
0.372015 0.0797131 0
0.408194 0.0787518 0
0.44477 0.0779126 0
0.482246 0.0767376 0
0.520088 0.0754864 0
0.558587 0.0741131 0
0.597955 0.0728008 0
0.638132 0.0711833 0
0.678859 0.0697185 0
0.720455 0.0678874 0
0.762631 0.0658885 0
0.806195 0.0635691 0
0.852293 0.0606394 0
0.900404 0.0572519 0
0.950515 0.053727 0
1 0.0500649 0
0 0.103716 0
0 0.105028 0
0 0.107424 0
0 0.108919 0
0 0.110369 0
0.00727855 0.111818 0
0.0279088 0.112902 0
0.0504158 0.114275 0
0.075288 0.115373 0
0.103899 0.115557 0
0.135744 0.114946 0
0.168963 0.114458 0
0.202182 0.114153 0
0.235401 0.113741 0
0.26923 0.113283 0
0.303532 0.112764 0
0.338979 0.112276 0
0.375082 0.111589 0
0.411994 0.110857 0
0.449271 0.10985 0
0.487511 0.108629 0
0.526146 0.107378 0
0.56614 0.105882 0
0.607111 0.104494 0
0.648615 0.102724 0
0.691402 0.100984 0
0.734951 0.0988327 0
0.779263 0.0965133 0
0.824338 0.0940414 0
0.871595 0.0910201 0
0.920272 0.0876631 0
0.970153 0.0842298 0
1 0.081178 0
0 0.128832 0
0 0.130785 0
0 0.133501 0
0 0.135485 0
0 0.137652 0
0.00500496 0.140322 0
0.0263218 0.142519 0
0.0493477 0.144335 0
0.0747234 0.145647 0
0.103853 0.146273 0
0.136522 0.146456 0
0.16994 0.146365 0
0.203372 0.146105 0
0.236835 0.145907 0
0.270985 0.145617 0
0.306004 0.145525 0
0.341787 0.14493 0
0.378637 0.144366 0
0.416251 0.143542 0
0.454551 0.142519 0
0.493812 0.141314 0
0.534081 0.139956 0
0.575906 0.138476 0
0.618112 0.136736 0
0.661707 0.134966 0
0.705318 0.132982 0
0.74992 0.130724 0
0.794278 0.128557 0
0.839307 0.126284 0
0.885863 0.123644 0
0.933471 0.120729 0
0.981735 0.117693 0
1 0.115145 0
0 0.156008 0
0 0.15877 0
0 0.162341 0
0 0.16556 0
0 0.168475 0
0.00361639 0.17113 0
0.0255894 0.173678 0
0.0491798 0.175982 0
0.0750896 0.178027 0
0.104524 0.178866 0
0.137453 0.179187 0
0.170871 0.179126 0
0.204501 0.179095 0
0.238392 0.179049 0
0.273274 0.179141 0
0.308629 0.178882 0
0.34548 0.178637 0
0.383078 0.177935 0
0.421683 0.177005 0
0.46099 0.175967 0
0.501778 0.174624 0
0.543557 0.173312 0
0.586007 0.17174 0
0.629099 0.169909 0
0.672786 0.168353 0
0.716426 0.166491 0
0.760113 0.16466 0
0.803906 0.162783 0
0.84773 0.160952 0
0.893278 0.158709 0
0.93991 0.156207 0
0.986969 0.153597 0
1 0.151171 0
0 0.186282 0
0 0.189715 0
0 0.194049 0
0 0.197436 0
0 0.200626 0
0.00320439 0.203616 0
0.0252232 0.206516 0
0.0493324 0.209201 0
0.0752575 0.211398 0
0.104829 0.212634 0
0.137743 0.212863 0
0.17142 0.213001 0
0.205234 0.213184 0
0.240055 0.213535 0
0.275303 0.213504 0
0.311437 0.213321 0
0.349203 0.213092 0
0.38764 0.212421 0
0.427176 0.211536 0
0.467506 0.210452 0
0.508888 0.20914 0
0.550454 0.207813 0
0.593332 0.206516 0
0.636088 0.205051 0
0.67924 0.203632 0
0.722072 0.20209 0
0.765377 0.200458 0
0.808179 0.199008 0
0.851347 0.197482 0
0.895872 0.195636 0
0.941588 0.1935 0
0.9879 0.191257 0
1 0.189197 0
0 0.218738 0
0 0.222629 0
0 0.226963 0
0 0.230579 0
0 0.234073 0
0.00241093 0.237537 0
0.0244144 0.240757 0
0.048249 0.243473 0
0.0743114 0.246052 0
0.103868 0.24744 0
0.136965 0.247929 0
0.171023 0.248249 0
0.205325 0.248661 0
0.240436 0.249134 0
0.276539 0.249226 0
0.31368 0.249302 0
0.351797 0.24892 0
0.390936 0.248264 0
0.43093 0.247395 0
0.471427 0.246433 0
0.51252 0.245304 0
0.554086 0.244068 0
0.596292 0.242695 0
0.638911 0.241779 0
0.681575 0.240574 0
0.723827 0.239292 0
0.766323 0.237995 0
0.808789 0.236759 0
0.851209 0.235569 0
0.895277 0.233951 0
0.940154 0.232136 0
0.985046 0.230381 0
1 0.22887 0
0 0.252567 0
0 0.256565 0
0 0.261204 0
0 0.26511 0
0 0.268986 0
0 0.272786 0
0.0216526 0.276356 0
0.0456245 0.279652 0
0.0713512 0.282277 0
0.10103 0.283909 0
0.134295 0.284672 0
0.169039 0.2851 0
0.204013 0.285695 0
0.239689 0.286122 0
0.276509 0.286427 0
0.314031 0.286351 0
0.352529 0.285924 0
0.391882 0.285298 0
0.431937 0.28452 0
0.472236 0.283696 0
0.513359 0.282704 0
0.554742 0.281651 0
0.596414 0.280552 0
0.638743 0.279561 0
0.680674 0.278599 0
0.722789 0.277501 0
0.764721 0.276448 0
0.806226 0.275578 0
0.848112 0.274937 0
0.89073 0.273793 0
0.933837 0.272526 0
0.976928 0.271199 0
1 0.270298 0
0 0.287617 0
0 0.291981 0
0 0.297032 0
0 0.301549 0
0 0.305913 0
0 0.309895 0
0.0163424 0.314076 0
0.0400854 0.317433 0
0.066041 0.320287 0
0.0964065 0.32195 0
0.130129 0.322774 0
0.165652 0.32314 0
0.201343 0.323705 0
0.237613 0.324071 0
0.274739 0.324163 0
0.312825 0.324239 0
0.351659 0.323812 0
0.39118 0.323247 0
0.431266 0.32256 0
0.471443 0.321889 0
0.51252 0.321004 0
0.553674 0.32015 0
0.595132 0.319219 0
0.63679 0.318257 0
0.678416 0.317708 0
0.719478 0.31696 0
0.760632 0.316197 0
0.800763 0.315709 0
0.840879 0.315236 0
0.881544 0.314626 0
0.922652 0.313909 0
0.963592 0.313298 0
1 0.312886 0
0 0.324575 0
0 0.329412 0
0 0.334874 0
0 0.339788 0
0 0.344533 0
0 0.348867 0
0.00901808 0.353002 0
0.0332189 0.356481 0
0.0601358 0.359197 0
0.0912337 0.360815 0
0.125826 0.361486 0
0.162112 0.361791 0
0.19823 0.362112 0
0.23508 0.36231 0
0.272679 0.362463 0
0.310979 0.362539 0
0.349859 0.36231 0
0.389502 0.361944 0
0.429374 0.361425 0
0.469642 0.360815 0
0.510491 0.360067 0
0.55111 0.359426 0
0.592187 0.358663 0
0.632975 0.357992 0
0.673442 0.357397 0
0.713497 0.35729 0
0.752941 0.357 0
0.79176 0.356878 0
0.830198 0.356878 0
0.869566 0.35668 0
0.90985 0.356298 0
0.950652 0.35584 0
0.991012 0.355535 0
0 0.363836 0
0 0.369116 0
0 0.374823 0
0 0.379889 0
0 0.384497 0
0 0.388907 0
0.00155642 0.392737 0
0.026688 0.396002 0
0.0545968 0.398505 0
0.0864271 0.400015 0
0.121721 0.400595 0
0.158633 0.400793 0
0.195331 0.401038 0
0.232273 0.401251 0
0.270054 0.40145 0
0.308492 0.401526 0
0.347372 0.401312 0
0.386679 0.400992 0
0.426688 0.40058 0
0.466712 0.400092 0
0.506966 0.399512 0
0.547219 0.398932 0
0.587503 0.398657 0
0.627344 0.398184 0
0.666407 0.397925 0
0.705348 0.397696 0
0.744167 0.398108 0
0.78233 0.398245 0
0.820645 0.398352 0
0.860029 0.398215 0
0.900771 0.398108 0
0.94197 0.397604 0
0.982757 0.397314 0
0 0.404623 0
0 0.409812 0
0 0.415366 0
0 0.420066 0
0 0.424445 0
0 0.428672 0
0 0.43241 0
0.0217746 0.435431 0
0.0502022 0.437903 0
0.082826 0.439246 0
0.118669 0.439826 0
0.155627 0.440085 0
0.192706 0.44033 0
0.229908 0.440574 0
0.267842 0.440696 0
0.306645 0.440681 0
0.345357 0.440635 0
0.384756 0.440299 0
0.424414 0.439872 0
0.463951 0.439506 0
0.503456 0.439139 0
0.542947 0.438788 0
0.582071 0.438575 0
0.621332 0.438392 0
0.659998 0.438437 0
0.698589 0.43856 0
0.737301 0.438712 0
0.775601 0.439155 0
0.814374 0.439536 0
0.854322 0.439658 0
0.895384 0.43949 0
0.937118 0.439139 0
0.978317 0.438972 0
0 0.445335 0
0 0.450156 0
0 0.455528 0
0 0.459953 0
0 0.464027 0
0 0.467842 0
0 0.471519 0
0.0182498 0.474861 0
0.0475624 0.47715 0
0.080415 0.478538 0
0.116716 0.479057 0
0.154086 0.479255 0
0.191562 0.479423 0
0.229267 0.47953 0
0.267323 0.479515 0
0.305776 0.479484 0
0.344656 0.479408 0
0.383902 0.479225 0
0.423239 0.478874 0
0.462089 0.478721 0
0.501274 0.478553 0
0.5402 0.478523 0
0.579065 0.478569 0
0.617914 0.478676 0
0.656733 0.478889 0
0.695384 0.479194 0
0.734188 0.47953 0
0.772641 0.480003 0
0.811521 0.48043 0
0.851438 0.480629 0
0.892485 0.480491 0
0.934386 0.480323 0
0.975799 0.480369 0
0 0.485618 0
0 0.490257 0
0 0.495354 0
0 0.499733 0
0 0.503639 0
0 0.507301 0
0 0.510857 0
0.0162051 0.513832 0
0.0461433 0.51603 0
0.0798047 0.517235 0
0.116869 0.517494 0
0.154788 0.51751 0
0.192523 0.517632 0
0.23032 0.517632 0
0.268666 0.517494 0
0.307073 0.517403 0
0.345495 0.517464 0
0.384131 0.517433 0
0.422934 0.517571 0
0.461326 0.517845 0
0.500114 0.517998 0
0.53875 0.518242 0
0.57763 0.518486 0
0.616403 0.518822 0
0.65507 0.519265 0
0.693919 0.519692 0
0.732509 0.520241 0
0.77116 0.520806 0
0.81001 0.52137 0
0.849928 0.521691 0
0.891112 0.521706 0
0.933104 0.521538 0
0.974609 0.521553 0
0 0.525383 0
0 0.52987 0
0 0.53489 0
0 0.538994 0
0 0.542733 0
0 0.546227 0
0 0.549325 0
0.0179294 0.552071 0
0.0493019 0.553903 0
0.0835431 0.55494 0
0.121263 0.554955 0
0.159701 0.554788 0
0.19733 0.554894 0
0.234836 0.555093 0
0.272419 0.555337 0
0.310201 0.555581 0
0.348043 0.555901 0
0.386069 0.556252 0
0.424033 0.556695 0
0.46215 0.557153 0
0.500679 0.557671 0
0.5393 0.558389 0
0.577691 0.558953 0
0.61651 0.559442 0
0.655024 0.560052 0
0.693996 0.560571 0
0.732601 0.561242 0
0.771038 0.562036 0
0.810147 0.562646 0
0.850187 0.563058 0
0.891417 0.563058 0
0.933501 0.562814 0
0.975113 0.562982 0
0 0.564675 0
0 0.568978 0
0 0.573617 0
0 0.577401 0
0 0.580697 0
0 0.583703 0
0 0.586358 0
0.0246738 0.588647 0
0.0565042 0.590387 0
0.0912032 0.59144 0
0.128573 0.591669 0
0.166079 0.591959 0
0.203098 0.592401 0
0.239704 0.593042 0
0.276524 0.593729 0
0.313588 0.594446 0
0.350622 0.595148 0
0.388357 0.595819 0
0.42594 0.596521 0
0.46363 0.597116 0
0.501579 0.597696 0
0.540093 0.598413 0
0.578317 0.599207 0
0.61709 0.599924 0
0.655558 0.600748 0
0.694255 0.601541 0
0.733013 0.60235 0
0.771527 0.60322 0
0.810636 0.603983 0
0.850828 0.604471 0
0.892287 0.604654 0
0.934615 0.604654 0
0.976364 0.604807 0
0 0.602457 0
0 0.606119 0
0 0.610285 0
0 0.613535 0
0 0.616388 0
0 0.619272 0
0.00527962 0.62182 0
0.0343023 0.624308 0
0.0652171 0.626337 0
0.0988479 0.627802 0
0.135698 0.628733 0
0.172198 0.629496 0
0.208072 0.630518 0
0.244144 0.63151 0
0.280324 0.632609 0
0.316854 0.633631 0
0.353552 0.634653 0
0.390585 0.635615 0
0.428122 0.636484 0
0.465858 0.637354 0
0.503792 0.638239 0
0.542046 0.639063 0
0.580118 0.639979 0
0.618555 0.640848 0
0.65713 0.641718 0
0.695811 0.642588 0
0.734371 0.643534 0
0.773281 0.644587 0
0.812192 0.645258 0
0.852445 0.645914 0
0.893751 0.646097 0
0.936095 0.646235 0
0.977523 0.646479 0
0 0.638239 0
0 0.641566 0
0 0.645426 0
0 0.648692 0
0 0.651911 0
0 0.655131 0
0.0155032 0.658152 0
0.0433814 0.661189 0
0.0734264 0.663752 0
0.105898 0.66569 0
0.141421 0.666865 0
0.177356 0.668238 0
0.212726 0.669657 0
0.248219 0.671092 0
0.284169 0.672343 0
0.32047 0.673548 0
0.35671 0.67483 0
0.3935 0.675883 0
0.4309 0.677073 0
0.467918 0.67808 0
0.505837 0.678981 0
0.543832 0.680003 0
0.581994 0.681041 0
0.620401 0.682033 0
0.65893 0.683024 0
0.697612 0.684001 0
0.736171 0.685008 0
0.774716 0.686046 0
0.813855 0.686915 0
0.853803 0.687556 0
0.894835 0.687892 0
0.936599 0.687999 0
0.977386 0.688365 0
0 0.672877 0
0 0.676448 0
0 0.68069 0
0 0.684657 0
0 0.68835 0
0 0.691966 0
0.0236057 0.695521 0
0.0509499 0.699077 0
0.0800183 0.701946 0
0.111879 0.704234 0
0.146502 0.705821 0
0.182162 0.707134 0
0.21706 0.708751 0
0.252125 0.710369 0
0.287617 0.711925 0
0.323583 0.713359 0
0.359915 0.715129 0
0.396628 0.716503 0
0.433631 0.717815 0
0.470726 0.719142 0
0.508431 0.720317 0
0.546471 0.721431 0
0.584405 0.722606 0
0.622965 0.723629 0
0.66128 0.724727 0
0.699901 0.72549 0
0.738384 0.726558 0
0.776562 0.727489 0
0.815213 0.72842 0
0.854932 0.729046 0
0.895354 0.729473 0
0.936385 0.729702 0
0.976501 0.730159 0
0 0.708156 0
0 0.712398 0
0 0.717327 0
0 0.721736 0
0 0.725963 0
0.00521859 0.730053 0
0.0308843 0.734051 0
0.0577401 0.737713 0
0.0863813 0.741009 0
