src/colors/dark_&_moody/mystic_emerald_drama.cube
TITLE "Generated by Resolve"
LUT_3D_SIZE 33
0.00105287 0.00105287 0.00105287
0.0133516 0.00105287 0.00105287
0.0338445 0.00105287 0.00105287
0.0596933 0.00192264 0.0019379
0.102434 0.00444038 0.00450141
0.160754 0.00950637 0.00947585
0.215946 0.0137942 0.0136263
0.254719 0.0166171 0.0163577
0.277455 0.0183108 0.0179904
0.293828 0.0195315 0.0191653
0.306508 0.021622 0.0215
0.317342 0.0257267 0.0252537
0.326879 0.0298466 0.0290837
0.336355 0.0340581 0.0330053
0.347097 0.0384527 0.0370184
0.35964 0.0428779 0.0411383
0.374746 0.0473487 0.045304
0.392477 0.0511025 0.0488289
0.413901 0.0545205 0.052018
0.439445 0.057969 0.0552682
0.475059 0.0616617 0.0587167
0.524178 0.0655222 0.0624247
0.596811 0.0703136 0.0670939
0.700725 0.0766918 0.0735637
0.825055 0.0817578 0.0790417
0.918044 0.0828412 0.0808728
0.941558 0.0794537 0.0780041
0.941558 0.076051 0.0748455
0.941558 0.0738689 0.0729229
0.941558 0.0729229 0.0719615
0.941558 0.0727855 0.0719005
0.941558 0.0730755 0.0720989
0.941558 0.0732891 0.0723735
0.00105287 0.0100252 0.00105287
0.00848402 0.00869764 0.00105287
0.0314794 0.007187 0.00105287
0.0583658 0.00820935 0.0018616
0.0952468 0.0115206 0.00404364
0.13344 0.0160678 0.00714122
0.166888 0.0207523 0.00999466
0.19324 0.0248875 0.0125277
0.214817 0.0290074 0.01738
0.234455 0.0332036 0.0222629
0.252872 0.0375067 0.0270237
0.270054 0.0413977 0.0313725
0.288273 0.045182 0.0356146
0.307836 0.0488746 0.039704
0.329183 0.0523842 0.0434577
0.352728 0.0558022 0.0468757
0.380377 0.059205 0.0501411
0.41622 0.0626383 0.0533608
0.464164 0.066041 0.0564126
0.530175 0.0699168 0.0596323
0.623682 0.0751812 0.0635691
0.740902 0.0815137 0.0682383
0.853513 0.0862135 0.07187
0.921233 0.0871443 0.0728008
0.941558 0.0857099 0.0714275
0.941558 0.0843214 0.0707103
0.941558 0.0838483 0.0707103
0.941558 0.0839857 0.0707103
0.941558 0.0841993 0.0707103
0.941558 0.0843977 0.0707103
0.941558 0.0846723 0.0707103
0.941558 0.084947 0.0707103
0.941558 0.0851453 0.0707103
0.00105287 0.029633 0.00105287
0.00657664 0.0288853 0.00105287
0.0277409 0.0276036 0.00105287
0.042771 0.0272068 0.00105287
0.071397 0.0290837 0.00263981
0.0981155 0.0315709 0.00563058
0.129442 0.0356909 0.0119936
0.158907 0.0399023 0.0180362
0.185946 0.043946 0.0235142
0.21062 0.0474708 0.0282597
0.235569 0.0509194 0.0326085
0.261067 0.0542763 0.0366827
0.287221 0.0575113 0.0404669
0.317617 0.0607309 0.0436561
0.353765 0.0641031 0.0464027
0.399969 0.0668498 0.0485237
0.459251 0.0698253 0.0499275
0.537392 0.0738231 0.0511635
0.634531 0.0791943 0.0533303
0.738888 0.0853285 0.0565805
0.829709 0.0904097 0.0616007
0.892287 0.0935683 0.0666361
0.927214 0.0949264 0.0695201
0.941558 0.095552 0.0707103
0.941558 0.0956893 0.0707103
0.941558 0.095964 0.0707103
0.941558 0.0961624 0.0707103
0.941558 0.096376 0.0707103
0.941558 0.0966506 0.0707103
0.941558 0.096849 0.0707103
0.941558 0.0970474 0.0707103
0.941558 0.097322 0.0707103
0.941558 0.0975357 0.0707103
0.00105287 0.04271 0.00105287
0.0127718 0.0423896 0.00105287
0.0295109 0.0420233 0.00131228
0.0428168 0.0423133 0.00474556
0.0691844 0.0440681 0.00988785
0.0952468 0.0463111 0.0147707
0.126513 0.051606 0.0204166
0.158511 0.0575875 0.0258793
0.189517 0.0631113 0.0305638
0.219577 0.0677501 0.0344091
0.252903 0.0715801 0.0376287
0.289906 0.0744793 0.0397955
0.334569 0.076173 0.0409247
0.38854 0.0770275 0.0409094
0.453651 0.0779431 0.0402533
0.528435 0.0800793 0.0399786
0.609934 0.0844892 0.043534
0.690959 0.090135 0.050309
0.76556 0.0955673 0.0565805
0.825681 0.0995956 0.0612802
0.870436 0.102892 0.0648661
0.907561 0.105791 0.0678874
0.928542 0.106783 0.0696422
0.941558 0.107515 0.0707256
0.941558 0.107759 0.0707256
0.941558 0.108019 0.0707256
0.941558 0.108263 0.0707256
0.941558 0.108522 0.0707408
0.941558 0.108766 0.0707408
0.941558 0.109026 0.0707408
0.941558 0.109285 0.0707408
0.941558 0.109529 0.0707408
0.941558 0.109789 0.0707408
0.0102235 0.0691844 0.00949111
0.0238041 0.0703136 0.0118868
0.037232 0.071458 0.0138399
0.0523384 0.07393 0.016556
0.0800488 0.0778058 0.020325
0.107362 0.0819867 0.0238041
0.142214 0.0857099 0.0278325
0.179034 0.088716 0.0308843
0.216968 0.0906539 0.0324559
0.260426 0.0912337 0.0327306
0.310262 0.0904555 0.0314641
0.365957 0.0889601 0.0294194
0.425544 0.0882734 0.0292668
0.486458 0.0898451 0.0338903
0.547768 0.0931563 0.0387121
0.608408 0.0979782 0.0436561
0.667521 0.103883 0.0486763
0.722469 0.109682 0.0532998
0.776074 0.115175 0.0577554
0.825437 0.119524 0.0616617
0.868147 0.122423 0.0650797
0.905013 0.124132 0.0680552
0.92697 0.122896 0.0697642
0.941558 0.121828 0.0708782
0.941558 0.121996 0.0708782
0.941558 0.12224 0.0708934
0.941558 0.122499 0.0708934
0.941558 0.122667 0.0708934
0.941558 0.122927 0.0708934
0.941558 0.123171 0.0708934
0.941558 0.12343 0.0709087
0.941558 0.123598 0.0709087
0.941558 0.123842 0.0709087
0.0229648 0.100099 0.0210117
0.0340276 0.103059 0.0226596
0.0451972 0.106126 0.0236057
0.0665904 0.111254 0.0248722
0.0929732 0.117189 0.025452
0.12639 0.122026 0.0254063
0.168933 0.1252 0.024033
0.21503 0.126421 0.021561
0.265095 0.124575 0.018616
0.31696 0.12221 0.0222782
0.367834 0.119966 0.0259403
0.417823 0.118563 0.0296178
0.466453 0.118639 0.0332952
0.513787 0.120592 0.0369879
0.562478 0.12459 0.0409705
0.612909 0.129671 0.045182
0.666331 0.135912 0.0496986
0.720119 0.142229 0.0542
0.773541 0.148379 0.0586404
0.822858 0.153231 0.0626535
0.865965 0.156024 0.0661479
0.902785 0.15729 0.0691539
0.925734 0.154803 0.0708934
0.941634 0.152575 0.0720684
0.941634 0.153109 0.0720989
0.941634 0.153658 0.0721141
0.941649 0.154192 0.0721447
0.941649 0.155001 0.0721752
0.941649 0.155535 0.0722057
0.941649 0.156344 0.0722515
0.941649 0.156878 0.0722667
0.941649 0.157412 0.0722972
0.941649 0.158221 0.0723278
0.0326543 0.146258 0.0297246
0.0409705 0.153613 0.0286259
0.050248 0.160037 0.0255131
0.0686809 0.167636 0.0211337
0.0932021 0.174365 0.0154574
0.134844 0.179339 0.0136568
0.188678 0.182467 0.015198
0.23856 0.178637 0.0183566
0.287755 0.174487 0.0217288
0.33492 0.170794 0.0251316
0.379492 0.168032 0.0284123
0.423331 0.16672 0.0317388
0.467536 0.167025 0.0351873
0.512612 0.168521 0.0388037
0.561257 0.172381 0.0429236
0.611002 0.177127 0.0471351
0.664195 0.183444 0.0514992
0.717693 0.189578 0.0558785
0.771191 0.195956 0.0602731
0.820417 0.200641 0.0644236
0.864134 0.203479 0.0680705
0.900893 0.203967 0.0710918
0.924712 0.200641 0.0728923
0.941772 0.197177 0.0741283
0.941772 0.197452 0.0741436
0.941772 0.198001 0.0741588
0.941772 0.19855 0.0741894
0.941772 0.199084 0.0742199
0.941772 0.199634 0.0742504
0.941772 0.200183 0.0742809
0.941772 0.200992 0.0743114
0.941787 0.201541 0.074342
0.941787 0.202075 0.0743725
0.0275273 0.21146 0.0248264
0.0344396 0.221546 0.0188296
0.0450599 0.227146 0.0165103
0.057023 0.230793 0.0168154
0.0848096 0.232776 0.0172885
0.127199 0.233173 0.0179599
0.184726 0.233326 0.019089
0.239597 0.231754 0.0211032
0.288777 0.227161 0.0238804
0.334401 0.221988 0.0270237
0.378592 0.218097 0.0303197
0.422324 0.216022 0.0337224
0.466255 0.21532 0.0371862
0.511452 0.216449 0.0408331
0.559304 0.219547 0.0447242
0.608865 0.224018 0.0487831
0.661906 0.230213 0.0531777
0.715221 0.236576 0.0576486
0.768841 0.243091 0.0621805
0.818006 0.247868 0.0664225
0.862562 0.250828 0.0702068
0.899245 0.250568 0.073228
0.92369 0.246662 0.0750591
0.941894 0.241794 0.0763256
0.941909 0.242069 0.0763409
0.941909 0.242618 0.0763714
0.941909 0.242878 0.0763867
0.941909 0.243427 0.0764019
0.941909 0.243977 0.0764324
0.941909 0.244511 0.076463
0.941909 0.24506 0.0764935
0.941909 0.245609 0.0765087
0.941909 0.245869 0.076524
0.0232395 0.283101 0.0214694
0.0277714 0.285435 0.0216831
0.0431067 0.283619 0.0215152
0.0578012 0.281788 0.0213474
0.0828107 0.280476 0.0214694
0.12285 0.27924 0.0219577
0.179294 0.27895 0.0229496
0.235004 0.278981 0.0243076
0.286183 0.276509 0.0264286
0.333776 0.272343 0.0291447
0.377737 0.267536 0.0323644
0.421256 0.264302 0.0356756
0.464851 0.262547 0.0390784
0.51014 0.263264 0.0426795
0.557565 0.26569 0.0464637
0.607019 0.269963 0.0504616
0.659632 0.276036 0.054902
0.7131 0.282673 0.0594949
0.766629 0.289494 0.0641489
0.81593 0.294179 0.068452
0.86099 0.297017 0.0724041
0.897627 0.296757 0.0756847
0.92285 0.292149 0.0776684
0.942077 0.286152 0.0790417
0.942077 0.286427 0.079057
0.942077 0.286702 0.0790723
0.942077 0.286976 0.0791028
0.942077 0.28751 0.0791485
0.942077 0.287785 0.0791638
0.942092 0.288334 0.0792096
0.942092 0.288609 0.0792248
0.942092 0.289143 0.0792706
0.942092 0.289693 0.0793011
0.0283207 0.333211 0.0261234
0.030396 0.331212 0.0259403
0.0466011 0.327474 0.0255741
0.0611582 0.325231 0.0253452
0.0835889 0.32369 0.0254063
0.119936 0.322728 0.0259098
0.174624 0.322454 0.0269627
0.228504 0.322225 0.0281224
0.281941 0.322164 0.0296178
0.333333 0.321569 0.0315557
0.376928 0.315679 0.0345312
0.420356 0.311421 0.037644
0.463569 0.308797 0.0408331
0.508644 0.308766 0.0443122
0.555993 0.310887 0.0481117
0.604791 0.314748 0.0521401
0.657664 0.321096 0.056733
0.710979 0.327962 0.0614328
0.764431 0.334783 0.0661631
0.813855 0.339635 0.0705272
0.859464 0.342763 0.0747082
0.896071 0.342184 0.0785077
0.922194 0.337331 0.0808576
0.94229 0.329992 0.0823835
0.94229 0.330266 0.0823987
0.942306 0.330541 0.0824292
0.942306 0.3308 0.0824445
0.942306 0.331075 0.0824598
0.942306 0.33135 0.0824903
0.942306 0.331899 0.0825208
0.942306 0.332174 0.0825513
0.942306 0.332708 0.0825818
0.942306 0.332982 0.0826123
0.032639 0.374548 0.0301671
0.0346532 0.372305 0.0299535
0.0504921 0.368566 0.0295872
0.0646372 0.366339 0.0293736
0.085069 0.364752 0.0294041
0.118578 0.363729 0.0298772
0.171496 0.363424 0.0310216
0.224292 0.363134 0.0321813
0.276173 0.36286 0.0333562
0.327184 0.362707 0.034638
0.374685 0.360555 0.0367132
0.419211 0.357244 0.0393988
0.462379 0.353567 0.0425269
0.507103 0.353231 0.0460365
0.554131 0.355047 0.0498817
0.60293 0.358541 0.0540017
0.655711 0.365118 0.0586709
0.708888 0.371969 0.063447
0.76228 0.379141 0.0683604
0.812329 0.384955 0.0739757
0.858305 0.388663 0.0792096
0.895064 0.387991 0.0832074
0.921782 0.382574 0.0855726
0.942031 0.374548 0.0869612
0.942687 0.374273 0.0869917
0.942687 0.374548 0.0870222
0.942687 0.374548 0.0870222
0.942702 0.374838 0.0870527
0.942702 0.375113 0.0870832
0.942702 0.375387 0.0871138
0.942702 0.375937 0.0871748
0.942702 0.376211 0.0872053
0.942718 0.376486 0.0872358
0.0370031 0.415488 0.0343786
0.0390478 0.41323 0.0341497
0.0545052 0.409491 0.033753
0.0683604 0.407248 0.0335241
0.0871595 0.405615 0.0335088
0.117876 0.404517 0.0339208
0.169619 0.403861 0.0349889
0.221042 0.403433 0.0360876
0.271504 0.403189 0.0371099
0.321218 0.402838 0.0380255
0.370932 0.402853 0.0393835
0.417243 0.401144 0.0415045
0.461189 0.397864 0.0442817
0.505837 0.396963 0.0478523
0.55256 0.398459 0.0517281
0.601251 0.401938 0.0559091
0.653819 0.408408 0.0607004
0.706905 0.415641 0.0658122
0.760678 0.423453 0.0713207
0.810971 0.42974 0.0776379
0.857527 0.434531 0.0836042
0.894133 0.433326 0.0873274
0.921447 0.427634 0.089601
0.941558 0.418418 0.0907607
0.943114 0.417716 0.090837
0.943114 0.417975 0.0908522
0.943114 0.417975 0.0908522
0.94313 0.418235 0.0908522
0.94313 0.418235 0.0908522
0.94313 0.418509 0.0908675
0.94313 0.418769 0.0908675
0.94313 0.419043 0.0908827
0.94313 0.419303 0.0908827
0.0412757 0.456352 0.0385595
0.0433814 0.454002 0.0383307
0.0586099 0.450065 0.0379644
0.0722972 0.447715 0.0377356
0.0897231 0.446052 0.037705
0.118395 0.444846 0.0380255
0.16875 0.443992 0.0389258
0.218601 0.443351 0.0398108
0.268223 0.442969 0.0407721
0.317266 0.442344 0.0417182
0.365728 0.442054 0.0428321
0.413367 0.441855 0.0443427
0.460075 0.441444 0.0462348
0.504875 0.440238 0.0498207
0.551324 0.441382 0.0536965
0.599634 0.444556 0.0578775
0.652338 0.451591 0.0630808
0.705501 0.45922 0.0690013
0.75967 0.468315 0.0762188
0.81004 0.474815 0.0818036
0.856916 0.479347 0.0864576
0.893294 0.477501 0.0888838
0.921141 0.471382 0.0906386
0.941253 0.461173 0.0917678
0.943572 0.459724 0.0918898
0.943572 0.459998 0.0919051
0.943572 0.459998 0.0919051
0.943572 0.459998 0.0919051
0.943572 0.460258 0.0919051
0.943572 0.460258 0.0919051
0.943572 0.460517 0.0919203
0.943572 0.460792 0.0919203
0.943587 0.461051 0.0919356
0.0451972 0.498527 0.0426337
0.047364 0.496162 0.0424048
0.0624704 0.491981 0.0419928
0.0759289 0.489616 0.0417792
0.0927291 0.487846 0.0417182
0.12015 0.486519 0.0419928
0.16936 0.485771 0.0429236
0.218692 0.485023 0.0438697
0.267536 0.484291 0.044831
0.315785 0.483818 0.0458686
0.363653 0.483375 0.046952
0.410819 0.483055 0.0481727
0.457832 0.483131 0.0496071
0.503487 0.482658 0.0523384
0.550225 0.483833 0.0559701
0.598657 0.487541 0.0607156
0.651423 0.494881 0.0667582
0.704707 0.50309 0.0729534
0.758831 0.512535 0.0793011
0.809232 0.518837 0.0838331
0.856626 0.5234 0.0874342
0.892515 0.520897 0.0893721
0.920851 0.514351 0.0909133
0.94081 0.502922 0.0920424
0.944015 0.501137 0.0922103
0.944015 0.501137 0.0922103
0.944015 0.501137 0.0922103
0.944015 0.501137 0.0922103
0.944015 0.501137 0.0922103
0.944015 0.501396 0.0922103
0.944015 0.501396 0.0922103
0.94403 0.501656 0.0922103
0.94403 0.501656 0.0922103
0.0493172 0.543389 0.0470741
0.0515755 0.540475 0.0467842
0.0665293 0.535805 0.0463111
0.0798352 0.533181 0.0460517
0.0961776 0.531182 0.0459449
0.122637 0.529625 0.0461891
0.171435 0.528679 0.0471351
0.220111 0.527764 0.048127
0.268315 0.526848 0.0491493
0.315892 0.526238 0.0502327
0.363104 0.525643 0.0513466
0.409751 0.525063 0.0525063
0.456153 0.524788 0.0537423
0.502358 0.525063 0.0555581
0.549477 0.526635 0.0587167
0.598215 0.530251 0.0640269
0.650813 0.538186 0.0708782
0.704234 0.54699 0.0772869
0.758129 0.556054 0.0815442
0.808484 0.5626 0.0847334
0.856168 0.567224 0.0873274
0.891981 0.563729 0.0892195
0.920714 0.55671 0.0907607
0.94052 0.54432 0.0918898
0.944472 0.541665 0.0921187
0.944472 0.541665 0.0921187
0.944472 0.541665 0.0921187
0.944472 0.541665 0.0921187
0.944472 0.541665 0.0921187
0.944472 0.541665 0.0921187
0.944472 0.541665 0.0921187
0.944472 0.541909 0.0921187
0.944472 0.541909 0.0921187
0.0535134 0.589532 0.0517281
0.0558328 0.586572 0.0514382
0.0707561 0.582193 0.0509957
0.0840925 0.579568 0.050721
0.100374 0.577279 0.0505989
0.126741 0.575723 0.0508736
0.175265 0.574746 0.0519112
0.223636 0.5738 0.0529793
0.271519 0.572854 0.0540627
0.319081 0.572213 0.0551919
0.366293 0.571603 0.0563821
0.412757 0.571084 0.0578164
0.459373 0.571008 0.0596017
0.50573 0.57116 0.0621958
0.552056 0.572198 0.0652934
0.599298 0.574578 0.0692454
0.651179 0.581613 0.0738384
0.704295 0.590234 0.0783246
0.757885 0.599191 0.081651
0.807904 0.605249 0.0844739
0.855451 0.609689 0.0869917
0.891035 0.605737 0.0889296
0.920211 0.597971 0.0905318
0.939971 0.584527 0.0916609
0.944656 0.581155 0.0919203
0.944656 0.580896 0.0919203
0.944656 0.580896 0.0919203
0.944656 0.580896 0.0919203
0.944656 0.580896 0.0919203
0.944656 0.580896 0.0919203
0.944656 0.580896 0.0919203
0.944656 0.580896 0.0919203
0.944656 0.580896 0.0919203
0.0584268 0.641337 0.0573281
0.060853 0.638056 0.0569772
0.075761 0.632807 0.0564126
0.0890516 0.629862 0.0560922
0.105623 0.627283 0.0559396
0.132113 0.625498 0.056199
0.180484 0.624308 0.0572671
0.229038 0.623209 0.0585641
0.277211 0.622171 0.0599985
0.324895 0.62153 0.0616617
0.372244 0.620966 0.063386
0.419028 0.620462 0.0650797
0.465553 0.620066 0.0668345
0.511681 0.620325 0.0690013
0.557885 0.620798 0.0712749
0.603632 0.621592 0.0735485
0.653223 0.626703 0.0761578
0.704372 0.633265 0.0789044
0.757397 0.642023 0.0816358
0.807111 0.64799 0.0842298
0.85449 0.652308 0.0867323
0.890059 0.647547 0.088716
0.919692 0.639338 0.0903792
0.939406 0.624811 0.0914931
0.944839 0.62063 0.0917983
0.944839 0.620371 0.0917983
0.944839 0.620371 0.0917983
0.944839 0.620127 0.0917983
0.944839 0.620127 0.0917983
0.944839 0.620127 0.0917983
0.944839 0.620127 0.0917983
0.944839 0.620127 0.0917983
0.944839 0.620127 0.0917983
0.0638132 0.693812 0.063508
0.0663157 0.690303 0.0630503
0.0811017 0.684703 0.0623026
0.094316 0.681544 0.0618906
0.111391 0.679149 0.061738
0.138125 0.676875 0.0619364
0.18674 0.675547 0.0630198
0.23534 0.674372 0.0645304
0.283818 0.673472 0.0665599
0.332341 0.673136 0.0691844
0.380331 0.672953 0.0718853
0.427878 0.67274 0.0740978
0.474632 0.672465 0.0754864
0.521172 0.67248 0.076112
0.566979 0.672496 0.076524
0.612192 0.672541 0.0767987
0.657923 0.673594 0.0775616
0.704829 0.676448 0.0787976
0.756893 0.684596 0.0814069
0.806241 0.690532 0.0840162
0.853117 0.694774 0.0866255
0.88925 0.689815 0.0886549
0.919295 0.680919 0.0903334
0.938949 0.665278 0.0914626
0.945006 0.660288 0.0917983
0.945006 0.660029 0.0917983
0.945006 0.65977 0.0917983
0.945006 0.65977 0.0917983
0.945006 0.65951 0.0917983
0.945006 0.65951 0.0917983
0.945006 0.65951 0.0917983
0.945006 0.65951 0.0917983
0.945006 0.65951 0.0917983
0.0700847 0.748486 0.0707713
0.0727245 0.744625 0.0702525
0.087541 0.739025 0.0695201
0.100862 0.735866 0.0690929
0.118608 0.733516 0.0691386
0.146471 0.731365 0.0698711
0.19617 0.730343 0.0721141
0.245777 0.729335 0.0740215
0.294575 0.728359 0.0755779
0.34313 0.72781 0.0767681
0.391257 0.727306 0.0779278
0.43859 0.726787 0.0789197
0.485603 0.726223 0.07953
0.531334 0.725826 0.0796521
0.576516 0.725383 0.0796368
0.620859 0.72491 0.0795605
0.665217 0.724651 0.0797284
0.709834 0.725017 0.0801709
0.757855 0.729534 0.0818036
0.805066 0.733761 0.0839399
0.852033 0.737697 0.0865339
0.888212 0.732586 0.0885786
0.918746 0.723384 0.0903029
0.938491 0.706416 0.0914168
0.945159 0.700526 0.0917983
0.945159 0.700267 0.0917983
0.945159 0.699992 0.0917983
0.945159 0.699733 0.0917983
0.945159 0.699474 0.0917983
0.945159 0.699474 0.0917983
0.945159 0.699214 0.0917983
0.945159 0.699214 0.0917983
0.945159 0.699214 0.0917983
0.0789502 0.800534 0.0789502
0.081529 0.797192 0.0784009
0.0960555 0.791852 0.0775158
0.109148 0.788861 0.0770123
0.127199 0.786297 0.0769055
0.155612 0.784649 0.0776226
0.206012 0.783475 0.0798352
0.25594 0.782605 0.08159
0.305165 0.78172 0.0827649
0.353552 0.781094 0.0829633
0.401556 0.780423 0.0829328
0.448798 0.779721 0.0828412
0.49514 0.778988 0.0827039
0.540475 0.778332 0.0824903
0.585168 0.7776 0.0822919
0.629084 0.776852 0.0822156
0.672877 0.776104 0.0821546
0.716106 0.775402 0.0821393
0.759655 0.775464 0.0826276
0.804395 0.776989 0.0840467
0.85098 0.780697 0.0864881
0.887388 0.775418 0.0885176
0.918334 0.766155 0.0902571
0.938033 0.747677 0.0913863
0.945312 0.74078 0.0917983
0.945296 0.740246 0.0917983
0.945296 0.739971 0.0917983
0.945296 0.739712 0.0917983
0.945296 0.739712 0.0917983
0.945296 0.739437 0.0917983
0.945296 0.739178 0.0917983
0.945296 0.739178 0.0917983
0.945296 0.739178 0.0917983
0.0886549 0.850965 0.0870527
0.0915694 0.848463 0.0869154
0.10605 0.843214 0.0860761
0.119112 0.839872 0.0855116
0.137362 0.837629 0.0851911
0.166033 0.835538 0.0850233
0.216205 0.834455 0.0853285
0.26566 0.833005 0.0855726
0.314626 0.832181 0.0857557
0.362234 0.830945 0.0856336
0.408804 0.829953 0.0854658
0.454627 0.828946 0.0853285
0.500053 0.828244 0.0852522
0.545037 0.827161 0.0851301
0.589334 0.826383 0.0850385
0.633158 0.825574 0.0849775
0.67689 0.824781 0.0849165
0.720012 0.824002 0.0848707
0.762875 0.823697 0.0850233
0.806424 0.823835 0.0856184
0.850614 0.825162 0.0867475
0.886824 0.819272 0.0885481
0.918013 0.809293 0.0902571
0.937545 0.789746 0.0913558
0.945434 0.781826 0.0917983
0.945434 0.781277 0.0917983
0.945434 0.781003 0.0917983
0.945434 0.780743 0.0917983
0.945434 0.780468 0.0917983
0.945434 0.780194 0.0917983
0.945434 0.780194 0.0917983
0.945434 0.779934 0.0917983
0.945434 0.779934 0.0917983
0.0969406 0.889235 0.0891737
0.0999466 0.886732 0.0890364
0.114412 0.88249 0.0888075
0.127474 0.880232 0.0886702
0.145205 0.878294 0.0885634
0.173083 0.876951 0.0884565
0.222339 0.875822 0.088304
0.270848 0.874907 0.0881666
0.318578 0.87396 0.0880293
0.365454 0.873198 0.0878767
0.411154 0.872358 0.0877241
0.456413 0.871519 0.0876173
0.501289 0.870665 0.0875563
0.545754 0.870054 0.0875105
0.589899 0.8692 0.0874647
0.633585 0.868589 0.0874189
0.676936 0.867979 0.0873732
0.719997 0.867353 0.0873274
0.762524 0.866987 0.0873274
0.805219 0.866514 0.08748
0.847517 0.866423 0.0878614
0.884932 0.861662 0.0893568
0.917647 0.852796 0.090898
0.937087 0.832074 0.091783
0.945571 0.822736 0.0921798
0.945571 0.822461 0.0921645
0.945571 0.822187 0.0921645
0.945556 0.821653 0.0921492
0.945556 0.821378 0.092134
0.945556 0.821103 0.092134
0.945556 0.821103 0.092134
0.945556 0.820829 0.0921187
0.945556 0.820554 0.0921187
0.103365 0.920623 0.0908675
0.106844 0.919234 0.0907912
0.121599 0.916991 0.0906844
0.134768 0.915602 0.0906081
0.151797 0.914656 0.0905623
0.17882 0.913771 0.0904555
0.226658 0.913115 0.0902266
0.273671 0.912444 0.0900587
0.319554 0.911299 0.0899214
0.365255 0.910414 0.0898451
0.410086 0.909529 0.0897841
0.454841 0.90866 0.0897231
0.499184 0.907759 0.0896773
0.542901 0.906874 0.0896162
0.586526 0.906233 0.0895705
0.629679 0.905577 0.0895247
0.672282 0.904936 0.0894942
0.71487 0.904295 0.0894484
0.75697 0.903655 0.0894636
0.799084 0.903288 0.0897078
0.840757 0.902754 0.0902571
0.881285 0.901503 0.0914626
0.91754 0.896284 0.092668
0.936812 0.874372 0.09308
0.945708 0.86424 0.0932784
0.945708 0.863691 0.0932631
0.945708 0.863142 0.0932479
0.945708 0.862882 0.0932479
0.945708 0.862608 0.0932326
0.945693 0.862333 0.0932326
0.945693 0.862058 0.0932174
0.945693 0.861784 0.0932174
0.945693 0.861509 0.0932021
0.107042 0.941817 0.0919203
0.110628 0.940291 0.0918441
0.125048 0.938064 0.091722
0.137881 0.936797 0.0916609
0.152941 0.935699 0.0915999
0.177615 0.93492 0.0915236
0.223621 0.934188 0.0913405
0.269154 0.933577 0.0912337
0.314183 0.932967 0.0911421
0.358801 0.932342 0.0910964
0.402808 0.931853 0.0910658
0.446784 0.93138 0.0910353
0.490166 0.930892 0.0910048
0.53312 0.930541 0.0909743
0.576104 0.930068 0.0909438
0.618326 0.929717 0.0909285
0.660288 0.929366 0.090898
0.702266 0.92903 0.0908827
0.743816 0.928695 0.0910811
0.785016 0.928496 0.0915084
0.826078 0.928176 0.0922103
0.867002 0.928115 0.0933242
0.905669 0.92604 0.0944686
0.93286 0.91249 0.0951858
0.945998 0.90547 0.0955215
0.945998 0.904921 0.0954757
0.945998 0.904646 0.0954604
0.945983 0.904097 0.0954147
0.945983 0.903822 0.0953994
0.945983 0.903548 0.0953841
0.945983 0.903273 0.0953689
0.945983 0.902998 0.0953384
0.945968 0.902708 0.0953231
0.10811 0.947967 0.0922255
0.112123 0.947967 0.0922255
0.126711 0.947967 0.0922255
0.13959 0.947967 0.0922255
0.153658 0.947967 0.0922103
0.177218 0.947982 0.0921645
0.221698 0.948058 0.0920577
0.266011 0.948104 0.0920272
0.310094 0.948165 0.0920119
0.353765 0.948226 0.0920119
0.39675 0.948272 0.0920119
0.439429 0.948333 0.0920119
0.481773 0.948379 0.0920119
0.523445 0.94844 0.0920119
0.565026 0.948486 0.0920119
0.606409 0.948531 0.0920119
0.647257 0.948577 0.0920119
0.687846 0.948638 0.0920119
0.728252 0.948699 0.0924697
0.768368 0.948775 0.0930953
0.808194 0.948837 0.0939803
0.847974 0.948501 0.0950332
0.887572 0.948272 0.0962081
0.926528 0.947601 0.0976577
0.94638 0.946868 0.0983749
0.946365 0.946303 0.0983444
0.946365 0.945754 0.0982986
0.946365 0.94548 0.0982834
0.946365 0.945205 0.0982681
0.946349 0.944656 0.0982223
0.946349 0.944381 0.0982071
0.946349 0.944106 0.0981918
0.946349 0.943832 0.0981765
0.10811 0.947967 0.0922255
0.112337 0.947967 0.0922255
0.126909 0.947967 0.0922255
0.139788 0.947967 0.0922255
0.153811 0.947967 0.0922103
0.177478 0.947982 0.0921645
0.221958 0.948058 0.0920577
0.26627 0.948104 0.0920272
0.310353 0.948165 0.0920119
0.353765 0.948226 0.0920119
0.39649 0.948272 0.0920119
0.43917 0.948333 0.0920119
0.481254 0.948379 0.0920119
0.523186 0.94844 0.0920119
0.564767 0.948486 0.0920119
0.605905 0.948531 0.0920119
0.646754 0.948577 0.0920119
0.687343 0.948638 0.0920119
0.727489 0.948699 0.0924544
0.767605 0.948775 0.09308
0.807446 0.948837 0.0939651
0.84686 0.948913 0.0950484
0.886229 0.949004 0.0962387
0.925505 0.949233 0.0977493
0.946395 0.94934 0.098558
0.946395 0.94934 0.098558
0.946395 0.94934 0.098558
0.946395 0.94934 0.098558
0.946395 0.94934 0.098558
0.946395 0.94934 0.098558
