src/colors/dark_&_moody/mystic_emerald_drama.cube
TITLE "Generated by Resolve"
LUT_3D_SIZE 9
0.00105287 0.00105287 0.00105287
0.102434 0.00444038 0.00450141
0.277455 0.0183108 0.0179904
0.326879 0.0298466 0.0290837
0.374746 0.0473487 0.045304
0.475059 0.0616617 0.0587167
0.825055 0.0817578 0.0790417
0.941558 0.0738689 0.0729229
0.941558 0.0732891 0.0723735
0.0102235 0.0691844 0.00949111
0.0800488 0.0778058 0.020325
0.216968 0.0906539 0.0324559
0.425544 0.0882734 0.0292668
0.667521 0.103883 0.0486763
0.868147 0.122423 0.0650797
0.941558 0.121996 0.0708782
0.941558 0.122927 0.0708934
0.941558 0.123842 0.0709087
0.0232395 0.283101 0.0214694
0.0828107 0.280476 0.0214694
0.286183 0.276509 0.0264286
0.464851 0.262547 0.0390784
0.659632 0.276036 0.054902
0.86099 0.297017 0.0724041
0.942077 0.286427 0.079057
0.942077 0.287785 0.0791638
0.942092 0.289693 0.0793011
0.0412757 0.456352 0.0385595
0.0897231 0.446052 0.037705
0.268223 0.442969 0.0407721
0.460075 0.441444 0.0462348
0.652338 0.451591 0.0630808
0.856916 0.479347 0.0864576
0.943572 0.459724 0.0918898
0.943572 0.460258 0.0919051
0.943587 0.461051 0.0919356
0.0584268 0.641337 0.0573281
0.105623 0.627283 0.0559396
0.277211 0.622171 0.0599985
0.465553 0.620066 0.0668345
0.653223 0.626703 0.0761578
0.85449 0.652308 0.0867323
0.944839 0.62063 0.0917983
0.944839 0.620127 0.0917983
0.944839 0.620127 0.0917983
0.0886549 0.850965 0.0870527
0.137362 0.837629 0.0851911
0.314626 0.832181 0.0857557
0.500053 0.828244 0.0852522
0.67689 0.824781 0.0849165
0.850614 0.825162 0.0867475
0.945434 0.781826 0.0917983
0.945434 0.780468 0.0917983
0.945434 0.779934 0.0917983
0.10811 0.947967 0.0922255
0.153658 0.947967 0.0922103
0.310094 0.948165 0.0920119
0.481773 0.948379 0.0920119
0.647257 0.948577 0.0920119
0.808194 0.948837 0.0939803
0.94638 0.946868 0.0983749
0.946365 0.945205 0.0982681
0.946349 0.943832 0.0981765
0.10811 0.947967 0.0922255
0.154376 0.947967 0.0922103
0.310872 0.948165 0.0920119
0.480995 0.948379 0.0920119
0.645243 0.948577 0.0920119
0.805417 0.948837 0.0939193
0.946395 0.94934 0.098558
0.946395 0.94934 0.098558
0.946395 0.94934 0.098558
0.10811 0.947967 0.0922255
0.15494 0.947967 0.0922103
0.31191 0.948165 0.0920119
0.480995 0.948379 0.0920119
0.644221 0.948577 0.0920119
0.803403 0.948837 0.0938735
0.946395 0.94934 0.098558
0.946395 0.94934 0.098558
0.946395 0.94934 0.098558
0.00257877 0.00256352 0.0802319
0.101762 0.00456245 0.0780499
0.251301 0.0163882 0.068452
0.307851 0.0330358 0.0678111
0.373236 0.0500038 0.0760815
0.51487 0.0647593 0.0908522
0.914199 0.0802472 0.126528
0.941558 0.0718395 0.124498
0.941558 0.0725567 0.126711
0.0148318 0.0705882 0.0577401
0.0850538 0.0828565 0.0665141
0.242969 0.100191 0.0817121
0.455268 0.10576 0.0906081
0.672129 0.121019 0.106386
0.869825 0.138888 0.123857
0.942092 0.14519 0.130449
0.942168 0.147784 0.132158
0.942245 0.150515 0.134066
0.0235752 0.285985 0.0719615
0.0839551 0.27985 0.0699626
0.284321 0.274754 0.0717632
0.467124 0.265644 0.0875715
0.662287 0.281102 0.10544
0.862348 0.30222 0.12462
0.942535 0.295491 0.132799
0.942596 0.297276 0.134371
0.942672 0.299886 0.136141
0.041062 0.454002 0.0801556
0.097612 0.444724 0.083772
0.266178 0.441016 0.0830396
0.457038 0.438514 0.087602
0.651759 0.450156 0.106218
0.857267 0.478462 0.131273
0.943771 0.461097 0.138415
0.943832 0.461662 0.139956
0.943908 0.462745 0.141512
0.0580758 0.63772 0.0978866
0.114061 0.624781 0.101015
0.275608 0.619516 0.100954
0.460868 0.616632 0.106142
0.648981 0.622141 0.115862
0.852674 0.648981 0.127291
0.944839 0.618708 0.133165
0.944884 0.618112 0.134691
0.94493 0.618296 0.136217
0.0880903 0.848219 0.128786
0.144472 0.834424 0.12961
0.312978 0.829236 0.126757
0.495445 0.82501 0.124498
0.67216 0.820951 0.123415
0.846662 0.821042 0.125399
0.945418 0.77847 0.130983
0.945418 0.777157 0.131685
0.945418 0.77612 0.132464
0.10811 0.947967 0.131044
0.165423 0.948028 0.136492
0.312108 0.948165 0.132906
0.478874 0.948379 0.131121
0.64332 0.94844 0.130022
0.80592 0.947051 0.131289
0.946334 0.943023 0.135744
0.946319 0.940826 0.135973
0.946303 0.939193 0.136477
0.10811 0.947967 0.131106
0.166445 0.948043 0.136446
0.312566 0.948165 0.13283
0.477821 0.948379 0.130877
0.640681 0.948577 0.129564
0.800687 0.948821 0.130587
0.946395 0.94934 0.135012
0.946395 0.94934 0.135164
0.946395 0.94934 0.135561
0.10811 0.947967 0.131044
0.167987 0.948043 0.136721
0.314092 0.948165 0.132906
0.477806 0.948379 0.1308
0.639399 0.948577 0.129244
0.798154 0.948821 0.129976
0.946395 0.94934 0.13431
0.946395 0.94934 0.134234
0.946395 0.94934 0.134463
0.0127871 0.0124361 0.233814
0.0854047 0.0127718 0.228901
0.223865 0.0177005 0.166674
0.29546 0.0367132 0.136828
0.378897 0.0530404 0.142061
0.585168 0.0674144 0.185092
0.941619 0.0762188 0.251286
0.941619 0.0727398 0.261143
0.941619 0.0730144 0.263355
0.0238346 0.0721904 0.132021
0.0925765 0.0902266 0.151751
0.265049 0.103349 0.197894
0.473564 0.109529 0.217578
0.676905 0.126497 0.235111
0.872953 0.143862 0.253407
0.943297 0.151354 0.249104
0.94342 0.153826 0.250736
0.943557 0.156527 0.252827
0.0245518 0.284245 0.21915
0.0867781 0.278126 0.214176
0.29221 0.283436 0.221469
0.481819 0.290578 0.230167
0.67483 0.305135 0.245243
0.872099 0.321798 0.262745
0.949416 0.32958 0.272129
0.949477 0.33109 0.27332
0.949569 0.332891 0.274952
0.041825 0.45275 0.207675
0.100465 0.444968 0.202579
0.283696 0.448997 0.21709
0.462669 0.445182 0.215961
0.662547 0.463004 0.238178
0.866697 0.490242 0.259968
0.95024 0.480491 0.26685
0.950332 0.480995 0.268528
0.950439 0.481971 0.270207
0.0586252 0.636103 0.219303
0.117113 0.624857 0.21445
0.297551 0.626719 0.232441
0.470405 0.623652 0.231479
0.654597 0.627848 0.236728
0.859617 0.655436 0.249378
0.95053 0.629404 0.257023
0.950637 0.62887 0.259129
0.950729 0.628809 0.261021
0.0903792 0.846967 0.248798
0.148882 0.834287 0.243214
0.330175 0.834562 0.251682
0.502708 0.829999 0.244724
0.676173 0.82536 0.241016
0.850599 0.824948 0.242802
0.950652 0.785 0.249821
0.950744 0.783307 0.251713
0.950835 0.782391 0.253605
0.109178 0.948028 0.237995
0.170932 0.948867 0.238209
0.34078 0.953872 0.256809
0.493263 0.953719 0.250492
0.651209 0.953124 0.246403
0.811139 0.951385 0.247349
0.951217 0.946242 0.251652
0.951247 0.943877 0.252537
0.951293 0.942061 0.253895
0.109178 0.948028 0.237186
0.17261 0.948943 0.237659
0.34139 0.953811 0.255543
0.492393 0.953658 0.249439
0.648112 0.953613 0.245136
0.80441 0.953704 0.244892
0.95111 0.954147 0.2486
0.95111 0.954147 0.2486
0.951141 0.954192 0.249439
0.109163 0.948028 0.236393
0.174731 0.949035 0.237568
0.342367 0.95378 0.254917
0.492042 0.953613 0.2486
0.64654 0.953552 0.244068
0.801358 0.953628 0.243122
0.950988 0.954009 0.246052
0.950957 0.953979 0.245411
0.950988 0.954009 0.246052
0.0239872 0.0234989 0.397543
0.0778363 0.0199435 0.341482
0.191928 0.0238193 0.246082
0.286732 0.0406806 0.216114
0.394247 0.0560464 0.226581
0.685954 0.0702068 0.333577
0.941711 0.0739147 0.417243
0.941711 0.073991 0.425696
0.941711 0.0740826 0.42768
0.0331273 0.0753338 0.20679
0.102571 0.100389 0.244511
0.266209 0.106523 0.345129
0.47631 0.110033 0.388418
0.677043 0.127291 0.404562
0.873808 0.144472 0.423026
0.943358 0.151843 0.403815
0.943465 0.154086 0.404196
0.943587 0.156542 0.405142
0.0299687 0.265812 0.37908
0.098436 0.265446 0.376928
0.299092 0.290547 0.394278
0.484688 0.29424 0.396857
0.681529 0.308415 0.411017
0.878569 0.326299 0.430747
0.953567 0.335729 0.421286
0.953674 0.33756 0.421256
0.953765 0.339406 0.421958
0.0427558 0.451881 0.378729
0.102831 0.443046 0.370169
0.289052 0.452216 0.381308
0.471092 0.454124 0.384543
0.680797 0.467994 0.398276
0.879164 0.487404 0.412314
0.95845 0.490715 0.41529
0.95848 0.491203 0.415778
0.958541 0.492164 0.41677
0.059678 0.635035 0.385763
0.117266 0.623438 0.375128
0.301885 0.631205 0.388769
0.472541 0.635081 0.38233
0.66305 0.635325 0.378393
0.870436 0.656901 0.393805
0.958221 0.637278 0.401495
0.958328 0.636637 0.403494
0.958419 0.636713 0.405234
0.0946059 0.845945 0.413886
0.151034 0.833539 0.402518
0.333059 0.838544 0.408164
0.4963 0.838209 0.389822
0.676265 0.832975 0.381598
0.857114 0.8309 0.382818
0.957977 0.791943 0.390585
0.958114 0.790005 0.393194
0.958236 0.789075 0.395422
0.110613 0.948089 0.388464
0.170153 0.948837 0.381048
0.345922 0.958236 0.396139
0.501091 0.961288 0.3935
0.656611 0.96054 0.387503
0.816388 0.958389 0.386984
0.958297 0.952209 0.390921
0.958358 0.949355 0.39234
0.958434 0.947585 0.39408
0.110597 0.948089 0.385885
0.171603 0.948898 0.378225
0.34696 0.958282 0.393606
0.500984 0.961166 0.391241
0.653895 0.960983 0.385885
0.809201 0.960967 0.384558
0.958144 0.961334 0.387121
0.958144 0.961334 0.387121
0.95819 0.961379 0.388037
0.110582 0.948089 0.384344
0.173495 0.948989 0.376745
0.348257 0.958358 0.391592
0.500877 0.961059 0.389395
0.652598 0.960906 0.384237
0.805966 0.960876 0.38262
0.957992 0.961181 0.38436
0.957931 0.96112 0.3832
0.957946 0.961135 0.383429
0.0380865 0.0374304 0.602625
0.0776684 0.0258488 0.431434
0.173922 0.0327153 0.314168
0.27686 0.0452125 0.288762
0.422919 0.0585336 0.33669
0.785107 0.071397 0.550744
0.941817 0.0754406 0.604852
0.941817 0.0754559 0.606897
0.941817 0.0755627 0.608347
0.0415503 0.0800641 0.283055
0.113619 0.111696 0.373175
0.283909 0.118364 0.546746
0.482795 0.119722 0.585306
0.67483 0.129168 0.593515
0.87332 0.145892 0.613642
0.94345 0.153033 0.581949
0.943542 0.155032 0.581048
0.943664 0.157504 0.581064
0.0442664 0.276158 0.577554
0.116442 0.278325 0.574594
0.313207 0.304234 0.589014
0.490654 0.303273 0.590326
0.67863 0.309606 0.596796
0.878538 0.328923 0.619287
0.953857 0.337713 0.59115
0.953964 0.339498 0.58912
0.95407 0.341314 0.588449
0.0510719 0.455467 0.572045
0.11487 0.448096 0.563912
0.304189 0.462577 0.57702
0.482841 0.465202 0.593484
0.685542 0.471473 0.60032
0.885725 0.488121 0.608927
0.962921 0.493782 0.587045
0.962966 0.494469 0.584924
0.963027 0.495644 0.584146
0.0618296 0.635187 0.57467
0.120912 0.622278 0.561334
0.306493 0.630014 0.57023
0.477455 0.640238 0.577371
0.672724 0.642313 0.574197
0.886412 0.649271 0.577981
0.968246 0.649287 0.581674
0.968231 0.648997 0.581369
0.968246 0.649287 0.581674
0.0994888 0.844984 0.600336
0.155947 0.83267 0.587701
0.33373 0.837232 0.591241
0.494163 0.843381 0.583368
0.664317 0.844236 0.557076
0.865629 0.838056 0.551843
0.967407 0.800702 0.56318
0.967575 0.798932 0.566262
0.967697 0.798367 0.56846
0.112261 0.948165 0.561837
0.171115 0.948882 0.551537
0.344869 0.958175 0.560555
0.50312 0.966934 0.561852
0.66276 0.97023 0.560327
0.821454 0.967712 0.553689
0.967193 0.96051 0.55523
0.967315 0.956954 0.557855
0.967483 0.955032 0.561166
0.11223 0.948165 0.55816
0.172122 0.948928 0.546914
0.345617 0.958221 0.55552
0.503334 0.966934 0.557015
0.660945 0.970397 0.555932
0.813977 0.970077 0.550042
0.966888 0.970214 0.548867
0.966857 0.970199 0.548562
0.966964 0.970291 0.550423
0.1122 0.948165 0.555337
0.173556 0.949004 0.54374
0.346654 0.958267 0.551873
0.503792 0.966949 0.553277
0.659754 0.970199 0.552438
0.811078 0.969909 0.547158
0.964248 0.969985 0.545083
0.966537 0.969863 0.542657
0.966552 0.969879 0.542962
0.0502022 0.0493935 0.777676
0.0814527 0.0359197 0.505333
0.16701 0.0417029 0.379675
0.275212 0.052018 0.367834
0.470848 0.0623941 0.499016
0.849882 0.0721904 0.770336
0.941924 0.0768444 0.775479
0.941924 0.0768444 0.776226
0.941924 0.0771191 0.776989
0.0491951 0.0859236 0.37673
0.128481 0.126116 0.585382
0.312459 0.133608 0.775906
0.506203 0.136095 0.789883
0.691814 0.13904 0.78967
0.871702 0.148043 0.789364
0.943587 0.155001 0.752941
0.943679 0.156786 0.751492
0.943786 0.15903 0.750881
0.0594034 0.298451 0.783673
0.134035 0.300023 0.780774
0.328222 0.318837 0.79237
0.512306 0.318608 0.794644
0.69575 0.320012 0.793286
0.876707 0.332311 0.794034
0.954162 0.340337 0.757382
0.954238 0.341588 0.754421
0.95433 0.343374 0.752758
0.0655375 0.479942 0.779355
0.132982 0.473945 0.773663
0.322454 0.486671 0.785626
0.500206 0.481483 0.798169
0.696834 0.482918 0.798062
0.882979 0.488945 0.794644
0.962982 0.493706 0.756237
0.963012 0.494148 0.751965
0.963058 0.495094 0.749737
0.0750439 0.657221 0.775128
0.137118 0.647272 0.766461
0.327138 0.658228 0.776181
0.497429 0.660456 0.786465
0.682109 0.65095 0.79913
0.888563 0.649332 0.794461
0.971725 0.653223 0.757397
0.971725 0.653208 0.752697
0.971756 0.653834 0.750591
0.10248 0.844312 0.775494
0.160876 0.83183 0.765011
0.337606 0.836286 0.769436
0.496559 0.84123 0.773739
0.665476 0.847623 0.778256
0.876188 0.848905 0.78204
0.979278 0.837873 0.780789
0.979202 0.836667 0.7794
0.979171 0.836072 0.778714
0.113832 0.948257 0.732479
0.173495 0.949004 0.722576
0.346426 0.958267 0.728878
0.503227 0.966995 0.732754
0.668574 0.97554 0.74023
0.845609 0.979995 0.762631
0.978195 0.972213 0.755459
0.978485 0.968231 0.761349
0.978637 0.966384 0.764294
0.113802 0.948257 0.728283
0.173663 0.94902 0.717403
0.345861 0.958236 0.722499
0.50248 0.966949 0.724895
0.666926 0.976104 0.731487
0.841184 0.981506 0.756008
0.976745 0.981277 0.747723
0.977737 0.981186 0.746075
0.977905 0.981353 0.749081
0.113771 0.948241 0.725124
0.174472 0.94905 0.713314
0.346349 0.958251 0.717601
0.502449 0.966949 0.719615
0.666621 0.976074 0.726299
0.838712 0.981231 0.750957
0.971328 0.981033 0.743648
0.97734 0.980789 0.73875
0.97734 0.980789 0.73875
0.0540169 0.0531777 0.833555
0.0864576 0.0454414 0.566445
0.169299 0.0508278 0.450233
0.290883 0.0610819 0.475608
0.567269 0.075227 0.752499
0.835874 0.0724651 0.890227
0.942 0.0778058 0.893462
0.942 0.0778058 0.893462
0.942 0.0784314 0.893462
0.0582742 0.0968185 0.522301
0.143648 0.140841 0.831052
0.306493 0.141451 0.890379
0.484077 0.143801 0.890852
0.658701 0.146593 0.891356
0.829084 0.150546 0.891981
0.943755 0.157549 0.895384
0.943847 0.159136 0.89546
0.943938 0.161181 0.895567
0.0657816 0.285801 0.888975
0.143069 0.293553 0.890669
0.334081 0.325475 0.900435
0.499199 0.326528 0.901579
0.667613 0.328618 0.902235
0.835309 0.335256 0.902754
0.954467 0.343145 0.902388
0.954513 0.343877 0.899901
0.954604 0.345373 0.897902
0.07187 0.458488 0.890013
0.142596 0.45771 0.889082
0.33257 0.479042 0.899977
0.506981 0.489418 0.90956
0.676783 0.491341 0.909957
0.842771 0.491585 0.908537
0.963088 0.494682 0.903975
0.963088 0.494667 0.900053
0.963119 0.495369 0.896864
0.081117 0.62797 0.889403
0.147433 0.624231 0.887221
0.338903 0.64062 0.897276
0.50837 0.647486 0.906889
0.684855 0.656306 0.915557
0.848905 0.652934 0.915206
0.971756 0.6533 0.907362
0.97171 0.652461 0.901427
0.97174 0.65301 0.897383
0.103487 0.802731 0.888014
0.16556 0.797604 0.88481
0.344015 0.806165 0.892805
0.50399 0.811749 0.901366
0.676707 0.819287 0.911772
0.872374 0.849744 0.92372
0.982376 0.847944 0.918135
0.982269 0.846357 0.910658
0.982269 0.846342 0.907271
0.115114 0.948333 0.881636
0.176425 0.949157 0.872938
0.34931 0.958434 0.878035
0.505745 0.966552 0.884413
0.67042 0.973816 0.893355
0.861982 0.983276 0.910353
0.987015 0.984314 0.920928
0.986831 0.980957 0.918029
0.986786 0.98027 0.917433
0.115084 0.948333 0.877623
0.175753 0.949126 0.86775
0.347448 0.958328 0.871489
0.503365 0.967025 0.876081
0.666392 0.976135 0.882033
0.856367 0.986587 0.897841
0.981918 0.990051 0.910689
0.986282 0.989807 0.905364
0.986481 0.990005 0.909087
0.115053 0.948333 0.874311
0.176135 0.949142 0.86331
0.346899 0.958297 0.866377
0.502388 0.96698 0.86981
0.665003 0.976059 0.874952
0.854337 0.986465 0.891676
0.980072 0.989822 0.906538
0.986038 0.989548 0.900618
0.985977 0.989487 0.89958
0.0590677 0.0580911 0.857847
0.0925917 0.0542458 0.621698
0.180255 0.0601205 0.53402
0.332815 0.0733959 0.645853
0.602533 0.0772869 0.889433
0.847013 0.0727092 0.890257
0.942 0.0778058 0.893462
0.942 0.0778058 0.893462
0.942 0.0787823 0.893462
0.0700999 0.116808 0.748882
0.144381 0.141726 0.88957
0.307591 0.14284 0.89044
0.483787 0.145357 0.890929
0.657282 0.148135 0.891432
0.82707 0.151843 0.892042
0.943832 0.158907 0.895445
0.943893 0.160266 0.895521
0.943984 0.162097 0.895613
0.0658122 0.28661 0.888991
0.145083 0.294804 0.890761
0.335317 0.326253 0.900481
0.498848 0.327794 0.901656
0.665995 0.330159 0.902327
0.832181 0.336721 0.903288
0.954559 0.344472 0.906142
0.954589 0.344976 0.906172
0.95465 0.345983 0.906218
0.07187 0.458488 0.890013
0.145296 0.456901 0.891478
0.335058 0.478553 0.90248
0.50782 0.490059 0.91136
0.674281 0.492363 0.91165
0.836942 0.49308 0.911498
0.963149 0.495659 0.914153
0.963119 0.495186 0.914122
0.963149 0.495659 0.914153
0.0810407 0.625513 0.891615
0.150011 0.619303 0.892821
0.342306 0.636088 0.903517
0.511055 0.644663 0.912505
0.684947 0.656733 0.920226
0.841932 0.654429 0.920287
0.971832 0.654551 0.92282
0.971756 0.653071 0.922744
0.97174 0.652781 0.922728
0.103273 0.79675 0.892683
0.167865 0.787396 0.89369
0.347692 0.795407 0.903151
0.507942 0.800885 0.912077
0.681727 0.811765 0.921935
0.871534 0.849775 0.931563
0.982528 0.849897 0.934783
0.98233 0.846464 0.934569
0.982269 0.845212 0.934493
0.115221 0.948333 0.895613
0.178714 0.949279 0.896513
0.352255 0.958602 0.905852
0.508858 0.964858 0.914885
0.675425 0.970672 0.924788
0.869139 0.980133 0.936294
0.988037 0.984329 0.941161
0.987976 0.981094 0.9411
0.987976 0.980453 0.941085
0.115221 0.948333 0.895613
0.177661 0.949218 0.896468
0.349722 0.958465 0.905715
0.505425 0.967163 0.914778
0.668696 0.976272 0.924651
0.858213 0.986786 0.936019
0.982589 0.991623 0.941238
0.988159 0.991684 0.941314
0.988159 0.991684 0.941314
0.115221 0.948333 0.895613
0.177661 0.949218 0.896468
0.348409 0.958389 0.905638
0.503288 0.967041 0.914656
0.66537 0.976089 0.924453
0.85359 0.986526 0.935744
0.980224 0.991592 0.941207
0.988159 0.991684 0.941314
0.988159 0.991684 0.941314
0.0641184 0.0630808 0.865125
0.100206 0.0629282 0.67892
0.199451 0.0704967 0.638804
0.384161 0.0853437 0.848493
0.643656 0.0724956 0.889555
0.847547 0.0727245 0.890257
0.942 0.0778058 0.893462
0.942 0.0783398 0.893462
0.942 0.0793164 0.893462
0.0717784 0.11603 0.887968
0.143252 0.140597 0.889509
0.30901 0.144457 0.890532
0.483757 0.146914 0.891005
0.656382 0.149676 0.891508
0.825879 0.153384 0.892119
0.943908 0.160494 0.895537
0.943969 0.161639 0.895598
0.944045 0.163226 0.895674
0.0658427 0.287419 0.888991
0.147082 0.29604 0.890867
0.336599 0.327504 0.900542
0.499245 0.329091 0.901732
0.665156 0.331716 0.902419
0.830533 0.338216 0.903365
0.954635 0.345739 0.906203
0.95465 0.345983 0.906218
0.954696 0.347005 0.906279
0.07187 0.458747 0.890013
0.147707 0.457527 0.8916
0.337194 0.479301 0.902617
0.508629 0.490608 0.911421
0.673884 0.493339 0.911696
0.835019 0.493996 0.911543
0.963211 0.496834 0.914214
0.96318 0.496132 0.914183
0.96318 0.496132 0.914183
0.0810101 0.625238 0.8916
0.152895 0.619379 0.892973
0.34493 0.636347 0.903655
0.513008 0.644526 0.912612
0.685481 0.657023 0.920241
0.840421 0.655665 0.920363
0.971908 0.656123 0.922911
0.971817 0.654246 0.922805
0.971771 0.653346 0.922759
0.103197 0.796201 0.892683
0.170611 0.78706 0.893812
0.350652 0.794812 0.903319
0.510811 0.800259 0.91223
0.684779 0.811765 0.922103
0.871763 0.849836 0.931579
0.982605 0.851453 0.93489
0.982406 0.8477 0.934646
0.982284 0.845518 0.934508
0.115221 0.948333 0.895613
0.181216 0.949386 0.896635
0.3552 0.95877 0.90602
0.511864 0.963638 0.915007
0.679896 0.969589 0.925002
0.873411 0.979217 0.936492
0.988037 0.984192 0.941161
0.987991 0.981872 0.941115
0.987976 0.980316 0.941085
0.115221 0.948333 0.895613
0.179965 0.949325 0.896574
0.352255 0.958602 0.905852
0.50782 0.967285 0.914931
0.672389 0.976471 0.92488
0.862837 0.987045 0.936278
0.985672 0.991653 0.941283
0.988159 0.991684 0.941314
0.988159 0.991684 0.941314
0.115221 0.948333 0.895613
0.179339 0.949294 0.896544
0.3505 0.958495 0.90576
0.504952 0.967132 0.914763
0.667582 0.976211 0.92459
0.855909 0.986664 0.935882
0.981048 0.991592 0.941222
0.988159 0.991684 0.941314
0.988159 0.991684 0.941314
