src/colors/dark_&_moody/mystic_emerald_drama.cube
TITLE "Generated by Resolve"
LUT_3D_SIZE 5
0.00105287 0.00105287 0.00105287
0.277455 0.0183108 0.0179904
0.374746 0.0473487 0.045304
0.825055 0.0817578 0.0790417
0.941558 0.0732891 0.0723735
0.0232395 0.283101 0.0214694
0.286183 0.276509 0.0264286
0.659632 0.276036 0.054902
0.942077 0.286427 0.079057
0.942092 0.289693 0.0793011
0.0584268 0.641337 0.0573281
0.277211 0.622171 0.0599985
0.653223 0.626703 0.0761578
0.944839 0.62063 0.0917983
0.944839 0.620127 0.0917983
0.10811 0.947967 0.0922255
0.310094 0.948165 0.0920119
0.647257 0.948577 0.0920119
0.94638 0.946868 0.0983749
0.946349 0.943832 0.0981765
0.10811 0.947967 0.0922255
0.31191 0.948165 0.0920119
0.644221 0.948577 0.0920119
0.946395 0.94934 0.098558
0.946395 0.94934 0.098558
0.0127871 0.0124361 0.233814
0.223865 0.0177005 0.166674
0.378897 0.0530404 0.142061
0.941619 0.0762188 0.251286
0.941619 0.0730144 0.263355
0.0245518 0.284245 0.21915
0.29221 0.283436 0.221469
0.67483 0.305135 0.245243
0.949416 0.32958 0.272129
0.949569 0.332891 0.274952
0.0586252 0.636103 0.219303
0.297551 0.626719 0.232441
0.654597 0.627848 0.236728
0.95053 0.629404 0.257023
0.950729 0.628809 0.261021
0.109178 0.948028 0.237995
0.34078 0.953872 0.256809
0.651209 0.953124 0.246403
0.951217 0.946242 0.251652
0.951293 0.942061 0.253895
0.109163 0.948028 0.236393
0.342367 0.95378 0.254917
0.64654 0.953552 0.244068
0.950988 0.954009 0.246052
0.950988 0.954009 0.246052
0.0380865 0.0374304 0.602625
0.173922 0.0327153 0.314168
0.422919 0.0585336 0.33669
0.941817 0.0754406 0.604852
0.941817 0.0755627 0.608347
0.0442664 0.276158 0.577554
0.313207 0.304234 0.589014
0.67863 0.309606 0.596796
0.953857 0.337713 0.59115
0.95407 0.341314 0.588449
0.0618296 0.635187 0.57467
0.306493 0.630014 0.57023
0.672724 0.642313 0.574197
0.968246 0.649287 0.581674
0.968246 0.649287 0.581674
0.112261 0.948165 0.561837
0.344869 0.958175 0.560555
0.66276 0.97023 0.560327
0.967193 0.96051 0.55523
0.967483 0.955032 0.561166
0.1122 0.948165 0.555337
0.346654 0.958267 0.551873
0.659754 0.970199 0.552438
0.964248 0.969985 0.545083
0.966552 0.969879 0.542962
0.0540169 0.0531777 0.833555
0.169299 0.0508278 0.450233
0.567269 0.075227 0.752499
0.942 0.0778058 0.893462
0.942 0.0784314 0.893462
0.0657816 0.285801 0.888975
0.334081 0.325475 0.900435
0.667613 0.328618 0.902235
0.954467 0.343145 0.902388
0.954604 0.345373 0.897902
0.081117 0.62797 0.889403
0.338903 0.64062 0.897276
0.684855 0.656306 0.915557
0.971756 0.6533 0.907362
0.97174 0.65301 0.897383
0.115114 0.948333 0.881636
0.34931 0.958434 0.878035
0.67042 0.973816 0.893355
0.987015 0.984314 0.920928
0.986786 0.98027 0.917433
0.115053 0.948333 0.874311
0.346899 0.958297 0.866377
0.665003 0.976059 0.874952
0.980072 0.989822 0.906538
0.985977 0.989487 0.89958
0.0641184 0.0630808 0.865125
0.199451 0.0704967 0.638804
0.643656 0.0724956 0.889555
0.942 0.0778058 0.893462
0.942 0.0793164 0.893462
0.0658427 0.287419 0.888991
0.336599 0.327504 0.900542
0.665156 0.331716 0.902419
0.954635 0.345739 0.906203
0.954696 0.347005 0.906279
0.0810101 0.625238 0.8916
0.34493 0.636347 0.903655
0.685481 0.657023 0.920241
0.971908 0.656123 0.922911
0.971771 0.653346 0.922759
0.115221 0.948333 0.895613
0.3552 0.95877 0.90602
0.679896 0.969589 0.925002
0.988037 0.984192 0.941161
0.987976 0.980316 0.941085
0.115221 0.948333 0.895613
0.3505 0.958495 0.90576
0.667582 0.976211 0.92459
0.981048 0.991592 0.941222
0.988159 0.991684 0.941314
