src/colors/dark_&_moody/night_glow.cube
TITLE "Generated by Resolve"
LUT_3D_SIZE 5
0.0159152 0.0174868 0.0252537
0.244144 0.0490272 0.0306401
0.618814 0.0803693 0.0578622
0.880003 0.158511 0.0770428
0.952239 0.201007 0.0823682
0.030457 0.226947 0.0718853
0.256886 0.24535 0.0571298
0.669184 0.285405 0.0694438
0.907454 0.364401 0.0855268
0.954162 0.405661 0.0918593
0.0528115 0.559136 0.140154
0.249027 0.595087 0.116915
0.707179 0.617136 0.103517
0.907271 0.64979 0.104921
0.95671 0.667582 0.106493
0.103624 0.899062 0.172854
0.33846 0.89984 0.166491
0.697047 0.919478 0.197208
0.916747 0.886351 0.145678
0.960891 0.885283 0.120134
0.119646 0.965225 0.18265
0.356039 0.968032 0.183322
0.693233 0.976593 0.208179
0.937362 0.97612 0.213642
0.976822 0.975006 0.210773
0.0147707 0.0808423 0.294377
0.194598 0.0772564 0.258701
0.596139 0.120211 0.200992
0.880064 0.177569 0.20412
0.953475 0.214954 0.224659
0.0176394 0.239673 0.279973
0.215274 0.264256 0.296162
0.659892 0.306142 0.242283
0.910536 0.375296 0.249958
0.955657 0.406165 0.260716
0.0471351 0.584115 0.349615
0.237232 0.605722 0.3393
0.691432 0.631174 0.285481
0.908629 0.663432 0.264546
0.957595 0.680079 0.265339
0.0741894 0.896117 0.443671
0.315648 0.903243 0.383658
0.677134 0.914031 0.382406
0.916732 0.886259 0.310124
0.961242 0.883818 0.273152
0.0838178 0.959747 0.46247
0.33051 0.971817 0.394766
0.675654 0.978592 0.390646
0.938674 0.978225 0.384115
0.978531 0.975769 0.380728
0.0350347 0.222583 0.639078
0.159884 0.213901 0.595956
0.431754 0.217182 0.447669
0.847333 0.246357 0.51696
0.971481 0.289677 0.644404
0.0355688 0.354177 0.634806
0.186862 0.385748 0.654093
0.526558 0.392752 0.566094
0.902724 0.445151 0.648386
0.977798 0.47808 0.705867
0.0454871 0.577859 0.658289
0.200473 0.607904 0.676112
0.61059 0.654765 0.688518
0.922133 0.675944 0.678431
0.981262 0.676661 0.669535
0.0693828 0.905592 0.759762
0.227115 0.902556 0.746487
0.608194 0.904204 0.665309
0.919188 0.890089 0.603494
0.978836 0.885267 0.554788
0.0707256 0.957671 0.772137
0.227939 0.958129 0.753231
0.611734 0.98323 0.655238
0.928283 0.984787 0.631052
0.985199 0.983246 0.626703
0.0545357 0.358526 0.865644
0.179431 0.35137 0.850889
0.346899 0.333989 0.8224
0.824201 0.319524 0.841184
0.957092 0.334356 0.879637
0.0536507 0.48249 0.870176
0.205097 0.504768 0.88304
0.404593 0.501259 0.877638
0.880446 0.486946 0.889189
0.963287 0.506249 0.913725
0.0550393 0.660441 0.879225
0.208698 0.678798 0.888289
0.44506 0.683238 0.902266
0.890532 0.680125 0.89839
0.983734 0.685954 0.90576
0.0611887 0.856992 0.914748
0.21912 0.856184 0.909819
0.4822 0.869734 0.91107
0.900587 0.89955 0.898436
0.991028 0.901473 0.894911
0.0636454 0.91487 0.932494
0.220645 0.923293 0.92845
0.468605 0.957458 0.927184
0.8925 0.990814 0.893721
0.991455 0.992065 0.883543
0.0596323 0.402319 0.947845
0.189303 0.401312 0.944991
0.355993 0.389273 0.942504
0.838285 0.357977 0.955093
0.954772 0.348791 0.950088
0.0578775 0.529229 0.952438
0.211795 0.542107 0.955642
0.396216 0.537285 0.95407
0.892119 0.512825 0.959823
0.961425 0.515801 0.956786
0.0577554 0.700984 0.956207
0.21236 0.711635 0.95845
0.402014 0.701152 0.967285
0.890852 0.685466 0.976303
0.981231 0.684688 0.971466
0.0613107 0.869902 0.960067
0.219104 0.871733 0.960449
0.46125 0.87219 0.974746
0.892699 0.89659 0.980713
0.990173 0.899916 0.980102
0.0627451 0.907103 0.960464
0.218814 0.913436 0.962005
0.472496 0.93048 0.977844
0.892973 0.975464 0.980682
0.99089 0.992782 0.978363
