src/colors/dark_&_moody/night_glow.cube
TITLE "Generated by Resolve"
LUT_3D_SIZE 9
0.0159152 0.0174868 0.0252537
0.1084 0.0296635 0.0332952
0.244144 0.0490272 0.0306401
0.422904 0.0652171 0.0383917
0.618814 0.0803693 0.0578622
0.762966 0.110796 0.0698253
0.880003 0.158511 0.0770428
0.952239 0.201007 0.0823682
0.952239 0.201007 0.0823682
0.0234073 0.109667 0.0431983
0.107271 0.111833 0.0435645
0.248234 0.112825 0.033051
0.437537 0.12253 0.040528
0.640757 0.138003 0.0606241
0.786999 0.169299 0.0712444
0.902739 0.222248 0.0781415
0.951995 0.257572 0.0816205
0.95201 0.262165 0.0836805
0.030457 0.226947 0.0718853
0.0943008 0.23653 0.0724193
0.256886 0.24535 0.0571298
0.477333 0.25275 0.0507973
0.669184 0.285405 0.0694438
0.80174 0.31957 0.0788434
0.907454 0.364401 0.0855268
0.954116 0.397681 0.0883955
0.954162 0.405661 0.0918593
0.033463 0.378424 0.105379
0.0915847 0.390524 0.104005
0.23508 0.423438 0.0905776
0.509392 0.425422 0.0732433
0.697063 0.437034 0.0818189
0.821744 0.479377 0.0902266
0.907042 0.52459 0.0967727
0.955016 0.547433 0.0989242
0.955184 0.551553 0.0992294
0.0528115 0.559136 0.140154
0.112154 0.571954 0.135531
0.249027 0.595087 0.116915
0.508461 0.642649 0.132921
0.707179 0.617136 0.103517
0.829557 0.620844 0.100999
0.907271 0.64979 0.104921
0.95671 0.666453 0.106401
0.95671 0.667582 0.106493
0.0753338 0.737911 0.159335
0.140566 0.747524 0.148592
0.291142 0.757153 0.138674
0.515373 0.783383 0.153307
0.707195 0.795056 0.162692
0.830625 0.766629 0.124971
0.908568 0.759503 0.110643
0.958587 0.771649 0.110857
0.958587 0.771649 0.110857
0.103624 0.899062 0.172854
0.182879 0.903288 0.165972
0.33846 0.89984 0.166491
0.52607 0.909789 0.180346
0.697047 0.919478 0.197208
0.839399 0.915755 0.197696
0.916747 0.886351 0.145678
0.960922 0.886564 0.120302
0.960891 0.885283 0.120134
0.120485 0.96524 0.18349
0.206317 0.966201 0.182315
0.359823 0.968124 0.18555
0.535119 0.974487 0.197574
0.69781 0.976669 0.208377
0.850813 0.977172 0.21445
0.9393 0.976013 0.213489
0.976822 0.975006 0.210773
0.976822 0.975006 0.210773
0.119646 0.965225 0.18265
0.203754 0.966171 0.180621
0.356039 0.968032 0.183322
0.530404 0.974456 0.197192
0.693233 0.976593 0.208179
0.845365 0.977157 0.214237
0.937362 0.97612 0.213642
0.976822 0.975006 0.210773
0.976822 0.975006 0.210773
0.0162509 0.0378119 0.13228
0.0988174 0.0391241 0.12781
0.236393 0.0521553 0.107225
0.421195 0.0648966 0.0867628
0.618738 0.0816052 0.0997787
0.762844 0.115404 0.110094
0.881422 0.161181 0.119844
0.952193 0.202564 0.13048
0.952193 0.202869 0.134646
0.0189822 0.113817 0.132586
0.102144 0.116426 0.133135
0.243595 0.124559 0.117403
0.439673 0.13901 0.105867
0.644129 0.158511 0.124163
0.789258 0.191043 0.137789
0.90515 0.242039 0.150454
0.952087 0.275578 0.15964
0.952163 0.280095 0.163348
0.0254215 0.231891 0.137118
0.0992752 0.241138 0.151461
0.2542 0.24976 0.136248
0.475334 0.261723 0.120272
0.669825 0.293873 0.138918
0.802197 0.327703 0.150744
0.9093 0.370626 0.160388
0.95407 0.403449 0.167452
0.954116 0.410651 0.171008
0.0303502 0.382879 0.164736
0.102602 0.397192 0.180865
0.235233 0.425361 0.16527
0.506844 0.430838 0.143847
0.694926 0.443565 0.150332
0.821759 0.487663 0.161761
0.908614 0.531685 0.171069
0.955703 0.554559 0.176089
0.955825 0.558633 0.178531
0.0506905 0.563653 0.201205
0.126452 0.578103 0.214557
0.251972 0.598795 0.192813
0.504738 0.644236 0.206455
0.705577 0.622065 0.176104
0.829252 0.625254 0.171435
0.907958 0.654795 0.177218
0.956725 0.670985 0.17998
0.956725 0.672145 0.180606
0.0737621 0.741253 0.228077
0.158511 0.752392 0.238605
0.295628 0.759976 0.220157
0.512474 0.783337 0.230991
0.705165 0.795483 0.239597
0.829725 0.768292 0.198749
0.908797 0.76173 0.182055
0.958633 0.773922 0.183185
0.958618 0.773739 0.183032
0.101762 0.900649 0.255406
0.197314 0.905699 0.262852
0.341466 0.901839 0.253315
0.524559 0.908736 0.261799
0.694545 0.919539 0.275624
0.837629 0.916381 0.275715
0.916899 0.886336 0.219043
0.961013 0.886702 0.192447
0.960967 0.885435 0.191714
0.118959 0.965301 0.272557
0.214557 0.966949 0.278553
0.360388 0.969345 0.272007
0.533104 0.974838 0.280705
0.69575 0.976974 0.288014
0.847517 0.978073 0.290684
0.940246 0.977035 0.288869
0.977783 0.975265 0.285252
0.977783 0.97525 0.284657
0.117952 0.965316 0.269902
0.212619 0.966903 0.276387
0.356649 0.969207 0.269764
0.528527 0.974746 0.277989
0.691005 0.976944 0.285298
0.842329 0.977951 0.288457
0.938674 0.977081 0.287327
0.977768 0.97525 0.284367
0.977768 0.97525 0.28452
0.0147707 0.0808423 0.294377
0.0758831 0.0794537 0.285115
0.194598 0.0772564 0.258701
0.370962 0.0963455 0.233494
0.596139 0.120211 0.200992
0.757443 0.145083 0.194034
0.880064 0.177569 0.20412
0.95314 0.21297 0.218799
0.953475 0.214954 0.224659
0.0150759 0.140841 0.289662
0.0846876 0.149508 0.289906
0.202228 0.149493 0.270253
0.397131 0.167056 0.245396
0.626062 0.197131 0.223285
0.784222 0.228351 0.223667
0.905043 0.268681 0.232303
0.95494 0.298299 0.24715
0.955352 0.304204 0.253574
0.0176394 0.239673 0.279973
0.0864881 0.252354 0.293431
0.215274 0.264256 0.296162
0.451499 0.276539 0.25893
0.659892 0.306142 0.242283
0.798795 0.33724 0.242191
0.910536 0.375296 0.249958
0.955398 0.400793 0.256031
0.955657 0.406165 0.260716
0.0299382 0.414099 0.317662
0.0986496 0.423087 0.329091
0.211749 0.431067 0.312428
0.478019 0.445853 0.276036
0.68069 0.460182 0.259373
0.813413 0.503517 0.259541
0.910338 0.541512 0.263188
0.957687 0.561486 0.265736
0.957824 0.565484 0.268879
0.0471351 0.584115 0.349615
0.118807 0.594369 0.361746
0.237232 0.605722 0.3393
0.46659 0.639551 0.317113
0.691432 0.631174 0.285481
0.822583 0.633692 0.264164
0.908629 0.663432 0.264546
0.957565 0.67892 0.264714
0.957595 0.680079 0.265339
0.0612039 0.74818 0.394446
0.140581 0.755749 0.402258
0.275898 0.764508 0.360693
0.484794 0.778134 0.343297
0.688594 0.793423 0.35082
0.824216 0.770993 0.296864
0.908782 0.765698 0.265263
0.959213 0.779156 0.264958
0.959213 0.778759 0.264698
0.0741894 0.896117 0.443671
0.166278 0.902266 0.441291
0.315648 0.903243 0.383658
0.502281 0.902831 0.373663
0.677134 0.914031 0.382406
0.826734 0.915465 0.378958
0.916732 0.886259 0.310124
0.961288 0.884749 0.27393
0.961242 0.883818 0.273152
0.0846571 0.959564 0.465888
0.181582 0.964111 0.455695
0.333867 0.971984 0.397757
0.513924 0.975677 0.390784
0.680293 0.978729 0.39408
0.831662 0.979385 0.389776
0.940124 0.978164 0.385611
0.978546 0.975769 0.381201
0.978531 0.975769 0.38088
0.0838178 0.959747 0.46247
0.180133 0.964096 0.451926
0.33051 0.971817 0.394766
0.509712 0.975509 0.387457
0.675654 0.978592 0.390646
0.827695 0.979339 0.387411
0.938674 0.978225 0.384115
0.978531 0.975769 0.380575
0.978531 0.975769 0.380728
0.0213474 0.143008 0.475792
0.0742657 0.141176 0.466377
0.153155 0.136751 0.430488
0.282933 0.141711 0.382025
0.519448 0.152178 0.344274
0.713756 0.190097 0.350042
0.867872 0.224445 0.373648
0.967163 0.249302 0.413046
0.968002 0.251026 0.428626
0.0216068 0.198367 0.474968
0.0865797 0.210178 0.475196
0.16228 0.208804 0.4486
0.295018 0.217929 0.404608
0.553841 0.230243 0.367758
0.747234 0.275608 0.384009
0.902815 0.314122 0.431296
0.970184 0.338949 0.478096
0.970993 0.345907 0.495583
0.0232395 0.28278 0.464363
0.0913405 0.29897 0.48014
0.177035 0.317174 0.493797
0.329961 0.328313 0.458549
0.600687 0.342992 0.428
0.778103 0.3776 0.436133
0.916747 0.406561 0.45478
0.970291 0.426169 0.476371
0.970916 0.431937 0.488823
0.0286564 0.40441 0.478721
0.0974899 0.416739 0.491798
0.185153 0.437324 0.5075
0.372747 0.471565 0.526162
0.656764 0.480308 0.504692
0.807904 0.496086 0.489754
0.921828 0.519814 0.471427
0.970535 0.533043 0.459129
0.970962 0.537713 0.466636
0.0512856 0.612802 0.549142
0.122103 0.625956 0.560998
0.206043 0.630182 0.556207
0.381933 0.642634 0.519692
0.666789 0.646845 0.487541
0.818006 0.650828 0.482033
0.920501 0.671046 0.456046
0.970764 0.683192 0.434836
0.970855 0.684321 0.436469
0.0630808 0.769253 0.589548
0.137911 0.774578 0.594919
0.224765 0.77026 0.579202
0.419287 0.779324 0.515694
0.654444 0.790463 0.501625
0.818616 0.776989 0.458228
0.917632 0.771374 0.413947
0.969848 0.783734 0.400076
0.969787 0.783169 0.399496
0.0689708 0.901473 0.619257
0.148318 0.903639 0.621347
0.248661 0.899504 0.595972
0.457313 0.902831 0.518715
0.647425 0.905989 0.514672
0.804959 0.913436 0.504402
0.920012 0.889158 0.431724
0.968597 0.887175 0.378897
0.968475 0.886 0.377874
0.0725567 0.957565 0.635889
0.152026 0.957809 0.634318
0.267018 0.96669 0.602487
0.477012 0.978515 0.522469
0.651255 0.981277 0.522774
0.805524 0.982025 0.512734
0.939529 0.981079 0.500923
0.981323 0.979263 0.49543
0.981323 0.979248 0.495079
0.0708629 0.957549 0.632761
0.150286 0.957778 0.630945
0.264927 0.966659 0.598795
0.473701 0.978332 0.517586
0.647547 0.98117 0.519142
0.801617 0.981964 0.510414
0.93817 0.981094 0.499611
0.981323 0.979248 0.494896
0.981323 0.979248 0.495079
0.0350347 0.222583 0.639078
0.0843061 0.221881 0.632639
0.159884 0.213901 0.595956
0.241382 0.206851 0.545281
0.431754 0.217182 0.447669
0.675029 0.209171 0.425696
0.847333 0.246357 0.51696
0.972137 0.289067 0.638178
0.971481 0.289677 0.644404
0.0351415 0.273396 0.640131
0.0985885 0.288197 0.641108
0.17084 0.285405 0.615076
0.25507 0.281712 0.568124
0.475975 0.293523 0.487922
0.71545 0.296315 0.488975
0.885588 0.336675 0.585046
0.971954 0.373632 0.668467
0.971633 0.378714 0.675685
0.0355688 0.354177 0.634806
0.104143 0.370626 0.646937
0.186862 0.385748 0.654093
0.274098 0.385 0.621241
0.526558 0.392752 0.566094
0.744503 0.403891 0.575967
0.902724 0.445151 0.648386
0.977615 0.473014 0.698482
0.977798 0.47808 0.705867
0.0377508 0.450416 0.637995
0.106447 0.464912 0.649317
0.191638 0.486198 0.66154
0.305135 0.506615 0.679698
0.574807 0.505318 0.660761
0.778408 0.534936 0.665843
0.918227 0.559503 0.686213
0.980499 0.571405 0.698283
0.980774 0.575525 0.703059
0.0454871 0.577859 0.658289
0.116152 0.591501 0.668238
0.200473 0.607904 0.676112
0.316152 0.633936 0.690272
0.61059 0.654765 0.688518
0.799313 0.669291 0.68545
0.922133 0.675944 0.678431
0.981186 0.675532 0.668101
0.981262 0.676661 0.669535
0.0607462 0.754345 0.717067
0.135668 0.76231 0.722972
0.217044 0.768261 0.720592
0.320623 0.775128 0.709239
0.601343 0.788952 0.679026
0.802609 0.785885 0.655375
0.923201 0.780713 0.641321
0.980209 0.788098 0.626398
0.980148 0.787274 0.625315
0.0693828 0.905592 0.759762
0.147997 0.908248 0.760739
0.227115 0.902556 0.746487
0.350759 0.90135 0.715846
0.608194 0.904204 0.665309
0.782147 0.907362 0.650111
0.919188 0.890089 0.603494
0.978927 0.88658 0.556039
0.978836 0.885267 0.554788
0.0712291 0.957671 0.775311
0.150561 0.957687 0.773358
0.229831 0.958114 0.75668
0.376364 0.97348 0.717784
0.615946 0.983352 0.659205
0.774884 0.985275 0.648936
0.930297 0.984802 0.632639
0.985214 0.983261 0.626917
0.985199 0.983246 0.626703
0.0707256 0.957671 0.772137
0.148913 0.957687 0.769924
0.227939 0.958129 0.753231
0.372793 0.973419 0.714076
0.611734 0.98323 0.655238
0.771649 0.985183 0.646632
0.928283 0.984787 0.631052
0.985199 0.983246 0.626703
0.985199 0.983246 0.626703
0.0460975 0.295354 0.76257
0.0943313 0.294881 0.759731
0.169467 0.285939 0.733028
0.248737 0.274784 0.697353
0.364172 0.276677 0.668605
0.630991 0.274159 0.643275
0.835904 0.279866 0.671122
0.962524 0.300282 0.731289
0.9617 0.301854 0.739712
0.0460365 0.344625 0.764385
0.109728 0.360052 0.76701
0.182132 0.356451 0.751446
0.263416 0.34992 0.724651
0.410056 0.357443 0.709789
0.680232 0.355108 0.705608
0.87689 0.369574 0.72845
0.962142 0.386831 0.766613
0.961898 0.393011 0.777447
0.0458534 0.420584 0.76228
0.114794 0.435279 0.771908
0.196475 0.446891 0.77641
0.272755 0.44329 0.760998
0.447059 0.443076 0.750774
0.71043 0.439048 0.742397
0.888991 0.460624 0.758236
0.970123 0.478126 0.789181
0.970047 0.482704 0.795773
0.0468147 0.509972 0.763897
0.115938 0.524178 0.773495
0.199756 0.53991 0.780209
0.282628 0.549294 0.788769
0.494362 0.538399 0.789609
0.742351 0.539452 0.779706
0.899367 0.565377 0.787228
0.980194 0.583001 0.809506
0.980179 0.585611 0.812345
0.0495308 0.609537 0.772549
0.120409 0.620874 0.780453
0.20354 0.63473 0.785473
0.29044 0.652338 0.792432
0.530877 0.66154 0.806195
0.76611 0.668681 0.800046
0.90956 0.68304 0.801663
0.985794 0.690242 0.813397
0.985809 0.690623 0.813825
0.0561227 0.729229 0.796262
0.131395 0.735988 0.800763
0.212619 0.743084 0.801465
0.297932 0.753353 0.802426
0.535439 0.775341 0.809766
0.774273 0.786954 0.8009
0.916579 0.791272 0.797559
0.987381 0.79295 0.796399
0.987335 0.792157 0.795544
0.0647593 0.874083 0.844007
0.143435 0.877897 0.846036
0.223346 0.879591 0.840681
0.30312 0.883528 0.830365
0.517845 0.89987 0.813626
0.757168 0.904128 0.789548
0.913512 0.89868 0.769543
0.986923 0.897887 0.752712
0.986847 0.896315 0.751293
0.068864 0.94374 0.868986
0.148394 0.946395 0.869322
0.227939 0.954162 0.865538
0.306416 0.958892 0.850141
0.521752 0.979675 0.815305
0.747509 0.987579 0.778485
0.915572 0.989151 0.762692
0.989044 0.988617 0.758404
0.989029 0.988602 0.757931
0.068925 0.944961 0.866819
0.146914 0.947509 0.867155
0.225986 0.954376 0.862577
0.303487 0.958709 0.846448
0.517662 0.979522 0.811643
0.744778 0.987488 0.77644
0.914336 0.98912 0.761868
0.989044 0.988617 0.758404
0.989044 0.988617 0.758404
0.0545357 0.358526 0.865644
0.103105 0.358373 0.864836
0.179431 0.35137 0.850889
0.259403 0.340383 0.832761
0.346899 0.333989 0.8224
0.570443 0.328008 0.834546
0.824201 0.319524 0.841184
0.957275 0.331975 0.868879
0.957092 0.334356 0.879637
0.0546883 0.407599 0.868544
0.119341 0.42414 0.873228
0.193484 0.423423 0.868803
0.275761 0.416449 0.858595
0.383169 0.416297 0.859663
0.631998 0.404883 0.873976
0.871199 0.403433 0.880034
0.957809 0.418296 0.902373
0.957626 0.424033 0.911879
0.0536507 0.48249 0.870176
0.123491 0.496315 0.879377
0.205097 0.504768 0.88304
0.282811 0.500816 0.87776
0.404593 0.501259 0.877638
0.665339 0.485603 0.887205
0.880446 0.486946 0.889189
0.963317 0.502007 0.907118
0.963287 0.506249 0.913725
0.053666 0.568643 0.872526
0.12369 0.580713 0.880888
0.20621 0.589426 0.884703
0.283909 0.589532 0.888518
0.426398 0.585946 0.893584
0.692348 0.574014 0.897551
0.883009 0.576654 0.893782
0.972259 0.589303 0.906767
0.97232 0.591562 0.910079
0.0550393 0.660441 0.879225
0.126528 0.670695 0.886183
0.208698 0.678798 0.888289
0.286717 0.687053 0.891371
0.44506 0.683238 0.902266
0.71574 0.6766 0.905089
0.890532 0.680125 0.89839
0.983734 0.685786 0.905547
0.983734 0.685954 0.90576
0.0578164 0.755886 0.893812
0.133089 0.762005 0.898238
0.213642 0.765759 0.897002
0.290791 0.769818 0.896101
0.465751 0.77586 0.905165
0.730251 0.781155 0.907851
0.89897 0.787396 0.902358
0.98912 0.788296 0.907912
0.98909 0.787579 0.907118
0.0611887 0.856992 0.914748
0.139834 0.859892 0.916304
0.21912 0.856184 0.909819
0.295979 0.858366 0.905592
0.4822 0.869734 0.91107
0.732647 0.88629 0.907729
0.900587 0.89955 0.898436
0.991043 0.902846 0.896132
0.991028 0.901473 0.894911
0.0637522 0.914336 0.934447
0.14316 0.916091 0.9346
0.222507 0.922545 0.930602
0.299611 0.932906 0.926085
0.475013 0.956985 0.929381
0.717098 0.979248 0.917739
0.893309 0.99086 0.894392
0.991455 0.99205 0.883299
0.991455 0.99205 0.88304
0.0636454 0.91487 0.932494
0.141436 0.91664 0.93225
0.220645 0.923293 0.92845
0.297169 0.933806 0.923735
0.468605 0.957458 0.927184
0.713527 0.9794 0.915572
0.8925 0.990814 0.893721
0.991455 0.99205 0.883299
0.991455 0.992065 0.883543
0.0596323 0.402319 0.947845
0.1093 0.402701 0.947982
0.189181 0.401312 0.944991
0.271977 0.394736 0.942275
0.353948 0.389303 0.942382
0.554818 0.376715 0.954131
0.83299 0.358389 0.955184
0.954772 0.348791 0.950088
0.954772 0.348791 0.950088
0.0594949 0.452125 0.948837
0.125429 0.465507 0.950027
0.203082 0.465827 0.94818
0.287739 0.459434 0.943862
0.379522 0.456535 0.945556
0.63267 0.44065 0.957656
0.882475 0.430549 0.95523
0.955871 0.429801 0.951614
0.956054 0.433524 0.951797
0.057908 0.527672 0.952361
0.128603 0.536477 0.953536
0.210437 0.540856 0.95555
0.292149 0.537133 0.953307
0.393545 0.53608 0.953689
0.662654 0.517174 0.963699
0.888472 0.511818 0.959915
0.961105 0.511955 0.956512
0.961349 0.514961 0.956725
0.0571603 0.611994 0.955016
0.128191 0.619379 0.95523
0.209918 0.623316 0.9579
0.287388 0.616358 0.959915
0.395315 0.613993 0.963638
0.673121 0.596323 0.972885
0.887602 0.595132 0.968551
0.969162 0.595636 0.964614
0.969314 0.597208 0.964752
0.0577401 0.699657 0.956176
0.129671 0.705608 0.956405
0.211521 0.710628 0.958404
0.288563 0.711971 0.960128
0.400427 0.700664 0.967117
0.689509 0.684474 0.980789
0.890166 0.685161 0.976318
0.981262 0.68484 0.971466
0.981231 0.684688 0.971466
0.0591287 0.785428 0.957763
0.135027 0.78909 0.958129
0.215045 0.791608 0.959411
0.291051 0.793561 0.960235
0.426719 0.791501 0.970916
0.700343 0.780911 0.982986
0.897185 0.784344 0.980011
0.988861 0.783185 0.975845
0.988815 0.782177 0.975814
0.0613107 0.869734 0.960067
0.140017 0.871855 0.960281
0.219104 0.871733 0.960449
0.294514 0.871962 0.9608
0.461753 0.872343 0.974777
0.713939 0.881941 0.982193
0.893309 0.897078 0.980697
0.990173 0.901686 0.980163
0.990173 0.900175 0.980117
0.0630808 0.907118 0.960464
0.142138 0.908858 0.960906
0.22118 0.913588 0.962036
0.297261 0.919524 0.963531
0.478172 0.930709 0.978088
0.72076 0.94905 0.982605
0.893263 0.975509 0.980682
0.99089 0.992782 0.978363
0.99089 0.992782 0.978363
0.0627451 0.907103 0.960464
0.140337 0.908766 0.960876
0.218921 0.913436 0.962005
0.294652 0.919219 0.963317
0.472496 0.93048 0.977844
0.717479 0.948669 0.982605
0.892683 0.975418 0.980682
0.99089 0.992782 0.978363
0.99089 0.992782 0.978363
0.0596323 0.402319 0.947845
0.109163 0.402701 0.947982
0.189303 0.401312 0.944991
0.27274 0.39469 0.94226
0.355993 0.389273 0.942504
0.562585 0.375921 0.954314
0.838285 0.357977 0.955093
0.954772 0.348791 0.950088
0.954772 0.348791 0.950088
0.0594949 0.452811 0.948852
0.12694 0.466896 0.950118
0.204761 0.46685 0.948196
0.289525 0.460731 0.943893
0.382406 0.457923 0.94583
0.640253 0.44123 0.9579
0.887419 0.431586 0.955032
0.955932 0.431159 0.95169
0.95613 0.434882 0.951858
0.0578775 0.529229 0.952438
0.129793 0.537926 0.953613
0.211795 0.542107 0.955642
0.293584 0.538262 0.953399
0.396216 0.537285 0.95407
0.667597 0.517876 0.963821
0.892119 0.512825 0.959823
0.961196 0.513039 0.956588
0.961425 0.515801 0.956786
0.0571603 0.613489 0.955047
0.129152 0.620859 0.955261
0.211093 0.624765 0.957961
0.288487 0.617655 0.95993
0.398001 0.614969 0.963928
0.677211 0.596872 0.973022
0.889281 0.595773 0.968551
0.969207 0.596216 0.96466
0.96936 0.597635 0.964797
0.0577554 0.700984 0.956207
0.130632 0.706722 0.95642
0.21236 0.711635 0.95845
0.28925 0.712932 0.960128
0.402014 0.701152 0.967285
0.690639 0.684627 0.980819
0.890852 0.685466 0.976303
0.981262 0.68484 0.971466
0.981231 0.684688 0.971466
0.059144 0.785992 0.957778
0.135439 0.789685 0.958144
0.21529 0.79205 0.959411
0.291157 0.793698 0.960235
0.426657 0.791333 0.970916
0.700343 0.780911 0.982986
0.896834 0.783963 0.980011
0.988846 0.782773 0.97583
0.9888 0.781765 0.975799
0.0613107 0.869902 0.960067
0.140017 0.872023 0.960281
0.219104 0.871733 0.960449
0.294377 0.871794 0.9608
0.46125 0.87219 0.974746
0.713024 0.881498 0.982193
0.892699 0.89659 0.980713
0.990173 0.900923 0.980133
0.990173 0.899916 0.980102
0.0627451 0.907103 0.960464
0.142016 0.908843 0.960906
0.221057 0.913573 0.962036
0.296956 0.919493 0.963516
0.477287 0.930663 0.978058
0.719112 0.948867 0.982605
0.892973 0.975464 0.980682
0.99089 0.992782 0.978363
0.99089 0.992782 0.978363
0.0627451 0.907103 0.960464
0.1402 0.908766 0.960861
0.218814 0.913436 0.962005
0.294499 0.919203 0.963302
0.472496 0.93048 0.977844
0.717891 0.948714 0.982605
0.892973 0.975464 0.980682
0.99089 0.992782 0.978363
0.99089 0.992782 0.978363
