src/colors/dark_&_moody/night_glow.cube
TITLE "Generated by Resolve"
LUT_3D_SIZE 33
0.0159152 0.0174868 0.0252537
0.0280919 0.0189212 0.0263828
0.0552834 0.0221256 0.0288701
0.0818952 0.0256046 0.0311742
0.1084 0.0296635 0.0332952
0.137636 0.0341955 0.0348058
0.170459 0.0393683 0.0353704
0.206928 0.0443732 0.0333867
0.244144 0.0490272 0.0306401
0.284703 0.0531624 0.0285039
0.327962 0.0568093 0.0297856
0.373999 0.0602426 0.033341
0.422904 0.0652171 0.0383917
0.473014 0.06981 0.0436255
0.524163 0.0738079 0.0490425
0.572961 0.0771344 0.0536507
0.618814 0.0803693 0.0578622
0.659648 0.0849317 0.0615854
0.697368 0.0911879 0.0648508
0.730953 0.100343 0.0674754
0.762966 0.110796 0.0698253
0.793027 0.122087 0.0719158
0.823072 0.133791 0.0737621
0.85362 0.145892 0.0755169
0.880003 0.158511 0.0770428
0.905196 0.171221 0.0785229
0.928878 0.186053 0.0804303
0.952239 0.201007 0.0823682
0.952239 0.201007 0.0823682
0.952239 0.201007 0.0823682
0.952239 0.201007 0.0823682
0.952239 0.201007 0.0823682
0.952239 0.201007 0.0823682
0.0168917 0.0297856 0.0274968
0.0290684 0.0312047 0.0284428
0.0563821 0.0343328 0.0305638
0.0826123 0.0371557 0.0324407
0.109071 0.0401007 0.0341497
0.138109 0.0432136 0.0352941
0.170962 0.0467079 0.0357061
0.207553 0.0500649 0.0335241
0.245136 0.0530861 0.0306859
0.285237 0.0556497 0.0285039
0.329122 0.0578927 0.0298772
0.374914 0.0603342 0.0334325
0.424125 0.0653391 0.0385138
0.474647 0.0699321 0.0437934
0.526116 0.0739605 0.0492409
0.574823 0.0772564 0.0538186
0.621027 0.0806134 0.0580606
0.66215 0.0852064 0.0618143
0.700008 0.0919051 0.0650645
0.734554 0.10132 0.0677653
0.766476 0.112123 0.0700694
0.796979 0.123568 0.0721904
0.827817 0.135683 0.0740368
0.859052 0.148043 0.0758221
0.885008 0.161028 0.0773327
0.910567 0.17435 0.0789044
0.934462 0.189624 0.0808881
0.952239 0.201602 0.0823682
0.952224 0.202441 0.0823682
0.952224 0.203403 0.0823529
0.952209 0.204349 0.0823529
0.952209 0.20531 0.0823377
0.952193 0.206256 0.0823377
0.0191348 0.057908 0.0325933
0.0311742 0.0587778 0.0330816
0.0568856 0.0602121 0.0340429
0.0823987 0.0612955 0.0349432
0.108537 0.0622873 0.0358282
0.137499 0.063859 0.036408
0.170794 0.0665751 0.0366369
0.207355 0.0690166 0.0342107
0.245197 0.0714427 0.0311131
0.285786 0.0735027 0.0286412
0.329793 0.0757458 0.0299535
0.376181 0.0780499 0.0335851
0.426108 0.0815595 0.0387121
0.476875 0.0846876 0.0439918
0.529183 0.0875868 0.0495003
0.577829 0.0903944 0.0542306
0.624399 0.0936599 0.0586099
0.666392 0.0978866 0.0623484
0.704967 0.105272 0.065507
0.739803 0.114351 0.0681468
0.771908 0.125994 0.0704204
0.802991 0.138247 0.0725872
0.834836 0.151812 0.0744182
0.865705 0.165698 0.0761883
0.891402 0.17998 0.0776379
0.916518 0.195148 0.0792859
0.940642 0.211994 0.0813001
0.952087 0.220569 0.0822461
0.952071 0.221408 0.0822461
0.952071 0.222477 0.0822461
0.952056 0.223438 0.0822309
0.952056 0.224277 0.0822309
0.952041 0.225223 0.0822309
0.0212863 0.0843671 0.0377508
0.0324559 0.0846571 0.0379187
0.0567483 0.0852827 0.0382849
0.081529 0.0857252 0.0385748
0.108049 0.0857099 0.0387274
0.137346 0.0861982 0.0386206
0.170748 0.0872663 0.0381323
0.207538 0.0888533 0.0352026
0.246143 0.090837 0.031693
0.287221 0.0923934 0.0288396
0.33228 0.094728 0.0302129
0.379339 0.0972 0.0339208
0.429709 0.100496 0.0390631
0.48191 0.103304 0.0444648
0.535164 0.105837 0.0500343
0.584085 0.109575 0.0550393
0.631022 0.113527 0.059556
0.673899 0.117739 0.0632181
0.712077 0.125414 0.0661326
0.747662 0.134173 0.0686809
0.779278 0.146441 0.0708782
0.810941 0.159075 0.0729992
0.843137 0.173053 0.0748608
0.872084 0.187076 0.0765087
0.897627 0.201343 0.0778973
0.92224 0.217304 0.0796368
0.94612 0.234043 0.0815747
0.951995 0.238895 0.0820325
0.951995 0.239857 0.082002
0.951995 0.24062 0.0819867
0.951995 0.241474 0.0819715
0.951995 0.242344 0.0819562
0.951995 0.243214 0.0819409
0.0234073 0.109667 0.0431983
0.0332189 0.110048 0.0433814
0.0556954 0.11043 0.0437171
0.0799725 0.111086 0.0438239
0.107271 0.111833 0.0435645
0.137255 0.111772 0.0426337
0.170962 0.110704 0.0409094
0.208621 0.111376 0.037171
0.248234 0.112825 0.033051
0.290639 0.114412 0.029572
0.337133 0.116716 0.0311131
0.385672 0.119448 0.0350195
0.437537 0.12253 0.040528
0.491142 0.125612 0.0461738
0.545205 0.128939 0.0518044
0.594659 0.133425 0.0565652
0.640757 0.138003 0.0606241
0.683406 0.142748 0.0640574
0.720043 0.150332 0.0666667
0.755108 0.158877 0.0691081
0.786999 0.169299 0.0712444
0.819074 0.181292 0.0733043
0.850385 0.194369 0.0751965
0.877729 0.208042 0.0767529
0.902739 0.222248 0.0781415
0.926772 0.238163 0.0798199
0.95079 0.254841 0.0815747
0.951995 0.256596 0.081651
0.951995 0.257572 0.0816205
0.951995 0.25832 0.0816052
0.951995 0.25919 0.08159
0.95201 0.260517 0.0821241
0.95201 0.262165 0.0836805
0.0254063 0.13611 0.0492256
0.0330968 0.136599 0.0493935
0.0542763 0.137026 0.0496529
0.0773785 0.138064 0.0497444
0.104616 0.139315 0.0493629
0.135225 0.139483 0.0481422
0.170565 0.137804 0.0456092
0.209689 0.137316 0.0407263
0.251041 0.138079 0.0354925
0.294667 0.139528 0.0310521
0.342824 0.142275 0.0325933
0.393668 0.145586 0.0366827
0.447257 0.149126 0.0425574
0.502541 0.153185 0.0484779
0.556451 0.157733 0.0540322
0.604318 0.162112 0.0583352
0.648859 0.167193 0.0619516
0.690822 0.172427 0.0651255
0.72636 0.179599 0.0676127
0.76109 0.188128 0.0700084
0.793027 0.197833 0.0720684
0.824414 0.20943 0.0740368
0.85507 0.222019 0.0759289
0.880934 0.235096 0.0774853
0.905562 0.248753 0.078996
0.929473 0.264942 0.0805829
0.952117 0.2804 0.082063
0.952132 0.281819 0.0820935
0.952132 0.283238 0.0821393
0.952148 0.284504 0.0823224
0.952148 0.28571 0.0831922
0.952163 0.287419 0.0845808
0.952178 0.288792 0.0856184
0.0272068 0.164248 0.0561685
0.0318761 0.165087 0.0563363
0.05243 0.166079 0.0564431
0.0741588 0.167269 0.0565194
0.0999619 0.169329 0.056611
0.130541 0.170748 0.0558328
0.169238 0.170871 0.0534371
0.210742 0.169009 0.0472877
0.253422 0.167712 0.0403449
0.298985 0.169619 0.0343786
0.349508 0.173907 0.0354314
0.402075 0.178943 0.0393225
0.456703 0.184588 0.0453498
0.511604 0.189944 0.0512551
0.564095 0.195071 0.0566262
0.611597 0.199603 0.0608682
0.654917 0.204379 0.0641337
0.695323 0.209735 0.0669566
0.730343 0.216602 0.0693675
0.76405 0.224369 0.0715648
0.795651 0.233066 0.0733349
0.82623 0.243427 0.0751202
0.856489 0.254917 0.0769818
0.882139 0.267445 0.0786908
0.906325 0.280034 0.0803082
0.930129 0.29572 0.0817273
0.95256 0.310765 0.0830396
0.952621 0.312764 0.0831464
0.952682 0.314763 0.083238
0.952743 0.316808 0.0840162
0.952804 0.318669 0.0851148
0.95285 0.3205 0.0860304
0.952911 0.322347 0.0869612
0.0288853 0.19472 0.0637675
0.0307622 0.195926 0.0640421
0.0509804 0.197284 0.0640421
0.0716716 0.198993 0.0641184
0.0963302 0.201831 0.0644083
0.125811 0.204776 0.0640879
0.164187 0.207263 0.0623484
0.209216 0.20647 0.0560464
0.256153 0.204822 0.0481575
0.303868 0.203372 0.0399481
0.356069 0.206897 0.0390936
0.411185 0.212558 0.0418097
0.46688 0.218738 0.0479896
0.521385 0.225376 0.0539712
0.57351 0.23209 0.0594034
0.619394 0.238544 0.0634318
0.661479 0.245319 0.0666819
0.700359 0.252522 0.0695354
0.734264 0.25948 0.0719005
0.766888 0.267338 0.0740826
0.798077 0.276188 0.0759899
0.828168 0.28629 0.0778363
0.858061 0.297368 0.0796521
0.883146 0.308934 0.0811322
0.906889 0.320531 0.0825055
0.930892 0.334981 0.0837415
0.953704 0.348974 0.0848859
0.953765 0.350988 0.0849928
0.953826 0.353201 0.0850996
0.953872 0.355016 0.0856947
0.953918 0.356909 0.0866407
0.953933 0.358816 0.0877852
0.953933 0.360967 0.0889601
0.030457 0.226947 0.0718853
0.03093 0.228763 0.0722972
0.0508125 0.230732 0.0722667
0.0709697 0.233051 0.0722972
0.0943008 0.23653 0.0724193
0.121843 0.240177 0.0719463
0.157809 0.244511 0.0703288
0.205539 0.246128 0.0647898
0.256886 0.24535 0.0571298
0.308415 0.241169 0.0473793
0.363684 0.242863 0.044007
0.419867 0.24654 0.0446632
0.477333 0.25275 0.0507973
0.53196 0.260136 0.0568093
0.583398 0.268391 0.0622416
0.62826 0.276661 0.0661173
0.669184 0.285405 0.0694438
0.706416 0.293828 0.0723583
0.739467 0.301961 0.0747387
0.771176 0.310307 0.0769055
0.80174 0.31957 0.0788434
0.831327 0.330022 0.0807202
0.860059 0.341283 0.0825666
0.884459 0.352773 0.0840925
0.907454 0.364401 0.0855268
0.931014 0.37882 0.0868086
0.954101 0.39321 0.0880598
0.954116 0.395575 0.0882429
0.954116 0.397681 0.0883955
0.954131 0.399527 0.0885481
0.954131 0.401663 0.0895399
0.954147 0.403525 0.0906996
0.954162 0.405661 0.0918593
0.0308995 0.261646 0.0798505
0.0310674 0.263676 0.0803082
0.0505074 0.265888 0.0803235
0.0701305 0.268452 0.080293
0.0921645 0.271778 0.0795453
0.117708 0.275959 0.0780499
0.151125 0.281987 0.0749523
0.198611 0.287221 0.0715496
0.252537 0.290654 0.0667582
0.313207 0.287984 0.0577554
0.370855 0.28426 0.0512398
0.42826 0.283101 0.0488289
0.486961 0.288273 0.0541085
0.542153 0.295583 0.0598611
0.593957 0.304112 0.0651865
0.638071 0.312673 0.0689708
0.677256 0.321828 0.0722972
0.713848 0.331609 0.0753948
0.746181 0.341894 0.0778058
0.777737 0.352438 0.0800183
0.807584 0.363333 0.0819104
0.835798 0.374365 0.083772
0.862593 0.385473 0.0856184
0.885939 0.397238 0.0872358
0.907637 0.409064 0.088777
0.930938 0.42298 0.0901503
0.954269 0.437034 0.0915236
0.954269 0.4392 0.0917067
0.954269 0.441138 0.0918746
0.954284 0.442817 0.0920119
0.954284 0.444282 0.0926375
0.954284 0.445991 0.0936294
0.954284 0.447944 0.0946212
0.0310674 0.298268 0.087892
0.0311894 0.300954 0.0884413
0.0500801 0.30341 0.0884413
0.0690166 0.30602 0.0882887
0.0903334 0.30956 0.0870222
0.114733 0.314031 0.0847181
0.145495 0.320623 0.0801099
0.191699 0.32929 0.0776074
0.246143 0.336141 0.0751507
0.310109 0.33875 0.0710613
0.374365 0.333944 0.0630655
0.436942 0.329061 0.0572976
0.495933 0.328206 0.0586404
0.551781 0.334432 0.0634165
0.603113 0.342138 0.0684062
0.646235 0.350469 0.0721447
0.684901 0.35996 0.0753185
0.720836 0.370047 0.0781872
0.753185 0.380896 0.0805524
0.784298 0.392126 0.0827497
0.813764 0.403128 0.084596
0.840803 0.414527 0.0864576
0.865812 0.426017 0.0883192
0.887282 0.438132 0.0899672
0.907561 0.450523 0.0915694
0.930373 0.46392 0.0932326
0.953475 0.477378 0.0949416
0.954345 0.479728 0.0951553
0.954345 0.481422 0.0952926
0.954345 0.483101 0.0954452
0.954345 0.485039 0.095613
0.954345 0.486336 0.0963607
0.95436 0.487541 0.097261
0.0310063 0.337377 0.0961318
0.0314336 0.339986 0.0967117
0.0499123 0.342412 0.0966659
0.0686046 0.34522 0.0964981
0.0896315 0.348974 0.0949874
0.113176 0.353628 0.0921798
0.142123 0.36051 0.0864271
0.186175 0.370626 0.0838788
0.239506 0.380728 0.0830854
0.304372 0.389013 0.0841993
0.374884 0.386572 0.076997
0.443122 0.380606 0.0691691
0.504097 0.373495 0.0647746
0.559838 0.375647 0.0676127
0.610971 0.380941 0.07187
0.653559 0.389075 0.0755169
0.691783 0.398535 0.0784924
0.727337 0.408759 0.0811475
0.759182 0.419654 0.0834363
0.789532 0.430762 0.0855421
0.818402 0.441917 0.0873732
0.844221 0.453101 0.089189
0.867323 0.464408 0.0910048
0.88806 0.476783 0.0926833
0.907378 0.488731 0.0942397
0.929824 0.500206 0.0955825
0.952758 0.511559 0.0968338
0.954467 0.513649 0.0969863
0.954482 0.515023 0.0970474
0.954482 0.516594 0.0971237
0.954498 0.517586 0.0971695
0.954498 0.518563 0.0972305
0.954498 0.519753 0.097612
0.033463 0.378424 0.105379
0.0340276 0.381048 0.105959
0.0523995 0.383551 0.10576
0.0707256 0.386481 0.10547
0.0915847 0.390524 0.104005
0.1149 0.395087 0.100999
0.142901 0.40148 0.0948653
0.184512 0.411551 0.0911879
0.23508 0.423438 0.0905776
0.297795 0.436576 0.0955673
0.371633 0.441855 0.0931716
0.444358 0.439765 0.086244
0.509392 0.425422 0.0732433
0.566018 0.421073 0.0730144
0.617029 0.421271 0.075761
0.659068 0.427543 0.078996
0.697063 0.437034 0.0818189
0.732387 0.447089 0.0843519
0.764111 0.458 0.0865187
0.793957 0.468605 0.0884871
0.821744 0.479377 0.0902266
0.846326 0.490303 0.0919661
0.868223 0.501625 0.0937057
0.888045 0.513054 0.0952621
0.907042 0.52459 0.0967727
0.929335 0.534295 0.0977493
0.951995 0.543526 0.0986038
0.954971 0.546075 0.0988174
0.955016 0.547433 0.0989242
0.955062 0.548623 0.0990158
0.955108 0.549599 0.0990921
0.955139 0.550576 0.0991531
0.955184 0.551553 0.0992294
0.0372473 0.421851 0.114961
0.0381933 0.424521 0.115511
0.0564736 0.427604 0.115297
0.0748913 0.431174 0.114931
0.095491 0.435462 0.113207
0.118441 0.439765 0.109865
0.145556 0.44535 0.103624
0.18584 0.454795 0.0989242
0.23473 0.466758 0.0975509
0.295247 0.481071 0.102541
0.368917 0.492821 0.105104
0.442603 0.497276 0.102525
0.510323 0.489967 0.0915084
0.569192 0.478065 0.0847639
0.621729 0.469871 0.0811933
0.663706 0.471962 0.0831006
0.701366 0.477852 0.0852522
0.735958 0.485527 0.08748
0.767636 0.495521 0.0895705
0.797162 0.505623 0.0914626
0.82414 0.51632 0.0930495
0.847913 0.526726 0.0946059
0.868849 0.537255 0.0961624
0.888594 0.548012 0.0976883
0.907515 0.558389 0.0991989
0.929625 0.567178 0.100175
0.95256 0.575784 0.10103
0.956207 0.578027 0.101228
0.956252 0.579202 0.10132
0.956298 0.580179 0.101396
0.956329 0.580972 0.101457
0.956359 0.58175 0.101503
0.956405 0.582925 0.101595
0.0421302 0.467201 0.124697
0.0436103 0.469917 0.125124
0.0617075 0.473381 0.124773
0.0800946 0.476814 0.124071
0.100404 0.480812 0.121828
0.123278 0.484993 0.117922
0.149538 0.489754 0.11136
0.189166 0.498848 0.106203
0.236942 0.510094 0.104311
0.295308 0.524117 0.108492
0.367025 0.53933 0.114305
0.439811 0.549813 0.116106
0.509743 0.551095 0.109941
0.571191 0.536675 0.098085
0.62501 0.523491 0.0891127
0.667475 0.518959 0.0882887
0.705058 0.52047 0.0892195
0.739544 0.524926 0.090837
0.770794 0.532876 0.0926223
0.800305 0.542 0.094316
0.826215 0.551492 0.0956741
0.849165 0.561227 0.0970626
0.869322 0.571191 0.0984817
0.888685 0.580606 0.0998398
0.907561 0.589944 0.101183
0.929458 0.598367 0.102037
0.952117 0.605905 0.102693
0.956573 0.608301 0.102861
0.956573 0.609064 0.102892
0.956588 0.609827 0.102922
0.956588 0.61059 0.102968
0.956588 0.611536 0.102998
0.956588 0.612116 0.103029
0.0472267 0.512612 0.132723
0.0495003 0.515618 0.13315
0.0673075 0.518853 0.132769
0.0854963 0.522072 0.131884
0.105974 0.526085 0.129168
0.128893 0.530205 0.124544
0.155383 0.534615 0.116991
0.194995 0.542809 0.112306
0.242191 0.552789 0.110872
0.299077 0.565606 0.114351
0.367224 0.579797 0.119707
0.437461 0.592065 0.123598
0.509316 0.600412 0.124468
0.569146 0.593042 0.112566
0.62298 0.582193 0.101366
0.668864 0.57023 0.095552
0.707317 0.565866 0.0941939
0.742168 0.56524 0.0945449
0.774121 0.571283 0.0957961
0.803082 0.577661 0.0969711
0.828 0.585885 0.0981613
0.85034 0.594522 0.0993973
0.869917 0.603677 0.100679
0.888991 0.612451 0.101869
0.907591 0.62034 0.102922
0.928969 0.627939 0.103593
0.951354 0.635142 0.104097
0.956649 0.637552 0.10428
0.956649 0.6383 0.104326
0.956649 0.639048 0.104387
0.956649 0.639429 0.104417
0.956649 0.639796 0.104448
0.956649 0.64036 0.104479
0.0528115 0.559136 0.140154
0.0561379 0.562036 0.140414
0.0736858 0.564813 0.139788
0.0918898 0.5682 0.138582
0.112154 0.571954 0.135531
0.135332 0.576165 0.130007
0.161471 0.579568 0.121294
0.201495 0.586084 0.117525
0.249027 0.595087 0.116915
0.305455 0.607172 0.120134
0.370977 0.620432 0.124926
0.439124 0.632502 0.129335
0.508461 0.642649 0.132921
0.568643 0.641794 0.126146
0.62237 0.636103 0.117769
0.667796 0.624796 0.108614
0.707179 0.617136 0.103517
0.743633 0.611826 0.100099
0.775876 0.612726 0.0999008
0.804898 0.614939 0.100053
0.829557 0.620844 0.100999
0.851194 0.627619 0.101976
0.870146 0.635264 0.103029
0.888731 0.642802 0.104005
0.907271 0.64979 0.104921
0.928359 0.656718 0.105592
0.950561 0.66334 0.106157
0.95671 0.665705 0.106355
0.95671 0.666453 0.106401
0.95671 0.666835 0.106432
0.95671 0.667018 0.106447
0.95671 0.667399 0.106477
0.95671 0.667582 0.106493
0.0587015 0.605493 0.146929
0.0632334 0.608118 0.146929
0.080705 0.611109 0.146105
0.0988632 0.614206 0.144427
0.119036 0.618112 0.141054
0.142184 0.621149 0.134508
0.168292 0.623621 0.124926
0.209476 0.628824 0.122469
0.257435 0.636942 0.122713
0.312505 0.647761 0.125673
0.375814 0.659754 0.12987
0.44065 0.671077 0.134325
0.508217 0.68191 0.139086
0.568811 0.686412 0.138964
0.622156 0.685496 0.134249
0.666743 0.678462 0.123415
0.706691 0.668452 0.11458
0.74403 0.658793 0.107164
0.776684 0.654246 0.104906
0.805936 0.652735 0.103655
0.830503 0.655406 0.10396
0.852033 0.660136 0.104509
0.87042 0.665797 0.105257
0.888731 0.671809 0.105974
0.906935 0.678065 0.106691
0.927901 0.684398 0.107256
0.950088 0.690883 0.107744
0.956756 0.693172 0.107912
0.956756 0.693553 0.107912
0.956756 0.693736 0.107927
0.956756 0.693919 0.107927
0.956756 0.694118 0.107927
0.956756 0.694484 0.107942
0.0642557 0.650034 0.15198
0.0701762 0.652674 0.151843
0.0875563 0.655329 0.150759
0.10602 0.658991 0.148608
0.126055 0.661906 0.144625
0.149722 0.66453 0.137652
0.177127 0.666835 0.128649
0.219303 0.671382 0.127321
0.268391 0.678706 0.128206
0.323049 0.687861 0.130953
0.383307 0.698009 0.134722
0.445823 0.707774 0.138933
0.509804 0.717128 0.14342
0.569924 0.723064 0.146334
0.623133 0.725322 0.145464
0.668406 0.723171 0.140322
0.706859 0.7149 0.131121
0.743069 0.706172 0.12192
0.776226 0.698421 0.114656
0.805875 0.693248 0.10956
0.830808 0.69163 0.107576
0.852094 0.692561 0.106889
0.870649 0.695933 0.107271
0.888853 0.700099 0.107652
0.906874 0.704921 0.108034
0.927611 0.710979 0.108339
0.949767 0.717525 0.108583
0.956771 0.719783 0.108659
0.956771 0.719982 0.108659
0.956771 0.720165 0.108675
0.956771 0.720165 0.108675
0.956771 0.720348 0.108675
0.956771 0.720546 0.108675
0.06981 0.694347 0.156237
0.0776684 0.697292 0.15581
0.0949569 0.699626 0.154498
0.113344 0.702434 0.151583
0.133333 0.70515 0.147005
0.158236 0.707301 0.140124
0.188373 0.709453 0.132769
0.230716 0.712703 0.132128
0.279911 0.718547 0.133501
0.333516 0.725963 0.136156
0.391531 0.734813 0.139681
0.451102 0.742977 0.143725
0.512261 0.750866 0.14818
0.570871 0.757595 0.152941
0.622827 0.761669 0.155108
0.668925 0.763333 0.154864
0.707057 0.757366 0.14699
0.742596 0.750454 0.138231
0.775906 0.741451 0.128145
0.805631 0.733913 0.120012
0.830747 0.728222 0.114305
0.852384 0.726146 0.11107
0.871061 0.726589 0.109682
0.889433 0.728893 0.109239
0.907622 0.732326 0.109377
0.928313 0.737499 0.109499
0.95024 0.743725 0.109621
0.957443 0.746029 0.109667
0.957443 0.746029 0.109667
0.957443 0.746029 0.109667
0.957443 0.746227 0.109682
0.957443 0.746227 0.109682
0.957443 0.746227 0.109682
0.0753338 0.737911 0.159335
0.0849928 0.740307 0.158663
0.101976 0.74258 0.157321
0.120363 0.745296 0.153811
0.140566 0.747524 0.148592
0.1673 0.749172 0.142382
0.200565 0.75079 0.136904
0.242741 0.752483 0.136889
0.291142 0.757153 0.138674
0.343694 0.762844 0.141329
0.39942 0.769833 0.14464
0.457237 0.776852 0.148775
0.515373 0.783383 0.153307
0.571145 0.789105 0.158282
0.621592 0.79353 0.162387
0.668605 0.79704 0.165835
0.707195 0.795056 0.162692
0.743496 0.791638 0.157534
0.775906 0.783642 0.147234
0.804913 0.775387 0.136492
0.830625 0.766629 0.124971
0.852476 0.761044 0.117418
0.871824 0.758175 0.112551
0.890455 0.758007 0.110735
0.908568 0.759503 0.110643
0.929259 0.763897 0.110689
0.951339 0.76965 0.110811
0.958587 0.771649 0.110857
0.958587 0.771649 0.110857
0.958587 0.771847 0.110872
0.958587 0.771847 0.110872
0.958587 0.771649 0.110857
0.958587 0.771649 0.110857
0.0814221 0.779706 0.162097
0.0928664 0.781765 0.161227
0.109865 0.783627 0.159854
0.128801 0.785687 0.155657
0.14931 0.787671 0.150164
0.178759 0.7888 0.145403
0.21387 0.789487 0.142061
0.255497 0.790387 0.142718
0.303349 0.793393 0.14461
0.354116 0.797864 0.147158
0.407477 0.803738 0.150393
0.462577 0.809445 0.154589
0.518227 0.815091 0.159289
0.571298 0.820081 0.164416
0.620401 0.824155 0.169299
0.666621 0.82826 0.174105
0.706233 0.829267 0.174823
0.742824 0.828016 0.17293
0.775433 0.822614 0.165545
0.805066 0.81503 0.154925
0.831785 0.805417 0.141299
0.854032 0.797925 0.130159
0.873487 0.791836 0.120562
0.891768 0.789273 0.115648
0.909255 0.788266 0.113069
0.929793 0.791074 0.112093
0.951629 0.795697 0.11191
0.959014 0.797574 0.111849
0.959014 0.797375 0.111849
0.959014 0.797375 0.111849
0.959014 0.797177 0.111833
0.959014 0.796994 0.111833
0.959014 0.796796 0.111833
0.0876326 0.819532 0.164782
0.100923 0.821302 0.163806
0.117769 0.823117 0.162509
0.137362 0.825055 0.157916
0.158663 0.826612 0.152255
0.190356 0.826947 0.149248
0.226902 0.826688 0.147631
0.268177 0.826612 0.148806
0.315099 0.828595 0.150683
0.364004 0.831922 0.153094
0.414984 0.83624 0.156146
0.467765 0.841062 0.160571
0.520455 0.845853 0.165438
0.571145 0.850202 0.170794
0.618936 0.854307 0.175952
0.664454 0.858137 0.180896
0.704051 0.860533 0.184588
0.741527 0.861509 0.186053
0.775219 0.859586 0.183413
0.805859 0.853788 0.174929
0.83418 0.845396 0.16173
0.85655 0.835615 0.146792
0.875715 0.826246 0.131456
0.893202 0.820783 0.122332
0.910155 0.817456 0.116014
0.930282 0.81857 0.113588
0.952102 0.821714 0.112932
0.959106 0.822858 0.112718
0.959106 0.822858 0.112718
0.959106 0.82266 0.112718
0.959106 0.822278 0.112703
0.959106 0.82208 0.112688
0.959106 0.82208 0.112688
0.0954147 0.858564 0.168643
0.11043 0.860059 0.167437
0.127489 0.861585 0.166033
0.147875 0.862699 0.162234
0.16997 0.863874 0.158007
0.20264 0.863722 0.156435
0.240375 0.863203 0.155505
0.281376 0.862821 0.156634
0.326955 0.864118 0.158434
0.374105 0.866224 0.160708
0.422629 0.869581 0.163714
0.473121 0.873655 0.168048
0.523507 0.877516 0.172778
0.571633 0.881895 0.178195
0.617334 0.885405 0.183047
0.661326 0.888258 0.187564
0.700725 0.89041 0.191455
0.738674 0.891661 0.194049
0.773495 0.891127 0.194308
0.806012 0.887724 0.189319
0.836652 0.881315 0.180026
0.860471 0.873121 0.167514
0.880552 0.864073 0.153536
0.897383 0.857008 0.140841
0.912932 0.851118 0.128969
0.932372 0.850904 0.122103
0.953277 0.852934 0.117449
0.959884 0.853834 0.11606
0.959884 0.853574 0.11603
0.959869 0.853315 0.115999
0.959869 0.853056 0.115969
0.959854 0.852796 0.115923
0.959838 0.852537 0.115892
0.103624 0.899062 0.172854
0.120333 0.900496 0.172183
0.137896 0.901946 0.172061
0.159426 0.903395 0.169207
0.182879 0.903288 0.165972
0.216022 0.902693 0.165026
0.254215 0.901595 0.165103
0.294972 0.899992 0.166125
0.33846 0.89984 0.166491
0.383291 0.900725 0.168612
0.429618 0.902663 0.171405
0.478111 0.90602 0.175601
0.52607 0.909789 0.180346
0.571496 0.913146 0.18555
0.615198 0.915862 0.18999
0.657664 0.917876 0.193957
0.697047 0.919478 0.197208
0.735012 0.920775 0.200122
0.771176 0.920913 0.20235
0.805753 0.91902 0.201205
0.839399 0.915755 0.197696
0.864897 0.910018 0.189975
0.886656 0.903471 0.180575
0.902831 0.895064 0.164218
0.916747 0.886351 0.145678
0.934997 0.885039 0.133272
0.954971 0.886412 0.123339
0.960937 0.886824 0.120333
0.960922 0.886564 0.120302
0.960922 0.886305 0.120272
0.960906 0.886061 0.120226
0.960891 0.885542 0.120165
0.960891 0.885283 0.120134
0.114107 0.943908 0.17911
0.131594 0.944701 0.179065
0.149722 0.946151 0.178958
0.172427 0.946517 0.177752
0.197726 0.946593 0.176257
0.231235 0.945754 0.175921
0.269093 0.943755 0.176028
0.308965 0.941558 0.176547
0.350744 0.940505 0.177584
0.393759 0.939696 0.17882
0.438376 0.940398 0.181674
0.484993 0.941802 0.185351
0.531136 0.943114 0.189258
0.574472 0.943954 0.193317
0.616983 0.944564 0.196765
0.658167 0.945525 0.200015
0.697108 0.94609 0.202426
0.734813 0.946578 0.204791
0.771282 0.946807 0.20705
0.807843 0.945663 0.207538
0.844312 0.944137 0.206912
0.871214 0.940734 0.203082
0.894392 0.937057 0.198016
0.911086 0.931136 0.186435
0.92575 0.924804 0.1729
0.942992 0.923476 0.163577
0.961318 0.924117 0.155871
0.966766 0.923995 0.153231
0.966766 0.923995 0.153231
0.966705 0.923674 0.15288
0.966644 0.923369 0.152529
0.966522 0.922759 0.151843
0.9664 0.922133 0.151141
0.119646 0.965225 0.18265
0.137057 0.965377 0.182498
0.155657 0.965545 0.182635
0.178897 0.965866 0.182025
0.205386 0.966186 0.181567
0.239399 0.966506 0.181765
0.277638 0.966873 0.182239
0.318029 0.967285 0.183383
0.359319 0.968109 0.185336
0.401831 0.969421 0.187335
0.445243 0.971206 0.190066
0.491142 0.97319 0.193912
0.535653 0.974487 0.19762
0.577325 0.973907 0.200855
0.619287 0.972808 0.203464
