src/colors/dark_&_moody/noir_era.cube
TITLE "Era"
# Created by Photon 3D ColorGrading
# AUTHOR #  Jack Wright
DOMAIN_MIN 0 0 0
DOMAIN_MAX 1 1 1
LUT_3D_SIZE 33
0.000507 0.000506 0.000506
0.010788 0.001155 0.001443
0.022735 0.001457 0.002361
0.037360 0.001040 0.003104
0.054187 0.000026 0.003659
0.071370 -0.000985 0.004198
0.087618 -0.001644 0.004832
0.102782 -0.002071 0.005501
0.117194 -0.002483 0.006119
0.131215 -0.002942 0.006689
0.145184 -0.003388 0.007306
0.159427 -0.003739 0.008079
0.174219 -0.003944 0.009078
0.189760 -0.003978 0.010350
0.206100 -0.003895 0.011850
0.223114 -0.003844 0.013423
0.240659 -0.003944 0.014932
0.258654 -0.004218 0.016304
0.277052 -0.004667 0.017497
0.295993 -0.005119 0.018652
0.315141 -0.005901 0.019413
0.334364 -0.007136 0.019631
0.353613 -0.008865 0.019212
0.372846 -0.011108 0.018096
0.392070 -0.013824 0.016287
0.411330 -0.016943 0.013812
0.430687 -0.020330 0.010783
0.450179 -0.023849 0.007318
0.469757 -0.027446 0.003457
0.489255 -0.031149 -0.000825
0.508766 -0.034702 -0.005232
0.528330 -0.037976 -0.009573
0.547907 -0.041057 -0.013842
0.001213 0.015843 0.004934
0.011515 0.015133 0.004137
0.024135 0.015233 0.004358
0.038586 0.015013 0.004822
0.053846 0.014006 0.004880
0.069225 0.012917 0.004852
0.084348 0.012227 0.005021
0.099222 0.011913 0.005403
0.114003 0.011817 0.005953
0.128889 0.011894 0.006706
0.144141 0.012220 0.007785
0.160044 0.012888 0.009302
0.176790 0.013892 0.011270
0.194441 0.015119 0.013584
0.212873 0.016347 0.016010
0.232000 0.017646 0.018602
0.251266 0.018252 0.020570
0.270794 0.018452 0.022166
0.290507 0.018177 0.023275
0.310509 0.017549 0.023975
0.330472 0.016252 0.023909
0.350455 0.014369 0.023125
0.370450 0.011927 0.021613
0.390463 0.008979 0.019395
0.410532 0.005624 0.016540
0.430728 0.001996 0.013145
0.451102 -0.001749 0.009361
0.471634 -0.005515 0.005288
0.492184 -0.009350 0.000877
0.512642 -0.013340 -0.003936
0.533144 -0.017536 -0.009143
0.553852 -0.021604 -0.014380
0.575111 -0.020824 -0.015257
0.003236 0.033183 0.010960
0.013894 0.031775 0.009367
0.025315 0.030364 0.007783
0.038816 0.029780 0.007246
0.053080 0.029000 0.006904
0.067375 0.028048 0.006549
0.081781 0.027421 0.006441
0.096500 0.027282 0.006705
0.111665 0.027594 0.007378
0.127421 0.028370 0.008546
0.143998 0.029715 0.010372
0.161651 0.031732 0.012980
0.180486 0.034344 0.016307
0.200382 0.037274 0.020075
0.221012 0.040114 0.023856
0.241971 0.042439 0.027206
0.263026 0.044064 0.029920
0.284051 0.044880 0.031839
0.305020 0.044872 0.032903
0.325985 0.044114 0.033138
0.346666 0.042339 0.032234
0.367278 0.039806 0.030407
0.387850 0.036593 0.027705
0.408435 0.032828 0.024233
0.429110 0.028678 0.020140
0.449973 0.024339 0.015600
0.471071 0.019995 0.010802
0.492326 0.015706 0.005826
0.513540 0.011379 0.000596
0.534722 0.007056 -0.004818
0.556000 0.002726 -0.010377
0.577584 -0.001061 -0.015526
0.600095 0.000861 -0.015479
0.007187 0.052655 0.018836
0.016873 0.049885 0.015803
0.027443 0.047609 0.013346
0.039087 0.045833 0.011307
0.052022 0.044753 0.010020
0.065579 0.043934 0.009195
0.079614 0.043457 0.008838
0.094294 0.043521 0.009053
0.109807 0.044260 0.009952
0.126366 0.045823 0.011701
0.144248 0.048377 0.014510
0.163712 0.052035 0.018524
0.184779 0.056651 0.023608
0.207107 0.061757 0.029282
0.230098 0.066676 0.034860
0.253174 0.070796 0.039711
0.275989 0.073771 0.043453
0.298433 0.075501 0.045942
0.320527 0.076015 0.047159
0.342186 0.075240 0.046976
0.363363 0.073144 0.045315
0.384335 0.070052 0.042470
0.405200 0.066125 0.038567
0.426072 0.061564 0.033795
0.447073 0.056602 0.028384
0.468331 0.051490 0.022586
0.489888 0.046434 0.016626
0.511626 0.041480 0.010578
0.533359 0.036582 0.004430
0.555196 0.031917 -0.001610
0.577168 0.027456 -0.007536
0.599456 0.023824 -0.012720
0.623474 0.026868 -0.011526
0.012467 0.072911 0.027589
0.020207 0.068444 0.022724
0.029445 0.065133 0.019190
0.039536 0.062308 0.016136
0.050974 0.060512 0.013847
0.063703 0.059635 0.012402
0.077429 0.059392 0.011743
0.092088 0.059778 0.011899
0.107865 0.061003 0.013029
0.125080 0.063356 0.015385
0.144127 0.067144 0.019260
0.165307 0.072530 0.024817
0.188542 0.079317 0.031828
0.213239 0.086777 0.039585
0.238536 0.093963 0.047136
0.263700 0.100087 0.053664
0.288315 0.104713 0.058700
0.312263 0.107709 0.062065
0.335534 0.109061 0.063695
0.357881 0.108503 0.063265
0.379587 0.106342 0.061034
0.400940 0.102917 0.057313
0.422106 0.098460 0.052317
0.443265 0.093255 0.046325
0.464592 0.087610 0.039663
0.486251 0.081831 0.032658
0.508258 0.076133 0.025565
0.530466 0.070565 0.018475
0.552849 0.065283 0.011582
0.575502 0.060478 0.005116
0.598367 0.056079 -0.000972
0.621575 0.052700 -0.006049
0.646833 0.056487 -0.003921
0.017810 0.092436 0.035917
0.023236 0.086238 0.029130
0.030599 0.081580 0.024103
0.039668 0.078187 0.020499
0.049891 0.075687 0.017561
0.061706 0.074544 0.015611
0.074992 0.074497 0.014684
0.089566 0.075319 0.014816
0.105527 0.077139 0.016196
0.123263 0.080350 0.019163
0.143276 0.085392 0.024090
0.165936 0.092513 0.031172
0.191067 0.101415 0.040084
0.217862 0.111179 0.049907
0.245277 0.120670 0.059478
0.272464 0.128984 0.067855
0.298934 0.135566 0.074469
0.324529 0.140219 0.079077
0.349089 0.142748 0.081421
0.372317 0.142811 0.081095
0.394750 0.140972 0.078617
0.416673 0.137563 0.074301
0.438317 0.132892 0.068453
0.459928 0.127328 0.061460
0.481745 0.121261 0.053750
0.503957 0.115056 0.045730
0.526551 0.108936 0.037686
0.549398 0.103017 0.029796
0.572636 0.097657 0.022471
0.596307 0.093009 0.015883
0.620293 0.088958 0.009935
0.644662 0.086044 0.005208
0.670940 0.090096 0.007863
0.022273 0.110389 0.042963
0.025663 0.102811 0.034542
0.031144 0.096869 0.028002
0.039284 0.093010 0.023840
0.048773 0.090166 0.020677
0.059660 0.088567 0.018354
0.072242 0.088433 0.017160
0.086505 0.089592 0.017263
0.102514 0.092055 0.018908
0.120624 0.096174 0.022474
0.141360 0.102432 0.028364
0.165108 0.111122 0.036786
0.191631 0.121896 0.047340
0.220041 0.133751 0.058988
0.249231 0.145477 0.070498
0.278294 0.156077 0.080847
0.306679 0.164926 0.089379
0.334151 0.171736 0.095742
0.360197 0.175910 0.099256
0.384667 0.177219 0.099635
0.408203 0.176310 0.097492
0.431051 0.173472 0.093101
0.453496 0.169081 0.086858
0.475848 0.163587 0.079259
0.498400 0.157466 0.070836
0.521355 0.151120 0.062062
0.544684 0.144803 0.053273
0.568417 0.138853 0.044894
0.592723 0.133681 0.037402
0.617591 0.129387 0.030889
0.642884 0.125853 0.025210
0.668626 0.123542 0.020884
0.696083 0.127598 0.023721
0.025602 0.126656 0.048538
0.027571 0.118265 0.038984
0.031591 0.111433 0.031260
0.038759 0.107065 0.026408
0.047812 0.104137 0.023177
0.057877 0.102073 0.020586
0.069489 0.101473 0.019018
0.083005 0.102543 0.018883
0.098655 0.105354 0.020574
0.116793 0.110190 0.024530
0.137882 0.117469 0.031148
0.162229 0.127427 0.040586
0.189537 0.139666 0.052362
0.218922 0.153191 0.065417
0.249354 0.166858 0.078570
0.279963 0.179686 0.090820
0.310185 0.191015 0.101477
0.339691 0.200420 0.110052
0.367368 0.206634 0.115168
0.393585 0.209952 0.117075
0.418699 0.210729 0.116081
0.442936 0.209198 0.112406
0.466617 0.205768 0.106490
0.490103 0.200950 0.098921
0.513736 0.195286 0.090313
0.537713 0.189205 0.081191
0.562052 0.183059 0.072022
0.587000 0.177449 0.063500
0.612694 0.172754 0.056046
0.639058 0.169009 0.049683
0.665944 0.166087 0.044250
0.693353 0.164381 0.040222
0.722387 0.168369 0.042986
0.028031 0.141556 0.052866
0.029190 0.132905 0.042687
0.032236 0.125624 0.034171
0.038483 0.120780 0.028589
0.047115 0.117774 0.025188
0.056699 0.115538 0.022539
0.067285 0.114295 0.020535
0.079662 0.114795 0.019882
0.094328 0.117343 0.021144
0.111769 0.122263 0.024894
0.132493 0.129966 0.031628
0.156769 0.140644 0.041505
0.184241 0.153855 0.053990
0.214003 0.168598 0.068000
0.245097 0.183794 0.082397
0.276766 0.198553 0.096261
0.308529 0.212259 0.108947
0.339748 0.224144 0.119631
0.369362 0.232964 0.126963
0.397717 0.238988 0.131192
0.424854 0.242207 0.132275
0.450968 0.242784 0.130301
0.476400 0.241118 0.125666
0.501540 0.237766 0.118979
0.526726 0.233239 0.110882
0.552150 0.227995 0.101963
0.578024 0.222638 0.092978
0.604677 0.217864 0.084724
0.632191 0.213988 0.077543
0.660468 0.211015 0.071419
0.689365 0.208834 0.066203
0.718881 0.207776 0.062340
0.750191 0.211546 0.064618
0.029953 0.155570 0.056310
0.030723 0.147052 0.045866
0.033180 0.139684 0.036879
0.038685 0.134531 0.030679
0.046896 0.131436 0.027022
0.056199 0.129196 0.024360
0.066041 0.127524 0.022080
0.077177 0.127224 0.020777
0.090404 0.128972 0.021206
0.106366 0.133196 0.024039
0.125702 0.140360 0.029921
0.148858 0.150783 0.039216
0.175650 0.164189 0.051597
0.205214 0.179631 0.066033
0.236527 0.195980 0.081308
0.268807 0.212306 0.096435
0.301653 0.228041 0.110819
0.334129 0.242066 0.123297
0.365689 0.253663 0.133113
0.396340 0.262771 0.140213
0.425869 0.269077 0.144179
0.454367 0.272585 0.144871
0.482118 0.273588 0.142544
0.509477 0.272549 0.137731
0.536743 0.269913 0.131002
0.564158 0.266230 0.123067
0.592170 0.262381 0.114973
0.621089 0.258995 0.107473
0.650971 0.256328 0.100832
0.681745 0.254397 0.095038
0.713294 0.253142 0.090003
0.745653 0.252834 0.086136
0.780452 0.256214 0.087142
0.031697 0.169152 0.059205
0.032324 0.161011 0.048704
0.034459 0.153821 0.039477
0.039458 0.148597 0.032852
0.047285 0.145445 0.028913
0.056400 0.143283 0.026228
0.065858 0.141498 0.023860
0.075917 0.140465 0.021951
0.087594 0.141162 0.021381
0.101652 0.144174 0.022865
0.118824 0.149997 0.027110
0.139776 0.159104 0.034718
0.164742 0.171586 0.045809
0.193239 0.186862 0.059758
0.224272 0.203845 0.075388
0.256813 0.221375 0.091441
0.290181 0.238581 0.106991
0.323498 0.254372 0.120927
0.356809 0.268622 0.133174
0.389707 0.280857 0.143302
0.421833 0.290594 0.150655
0.453104 0.297617 0.154800
0.483642 0.302014 0.155736
0.513685 0.304065 0.153773
0.543483 0.304093 0.149339
0.573492 0.302843 0.143364
0.604258 0.301213 0.136914
0.636070 0.299748 0.130618
0.669037 0.298692 0.124700
0.703192 0.298109 0.119174
0.738469 0.298004 0.114076
0.774935 0.298601 0.109819
0.815059 0.301673 0.108731
0.033404 0.182595 0.061718
0.034040 0.174988 0.051291
0.036045 0.168176 0.041995
0.040758 0.163106 0.035138
0.048288 0.159990 0.030966
0.057281 0.157968 0.028256
0.066497 0.156196 0.025812
0.075853 0.154751 0.023507
0.086125 0.154411 0.021960
0.098271 0.156048 0.022008
0.113055 0.160199 0.024337
0.131248 0.167382 0.029645
0.153465 0.178001 0.038444
0.179824 0.192020 0.050734
0.209740 0.208741 0.065777
0.242065 0.226914 0.082215
0.275450 0.245022 0.098405
0.309372 0.262312 0.113586
0.343981 0.278742 0.127835
0.378868 0.293828 0.140770
0.413566 0.306984 0.151636
0.447774 0.317770 0.159712
0.481375 0.325996 0.164634
0.514414 0.331682 0.166367
0.547158 0.335067 0.165179
0.580278 0.337003 0.162064
0.614354 0.338239 0.157864
0.649773 0.339222 0.153030
0.686841 0.340195 0.147745
0.725803 0.341301 0.142092
0.766656 0.342652 0.136315
0.809229 0.344504 0.131116
0.855429 0.348218 0.129041
0.035005 0.195967 0.063808
0.035761 0.189006 0.053545
0.037793 0.182729 0.044316
0.042415 0.178011 0.037407
0.049799 0.175090 0.033131
0.058699 0.173246 0.030384
0.067758 0.171569 0.027870
0.076692 0.169960 0.025300
0.085904 0.168861 0.022980
0.096385 0.169217 0.021724
0.108978 0.171726 0.022247
0.124470 0.176916 0.025231
0.143666 0.185320 0.031378
0.167180 0.197321 0.041191
0.195040 0.212778 0.054579
0.226337 0.230679 0.070469
0.259382 0.249216 0.086878
0.293563 0.267565 0.102922
0.328967 0.285594 0.118631
0.365425 0.303025 0.133907
0.402441 0.319278 0.148072
0.439502 0.333714 0.160176
0.476189 0.345834 0.169434
0.512350 0.355408 0.175433
0.548374 0.362689 0.178329
0.584988 0.368336 0.178727
0.622903 0.372899 0.177075
0.662843 0.376770 0.173592
0.705535 0.380260 0.168430
0.751468 0.383652 0.161945
0.800453 0.387235 0.154970
0.850461 0.391577 0.149900
0.844407 0.411833 0.200053
0.036367 0.209214 0.065367
0.037318 0.202968 0.055309
0.039504 0.197340 0.046247
0.044215 0.193141 0.039446
0.051622 0.190584 0.035218
0.060486 0.188988 0.032467
0.069491 0.187519 0.029943
0.078176 0.185918 0.027192
0.086777 0.184467 0.024403
0.095970 0.183821 0.022100
0.106766 0.184914 0.021112
0.119977 0.188356 0.022108
0.136455 0.194702 0.025820
0.157059 0.204515 0.032998
0.182351 0.218113 0.044110
0.211838 0.234859 0.058540
0.244079 0.253229 0.074598
0.278024 0.272013 0.090933
0.313721 0.291023 0.107532
0.351252 0.310190 0.124593
0.390167 0.329005 0.141612
0.429776 0.346682 0.157488
0.469368 0.362450 0.171071
0.508684 0.375962 0.181683
0.548111 0.387328 0.189088
0.588421 0.396902 0.193225
0.630725 0.405083 0.193976
0.676445 0.412301 0.191255
0.726877 0.419051 0.185432
0.781907 0.425941 0.178249
0.826853 0.436072 0.184804
0.831738 0.451472 0.224257
0.846623 0.460236 0.247553
0.037413 0.222268 0.066343
0.038606 0.216774 0.056489
0.041052 0.211878 0.047660
0.046025 0.208338 0.041105
0.053627 0.206300 0.037071
0.062566 0.205065 0.034404
0.071645 0.203939 0.031969
0.080262 0.202532 0.029168
0.088569 0.201032 0.026127
0.097012 0.199878 0.023199
0.106502 0.199916 0.021090
0.117982 0.201979 0.020569
0.132321 0.206661 0.022351
0.150479 0.214586 0.027284
0.173219 0.226212 0.036051
0.200543 0.241341 0.048565
0.231413 0.258857 0.063587
0.264596 0.277417 0.079588
0.300119 0.296805 0.096537
0.338225 0.317089 0.114847
0.378531 0.337828 0.134169
0.420223 0.358143 0.153318
0.462414 0.377128 0.170954
0.504761 0.394364 0.186160
0.547510 0.409659 0.198013
0.591622 0.423119 0.205618
0.638998 0.435137 0.208133
0.692175 0.446377 0.205232
0.752437 0.457701 0.198591
0.805654 0.471010 0.204017
0.807424 0.486527 0.252041
0.835746 0.496686 0.268306
0.857424 0.503914 0.284947
0.038128 0.235078 0.066732
0.039599 0.230353 0.057063
0.042404 0.226251 0.048513
0.047808 0.223485 0.042330
0.055785 0.222109 0.038631
0.064977 0.221397 0.036191
0.074260 0.220742 0.033940
0.083030 0.219746 0.031274
0.091342 0.218490 0.028220
0.099558 0.217311 0.025077
0.108305 0.216796 0.022324
0.118632 0.217897 0.020784
0.131490 0.221372 0.021232
0.147804 0.227813 0.024462
0.168409 0.237713 0.031238
0.193622 0.251148 0.041811
0.222746 0.267325 0.055316
0.254747 0.285115 0.070465
0.289719 0.304368 0.087334
0.327968 0.325209 0.106443
0.369140 0.347215 0.127497
0.412395 0.369501 0.149328
0.456841 0.391209 0.170602
0.501909 0.411695 0.189958
0.547746 0.430504 0.205702
0.595777 0.447675 0.216017
0.649149 0.463862 0.219256
0.711587 0.480244 0.215461
0.782069 0.497913 0.210027
0.787580 0.513975 0.264940
0.821084 0.525910 0.281640
0.851202 0.537643 0.299642
0.876294 0.544887 0.314360
0.038562 0.247638 0.066567
0.040344 0.243693 0.057069
0.043608 0.240434 0.048847
0.049617 0.238542 0.043161
0.058155 0.237953 0.039938
0.067794 0.237922 0.037875
0.077447 0.237882 0.035931
0.086632 0.237533 0.033614
0.095265 0.236811 0.030812
0.103663 0.235990 0.027787
0.112311 0.235503 0.024923
0.122061 0.236107 0.022862
0.134011 0.238759 0.022490
0.149096 0.244121 0.024588
0.168124 0.252668 0.029887
0.191476 0.264520 0.038703
0.218770 0.279163 0.050512
0.249396 0.295863 0.064535
0.283600 0.314628 0.081075
0.321670 0.335570 0.100656
0.363284 0.358283 0.122979
0.407691 0.381993 0.146996
0.453933 0.405808 0.171267
0.501258 0.428887 0.193943
0.549917 0.450690 0.212600
0.602122 0.471453 0.224478
0.662607 0.492453 0.227335
0.735213 0.515462 0.223285
0.776296 0.535938 0.256343
0.802645 0.550039 0.288430
0.837106 0.564110 0.308803
0.869895 0.576970 0.327293
0.899323 0.584105 0.338734
0.038836 0.260026 0.065973
0.040976 0.256875 0.056644
0.044803 0.254501 0.048809
0.051586 0.253559 0.043742
0.060867 0.253858 0.041129
0.071139 0.254637 0.039581
0.081367 0.255364 0.038095
0.091201 0.255849 0.036307
0.100476 0.255928 0.034017
0.109434 0.255787 0.031419
0.118489 0.255763 0.028845
0.128272 0.256402 0.026778
0.139854 0.258621 0.026052
0.154217 0.263227 0.027474
0.172101 0.270684 0.031676
0.193883 0.281108 0.038956
0.219502 0.294245 0.049147
0.248849 0.309806 0.062093
0.282286 0.327935 0.078302
0.320037 0.348693 0.098210
0.361861 0.371742 0.121518
0.407046 0.396367 0.147208
0.454556 0.421621 0.173646
0.503642 0.446618 0.198574
0.554942 0.470970 0.218896
0.611787 0.495450 0.231017
0.680402 0.522257 0.232862
0.762143 0.553037 0.231167
0.778168 0.568089 0.288426
0.819209 0.585240 0.310444
0.857054 0.600592 0.330794
0.892954 0.614107 0.348400
0.924505 0.621307 0.358906
0.039093 0.272351 0.065098
0.041666 0.270018 0.055974
0.046174 0.268565 0.048604
0.053879 0.268622 0.044266
0.064046 0.269866 0.042367
0.075109 0.271538 0.041442
0.086106 0.273156 0.040553
0.096774 0.274587 0.039415
0.106968 0.275667 0.037847
0.116804 0.276446 0.035917
0.126636 0.277186 0.033910
0.136987 0.278301 0.032237
0.148641 0.280450 0.031493
0.162634 0.284520 0.032497
0.179691 0.291052 0.035833
0.200263 0.300247 0.041862
0.224614 0.312113 0.050810
0.253017 0.326705 0.063032
0.285864 0.344217 0.079111
0.323348 0.364684 0.099355
0.365252 0.387796 0.123409
0.410846 0.412851 0.150182
0.459123 0.438933 0.177868
0.509568 0.465300 0.203875
0.563495 0.491991 0.224545
0.625548 0.520618 0.235776
0.702521 0.554142 0.237062
0.758982 0.582375 0.269110
0.794019 0.600215 0.306031
0.836751 0.618711 0.329857
0.877573 0.635015 0.349760
0.916219 0.649074 0.366600
0.947164 0.656276 0.378043
0.039434 0.284684 0.064025
0.042579 0.283216 0.055220
0.047918 0.282725 0.048441
0.056656 0.283793 0.044920
0.067798 0.285992 0.043792
0.079747 0.288582 0.043547
0.091628 0.291136 0.043317
0.103221 0.293533 0.042856
0.114481 0.295686 0.042077
0.125372 0.297489 0.040899
0.136181 0.299126 0.039545
0.147360 0.300923 0.038383
0.159485 0.303336 0.037854
0.173409 0.307081 0.038604
0.190000 0.312894 0.041340
0.209896 0.321188 0.046629
0.233618 0.332201 0.055015
0.261579 0.346129 0.067065
0.294141 0.363152 0.083305
0.331471 0.383282 0.103901
0.373318 0.406203 0.128397
0.418979 0.431267 0.155614
0.467629 0.457714 0.183618
0.519197 0.485135 0.209569
0.575880 0.514237 0.229446
0.643392 0.547544 0.239292
0.726445 0.587542 0.242599
0.762088 0.608058 0.294996
0.810180 0.630557 0.321766
0.854096 0.649752 0.346104
0.895625 0.666608 0.366887
0.934471 0.681164 0.384991
0.964167 0.688229 0.397089
0.039915 0.297055 0.062805
0.043850 0.296527 0.054523
0.050211 0.297045 0.048517
0.060052 0.299105 0.045871
0.072168 0.302207 0.045497
0.084989 0.305654 0.045880
0.097724 0.309067 0.046219
0.110195 0.312337 0.046300
0.122449 0.315444 0.046131
0.134412 0.318229 0.045599
0.146283 0.320780 0.044851
0.158460 0.323359 0.044228
0.171433 0.326319 0.044130
0.185814 0.330158 0.045036
0.202554 0.335675 0.047746
0.222455 0.343517 0.053019
0.246170 0.354079 0.061543
0.274133 0.367599 0.073891
0.306667 0.384224 0.090467
0.343881 0.403931 0.111305
0.385512 0.426428 0.135857
0.430971 0.451197 0.162875
0.479751 0.477747 0.190334
0.532358 0.506151 0.215286
0.591889 0.537893 0.233616
0.664547 0.576109 0.242220
0.750597 0.621062 0.249416
0.777251 0.635445 0.306964
0.825272 0.658114 0.334908
0.869330 0.677575 0.359670
0.909913 0.694585 0.381930
0.947181 0.709283 0.401950
0.975766 0.716334 0.414331
0.040585 0.309482 0.061486
0.045557 0.309966 0.053971
0.053138 0.311526 0.048935
0.064105 0.314520 0.047181
0.077100 0.318404 0.047438
0.090635 0.322539 0.048239
0.104037 0.326613 0.048879
0.117224 0.330565 0.049236
0.130338 0.334444 0.049429
0.143403 0.338160 0.049459
0.156515 0.341692 0.049399
0.169999 0.345230 0.049540
0.184259 0.349042 0.050244
0.199781 0.353496 0.051936
0.217308 0.359212 0.055274
0.237785 0.366984 0.061140
0.261908 0.377335 0.070242
0.290131 0.390551 0.083091
0.322735 0.406759 0.099980
0.359778 0.425923 0.120831
0.401035 0.447821 0.145014
0.446117 0.472132 0.171229
0.494910 0.498712 0.197445
0.548476 0.528156 0.220802
0.610482 0.562556 0.237423
0.686087 0.604626 0.246329
0.740811 0.634662 0.285575
0.792171 0.660683 0.316214
0.838923 0.682772 0.344933
0.881693 0.701934 0.370647
0.920570 0.718718 0.394203
0.955947 0.733221 0.415498
0.983592 0.740445 0.428158
0.041510 0.321976 0.060108
0.047745 0.323517 0.053596
0.056687 0.326107 0.049675
0.068730 0.329920 0.048753
0.082403 0.334386 0.049402
0.096409 0.338980 0.050312
0.110303 0.343520 0.051000
0.124169 0.348053 0.051526
0.138214 0.352664 0.052089
0.152551 0.357349 0.052809
0.167150 0.361970 0.053658
0.182236 0.366627 0.054856
0.198125 0.371510 0.056719
0.215217 0.376899 0.059632
0.234041 0.383216 0.064089
0.255457 0.391173 0.070881
0.280222 0.401418 0.080730
0.308801 0.414319 0.094088
0.341448 0.430027 0.111141
0.378214 0.448538 0.131711
0.418971 0.469742 0.155103
0.463579 0.493556 0.180023
0.512285 0.520192 0.204573
0.566512 0.550649 0.226137
0.629952 0.587214 0.241340
0.704657 0.630649 0.252525
0.752454 0.656079 0.294855
0.804125 0.682349 0.324162
0.850073 0.704222 0.352542
0.891128 0.722904 0.379019
0.928293 0.739292 0.403317
0.962172 0.753509 0.425088
0.988951 0.760995 0.438220
0.042782 0.334561 0.058738
0.050483 0.337164 0.053444
0.060822 0.340693 0.050674
0.073780 0.345137 0.050395
0.087898 0.349966 0.051153
0.102233 0.354862 0.051986
0.116650 0.359827 0.052731
0.131345 0.364975 0.053577
0.146503 0.370376 0.054719
0.162239 0.376038 0.056289
0.178468 0.381780 0.058228
0.195299 0.387598 0.060666
0.212979 0.393617 0.063873
0.231831 0.400045 0.068190
0.252259 0.407182 0.074018
0.274833 0.415502 0.081887
0.300335 0.425689 0.092503
0.329246 0.438224 0.106266
0.361839 0.453347 0.123274
0.398215 0.471137 0.143258
0.438384 0.491630 0.165501
0.482432 0.514976 0.188819
0.530821 0.541649 0.211591
0.585113 0.572859 0.231396
0.648896 0.610860 0.245202
0.721505 0.654327 0.257527
0.765813 0.676938 0.298716
0.815189 0.701903 0.328548
0.858964 0.722845 0.357615
0.898058 0.740850 0.384758
0.933745 0.756828 0.409372
0.966527 0.770823 0.431227
0.992504 0.778579 0.444997
0.044533 0.347276 0.057489
0.053891 0.350883 0.053600
0.065533 0.355177 0.051868
0.079169 0.360034 0.051963
0.093605 0.365097 0.052684
0.108331 0.370293 0.053514
0.123432 0.375741 0.054524
0.139103 0.381549 0.055904
0.155469 0.387742 0.057787
0.172610 0.394303 0.060278
0.190486 0.401101 0.063375
0.209077 0.408014 0.067102
0.228568 0.415116 0.071695
0.249204 0.422548 0.077445
0.271281 0.430524 0.084670
0.295152 0.439338 0.093707
0.321384 0.449512 0.105039
0.350550 0.461657 0.119061
0.382979 0.476149 0.135796
0.418874 0.493205 0.154923
0.458385 0.513021 0.175773
0.501714 0.535908 0.197405
0.549325 0.562434 0.218526
0.602811 0.593873 0.236667
0.665540 0.632244 0.249156
0.734862 0.674377 0.261788
0.778568 0.696266 0.299525
0.824720 0.719357 0.330424
0.865791 0.738993 0.360452
0.902975 0.756261 0.388061
0.937382 0.771872 0.412817
0.969257 0.785720 0.434733
0.994545 0.793728 0.449193
0.046923 0.360153 0.056495
0.058029 0.364607 0.054084
0.070785 0.369441 0.053184
0.084922 0.374563 0.053473
0.099719 0.379865 0.054230
0.115004 0.385437 0.055285
0.130924 0.391413 0.056766
0.147628 0.397859 0.058805
0.165197 0.404771 0.061489
0.183684 0.412114 0.064900
0.203110 0.419814 0.069117
0.223370 0.427685 0.074102
0.244570 0.435735 0.080038
0.266875 0.444049 0.087158
0.290477 0.452769 0.095698
0.315596 0.462090 0.105867
0.342538 0.472333 0.117862
0.371880 0.484123 0.131987
0.404062 0.498004 0.148241
0.439410 0.514365 0.166306
0.478162 0.533543 0.185668
0.520482 0.555895 0.205719
0.566687 0.581935 0.225358
0.618480 0.612988 0.241834
0.678812 0.650574 0.253160
0.738595 0.686131 0.271036
0.788982 0.713248 0.299296
0.832367 0.734767 0.330700
0.870884 0.753096 0.361398
0.906298 0.769630 0.389303
0.939509 0.784887 0.414188
0.970513 0.798605 0.436268
0.995225 0.806862 0.451463
0.050104 0.373162 0.055889
0.062805 0.378204 0.054787
0.076516 0.383401 0.054557
0.091170 0.388774 0.055086
0.106492 0.394394 0.056095
0.122487 0.400399 0.057581
0.139290 0.406888 0.059647
0.157008 0.413898 0.062383
0.175708 0.421411 0.065858
0.195432 0.429392 0.070161
0.216220 0.437795 0.075407
0.237969 0.446441 0.081578
0.260675 0.455257 0.088762
0.284427 0.464280 0.097133
0.309331 0.473598 0.106842
0.335503 0.483341 0.117984
0.363116 0.493730 0.130575
0.392572 0.505260 0.144656
0.424461 0.518620 0.160255
0.459200 0.534365 0.177142
0.497034 0.552921 0.195058
0.537945 0.574572 0.213703
0.582173 0.599783 0.231867
0.631871 0.630124 0.246312
