src/colors/dark_&_moody/noir_era.cube
TITLE "Era"
# Created by Photon 3D ColorGrading
# AUTHOR #  Jack Wright
DOMAIN_MIN 0 0 0
DOMAIN_MAX 1 1 1
LUT_3D_SIZE 5
0.000507 0.000506 0.000506
0.117194 -0.002483 0.006119
0.240659 -0.003944 0.014932
0.392070 -0.013824 0.016287
0.547907 -0.041057 -0.013842
0.028031 0.141556 0.052866
0.094328 0.117343 0.021144
0.308529 0.212259 0.108947
0.526726 0.233239 0.110882
0.750191 0.211546 0.064618
0.038562 0.247638 0.066567
0.095265 0.236811 0.030812
0.218770 0.279163 0.050512
0.549917 0.450690 0.212600
0.899323 0.584105 0.338734
0.044533 0.347276 0.057489
0.155469 0.387742 0.057787
0.321384 0.449512 0.105039
0.665540 0.632244 0.249156
0.994545 0.793728 0.449193
0.091430 0.449479 0.064869
0.251533 0.511484 0.104041
0.462602 0.590064 0.194417
0.754129 0.763438 0.234607
0.979216 0.867796 0.443884
-0.009854 -0.009010 0.138758
0.135297 0.013384 0.163702
0.249466 0.003169 0.144057
0.388214 -0.012804 0.133160
0.552353 0.002812 0.130530
-0.009708 0.143979 0.150720
0.128753 0.138968 0.139527
0.358029 0.160759 0.152869
0.501613 0.093358 0.095779
0.858905 0.131673 0.107498
0.021132 0.280829 0.167121
0.114427 0.264929 0.119929
0.325999 0.335546 0.165660
0.645784 0.406818 0.248287
1.026449 0.594008 0.398584
0.049068 0.398245 0.157643
0.187014 0.403508 0.138562
0.413886 0.493416 0.225605
0.714058 0.638850 0.355160
1.111897 0.858394 0.533671
0.109482 0.511694 0.144140
0.302189 0.595392 0.183873
0.564789 0.712317 0.258071
0.888166 0.889935 0.373597
1.045016 0.939152 0.561961
0.001412 0.009916 0.280863
0.141747 0.012151 0.306619
0.290921 0.030861 0.300391
0.435658 0.056806 0.281900
0.582415 0.115975 0.277202
0.018391 0.174066 0.304210
0.144226 0.140173 0.263153
0.315753 0.140865 0.262373
0.499807 0.171355 0.258451
0.781404 0.287663 0.338859
0.070091 0.342662 0.321918
0.214291 0.347611 0.297928
0.436925 0.378943 0.299515
0.707834 0.439951 0.358317
1.017602 0.595192 0.476047
0.127445 0.464549 0.304228
0.271069 0.487176 0.269920
0.530977 0.585009 0.349463
0.815251 0.701659 0.454643
1.119590 0.857636 0.613338
0.210583 0.571551 0.284272
0.417255 0.694046 0.330863
0.675076 0.813574 0.429827
0.950517 0.965510 0.543051
1.011536 0.956890 0.758515
0.048602 0.047641 0.394384
0.172392 0.044345 0.409411
0.342151 0.095310 0.416379
0.513586 0.182750 0.414164
0.650500 0.245925 0.408020
0.142890 0.251789 0.454556
0.258719 0.224854 0.397181
0.405663 0.255441 0.413260
0.566078 0.322102 0.416881
0.784675 0.418137 0.479304
0.279482 0.461533 0.503260
0.446102 0.495515 0.504363
0.572602 0.494604 0.500993
0.698415 0.508528 0.470924
0.939762 0.612235 0.580312
0.337012 0.578694 0.484391
0.507767 0.610499 0.498977
0.700326 0.712346 0.546486
0.842638 0.725282 0.558096
1.051596 0.826450 0.705115
0.378678 0.652494 0.442707
0.558333 0.738447 0.517596
0.767439 0.889724 0.611948
0.956841 0.986744 0.715915
0.998832 0.976794 0.892511
0.151275 0.127277 0.470839
0.265246 0.141767 0.477071
0.423154 0.214302 0.489027
0.568254 0.295577 0.498598
0.700232 0.338790 0.500806
0.286155 0.335994 0.551575
0.392266 0.328881 0.569664
0.535790 0.369063 0.571236
0.720665 0.439196 0.589191
0.808016 0.499583 0.580827
0.452820 0.568756 0.631836
0.620113 0.639852 0.725816
0.796123 0.672143 0.776237
0.876153 0.657337 0.722456
0.928978 0.661334 0.683564
0.537566 0.716583 0.657427
0.743520 0.860283 0.798804
0.908541 0.943571 0.925000
0.966808 0.883646 0.876825
0.991133 0.820111 0.795903
0.547897 0.733227 0.594141
0.708360 0.859357 0.692489
0.845263 0.946507 0.793448
0.950897 0.987574 0.875963
0.999872 0.999572 0.999065
