src/colors/dark_&_moody/noir_era.cube
TITLE "Era"
# Created by Photon 3D ColorGrading
# AUTHOR #  Jack Wright
DOMAIN_MIN 0 0 0
DOMAIN_MAX 1 1 1
LUT_3D_SIZE 9
0.000507 0.000506 0.000506
0.054187 0.000026 0.003659
0.117194 -0.002483 0.006119
0.174219 -0.003944 0.009078
0.240659 -0.003944 0.014932
0.315141 -0.005901 0.019413
0.392070 -0.013824 0.016287
0.469757 -0.027446 0.003457
0.547907 -0.041057 -0.013842
0.012467 0.072911 0.027589
0.050974 0.060512 0.013847
0.107865 0.061003 0.013029
0.188542 0.079317 0.031828
0.288315 0.104713 0.058700
0.379587 0.106342 0.061034
0.464592 0.087610 0.039663
0.552849 0.065283 0.011582
0.646833 0.056487 -0.003921
0.028031 0.141556 0.052866
0.047115 0.117774 0.025188
0.094328 0.117343 0.021144
0.184241 0.153855 0.053990
0.308529 0.212259 0.108947
0.424854 0.242207 0.132275
0.526726 0.233239 0.110882
0.632191 0.213988 0.077543
0.750191 0.211546 0.064618
0.035005 0.195967 0.063808
0.049799 0.175090 0.033131
0.085904 0.168861 0.022980
0.143666 0.185320 0.031378
0.259382 0.249216 0.086878
0.402441 0.319278 0.148072
0.548374 0.362689 0.178329
0.705535 0.380260 0.168430
0.844407 0.411833 0.200053
0.038562 0.247638 0.066567
0.058155 0.237953 0.039938
0.095265 0.236811 0.030812
0.134011 0.238759 0.022490
0.218770 0.279163 0.050512
0.363284 0.358283 0.122979
0.549917 0.450690 0.212600
0.776296 0.535938 0.256343
0.899323 0.584105 0.338734
0.039915 0.297055 0.062805
0.072168 0.302207 0.045497
0.122449 0.315444 0.046131
0.171433 0.326319 0.044130
0.246170 0.354079 0.061543
0.385512 0.426428 0.135857
0.591889 0.537893 0.233616
0.825272 0.658114 0.334908
0.975766 0.716334 0.414331
0.044533 0.347276 0.057489
0.093605 0.365097 0.052684
0.155469 0.387742 0.057787
0.228568 0.415116 0.071695
0.321384 0.449512 0.105039
0.458385 0.513021 0.175773
0.665540 0.632244 0.249156
0.865791 0.738993 0.360452
0.994545 0.793728 0.449193
0.059380 0.398953 0.056197
0.122835 0.423031 0.061559
0.198914 0.453299 0.076544
0.292300 0.490600 0.106979
0.400761 0.531375 0.154446
0.530341 0.587758 0.211921
0.708898 0.696213 0.255286
0.878775 0.786896 0.356763
0.990926 0.837392 0.451077
0.091430 0.449479 0.064869
0.165968 0.478564 0.079320
0.251533 0.511484 0.104041
0.352154 0.548913 0.144836
0.462602 0.590064 0.194417
0.580821 0.646142 0.236006
0.754129 0.763438 0.234607
0.881844 0.822897 0.345443
0.979216 0.867796 0.443884
-0.003429 -0.003469 0.051348
0.064946 0.004393 0.082357
0.124449 0.005867 0.082131
0.179048 0.001685 0.076152
0.240589 -0.004710 0.073983
0.310282 -0.012756 0.072918
0.386900 -0.021044 0.069994
0.467383 -0.028187 0.062715
0.550107 -0.028078 0.055856
-0.004236 0.062627 0.066352
0.062595 0.072297 0.083244
0.151411 0.077645 0.087959
0.234920 0.077561 0.090103
0.302328 0.064388 0.082674
0.368738 0.041999 0.064749
0.443264 0.022608 0.045626
0.537422 0.015037 0.033385
0.674562 0.022501 0.030337
0.008356 0.142193 0.094805
0.054783 0.143849 0.087028
0.130497 0.150485 0.083141
0.251092 0.182240 0.113676
0.349035 0.183298 0.120659
0.427913 0.153858 0.093209
0.511221 0.125629 0.063058
0.628840 0.124257 0.055558
0.812893 0.153343 0.063905
0.021945 0.206180 0.108033
0.049408 0.200923 0.084067
0.093772 0.196683 0.065283
0.179985 0.217967 0.078796
0.296027 0.246691 0.105325
0.423748 0.262371 0.121512
0.558379 0.274401 0.132989
0.730999 0.304966 0.149525
0.866014 0.401255 0.253491
0.030016 0.264361 0.112436
0.051890 0.254089 0.079935
0.091769 0.252351 0.059773
0.150524 0.261048 0.058228
0.241166 0.285592 0.075987
0.395188 0.344022 0.140947
0.584369 0.417754 0.220585
0.777900 0.504206 0.308017
0.977472 0.592571 0.369536
0.035190 0.318666 0.109507
0.064070 0.311868 0.079174
0.119165 0.322495 0.070810
0.186632 0.341197 0.075406
0.275341 0.368010 0.101004
0.424194 0.434383 0.183718
0.631513 0.535505 0.274906
0.851773 0.649437 0.387492
1.057345 0.748887 0.458201
0.044435 0.372766 0.104015
0.089320 0.371931 0.084368
0.162130 0.391771 0.089307
0.251527 0.426098 0.112270
0.359057 0.465668 0.157271
0.493931 0.522621 0.228463
0.683587 0.627859 0.300167
0.879037 0.734503 0.416547
1.066199 0.834291 0.494341
0.064028 0.427964 0.100657
0.126122 0.435003 0.093148
0.215624 0.464701 0.114239
0.319408 0.504125 0.150959
0.438452 0.550115 0.202188
0.567818 0.609830 0.256970
0.745948 0.717754 0.293637
0.894051 0.793217 0.414212
1.046675 0.879447 0.502008
0.085324 0.479700 0.088595
0.169914 0.515538 0.104985
0.270822 0.550870 0.136647
0.384361 0.588193 0.180417
0.511823 0.643427 0.221189
0.650874 0.727467 0.254107
0.830977 0.834078 0.295720
0.939359 0.876276 0.410922
1.022281 0.909081 0.499202
-0.009854 -0.009010 0.138758
0.068676 0.005085 0.162762
0.135297 0.013384 0.163702
0.192803 0.012436 0.154273
0.249466 0.003169 0.144057
0.314134 -0.006826 0.137335
0.388214 -0.012804 0.133160
0.468531 -0.011134 0.129720
0.552353 0.002812 0.130530
-0.015719 0.066128 0.137594
0.054870 0.066565 0.153403
0.137123 0.063506 0.151326
0.218250 0.057243 0.140417
0.289572 0.045197 0.128897
0.356678 0.027494 0.113743
0.430709 0.017153 0.101584
0.529859 0.022205 0.099973
0.678160 0.041016 0.108266
-0.009708 0.143979 0.150720
0.051088 0.147488 0.152731
0.128753 0.138968 0.139527
0.252185 0.162323 0.154992
0.358029 0.160759 0.152869
0.429822 0.125814 0.123566
0.501613 0.093358 0.095779
0.643502 0.091283 0.089772
0.858905 0.131673 0.107498
0.007909 0.216476 0.163701
0.051343 0.214414 0.145957
0.114753 0.205396 0.128912
0.225692 0.237020 0.145435
0.376689 0.281554 0.181704
0.487354 0.266439 0.170052
0.587355 0.232190 0.144447
0.773844 0.259754 0.160457
0.879476 0.395176 0.296241
0.021132 0.280829 0.167121
0.056226 0.274077 0.138270
0.114427 0.264929 0.119929
0.202198 0.290615 0.130404
0.325999 0.335546 0.165660
0.484832 0.382802 0.222981
0.645784 0.406818 0.248287
0.812930 0.491972 0.339758
1.026449 0.594008 0.398584
0.032376 0.340307 0.163810
0.072515 0.335210 0.134732
0.138869 0.330914 0.121957
0.233410 0.362989 0.141299
0.345095 0.407294 0.183626
0.491858 0.466743 0.260784
0.676489 0.545725 0.334752
0.904086 0.660133 0.428154
1.112164 0.765851 0.491418
0.049068 0.398245 0.157643
0.101048 0.396899 0.134904
0.187014 0.403508 0.138562
0.293773 0.444848 0.172173
0.413886 0.493416 0.225605
0.543330 0.547879 0.288867
0.714058 0.638850 0.355160
0.920710 0.755384 0.463274
1.111897 0.858394 0.533671
0.079453 0.456794 0.156097
0.136003 0.465077 0.133113
0.238645 0.497081 0.156498
0.356330 0.539030 0.198248
0.487552 0.592149 0.245149
0.624372 0.664070 0.290982
0.791180 0.752594 0.347400
0.932623 0.823971 0.466483
1.079313 0.907284 0.552818
0.109482 0.511694 0.144140
0.184312 0.556343 0.144630
0.302189 0.595392 0.183873
0.428255 0.639322 0.223750
0.564789 0.712317 0.258071
0.718863 0.799163 0.303003
0.888166 0.889935 0.373597
0.983693 0.923397 0.479210
1.045016 0.939152 0.561961
-0.006491 -0.000519 0.211990
0.066152 0.003474 0.231758
0.140263 0.014230 0.239589
0.207976 0.019722 0.235198
0.269973 0.016421 0.224418
0.332500 0.010886 0.212730
0.402084 0.012272 0.204946
0.479647 0.026843 0.203126
0.561102 0.054156 0.207044
-0.014260 0.070038 0.209138
0.050433 0.059980 0.218478
0.124321 0.054346 0.217968
0.202896 0.052294 0.211384
0.276852 0.044405 0.197405
0.348769 0.038249 0.183575
0.428377 0.045108 0.178084
0.531007 0.067564 0.185092
0.680512 0.097391 0.200199
-0.011507 0.150215 0.219817
0.056073 0.149002 0.221285
0.124982 0.129887 0.198354
0.214998 0.126918 0.189343
0.320927 0.129974 0.186681
0.412194 0.124852 0.180402
0.495477 0.113774 0.170815
0.642270 0.126729 0.178593
0.814555 0.217405 0.243501
0.007239 0.232885 0.234802
0.064555 0.230921 0.222117
0.137873 0.217910 0.199524
0.235424 0.222259 0.190437
0.389419 0.266482 0.217978
0.511096 0.267059 0.213856
0.621536 0.221603 0.186965
0.778867 0.266635 0.230336
0.882262 0.406092 0.344805
0.025758 0.303826 0.236810
0.072682 0.299117 0.212571
0.144913 0.291023 0.191868
0.252848 0.309012 0.199185
0.405829 0.371763 0.248622
0.572990 0.419552 0.292383
0.709888 0.422687 0.304886
0.837830 0.486634 0.372522
1.038629 0.594421 0.433386
0.043397 0.366066 0.229561
0.095653 0.366398 0.207738
0.166686 0.362498 0.185067
0.290585 0.390752 0.214879
0.422780 0.448689 0.270679
0.571425 0.506512 0.328095
0.743278 0.575943 0.390525
0.952216 0.672887 0.466418
1.132078 0.766148 0.521555
0.069440 0.425957 0.222031
0.131867 0.431415 0.205082
0.213757 0.440544 0.191698
0.339947 0.486275 0.233143
0.472230 0.537709 0.285700
0.607330 0.597403 0.334594
0.770047 0.674578 0.406525
0.967524 0.783342 0.510759
1.128003 0.864486 0.571370
0.111806 0.485999 0.222271
0.169458 0.501940 0.197211
0.273147 0.541291 0.212603
0.407322 0.591084 0.255587
0.542745 0.652198 0.298277
0.695292 0.734629 0.337023
0.838769 0.794042 0.412755
0.967146 0.855497 0.522372
1.083369 0.917613 0.610588
0.151182 0.541998 0.211633
0.219176 0.599076 0.203289
0.349931 0.649995 0.242030
0.486978 0.706557 0.287211
0.611854 0.757024 0.344596
0.775370 0.854156 0.381250
0.929108 0.935844 0.456622
1.004997 0.956206 0.555418
1.035326 0.951694 0.652293
0.001412 0.009916 0.280863
0.067149 0.005726 0.296573
0.141747 0.012151 0.306619
0.217879 0.021943 0.307334
0.290921 0.030861 0.300391
0.362962 0.040655 0.290546
0.435658 0.056806 0.281900
0.508838 0.082792 0.277122
0.582415 0.115975 0.277202
0.005351 0.086691 0.289136
0.061877 0.067335 0.282806
0.127880 0.056833 0.280389
0.205763 0.058253 0.283220
0.289491 0.065769 0.278584
0.372008 0.079251 0.269516
0.452644 0.102248 0.263304
0.549057 0.134441 0.268171
0.688602 0.167503 0.285562
0.018391 0.174066 0.304210
0.086281 0.164964 0.293422
0.144226 0.140173 0.263153
0.217867 0.131761 0.257739
0.315753 0.140865 0.262373
0.411055 0.155806 0.259720
0.499807 0.171355 0.258451
0.637951 0.197065 0.274849
0.781404 0.287663 0.338859
0.044335 0.265051 0.319893
0.117516 0.267675 0.312467
0.190286 0.255627 0.290361
0.260126 0.235347 0.257627
0.371245 0.242581 0.252980
0.496753 0.257713 0.246807
0.618677 0.248991 0.253798
0.733701 0.325493 0.330633
0.880753 0.432812 0.398645
0.070091 0.342662 0.321918
0.139983 0.350464 0.315365
0.214291 0.347611 0.297928
0.302204 0.343987 0.275805
0.436925 0.378943 0.299515
0.599164 0.421004 0.317550
0.707834 0.439951 0.358317
0.837070 0.492112 0.411192
1.017602 0.595192 0.476047
0.093527 0.406244 0.312519
0.163669 0.415839 0.306532
0.229857 0.414495 0.278592
0.347892 0.434799 0.289796
0.477942 0.481052 0.336257
0.619634 0.529740 0.368252
0.793054 0.599024 0.429577
0.965254 0.674423 0.502509
1.113463 0.751699 0.554777
0.127445 0.464549 0.304228
0.194157 0.472618 0.290788
0.271069 0.487176 0.269920
0.401279 0.532701 0.308168
0.530977 0.585009 0.349463
0.672701 0.647812 0.381577
0.815251 0.701659 0.454643
0.995682 0.798570 0.556507
1.119590 0.857636 0.613338
0.169792 0.518735 0.297901
0.230941 0.541063 0.276981
0.332443 0.591630 0.283736
0.471308 0.643082 0.336646
0.589904 0.693503 0.388248
0.748519 0.780189 0.415039
0.874115 0.826421 0.481186
0.984232 0.873902 0.579027
1.071952 0.918798 0.675653
0.210583 0.571551 0.284272
0.274410 0.647076 0.273270
0.417255 0.694046 0.330863
0.544194 0.729396 0.399079
0.675076 0.813574 0.429827
0.820071 0.899890 0.475110
0.950517 0.965510 0.543051
1.006920 0.974106 0.638110
1.011536 0.956890 0.758515
0.018591 0.024871 0.342650
0.078010 0.016305 0.354501
0.149266 0.019339 0.363653
0.229549 0.032809 0.367558
0.312771 0.053951 0.364836
0.395799 0.082640 0.359289
0.476330 0.117342 0.354300
0.550091 0.152217 0.349577
0.616997 0.182824 0.344436
0.040649 0.112054 0.362875
0.091749 0.089013 0.344069
0.153358 0.078455 0.338396
0.229123 0.082803 0.345334
0.320322 0.105570 0.350060
0.412157 0.140721 0.348776
0.495073 0.179900 0.346606
0.581306 0.215063 0.351112
0.700667 0.244177 0.370586
0.074905 0.210961 0.386474
0.139322 0.198188 0.366237
0.190557 0.172448 0.329311
0.258718 0.168604 0.329718
0.350433 0.188810 0.343047
0.445263 0.224624 0.346251
0.531002 0.251365 0.344382
0.646912 0.275831 0.362583
0.776537 0.349140 0.407513
0.119555 0.312453 0.407706
0.204792 0.322805 0.406893
0.265860 0.304825 0.377270
0.328222 0.288611 0.348150
0.407946 0.291075 0.345051
0.509306 0.306620 0.326138
0.618236 0.318697 0.339392
0.719430 0.382466 0.401194
0.865641 0.471936 0.463100
0.161206 0.398453 0.415762
0.257617 0.422873 0.428171
0.330665 0.423856 0.411993
0.405861 0.416744 0.388954
0.490128 0.419273 0.383759
0.589873 0.432293 0.365876
0.690924 0.459043 0.393640
0.813896 0.510295 0.453580
0.974357 0.597877 0.524944
0.198276 0.465512 0.412176
0.281019 0.483307 0.414661
0.355525 0.493060 0.394966
0.459968 0.505456 0.399619
0.550440 0.530584 0.415931
0.641945 0.548480 0.419336
0.785721 0.598305 0.451928
0.931623 0.660268 0.525397
1.063904 0.730472 0.592972
0.231230 0.517400 0.401277
0.296482 0.530575 0.385255
0.380031 0.552182 0.367891
0.489010 0.580944 0.404316
0.591731 0.627178 0.431592
0.711766 0.671648 0.450583
0.833205 0.710713 0.496691
0.996264 0.796273 0.593337
1.094417 0.845567 0.661290
0.256065 0.561233 0.379711
0.318901 0.595767 0.359763
0.425371 0.630866 0.386448
0.527959 0.658580 0.445142
0.646776 0.733473 0.469676
0.789125 0.812380 0.501666
0.894329 0.845043 0.550419
0.987064 0.878457 0.629999
1.061290 0.919146 0.733783
0.283249 0.610710 0.358838
0.371048 0.672052 0.378196
0.491857 0.694292 0.441999
0.603511 0.773591 0.478354
0.728123 0.860348 0.523335
0.850879 0.931664 0.573455
0.957747 0.981061 0.630470
1.004505 0.984812 0.713761
1.000538 0.965742 0.835637
0.048602 0.047641 0.394384
0.105494 0.041446 0.402828
0.172392 0.044345 0.409411
0.252771 0.062330 0.414278
0.342151 0.095310 0.416379
0.431263 0.138067 0.415919
0.513586 0.182750 0.414164
0.586083 0.219616 0.411084
0.650500 0.245925 0.408020
0.088711 0.143517 0.422991
0.137656 0.123075 0.396388
0.199806 0.120371 0.390520
0.272586 0.130374 0.397821
0.364191 0.163986 0.406973
0.454889 0.209874 0.411425
0.531389 0.254022 0.413554
0.609058 0.286415 0.421441
0.722843 0.314519 0.438903
0.142890 0.251789 0.454556
0.202246 0.238298 0.428736
0.258719 0.224854 0.397181
0.324085 0.229326 0.401818
0.405663 0.255441 0.413260
0.489208 0.295522 0.419060
0.566078 0.322102 0.416881
0.665777 0.352441 0.437631
0.784675 0.418137 0.479304
0.211555 0.364633 0.483834
0.296085 0.377635 0.482344
0.347346 0.358450 0.457295
0.407921 0.355193 0.454954
0.472235 0.359624 0.449140
0.551762 0.374186 0.435785
0.631345 0.402623 0.437318
0.727780 0.449635 0.471403
0.859229 0.515354 0.530273
0.279482 0.461533 0.503260
0.369239 0.483503 0.507459
0.446102 0.495515 0.504363
0.518617 0.505709 0.515900
0.572602 0.494604 0.500993
0.624514 0.488989 0.474180
0.698415 0.508528 0.470924
0.800886 0.544839 0.512623
0.939762 0.612235 0.580312
0.320364 0.527811 0.503173
0.403480 0.555245 0.503421
0.495534 0.578534 0.513087
0.588552 0.618108 0.543915
0.669316 0.634786 0.549208
0.708668 0.611435 0.521657
0.775927 0.611542 0.507049
0.882812 0.648684 0.553473
1.006977 0.715359 0.635472
0.337012 0.578694 0.484391
0.422001 0.599325 0.481469
0.507767 0.610499 0.498977
0.593790 0.656622 0.525846
0.700326 0.712346 0.546486
0.773877 0.722876 0.553911
0.842638 0.725282 0.558096
0.959036 0.774221 0.617918
1.051596 0.826450 0.705115
0.352830 0.622709 0.460897
0.443294 0.630286 0.471894
0.518487 0.654010 0.502151
0.605896 0.714475 0.528570
0.715914 0.785130 0.560948
0.827225 0.840889 0.596302
0.906720 0.857998 0.625963
0.980304 0.876389 0.680357
1.049399 0.918604 0.788060
0.378678 0.652494 0.442707
0.472889 0.676355 0.484181
0.558333 0.738447 0.517596
0.660090 0.816779 0.560928
0.767439 0.889724 0.611948
0.868186 0.947046 0.664152
0.956841 0.986744 0.715915
1.002866 0.993010 0.784125
0.998832 0.976794 0.892511
0.095818 0.083715 0.435901
0.149656 0.080971 0.441352
0.213125 0.087449 0.445895
0.291460 0.110976 0.450982
0.380764 0.152203 0.456768
0.467553 0.200144 0.459840
0.544139 0.243353 0.460631
0.608978 0.276553 0.462803
0.675784 0.293399 0.462833
0.143009 0.178821 0.471415
0.194049 0.166011 0.447250
0.257939 0.172260 0.445458
0.329989 0.189931 0.451095
0.416300 0.228731 0.459662
0.498702 0.276405 0.467405
0.565448 0.315295 0.473518
0.643169 0.336018 0.474839
0.738825 0.376841 0.490587
0.217972 0.297517 0.510568
0.265604 0.279150 0.490087
0.326595 0.278577 0.486371
0.393557 0.291236 0.487911
0.466874 0.320447 0.492037
0.543248 0.354991 0.498323
0.624911 0.376144 0.493710
0.703603 0.413493 0.497384
0.796362 0.468269 0.538647
0.306099 0.418450 0.546555
0.369912 0.423010 0.546714
0.422216 0.416570 0.553613
0.485898 0.420991 0.553088
0.553868 0.422121 0.545338
0.628329 0.437751 0.532927
0.695549 0.468713 0.530284
0.764505 0.503897 0.544452
0.869053 0.554034 0.588403
0.366895 0.515144 0.572253
0.452282 0.545285 0.586494
0.541404 0.574935 0.617582
0.629831 0.594584 0.647655
0.683866 0.580266 0.630058
0.716671 0.563300 0.596231
0.765841 0.570208 0.582586
0.831553 0.593291 0.592993
0.932723 0.640714 0.639435
0.399957 0.608110 0.587891
0.510448 0.645883 0.618434
0.614873 0.695325 0.663090
0.720626 0.743310 0.710020
0.789982 0.745786 0.714013
0.811601 0.706351 0.673045
0.836220 0.678137 0.634846
0.892260 0.685307 0.638342
0.978124 0.724839 0.689601
0.440818 0.651427 0.573068
0.530254 0.674642 0.594923
0.623637 0.728876 0.633809
0.725704 0.791289 0.686415
0.823835 0.837810 0.729489
0.877652 0.831789 0.728695
0.899271 0.794585 0.694536
0.940060 0.780938 0.687052
1.009282 0.811518 0.745010
0.463006 0.665414 0.547126
0.537546 0.692376 0.566327
0.617546 0.746641 0.603439
0.710110 0.810821 0.651156
0.801968 0.865206 0.698128
0.884599 0.900187 0.733421
0.936668 0.898453 0.744186
0.973020 0.884573 0.754930
1.025721 0.909821 0.832867
0.475916 0.673884 0.523383
0.548564 0.732498 0.560084
0.632515 0.799100 0.603259
0.721932 0.864124 0.651918
0.804952 0.915735 0.700369
0.881091 0.955000 0.747103
0.951575 0.985022 0.794571
0.999758 0.998157 0.853310
0.999283 0.988229 0.945798
0.151275 0.127277 0.470839
0.203772 0.129745 0.473913
0.265246 0.141767 0.477071
0.339844 0.170198 0.482315
0.423154 0.214302 0.489027
0.502025 0.260579 0.493516
0.568254 0.295577 0.498598
0.630850 0.316134 0.504969
0.700232 0.338790 0.500806
0.195904 0.210927 0.508808
0.244913 0.203968 0.513747
0.312921 0.217448 0.514891
0.389327 0.244340 0.515639
0.472823 0.287108 0.520165
0.549926 0.330039 0.531452
0.645503 0.339370 0.538827
0.707765 0.383469 0.536668
0.744569 0.423750 0.536493
0.286155 0.335994 0.551575
0.319116 0.314325 0.570433
0.392266 0.328881 0.569664
0.461725 0.349611 0.565006
0.535790 0.369063 0.571236
0.652316 0.383031 0.586011
0.720665 0.439196 0.589191
0.770735 0.474710 0.586482
0.808016 0.499583 0.580827
0.376796 0.460500 0.599015
0.437851 0.471630 0.613306
0.499403 0.481166 0.621724
0.576007 0.479734 0.642108
0.672949 0.485527 0.670630
0.737015 0.513460 0.655707
0.802648 0.545825 0.653153
0.848524 0.567584 0.644837
0.874922 0.579790 0.630809
0.452820 0.568756 0.631836
0.536106 0.606903 0.678408
0.620113 0.639852 0.725816
0.711924 0.664908 0.764399
0.796123 0.672143 0.776237
0.832966 0.655498 0.740766
0.876153 0.657337 0.722456
0.911481 0.662975 0.706764
0.928978 0.661334 0.683564
0.509070 0.678368 0.679285
0.613331 0.740933 0.745708
0.722924 0.799184 0.810834
0.820059 0.838271 0.863312
0.891660 0.845233 0.882686
0.912621 0.804242 0.839566
0.928703 0.769112 0.794696
0.952704 0.754795 0.767844
0.966653 0.740962 0.737535
0.537566 0.716583 0.657427
0.636488 0.787489 0.724151
0.743520 0.860283 0.798804
0.837311 0.917339 0.874038
0.908541 0.943571 0.925000
0.953777 0.930686 0.925016
0.966808 0.883646 0.876825
0.978291 0.845142 0.831183
0.991133 0.820111 0.795903
0.546320 0.729683 0.625582
0.635072 0.798566 0.683094
0.728454 0.867550 0.748516
0.811513 0.924607 0.817375
0.876164 0.958446 0.875045
0.931285 0.974262 0.915009
0.980360 0.974131 0.930667
0.995682 0.938197 0.903041
1.003218 0.904191 0.875174
0.547897 0.733227 0.594141
0.625742 0.795923 0.639715
0.708360 0.859357 0.692489
0.783070 0.911072 0.745615
0.845263 0.946507 0.793448
0.899992 0.970034 0.834976
0.950897 0.987574 0.875963
0.994867 1.000213 0.921830
0.999872 0.999572 0.999065
