src/colors/dark_&_moody/retro_red_shadows.cube
#Created by: Adobe Photoshop Export Color Lookup Plugin
TITLE "Untitled-1"
#LUT size
LUT_3D_SIZE 5
#data domain
#LUT data points
DOMAIN_MIN 0.000000 0.000000 0.000000
DOMAIN_MAX 0.903226 0.903226 0.903226
0.000000 0.000000 0.000000
0.071747 0.008514 0.010681
0.175385 0.015472 0.019928
0.375946 0.022675 0.029510
0.828278 0.048431 0.060120
0.080750 0.179779 0.084076
0.090607 0.111816 0.026703
0.169617 0.098816 0.014648
0.369446 0.113678 0.022675
0.820923 0.145996 0.049530
0.213287 0.504211 0.221039
0.239777 0.439758 0.160828
0.251709 0.336823 0.073578
0.361694 0.263550 0.018158
0.813110 0.301819 0.043182
0.444427 0.984467 0.454834
0.466492 0.925964 0.392792
0.484436 0.825378 0.295563
0.496094 0.628540 0.123962
0.801727 0.520996 0.034302
1.000000 1.000000 1.000000
1.000000 1.000000 1.000000
1.000000 1.000000 1.000000
1.000000 1.000000 1.000000
0.810089 0.830200 0.040344
0.015991 0.016449 0.141876
0.096802 0.028107 0.158142
0.214050 0.041809 0.182098
0.414246 0.051331 0.197632
0.866211 0.079041 0.231476
0.000031 0.083221 0.121094
0.066528 0.092407 0.135864
0.188141 0.107300 0.154572
0.396423 0.109100 0.160187
0.855499 0.132141 0.185608
0.083191 0.353912 0.235168
0.153687 0.375610 0.241241
0.241211 0.351013 0.197479
0.375519 0.266266 0.131775
0.833801 0.291168 0.150055
0.302521 0.840851 0.465668
0.382416 0.866974 0.470764
0.468719 0.843597 0.429840
0.500000 0.641479 0.235077
0.822205 0.526093 0.139893
1.000000 1.000000 1.000000
1.000000 1.000000 1.000000
1.000000 1.000000 1.000000
1.000000 1.000000 1.000000
0.824127 0.839355 0.136963
0.025513 0.026642 0.326599
0.114258 0.037476 0.342834
0.234863 0.056030 0.366364
0.464569 0.090912 0.411346
0.915894 0.120026 0.445160
0.013733 0.106354 0.305573
0.068787 0.101898 0.324036
0.198853 0.107819 0.345734
0.447815 0.148315 0.387756
0.905914 0.175446 0.413208
0.000000 0.218597 0.261688
0.038300 0.238251 0.286285
0.138428 0.253906 0.309296
0.402466 0.275665 0.331818
0.867676 0.282379 0.337921
0.132751 0.647095 0.460815
0.200897 0.671906 0.474854
0.312012 0.701172 0.485687
0.491364 0.652557 0.409302
0.841583 0.523438 0.303558
1.000000 1.000000 1.000000
1.000000 1.000000 1.000000
1.000000 1.000000 1.000000
1.000000 1.000000 1.000000
0.838074 0.849335 0.280365
0.049866 0.051788 0.578827
0.141693 0.063660 0.594940
0.265472 0.082642 0.618805
0.496521 0.119354 0.664307
0.982483 0.175629 0.731628
0.033356 0.137177 0.557556
0.093933 0.129425 0.578369
0.222870 0.133118 0.599762
0.474823 0.172821 0.647125
0.973206 0.233429 0.708557
0.011536 0.260345 0.520569
0.063446 0.270966 0.540253
0.158813 0.273193 0.565704
0.414917 0.276398 0.604492
0.935577 0.343353 0.652679
0.000000 0.418030 0.449432
0.022522 0.450165 0.484680
0.111450 0.473694 0.508942
0.335571 0.506073 0.547638
0.868164 0.531525 0.568390
0.248901 1.000000 0.756531
0.374054 1.000000 0.778351
0.563416 1.000000 0.817444
0.919281 1.000000 0.948242
0.850677 0.858582 0.516510
0.084015 0.086639 0.912750
0.177826 0.098358 0.928711
0.305756 0.117706 0.952728
0.544647 0.155762 0.998932
0.969360 0.302429 1.000000
0.066833 0.176697 0.891205
0.128510 0.166718 0.914917
0.259033 0.169159 0.935425
0.518280 0.209961 0.983307
0.974030 0.357239 1.000000
0.037292 0.306091 0.853729
0.097473 0.314117 0.876678
0.193756 0.310638 0.903473
0.447479 0.309479 0.940247
0.976501 0.441467 1.000000
0.004578 0.482483 0.798981
0.053192 0.499481 0.821106
0.146667 0.515533 0.847412
0.362671 0.519623 0.886200
0.949768 0.588806 0.972168
0.000000 0.683228 0.698181
0.005646 0.732239 0.747894
0.086365 0.758667 0.773193
0.292267 0.798401 0.812439
0.849091 0.853577 0.866913
