src/colors/dark_&_moody/retro_red_shadows.cube
#Created by: Adobe Photoshop Export Color Lookup Plugin
TITLE "Untitled-1"
#LUT size
LUT_3D_SIZE 32
#data domain
DOMAIN_MIN 0.0 0.0 0.0
DOMAIN_MAX 1.0 1.0 1.0
#LUT data points
0.000000 0.000000 0.000000
0.009613 0.001251 0.001556
0.019318 0.002472 0.003082
0.029205 0.003693 0.004608
0.039276 0.004913 0.006134
0.049652 0.006134 0.007660
0.060486 0.007355 0.009216
0.071747 0.008514 0.010681
0.083679 0.009735 0.012146
0.096283 0.010742 0.013672
0.109802 0.011932 0.015076
0.124268 0.012970 0.016388
0.139923 0.013947 0.017700
0.156891 0.014801 0.018921
0.175385 0.015472 0.019928
0.195740 0.016052 0.020782
0.218231 0.016510 0.021545
0.243073 0.016968 0.022339
0.270813 0.017792 0.023254
0.301727 0.019257 0.025024
0.336548 0.020813 0.027100
0.375946 0.022675 0.029510
0.420654 0.024841 0.032257
0.471710 0.027313 0.035797
0.530243 0.030426 0.039764
0.597626 0.034271 0.044373
0.673737 0.038788 0.049530
0.752960 0.043701 0.054901
0.828278 0.048431 0.060120
0.898407 0.052795 0.064941
0.959564 0.056763 0.069366
1.000000 0.064667 0.077209
0.010956 0.020935 0.011292
0.010803 0.012146 0.002655
0.018616 0.011536 0.002380
0.028381 0.012726 0.003784
0.038361 0.013885 0.005219
0.048615 0.014984 0.006622
0.059357 0.016113 0.008087
0.070587 0.017212 0.009430
0.082306 0.018311 0.010712
0.094879 0.019348 0.012115
0.108337 0.020386 0.013428
0.122681 0.021240 0.014618
0.138214 0.022064 0.015717
0.155090 0.022766 0.016724
0.173523 0.023285 0.017517
0.193817 0.023621 0.018158
0.216187 0.023804 0.018616
0.240906 0.023865 0.019104
0.268524 0.024292 0.019867
0.299347 0.025574 0.021301
0.334076 0.027191 0.023102
0.373352 0.028992 0.025116
0.417969 0.031219 0.027435
0.468964 0.033997 0.030243
0.527283 0.037262 0.033661
0.594604 0.041229 0.037903
0.670593 0.045715 0.042633
0.749664 0.050415 0.047760
0.824921 0.054779 0.052612
0.894897 0.059052 0.057220
0.955963 0.062836 0.061401
1.000000 0.069061 0.068085
0.021942 0.042480 0.022705
0.022339 0.034210 0.014496
0.021698 0.024780 0.005402
0.027893 0.022369 0.003265
0.037842 0.023499 0.004700
0.048187 0.024658 0.006134
0.058838 0.025818 0.007568
0.070068 0.027008 0.008972
0.081848 0.028107 0.010345
0.094360 0.029236 0.011597
0.107788 0.030273 0.012970
0.122162 0.031311 0.014191
0.137726 0.032104 0.015320
0.154572 0.032715 0.016327
0.173004 0.033325 0.017151
0.193237 0.033691 0.017761
0.215637 0.034027 0.018280
0.240356 0.034363 0.018768
0.267975 0.035126 0.019531
0.298859 0.036865 0.020996
0.333496 0.038940 0.022736
0.372833 0.041260 0.024750
0.417450 0.043854 0.027100
0.468414 0.047058 0.029877
0.526733 0.050446 0.033264
0.594055 0.054596 0.037476
0.670074 0.059265 0.042236
0.749176 0.064026 0.047363
0.824371 0.068817 0.052185
0.894379 0.072998 0.056793
0.955414 0.076752 0.060944
1.000000 0.082794 0.067566
0.033234 0.065247 0.034210
0.034241 0.057190 0.026642
0.033936 0.047882 0.017609
0.033295 0.038300 0.008423
0.037292 0.033661 0.004150
0.047638 0.034790 0.005585
0.058319 0.035950 0.007050
0.069458 0.037170 0.008423
0.081299 0.038452 0.009857
0.093842 0.039551 0.011108
0.107239 0.040680 0.012482
0.121613 0.041901 0.013702
0.137177 0.042786 0.014832
0.154022 0.043732 0.015869
0.172424 0.044525 0.016693
0.192688 0.045288 0.017365
0.215057 0.045990 0.017914
0.239807 0.046692 0.018402
0.267395 0.047791 0.019196
0.298279 0.049591 0.020721
0.332977 0.051666 0.022430
0.372284 0.054230 0.024384
0.416870 0.057068 0.026733
0.467834 0.060303 0.029449
0.526215 0.064026 0.032867
0.593475 0.068329 0.037018
0.669495 0.072998 0.041809
0.748566 0.077789 0.046844
0.823822 0.082581 0.051758
0.893799 0.086975 0.056366
0.954865 0.091034 0.060486
1.000000 0.096832 0.066986
0.044525 0.089630 0.046173
0.046539 0.082031 0.038940
0.046509 0.072693 0.030273
0.046234 0.063049 0.021332
0.045624 0.053284 0.012024
0.047028 0.045624 0.005035
0.057739 0.046906 0.006439
0.068939 0.048218 0.007874
0.080750 0.049469 0.009308
0.093262 0.050751 0.010559
0.106628 0.052002 0.011932
0.121002 0.053192 0.013184
0.136566 0.054382 0.014343
0.153381 0.055542 0.015381
0.171844 0.056519 0.016296
0.192047 0.057587 0.016937
0.214478 0.058533 0.017517
0.239197 0.059570 0.018036
0.266846 0.060822 0.018860
0.297668 0.062714 0.020386
0.332367 0.065094 0.022034
0.371643 0.067810 0.024017
0.416229 0.070679 0.026276
0.467255 0.074097 0.029053
0.525574 0.077820 0.032410
0.592865 0.082245 0.036499
0.668854 0.087067 0.041321
0.747955 0.092224 0.046326
0.823181 0.097015 0.051300
0.893188 0.101685 0.055908
0.954224 0.105682 0.059998
1.000000 0.111542 0.066284
0.056396 0.116516 0.058533
0.059296 0.109406 0.051880
0.059906 0.099854 0.043243
0.059937 0.090210 0.034393
0.059631 0.080383 0.025604
0.059143 0.070251 0.016357
0.058990 0.060608 0.007599
0.068298 0.060059 0.007202
0.080109 0.061493 0.008606
0.092590 0.062775 0.010010
0.106018 0.064209 0.011322
0.120361 0.065643 0.012665
0.135895 0.066986 0.013794
0.152740 0.068207 0.014893
0.171173 0.069611 0.015778
0.191406 0.070740 0.016510
0.213806 0.072052 0.017090
0.238525 0.073395 0.017639
0.266174 0.074768 0.018433
0.296967 0.076752 0.019958
0.331665 0.079254 0.021637
0.370972 0.082001 0.023590
0.415558 0.085114 0.025848
0.466522 0.088593 0.028534
0.524902 0.092590 0.031921
0.592194 0.097046 0.035919
0.668182 0.102173 0.040802
0.747284 0.107391 0.045807
0.822479 0.112396 0.050751
0.892487 0.117065 0.055298
0.953522 0.121338 0.059418
1.000000 0.127014 0.065552
0.068726 0.146515 0.071442
0.072601 0.139740 0.065155
0.073853 0.130249 0.056763
0.074493 0.120422 0.048309
0.074738 0.110565 0.039520
0.074585 0.100342 0.030609
0.074158 0.089813 0.021393
0.074036 0.079590 0.012390
0.079437 0.074585 0.007935
0.091919 0.076111 0.009277
0.105347 0.077606 0.010559
0.119629 0.079132 0.011993
0.135162 0.080627 0.013214
0.152008 0.082092 0.014313
0.170410 0.083588 0.015228
0.190643 0.084991 0.015961
0.213043 0.086487 0.016602
0.237793 0.087982 0.017151
0.265381 0.089661 0.017975
0.296295 0.091949 0.019531
0.330933 0.094543 0.021179
0.370209 0.097290 0.023163
0.414825 0.100586 0.025452
0.465820 0.104095 0.028107
0.524139 0.108215 0.031372
0.591461 0.113007 0.035370
0.667450 0.118103 0.040192
0.746521 0.123474 0.045197
0.821716 0.128693 0.050171
0.891724 0.133484 0.054657
0.952789 0.137878 0.058807
1.000000 0.143433 0.064789
0.080750 0.179779 0.084076
0.085632 0.173431 0.078186
0.087860 0.163788 0.070374
0.089478 0.153961 0.062195
0.090485 0.143921 0.053741
0.090942 0.133606 0.044983
0.090942 0.122925 0.035767
0.090607 0.111816 0.026703
0.090729 0.101196 0.017761
0.091187 0.090607 0.008606
0.104523 0.092224 0.009796
0.118866 0.093842 0.011108
0.134399 0.095490 0.012482
0.151184 0.097076 0.013672
0.169617 0.098816 0.014648
0.189850 0.100403 0.015411
0.212250 0.102112 0.016083
0.236969 0.103699 0.016663
0.264587 0.105713 0.017487
0.295471 0.108032 0.019043
0.330139 0.110748 0.020721
0.369446 0.113678 0.022675
0.414032 0.117004 0.024933
0.464996 0.120789 0.027588
0.523346 0.125031 0.030792
0.590607 0.129822 0.034790
0.666595 0.135132 0.039490
0.745697 0.140747 0.044525
0.820923 0.145996 0.049530
0.890930 0.151062 0.054047
0.951965 0.155426 0.058136
1.000000 0.160858 0.063873
0.092529 0.216370 0.096710
0.098572 0.210510 0.091034
0.101898 0.200745 0.083496
0.104462 0.190826 0.075714
0.106476 0.180695 0.067841
0.107758 0.170288 0.059509
0.108521 0.159515 0.050720
0.108765 0.148254 0.041473
0.108673 0.136505 0.031952
0.108948 0.125305 0.023254
0.108826 0.113159 0.013367
0.118011 0.109711 0.010254
0.133575 0.111572 0.011505
0.150360 0.113342 0.012878
0.168793 0.115173 0.014008
0.188995 0.117004 0.014832
0.211365 0.118927 0.015503
0.236115 0.120758 0.016144
0.263733 0.122772 0.016968
0.294556 0.125336 0.018494
0.329285 0.128021 0.020264
0.368561 0.131165 0.022156
0.413116 0.134552 0.024323
0.464111 0.138489 0.026978
0.522461 0.142761 0.030212
0.589752 0.147766 0.034119
0.665710 0.153198 0.038788
0.744812 0.158997 0.043823
0.820038 0.164337 0.048828
0.890045 0.169586 0.053314
0.951080 0.174072 0.057373
1.000000 0.179321 0.062775
0.105255 0.256165 0.110291
0.111847 0.250854 0.104309
0.116058 0.241058 0.096771
0.119598 0.231171 0.089203
0.122467 0.220917 0.081482
0.124786 0.210419 0.073517
0.126465 0.199524 0.065247
0.127563 0.188202 0.056519
0.128113 0.176270 0.047241
0.128174 0.163788 0.037384
0.128662 0.151733 0.028229
0.128693 0.138733 0.018616
0.132599 0.128876 0.010712
0.149445 0.130829 0.011841
0.167816 0.132813 0.013031
0.188049 0.134827 0.014069
0.210419 0.136871 0.014893
0.235168 0.138916 0.015533
0.262787 0.141235 0.016388
0.293610 0.143707 0.017914
0.328339 0.146576 0.019745
0.367584 0.149811 0.021576
0.412201 0.153412 0.023743
0.463165 0.157410 0.026398
0.521515 0.161865 0.029541
0.588806 0.166992 0.033356
0.664764 0.172577 0.038025
0.743866 0.178375 0.043030
0.819092 0.184052 0.048035
0.889069 0.189270 0.052521
0.950104 0.194000 0.056610
1.000000 0.198914 0.061707
0.122314 0.298737 0.127960
0.128845 0.293976 0.121735
0.132690 0.284393 0.113281
0.136139 0.274536 0.104706
0.139374 0.264465 0.096436
0.142334 0.254059 0.088257
0.144806 0.243103 0.079834
0.146729 0.231720 0.071350
0.148163 0.219727 0.062347
0.148987 0.207031 0.052826
0.149261 0.193573 0.042725
0.150055 0.180695 0.032928
0.150238 0.166595 0.023285
0.149933 0.151215 0.012238
0.166840 0.151825 0.012115
0.187042 0.153931 0.013031
0.209381 0.156158 0.014038
0.234161 0.158417 0.014923
0.261719 0.160736 0.015778
0.292572 0.163574 0.017303
0.327301 0.166443 0.019104
0.366547 0.169708 0.020966
0.411133 0.173401 0.023132
0.462158 0.177643 0.025726
0.520477 0.182129 0.028809
0.587769 0.187317 0.032623
0.663757 0.193085 0.037292
0.742859 0.199066 0.042267
0.818054 0.204865 0.047180
0.888031 0.210144 0.051727
0.949066 0.214996 0.055817
1.000000 0.219849 0.060364
0.142456 0.344818 0.148621
0.149170 0.340485 0.142609
0.153015 0.330902 0.134094
0.156494 0.321167 0.125458
0.159576 0.311096 0.116608
0.162384 0.300720 0.107605
0.164856 0.290009 0.098297
0.167023 0.278687 0.088562
0.168945 0.266754 0.078766
0.170502 0.254120 0.069061
0.171600 0.240509 0.058838
0.172119 0.226105 0.048187
0.173126 0.212097 0.037720
0.173492 0.196686 0.027130
0.173309 0.179779 0.016327
0.185974 0.174500 0.012207
0.208313 0.176819 0.013000
0.233032 0.179230 0.013977
0.260620 0.181793 0.015106
0.291504 0.184540 0.016632
0.326172 0.187653 0.018433
0.365479 0.190979 0.020355
0.410034 0.194824 0.022491
0.460999 0.199005 0.025055
0.519348 0.203705 0.028046
0.586670 0.209045 0.031830
0.662628 0.214996 0.036377
0.741730 0.221161 0.041382
0.816956 0.226959 0.046265
0.886932 0.232574 0.050873
0.947937 0.237518 0.054871
1.000000 0.242004 0.058929
0.164276 0.394348 0.170898
0.171143 0.390564 0.165192
0.174957 0.380920 0.156616
0.178467 0.371155 0.147919
0.181610 0.361145 0.139130
0.184631 0.350800 0.130066
0.187286 0.339996 0.120575
0.189667 0.328735 0.110901
0.191803 0.316864 0.100677
0.193604 0.304230 0.089996
0.195038 0.290863 0.078644
0.196106 0.276459 0.066681
0.196716 0.260925 0.054474
0.197906 0.245697 0.042786
0.198517 0.228882 0.030701
0.198456 0.210297 0.019531
0.207123 0.198944 0.012207
0.231903 0.201508 0.012939
0.259491 0.204224 0.014099
0.290283 0.207092 0.015900
0.324951 0.210114 0.017731
0.364288 0.213654 0.019745
0.408844 0.217590 0.021790
0.459808 0.221954 0.024292
0.518188 0.226807 0.027344
0.585449 0.232178 0.030975
0.661438 0.238190 0.035400
0.740540 0.244446 0.040466
0.815765 0.250427 0.045319
0.885712 0.256195 0.049927
0.946777 0.261200 0.053955
0.999359 0.265869 0.057556
0.187805 0.447388 0.195007
0.194855 0.444061 0.189575
0.198578 0.434509 0.180969
0.202087 0.424744 0.172211
0.205414 0.414734 0.163361
0.208496 0.404419 0.154175
0.211273 0.393646 0.144775
0.213867 0.382324 0.134949
0.216248 0.370453 0.124634
0.218323 0.357880 0.113861
0.220093 0.344452 0.102478
0.221527 0.330048 0.090363
0.222595 0.314575 0.077362
0.223236 0.297760 0.063507
0.224548 0.281250 0.049713
0.225281 0.262817 0.034973
0.225281 0.242218 0.021942
0.230591 0.225220 0.012177
0.258179 0.228027 0.013062
0.289032 0.230896 0.014832
0.323700 0.234192 0.016937
0.363007 0.237946 0.018982
0.407593 0.241791 0.021057
0.458557 0.246216 0.023499
0.516907 0.251251 0.026520
0.584167 0.256775 0.030090
0.660187 0.262939 0.034515
0.739258 0.269318 0.039429
0.814453 0.275513 0.044250
0.884430 0.281250 0.048950
0.945496 0.286469 0.052887
0.998047 0.291168 0.056519
0.213287 0.504211 0.221039
0.220581 0.501373 0.215851
0.224243 0.491882 0.207214
0.227722 0.482147 0.198425
0.231049 0.472137 0.189453
0.234070 0.461761 0.180237
0.237030 0.451050 0.170746
0.239777 0.439758 0.160828
0.242310 0.427887 0.150452
0.244598 0.415314 0.139557
0.246704 0.401886 0.128021
0.248535 0.387512 0.115814
0.250000 0.371948 0.102692
0.251068 0.355133 0.088684
0.251709 0.336823 0.073578
0.253052 0.318573 0.058228
0.253784 0.298126 0.041382
0.253784 0.275238 0.024719
0.256836 0.253326 0.012299
0.287689 0.256409 0.013794
0.322388 0.259705 0.015869
0.361694 0.263550 0.018158
0.406281 0.267456 0.020294
0.457214 0.272003 0.022736
0.515533 0.277008 0.025604
0.582855 0.282898 0.029205
0.658813 0.289001 0.033447
0.737915 0.295593 0.038361
0.813110 0.301819 0.043182
0.883087 0.307648 0.047852
0.944122 0.312958 0.051819
0.996704 0.317810 0.055481
0.240753 0.564606 0.248871
0.248199 0.562164 0.243988
0.251770 0.552673 0.235321
0.255188 0.543030 0.226501
0.258392 0.533020 0.217438
0.261475 0.522736 0.208160
0.264496 0.511993 0.198517
0.267334 0.500793 0.188568
0.270020 0.488861 0.178070
0.272491 0.476257 0.166992
0.274841 0.462891 0.155426
0.276978 0.448456 0.142944
0.278809 0.432953 0.129730
0.280304 0.416077 0.115509
0.281403 0.397766 0.100189
0.282013 0.377686 0.083618
0.283417 0.357422 0.066650
0.284088 0.334656 0.047791
0.283844 0.308807 0.027893
0.286255 0.283264 0.013000
0.320953 0.286713 0.014801
0.360229 0.290527 0.017059
0.404816 0.294647 0.019531
0.455780 0.299255 0.021912
0.514130 0.304352 0.024811
0.581421 0.310303 0.028198
0.657379 0.316528 0.032410
0.736511 0.323120 0.037262
0.811676 0.329498 0.042053
0.881653 0.335693 0.046661
0.942719 0.341003 0.050751
0.995270 0.345825 0.054260
0.270050 0.628174 0.278595
0.277710 0.626221 0.274109
0.281097 0.616791 0.265350
0.284393 0.607147 0.256409
0.287567 0.597229 0.247314
0.290619 0.586945 0.237885
0.293579 0.576202 0.228149
0.296478 0.565033 0.218079
0.299286 0.553162 0.207458
0.301941 0.540680 0.196381
0.304474 0.527222 0.184540
0.306824 0.512848 0.171936
0.308929 0.497314 0.158539
0.310822 0.480469 0.144135
0.312347 0.462097 0.128571
0.313477 0.441986 0.111755
0.314056 0.419800 0.093414
0.315460 0.397278 0.074463
0.316040 0.371674 0.053284
0.315674 0.342651 0.030457
0.319427 0.314972 0.013977
0.358734 0.318909 0.015991
0.403320 0.323090 0.018433
0.454315 0.327728 0.021057
0.512634 0.333069 0.023834
0.579895 0.338806 0.027252
0.655914 0.345459 0.031342
0.734955 0.352020 0.036041
0.810181 0.358643 0.040924
0.880157 0.364716 0.045441
0.941193 0.370270 0.049561
0.993805 0.375183 0.053101
0.301147 0.694580 0.310150
0.309082 0.693115 0.306091
0.312256 0.683685 0.297119
0.315399 0.674072 0.288086
0.318420 0.664246 0.278900
0.321411 0.653992 0.269379
0.324341 0.643372 0.259583
0.327209 0.632233 0.249390
0.330017 0.620483 0.238678
0.332764 0.607910 0.227356
0.335449 0.594543 0.215363
0.337982 0.580170 0.202637
0.340332 0.564667 0.189056
0.342529 0.547852 0.174408
0.344421 0.529480 0.158600
0.346008 0.509338 0.141510
0.347168 0.487152 0.122864
0.347626 0.462616 0.102600
0.348907 0.437073 0.081238
0.349396 0.408386 0.057495
0.348816 0.375702 0.031525
0.357147 0.348419 0.015106
0.401733 0.352661 0.017303
0.452728 0.357574 0.019928
0.511047 0.362762 0.022919
0.578339 0.368713 0.026276
0.654327 0.375305 0.030273
0.733398 0.382141 0.034851
0.808594 0.388733 0.039673
0.878601 0.394867 0.044159
0.939636 0.400482 0.048309
0.992249 0.405518 0.051849
0.334045 0.763458 0.343384
0.342194 0.762299 0.339691
0.345154 0.753021 0.330688
0.348114 0.743530 0.321594
0.350952 0.733734 0.312256
0.353790 0.723572 0.302612
0.356628 0.713043 0.292694
0.359467 0.701843 0.282257
0.362244 0.690186 0.271423
0.365021 0.677673 0.259949
0.367676 0.664398 0.247864
0.370361 0.650055 0.234894
0.372955 0.634583 0.221069
0.375366 0.617798 0.206207
0.377594 0.599426 0.190155
0.379547 0.579376 0.172821
0.381134 0.557190 0.153900
0.382202 0.532623 0.133270
0.382629 0.505249 0.110626
0.383789 0.476532 0.086609
0.383942 0.443848 0.059784
0.382965 0.406677 0.030334
0.400116 0.383423 0.016388
0.451080 0.388428 0.018890
0.509430 0.393707 0.021851
0.576721 0.399750 0.025238
0.652679 0.406464 0.029144
0.731812 0.413391 0.033661
0.807007 0.419922 0.038391
0.876984 0.426208 0.042847
0.938019 0.432037 0.046997
0.990601 0.436981 0.050598
0.368744 0.834778 0.378510
0.377289 0.834076 0.375366
0.379974 0.824890 0.366272
0.382629 0.815460 0.357025
0.385254 0.805725 0.347534
0.387939 0.795654 0.337769
0.390625 0.785156 0.327667
0.393341 0.774139 0.317139
0.395996 0.762421 0.306061
0.398743 0.750122 0.294464
0.401428 0.736786 0.282104
0.404144 0.722595 0.268982
0.406860 0.707184 0.254913
0.409454 0.690521 0.239838
0.411865 0.672150 0.223480
0.414154 0.652069 0.205780
0.416168 0.629974 0.186584
0.417755 0.605347 0.165466
0.418823 0.578125 0.142548
0.419067 0.547485 0.117157
0.420013 0.514984 0.090027
0.419830 0.477844 0.059601
0.418121 0.435089 0.026642
0.449402 0.420441 0.017944
0.507751 0.425842 0.020721
0.575012 0.431976 0.024170
0.651001 0.438599 0.027985
0.730103 0.445587 0.032410
0.805298 0.452301 0.037079
0.875305 0.458893 0.041595
0.936310 0.464478 0.045563
0.988892 0.469879 0.049255
0.405487 0.908386 0.415558
0.414398 0.908142 0.413055
0.416779 0.899017 0.403778
0.419128 0.889771 0.394440
0.421509 0.880096 0.384766
0.423920 0.870117 0.374847
0.426392 0.859680 0.364532
0.428925 0.848724 0.353821
0.431458 0.837189 0.342621
0.434052 0.824860 0.330750
0.436737 0.811737 0.318237
0.439423 0.797546 0.304840
0.442139 0.782318 0.290588
0.444824 0.765686 0.275208
0.447449 0.747467 0.258575
0.449951 0.727448 0.240509
0.452332 0.705383 0.220947
0.454346 0.680817 0.199432
0.455872 0.653625 0.176056
0.456787 0.623016 0.150238
0.456818 0.588715 0.121765
0.457581 0.551849 0.091034
0.456879 0.509491 0.056396
0.454681 0.460693 0.020782
0.505981 0.459045 0.019623
0.573242 0.465363 0.022919
0.649231 0.472229 0.026886
0.728363 0.479218 0.031158
0.803528 0.486115 0.035645
0.873535 0.492584 0.040192
0.934570 0.498474 0.044159
0.987152 0.503784 0.047852
0.444427 0.984467 0.454834
0.453796 0.984650 0.453003
0.455780 0.975586 0.443542
0.457825 0.966431 0.433990
0.459900 0.956909 0.424194
0.462006 0.947083 0.414154
0.464203 0.936768 0.403687
0.466492 0.925964 0.392792
0.468842 0.914520 0.381317
0.471313 0.902344 0.369293
0.473785 0.889313 0.356506
0.476379 0.875305 0.342896
0.479034 0.860077 0.328278
0.481750 0.843536 0.312561
0.484436 0.825378 0.295563
0.487122 0.805511 0.277191
0.489685 0.783539 0.257172
0.492035 0.759125 0.235321
0.494110 0.731964 0.211395
0.495605 0.701477 0.185059
0.496368 0.667175 0.156036
0.496094 0.628540 0.123962
0.496399 0.586456 0.088989
0.495056 0.537781 0.049530
0.504150 0.493744 0.018738
0.571411 0.500061 0.021759
0.647400 0.506836 0.025635
0.726501 0.514160 0.029907
0.801727 0.520996 0.034302
0.871704 0.527557 0.038727
0.932739 0.533478 0.042694
0.985291 0.538910 0.046326
0.599792 1.000000 0.606812
0.610474 1.000000 0.610229
0.593445 1.000000 0.585449
0.576691 1.000000 0.559540
0.560394 1.000000 0.532745
0.544586 1.000000 0.504822
0.529175 1.000000 0.475403
0.514282 1.000000 0.444275
0.508209 0.994171 0.422272
0.510406 0.982056 0.409912
0.512695 0.969208 0.396881
0.515137 0.955353 0.383026
0.517639 0.940308 0.368103
0.520264 0.923950 0.352112
0.522980 0.906097 0.334869
0.525726 0.886261 0.315979
0.528412 0.864441 0.295532
0.531036 0.840210 0.273193
0.533417 0.813171 0.248749
0.535461 0.782837 0.221863
0.536896 0.748505 0.192108
0.537445 0.709930 0.159393
0.536774 0.666168 0.123169
0.536407 0.617737 0.083160
0.534271 0.561890 0.038177
0.569519 0.535919 0.020691
0.645477 0.543030 0.024353
0.724579 0.550415 0.028534
0.799774 0.557220 0.032837
0.869781 0.563873 0.037231
0.930817 0.570007 0.041260
0.983398 0.575500 0.044800
0.805786 1.000000 0.808899
0.816681 1.000000 0.816711
0.797577 1.000000 0.794220
0.777954 1.000000 0.770325
0.757782 1.000000 0.744812
0.737427 1.000000 0.717834
0.716705 1.000000 0.689056
0.695374 1.000000 0.657867
0.674042 1.000000 0.624634
0.652405 1.000000 0.588348
0.630890 1.000000 0.549255
0.609680 1.000000 0.506622
0.588989 1.000000 0.459991
0.569275 1.000000 0.408966
0.563232 0.989197 0.376312
0.565918 0.969696 0.357117
0.568695 0.948120 0.336212
0.571472 0.923950 0.313232
0.574158 0.897064 0.288177
0.576599 0.866882 0.260651
0.578552 0.832886 0.230347
0.579865 0.794403 0.196869
0.580078 0.750671 0.159790
0.578796 0.700836 0.118683
0.577515 0.644836 0.072906
0.574371 0.580200 0.023407
0.643524 0.580414 0.023071
0.722656 0.587860 0.027191
0.797821 0.595062 0.031433
0.867798 0.601868 0.035675
0.928864 0.607758 0.039703
0.981445 0.613434 0.043243
1.000000 1.000000 1.000000
1.000000 1.000000 1.000000
0.998260 1.000000 0.998230
0.980988 1.000000 0.980408
0.962708 1.000000 0.960938
0.943604 1.000000 0.939880
0.923218 1.000000 0.916626
0.901306 1.000000 0.890717
0.878174 1.000000 0.862152
0.853455 1.000000 0.830170
0.826996 1.000000 0.794159
0.799347 1.000000 0.754120
0.770050 1.000000 0.708618
0.739838 1.000000 0.657410
0.709320 1.000000 0.600006
0.679169 1.000000 0.535339
0.650421 1.000000 0.462494
0.624512 1.000000 0.381866
0.616302 0.983917 0.330200
0.619019 0.953979 0.301941
0.621490 0.920319 0.270966
0.623383 0.881927 0.236572
0.624451 0.838287 0.198486
0.624207 0.788727 0.156616
0.622192 0.731689 0.109833
0.619965 0.667053 0.057159
0.641479 0.619507 0.021942
0.720551 0.626923 0.025787
0.795776 0.634186 0.029938
0.865723 0.640961 0.034119
0.926788 0.647217 0.038055
0.979370 0.652771 0.041626
1.000000 1.000000 1.000000
1.000000 1.000000 1.000000
1.000000 1.000000 1.000000
1.000000 1.000000 1.000000
1.000000 1.000000 1.000000
1.000000 1.000000 1.000000
1.000000 1.000000 1.000000
1.000000 1.000000 1.000000
1.000000 1.000000 1.000000
1.000000 1.000000 1.000000
1.000000 1.000000 1.000000
0.998413 1.000000 0.998077
0.971375 1.000000 0.964630
0.940979 1.000000 0.924744
0.906830 1.000000 0.876740
0.869202 1.000000 0.819275
0.828735 1.000000 0.751129
0.786438 1.000000 0.670013
0.744659 1.000000 0.575104
0.706451 1.000000 0.466034
0.674377 1.000000 0.342194
0.668213 0.972412 0.278534
0.670044 0.929382 0.239838
0.670715 0.879761 0.196625
0.669830 0.822815 0.148682
0.666809 0.757263 0.095306
0.663269 0.683807 0.036285
0.718445 0.667633 0.024475
0.793610 0.674744 0.028381
0.863617 0.681702 0.032440
0.924652 0.687927 0.036407
0.977234 0.693665 0.039948
1.000000 1.000000 1.000000
1.000000 1.000000 1.000000
1.000000 1.000000 1.000000
1.000000 1.000000 1.000000
1.000000 1.000000 1.000000
1.000000 1.000000 1.000000
1.000000 1.000000 1.000000
1.000000 1.000000 1.000000
1.000000 1.000000 1.000000
1.000000 1.000000 1.000000
1.000000 1.000000 1.000000
1.000000 1.000000 1.000000
1.000000 1.000000 1.000000
1.000000 1.000000 1.000000
1.000000 1.000000 1.000000
1.000000 1.000000 1.000000
1.000000 1.000000 1.000000
0.980743 1.000000 0.971680
0.933746 1.000000 0.896515
0.880676 1.000000 0.799347
0.824677 1.000000 0.675842
0.773071 1.000000 0.527008
0.732391 1.000000 0.353760
0.718384 0.973999 0.239075
0.718567 0.917145 0.189728
0.716797 0.852081 0.135345
0.712555 0.777954 0.075470
0.716217 0.709656 0.023132
0.791412 0.716949 0.026917
0.861420 0.724030 0.030823
0.922394 0.730530 0.034546
0.975006 0.736206 0.038147
1.000000 1.000000 1.000000
1.000000 1.000000 1.000000
1.000000 1.000000 1.000000
1.000000 1.000000 1.000000
1.000000 1.000000 1.000000
1.000000 1.000000 1.000000
1.000000 1.000000 1.000000
1.000000 1.000000 1.000000
1.000000 1.000000 1.000000
1.000000 1.000000 1.000000
1.000000 1.000000 1.000000
1.000000 1.000000 1.000000
1.000000 1.000000 1.000000
1.000000 1.000000 1.000000
1.000000 1.000000 1.000000
1.000000 1.000000 1.000000
1.000000 1.000000 1.000000
1.000000 1.000000 1.000000
