src/colors/dark_&_moody/retro_red_shadows.cube
#Created by: Adobe Photoshop Export Color Lookup Plugin
TITLE "Untitled-1"
#LUT size
LUT_3D_SIZE 8
#data domain
#LUT data points
DOMAIN_MIN 0.000000 0.000000 0.000000
DOMAIN_MAX 0.903226 0.903226 0.903226
0.000000 0.000000 0.000000
0.039276 0.004913 0.006134
0.083679 0.009735 0.012146
0.139923 0.013947 0.017700
0.218231 0.016510 0.021545
0.336548 0.020813 0.027100
0.530243 0.030426 0.039764
0.828278 0.048431 0.060120
0.044525 0.089630 0.046173
0.045624 0.053284 0.012024
0.080750 0.049469 0.009308
0.136566 0.054382 0.014343
0.214478 0.058533 0.017517
0.332367 0.065094 0.022034
0.525574 0.077820 0.032410
0.823181 0.097015 0.051300
0.092529 0.216370 0.096710
0.106476 0.180695 0.067841
0.108673 0.136505 0.031952
0.133575 0.111572 0.011505
0.211365 0.118927 0.015503
0.329285 0.128021 0.020264
0.522461 0.142761 0.030212
0.820038 0.164337 0.048828
0.164276 0.394348 0.170898
0.181610 0.361145 0.139130
0.191803 0.316864 0.100677
0.196716 0.260925 0.054474
0.207123 0.198944 0.012207
0.324951 0.210114 0.017731
0.518188 0.226807 0.027344
0.815765 0.250427 0.045319
0.270050 0.628174 0.278595
0.287567 0.597229 0.247314
0.299286 0.553162 0.207458
0.308929 0.497314 0.158539
0.314056 0.419800 0.093414
0.319427 0.314972 0.013977
0.512634 0.333069 0.023834
0.810181 0.358643 0.040924
0.405487 0.908386 0.415558
0.421509 0.880096 0.384766
0.431458 0.837189 0.342621
0.442139 0.782318 0.290588
0.452332 0.705383 0.220947
0.456818 0.588715 0.121765
0.505981 0.459045 0.019623
0.803528 0.486115 0.035645
1.000000 1.000000 1.000000
0.962708 1.000000 0.960938
0.878174 1.000000 0.862152
0.770050 1.000000 0.708618
0.650421 1.000000 0.462494
0.621490 0.920319 0.270966
0.622192 0.731689 0.109833
0.795776 0.634186 0.029938
1.000000 1.000000 1.000000
1.000000 1.000000 1.000000
1.000000 1.000000 1.000000
1.000000 1.000000 1.000000
1.000000 1.000000 1.000000
1.000000 1.000000 1.000000
0.903473 1.000000 0.736877
0.810089 0.830200 0.040344
0.010101 0.010315 0.077942
0.053467 0.018158 0.086761
0.104462 0.027802 0.099213
0.161011 0.029907 0.105286
0.239410 0.029572 0.111237
0.357544 0.034851 0.120209
0.551117 0.046692 0.134888
0.848999 0.065125 0.156158
0.000885 0.042908 0.067657
0.039154 0.047821 0.075134
0.090515 0.057373 0.086426
0.147919 0.060760 0.091553
0.228180 0.059265 0.094055
0.348816 0.062103 0.099579
0.546722 0.072815 0.111969
0.845612 0.090790 0.131439
0.026855 0.133087 0.100067
0.064697 0.140656 0.105621
0.106812 0.139893 0.102051
0.135284 0.112976 0.078552
0.215637 0.116211 0.078796
0.336334 0.119019 0.078979
0.533752 0.129333 0.088348
0.832001 0.147675 0.105774
0.092377 0.311676 0.183411
0.131287 0.322754 0.183380
0.174866 0.324677 0.170807
0.192993 0.268646 0.119934
0.212006 0.203766 0.067535
0.332031 0.210175 0.075012
0.529388 0.222717 0.084564
0.827667 0.243408 0.102112
0.196045 0.546570 0.291656
0.237122 0.559937 0.290894
0.281281 0.563507 0.279236
0.299133 0.507294 0.226746
0.313232 0.428802 0.156372
0.326660 0.321411 0.063660
0.523743 0.334991 0.079620
0.822021 0.357452 0.097382
0.327759 0.829407 0.424225
0.371674 0.843872 0.425507
0.418427 0.848267 0.418182
0.432068 0.793030 0.362762
0.447296 0.715302 0.288208
0.459076 0.596649 0.181732
0.517059 0.465179 0.070587
0.815308 0.488922 0.091827
0.794739 1.000000 0.821594
0.872711 1.000000 0.882355
0.921295 1.000000 0.921478
0.811218 1.000000 0.789948
0.669495 1.000000 0.556366
0.620636 0.928650 0.336639
0.627594 0.736206 0.164276
0.807495 0.640015 0.084686
1.000000 1.000000 1.000000
1.000000 1.000000 1.000000
1.000000 1.000000 1.000000
1.000000 1.000000 1.000000
1.000000 1.000000 1.000000
1.000000 1.000000 1.000000
0.927429 1.000000 0.818390
0.818085 0.835297 0.092102
0.017334 0.017914 0.164825
0.061279 0.023834 0.173798
0.112640 0.030304 0.183899
0.180023 0.041138 0.201141
0.263184 0.046173 0.212097
0.381134 0.053894 0.221191
0.574615 0.065826 0.236053
0.872375 0.084137 0.258179
0.009705 0.053650 0.154358
0.042847 0.053253 0.163208
0.095306 0.058380 0.172363
0.166351 0.070648 0.189606
0.252380 0.075989 0.199158
0.372650 0.081970 0.205780
0.570465 0.092651 0.218597
0.869171 0.110382 0.239136
0.000031 0.098755 0.139160
0.031311 0.105011 0.148651
0.075134 0.110046 0.157593
0.143036 0.116943 0.170166
0.233826 0.125183 0.177612
0.357361 0.126343 0.179901
0.559540 0.132935 0.187866
0.858154 0.148407 0.204529
0.022278 0.218842 0.178040
0.054626 0.229340 0.185699
0.097717 0.240662 0.192352
0.157532 0.246735 0.190430
0.215240 0.206116 0.148224
0.338867 0.208099 0.157043
0.541290 0.212677 0.158630
0.839294 0.227478 0.171326
0.116974 0.454346 0.294250
0.154816 0.467407 0.298859
0.200714 0.481293 0.301361
0.259430 0.488068 0.292908
0.305328 0.437073 0.235779
0.334778 0.328278 0.134216
0.535614 0.334442 0.153259
0.833649 0.351685 0.166260
0.244141 0.739105 0.429535
0.285095 0.753510 0.433075
0.334259 0.768616 0.435242
0.394653 0.774872 0.427673
0.437042 0.724915 0.370453
0.458374 0.604675 0.255219
0.529297 0.470734 0.136353
0.826904 0.489166 0.160217
0.526947 1.000000 0.655640
0.605896 1.000000 0.692963
0.695068 1.000000 0.742340
0.767670 1.000000 0.780396
0.696228 1.000000 0.656342
0.617584 0.936829 0.416321
0.632263 0.740875 0.229980
0.819000 0.644897 0.151642
1.000000 1.000000 1.000000
1.000000 1.000000 1.000000
1.000000 1.000000 1.000000
1.000000 1.000000 1.000000
1.000000 1.000000 1.000000
1.000000 1.000000 1.000000
0.953278 1.000000 0.894501
0.826080 0.840698 0.153625
0.021118 0.021942 0.267700
0.068573 0.026764 0.276611
0.121948 0.033630 0.286743
0.187469 0.043579 0.299530
0.281677 0.060089 0.322754
0.409149 0.075775 0.340118
0.602539 0.088623 0.354675
0.900085 0.106964 0.377319
0.015442 0.062927 0.257172
0.043091 0.056061 0.267212
0.098907 0.058167 0.276581
0.169983 0.068909 0.289551
0.269592 0.086426 0.312958
0.401093 0.103851 0.328522
0.598663 0.116150 0.340698
0.897095 0.133820 0.361572
0.007294 0.113068 0.242554
0.032227 0.115021 0.252380
0.071625 0.112915 0.263275
0.136932 0.107605 0.273163
0.248535 0.126923 0.296509
0.386108 0.147186 0.308289
0.587982 0.157288 0.316559
0.886292 0.172821 0.334045
0.000000 0.173309 0.217651
0.020294 0.183563 0.231934
0.055725 0.191345 0.242371
0.110748 0.197723 0.254547
0.206848 0.196564 0.267700
0.360504 0.218414 0.276428
0.568268 0.220520 0.278290
0.865692 0.229919 0.288544
0.029419 0.345093 0.283264
0.062714 0.357056 0.292297
0.103943 0.370148 0.301300
0.161194 0.385101 0.309631
0.247437 0.394012 0.307251
0.340240 0.331360 0.235077
0.547394 0.331726 0.252258
0.844849 0.339508 0.256409
0.150513 0.630920 0.427094
0.187744 0.644592 0.433960
0.232697 0.659393 0.440002
0.293701 0.675659 0.444183
0.380463 0.684784 0.437012
0.451599 0.611542 0.352753
0.541931 0.474731 0.227936
0.838104 0.486084 0.249908
0.301361 0.962433 0.588043
0.342926 0.977417 0.594360
0.392731 0.992920 0.600250
0.477844 1.000000 0.616028
0.583862 1.000000 0.629822
0.612274 0.944275 0.518616
0.635345 0.745331 0.315765
0.830261 0.648102 0.240173
1.000000 1.000000 1.000000
1.000000 1.000000 1.000000
1.000000 1.000000 1.000000
1.000000 1.000000 1.000000
1.000000 1.000000 1.000000
1.000000 1.000000 1.000000
0.982605 1.000000 0.965912
0.834137 0.846436 0.232208
0.031006 0.032349 0.391144
0.081543 0.038300 0.399933
0.135529 0.046234 0.410095
0.201538 0.056396 0.422943
0.291595 0.070618 0.440674
0.433594 0.094879 0.474457
0.635895 0.115417 0.496613
0.933136 0.134430 0.519104
0.024323 0.076599 0.380585
0.055145 0.069000 0.391357
0.110596 0.070587 0.400513
0.182007 0.081146 0.413574
0.276947 0.095886 0.431702
0.425140 0.121582 0.466003
0.632446 0.143463 0.485718
0.930359 0.162018 0.505981
0.016205 0.128448 0.365967
0.043243 0.129211 0.376404
0.082275 0.124786 0.388031
0.145203 0.117432 0.397888
0.251068 0.133179 0.416321
0.409210 0.161102 0.450928
0.622101 0.184967 0.466034
0.919800 0.202026 0.483063
0.005066 0.194183 0.345764
0.028107 0.199829 0.355865
0.065247 0.204468 0.367096
0.117645 0.205139 0.380524
0.200439 0.190887 0.391693
0.381653 0.222076 0.426178
0.602753 0.247986 0.434631
0.899414 0.260437 0.445984
0.000000 0.269501 0.309753
0.012970 0.285217 0.329163
0.043457 0.295227 0.339935
0.094421 0.306305 0.352997
0.175476 0.317535 0.369263
0.332245 0.320496 0.385803
0.571991 0.341827 0.392090
0.868805 0.343475 0.394196
0.044617 0.500092 0.411682
0.078278 0.512756 0.421631
0.118622 0.526520 0.431946
0.173340 0.542358 0.442566
0.257965 0.561279 0.452606
0.399292 0.574188 0.449738
0.550873 0.478241 0.368774
0.848511 0.481018 0.368958
0.187622 0.834534 0.581818
0.225006 0.849121 0.590393
0.270081 0.864563 0.598663
0.330719 0.881287 0.606201
0.422699 0.900391 0.612610
0.567810 0.912598 0.610962
0.635590 0.748596 0.431396
0.840637 0.650696 0.360870
0.838257 1.000000 0.911652
0.920410 1.000000 0.954285
1.000000 1.000000 1.000000
1.000000 1.000000 1.000000
1.000000 1.000000 1.000000
1.000000 1.000000 1.000000
1.000000 1.000000 1.000000
0.842010 0.852264 0.336060
0.045593 0.047516 0.538177
0.096893 0.053497 0.546906
0.151764 0.061615 0.557068
0.218842 0.071869 0.570007
0.310181 0.086182 0.587921
0.445892 0.107727 0.614716
0.675232 0.145599 0.664673
0.971893 0.166809 0.685852
0.037384 0.093292 0.527588
0.070221 0.084808 0.539063
0.125519 0.085907 0.548096
0.197876 0.096436 0.561218
0.293884 0.111359 0.579529
0.435364 0.133881 0.606964
0.672150 0.173370 0.656982
0.969360 0.195099 0.675232
0.027069 0.146881 0.512787
0.058197 0.146667 0.524017
0.096893 0.140930 0.536377
0.158508 0.132111 0.545837
0.264954 0.147675 0.564484
0.415588 0.171509 0.592590
0.662170 0.213715 0.641510
0.958984 0.236023 0.655640
0.015625 0.214325 0.492493
0.041931 0.219391 0.503326
0.079956 0.222076 0.515289
0.131409 0.219940 0.529358
0.210083 0.201508 0.540619
0.381073 0.227264 0.569275
0.643433 0.273651 0.616455
0.938812 0.295380 0.624146
0.001099 0.298798 0.466034
0.023346 0.306824 0.476563
0.058258 0.314819 0.488098
0.108612 0.321899 0.501770
0.185974 0.325256 0.519287
0.320587 0.309753 0.535278
0.613953 0.361969 0.579071
0.908356 0.379089 0.580170
0.000000 0.385864 0.419128
0.005707 0.407867 0.444427
0.032928 0.418945 0.455597
0.081787 0.431763 0.468872
0.157166 0.447296 0.486176
0.292175 0.464691 0.508514
0.570251 0.485626 0.528259
0.868744 0.490082 0.529907
0.062286 0.681274 0.562653
0.095825 0.694702 0.573578
0.136108 0.709503 0.585022
0.190155 0.725922 0.597046
0.272308 0.745422 0.609680
0.414673 0.770020 0.622131
0.632080 0.748596 0.585480
0.849487 0.653534 0.510925
0.362732 1.000000 0.766235
0.437042 1.000000 0.782623
0.524200 1.000000 0.803925
0.635376 1.000000 0.835358
0.784973 1.000000 0.888306
0.979218 1.000000 0.986267
1.000000 1.000000 1.000000
0.849121 0.857483 0.475006
0.063324 0.065613 0.710663
0.115051 0.071472 0.719269
0.170776 0.079529 0.729492
0.239105 0.089966 0.742493
0.332092 0.104401 0.760529
0.470154 0.126404 0.787598
0.691589 0.162262 0.831055
1.000000 0.213898 0.867981
0.054840 0.112549 0.699951
0.087891 0.103485 0.712494
0.143311 0.104034 0.721283
0.216827 0.114716 0.734497
0.314575 0.129761 0.752899
0.458282 0.152557 0.780609
0.687683 0.190033 0.825073
1.000000 0.241638 0.861664
0.043121 0.168030 0.685059
0.075684 0.166901 0.697266
0.114624 0.160400 0.710419
0.175659 0.150452 0.719360
0.283478 0.166107 0.738129
0.435944 0.190094 0.766449
0.676056 0.229706 0.812042
1.000000 0.277069 0.852631
0.028107 0.237671 0.664551
0.059296 0.241699 0.676514
0.097534 0.243256 0.689301
0.149017 0.239227 0.703979
0.226196 0.218475 0.714447
0.397400 0.244110 0.743347
0.653809 0.286621 0.790009
0.984222 0.334076 0.828339
0.013123 0.323822 0.638062
0.038177 0.331268 0.649597
0.075745 0.337952 0.662079
0.126312 0.342682 0.676483
0.202759 0.341644 0.694397
0.332214 0.320557 0.710663
0.618958 0.366943 0.758301
0.954041 0.417267 0.790100
0.000000 0.421814 0.599121
0.017792 0.434235 0.617493
0.050140 0.444122 0.629578
0.099640 0.454285 0.643677
0.174408 0.463959 0.661407
0.303894 0.469055 0.685120
0.569916 0.476074 0.716858
0.915039 0.526947 0.743317
0.000000 0.522522 0.547607
0.000000 0.550140 0.577515
0.022919 0.564362 0.591705
0.069000 0.578125 0.605286
0.141876 0.595184 0.622711
0.267670 0.617523 0.646484
0.525391 0.642853 0.675964
0.864563 0.665039 0.692413
0.083466 0.895203 0.740479
0.117554 0.910278 0.752625
0.157959 0.925629 0.764984
0.212250 0.942535 0.777893
0.293976 0.961731 0.791534
0.433472 0.984863 0.806152
0.739166 1.000000 0.843903
0.854156 0.860657 0.658600
0.084015 0.086639 0.912750
0.135956 0.092316 0.921234
0.192810 0.100525 0.931458
0.262421 0.111053 0.944458
0.357422 0.125824 0.962646
0.498383 0.148285 0.989960
0.707855 0.197388 1.000000
0.969360 0.302429 1.000000
0.075378 0.134705 0.902039
0.108734 0.125305 0.915497
0.164307 0.125488 0.924042
0.239136 0.136230 0.937225
0.338837 0.151520 0.955719
0.485382 0.174835 0.983582
0.705627 0.223663 1.000000
0.972229 0.330994 1.000000
0.063507 0.192291 0.886993
0.096313 0.190430 0.900177
0.135651 0.183136 0.914154
0.196594 0.172333 0.922424
0.306183 0.188263 0.941223
0.461273 0.212646 0.969666
0.698425 0.258789 1.000000
0.974487 0.367157 1.000000
0.047241 0.264008 0.866394
0.079651 0.267334 0.879395
0.118378 0.267883 0.893036
0.170319 0.262604 0.908112
0.247162 0.240295 0.917145
0.419891 0.266235 0.946106
0.678833 0.309387 0.992920
0.976013 0.413696 1.000000
0.027374 0.352173 0.839691
0.058228 0.358978 0.852386
0.096375 0.364685 0.865814
0.147583 0.367615 0.880798
0.224304 0.363678 0.898346
0.352783 0.339935 0.912811
0.638824 0.386841 0.960632
0.976593 0.472382 1.000000
0.009308 0.454590 0.807800
0.033203 0.463806 0.820221
0.070587 0.472778 0.833435
0.120758 0.481110 0.848175
0.196106 0.486969 0.865753
0.324310 0.484924 0.888306
0.584229 0.488525 0.920135
0.960785 0.557892 0.983734
0.000000 0.565491 0.754333
0.010986 0.583588 0.782654
0.040619 0.595093 0.795502
0.089996 0.607147 0.809967
0.163635 0.619995 0.827362
0.288574 0.632263 0.850189
0.536957 0.641754 0.881592
0.912720 0.693848 0.933380
0.000000 0.683228 0.698181
0.000000 0.712402 0.727905
0.012726 0.735596 0.751160
0.054382 0.750366 0.765228
0.126404 0.768066 0.782349
0.247803 0.791321 0.805359
0.489624 0.823273 0.837677
0.849091 0.853577 0.866913
