src/colors/dark_&_moody/spy_night.cube
TITLE "Generated by Resolve"
LUT_3D_SIZE 5
0.0296483 0.0479133 0.0512551
0.0533608 0.0606851 0.0653239
0.149004 0.0639353 0.0667582
0.33138 0.0525978 0.065156
0.596155 0.00814832 0.0553292
0.0723735 0.12369 0.122103
0.117357 0.164294 0.153765
0.258534 0.204822 0.136324
0.521355 0.180774 0.125917
0.789242 0.161151 0.106218
0.0928817 0.308461 0.177935
0.234607 0.359976 0.231373
0.405615 0.442359 0.235279
0.636957 0.519127 0.203403
0.859434 0.547616 0.176806
0.231998 0.590829 0.235599
0.439048 0.615061 0.315953
0.602197 0.67602 0.340932
0.750759 0.736568 0.33843
0.892882 0.789273 0.302495
0.554818 0.83975 0.377676
0.672663 0.852308 0.482689
0.775631 0.87393 0.559487
0.868879 0.905669 0.573007
0.950317 0.928328 0.520958
0.0306706 0.0535897 0.0662699
0.0554055 0.0683299 0.0831159
0.137423 0.0728161 0.106523
0.300862 0.0662089 0.117281
0.528832 0.063859 0.128222
0.0747387 0.139605 0.153201
0.125475 0.181506 0.195468
0.203113 0.235508 0.241718
0.446418 0.234607 0.246708
0.705272 0.250034 0.237613
0.0402533 0.349828 0.25655
0.2963 0.388281 0.359533
0.409369 0.453407 0.413718
0.603128 0.5355 0.3991
0.82855 0.559625 0.395285
0.169268 0.619196 0.334493
0.451499 0.638666 0.424903
0.613077 0.672923 0.521737
0.730999 0.738201 0.552758
0.865431 0.798688 0.549767
0.506447 0.852186 0.467933
0.650507 0.861219 0.570626
0.774502 0.874083 0.659068
0.862272 0.906294 0.695323
0.933761 0.930312 0.679622
0.0179446 0.0658274 0.142092
0.061799 0.0838178 0.15462
0.137804 0.0959793 0.202304
0.304082 0.0819104 0.240726
0.565835 0.00376898 0.244907
0.016495 0.158495 0.229297
0.127001 0.203586 0.239628
0.215854 0.257939 0.294026
0.404532 0.269368 0.345968
0.66807 0.228397 0.337728
0 0.366598 0.349691
0.285771 0.422797 0.396399
0.428458 0.486824 0.460624
0.547021 0.552499 0.530831
0.777432 0.576928 0.556893
0 0.647593 0.420203
0.367895 0.669642 0.508919
0.633188 0.698085 0.646204
0.71516 0.743114 0.698695
0.831601 0.806836 0.706233
0.215412 0.878889 0.517845
0.586175 0.87744 0.640345
0.758053 0.885023 0.724483
0.857298 0.907134 0.808072
0.916045 0.93286 0.820569
0 0.084535 0.295003
0.0227512 0.102403 0.308904
0.169131 0.133639 0.348898
0.349874 0.149752 0.408453
0.571298 0.0955367 0.450889
0 0.19292 0.36669
0.0925765 0.22005 0.380224
0.263569 0.280079 0.410178
0.446891 0.342153 0.47892
0.656565 0.329046 0.538506
0 0.383993 0.468742
0.164202 0.429511 0.48719
0.424475 0.50956 0.512108
0.552224 0.577615 0.583993
0.722942 0.600076 0.653193
0 0.645487 0.591348
0.153933 0.676463 0.626368
0.606851 0.715114 0.675593
0.703197 0.765805 0.725277
0.787778 0.81207 0.783612
0 0.898253 0.669902
0.315373 0.902251 0.706096
0.65864 0.906279 0.774578
0.830808 0.924025 0.865614
0.894438 0.946105 0.909895
0 0.115618 0.501503
0 0.134783 0.514412
0.217853 0.170184 0.551217
0.463539 0.238544 0.612222
0.67451 0.285893 0.674586
0 0.25156 0.572747
0.0111391 0.259815 0.580133
0.310979 0.317418 0.605524
0.537987 0.401053 0.657313
0.714488 0.487266 0.712795
0 0.436179 0.640909
0.0254215 0.460517 0.646159
0.416312 0.513695 0.665965
0.604761 0.581704 0.698054
0.753017 0.673213 0.759396
0 0.679835 0.741833
0.00798047 0.690944 0.744762
0.502312 0.714504 0.750011
0.692073 0.775647 0.763775
0.773404 0.824567 0.814527
0 0.905241 0.837079
0.0576333 0.912261 0.854109
0.556542 0.922179 0.875425
0.815991 0.944671 0.904814
0.901747 0.949401 0.946868
