src/colors/dark_&_moody/spy_night.cube
TITLE "Generated by Resolve"
LUT_3D_SIZE 9
0.0296483 0.0479133 0.0512551
0.0344854 0.0558785 0.0594034
0.0533608 0.0606851 0.0653239
0.0951095 0.0609751 0.066743
0.149004 0.0639353 0.0667582
0.226963 0.0629435 0.0664378
0.33138 0.0525978 0.065156
0.454597 0.0268406 0.0620584
0.596155 0.00814832 0.0553292
0.0512551 0.0784314 0.0827039
0.059617 0.0902419 0.095491
0.0734874 0.102831 0.105364
0.123323 0.108507 0.0991989
0.20412 0.102296 0.0970474
0.306966 0.0918288 0.0949264
0.421332 0.0815442 0.0907454
0.549401 0.06421 0.0844587
0.688716 0.0471199 0.0738842
0.0723735 0.12369 0.122103
0.0946059 0.143038 0.146777
0.117357 0.164294 0.153765
0.167498 0.188434 0.145617
0.258534 0.204822 0.136324
0.379934 0.201633 0.129824
0.521355 0.180774 0.125917
0.670161 0.150576 0.121111
0.789242 0.161151 0.106218
0.0848707 0.197375 0.152361
0.127169 0.221866 0.178134
0.171771 0.254261 0.19353
0.232136 0.289799 0.193881
0.322774 0.326848 0.182544
0.4439 0.35494 0.1691
0.586999 0.362737 0.157336
0.726604 0.359136 0.148119
0.847623 0.347723 0.142306
0.0928817 0.308461 0.177935
0.168811 0.325368 0.212039
0.234607 0.359976 0.231373
0.310552 0.399619 0.239384
0.405615 0.442359 0.235279
0.523842 0.488106 0.220081
0.636957 0.519127 0.203403
0.760983 0.544442 0.187243
0.859434 0.547616 0.176806
0.130022 0.441596 0.204791
0.235187 0.456413 0.242679
0.323613 0.482338 0.271824
0.411429 0.523949 0.282429
0.504814 0.565499 0.284871
0.60264 0.605692 0.278904
0.701045 0.643137 0.265354
0.781872 0.666117 0.24918
0.873671 0.6907 0.231479
0.231998 0.590829 0.235599
0.34313 0.602289 0.275822
0.439048 0.615061 0.315953
0.521691 0.644755 0.332555
0.602197 0.67602 0.340932
0.678523 0.706371 0.34342
0.750759 0.736568 0.33843
0.823102 0.766537 0.324697
0.892882 0.789273 0.302495
0.394751 0.721004 0.286641
0.484886 0.727901 0.328374
0.565225 0.736248 0.373526
0.631525 0.751431 0.410529
0.687892 0.777966 0.423667
0.743099 0.80444 0.431754
0.801709 0.828428 0.432395
0.862776 0.848463 0.423896
0.920851 0.865339 0.402121
0.554818 0.83975 0.377676
0.615595 0.845823 0.427192
0.672663 0.852308 0.482689
0.726787 0.859434 0.538903
0.775631 0.87393 0.559487
0.823819 0.889311 0.569467
0.868879 0.905669 0.573007
0.90901 0.919738 0.560418
0.950317 0.928328 0.520958
0.0311131 0.0506447 0.0538796
0.036759 0.0585489 0.0623789
0.0485084 0.0661936 0.0725872
0.0847791 0.0701915 0.0821241
0.133944 0.0759289 0.0868849
0.205356 0.0787976 0.0903639
0.30277 0.0757153 0.0925002
0.420432 0.063798 0.0928969
0.558801 0.039826 0.0905928
0.0538338 0.0823529 0.0868696
0.0627909 0.0946822 0.100328
0.0724651 0.108537 0.116289
0.104967 0.119844 0.127871
0.184085 0.115816 0.130922
0.275013 0.117571 0.131151
0.384298 0.115694 0.130358
0.508598 0.110369 0.127794
0.648768 0.105318 0.122026
0.0814679 0.130709 0.139986
0.10248 0.150576 0.163165
0.118853 0.173312 0.186938
0.145922 0.198688 0.204242
0.23357 0.218357 0.195071
0.35671 0.214145 0.191379
0.49601 0.196719 0.190616
0.625864 0.199176 0.183032
0.751766 0.209369 0.172793
0.0881971 0.213397 0.184466
0.149691 0.234531 0.228534
0.193271 0.266239 0.267948
0.230732 0.298207 0.278172
0.305364 0.33431 0.268345
0.420172 0.362829 0.258289
0.563882 0.371298 0.250355
0.707225 0.367117 0.246036
0.832258 0.354711 0.24538
0.0898604 0.327596 0.221042
0.187442 0.343969 0.264744
0.262287 0.368917 0.305272
0.327276 0.405707 0.326513
0.404608 0.446891 0.329473
0.510018 0.492027 0.320745
0.622019 0.526314 0.310979
0.744289 0.549996 0.303258
0.844617 0.554192 0.297841
0.123415 0.459144 0.254994
0.247684 0.474006 0.296956
0.347204 0.492653 0.338262
0.429923 0.525917 0.364492
0.510735 0.567132 0.375555
0.597696 0.607492 0.376883
0.689632 0.645411 0.371008
0.770642 0.67155 0.362844
0.860822 0.695323 0.357092
0.219409 0.603387 0.288014
0.34522 0.613764 0.328695
0.448524 0.62591 0.371099
0.533028 0.643 0.410224
0.606409 0.6748 0.428901
0.675578 0.706249 0.440772
0.742519 0.737667 0.44448
0.811826 0.76878 0.43975
0.881376 0.793774 0.427283
0.378882 0.728267 0.334936
0.47776 0.734371 0.377584
0.563363 0.742184 0.426398
0.632914 0.752468 0.479728
0.687343 0.775662 0.510002
0.739132 0.803357 0.525872
0.794781 0.82855 0.534051
0.852934 0.849515 0.5337
0.908507 0.867155 0.523125
0.537621 0.844984 0.42182
0.603296 0.850294 0.472679
0.664286 0.856123 0.527291
0.722133 0.862806 0.579843
0.775769 0.872404 0.61796
0.822309 0.88864 0.630045
0.865232 0.906142 0.63711
0.90277 0.920455 0.631113
0.941375 0.929198 0.608057
0.0306706 0.0535897 0.0662699
0.0404517 0.0610513 0.0693217
0.0554055 0.0683299 0.0831159
0.0862745 0.0727398 0.0969711
0.137423 0.0728161 0.106523
0.20943 0.0698405 0.111757
0.300862 0.0662089 0.117281
0.4065 0.0632486 0.123507
0.528832 0.063859 0.128222
0.0534524 0.0866712 0.0957961
0.0658427 0.0990921 0.105562
0.0762798 0.113725 0.122164
0.0964675 0.130053 0.143145
0.163577 0.133837 0.160098
0.245655 0.140566 0.167193
0.345373 0.146105 0.171603
0.463218 0.149065 0.173663
0.600549 0.150988 0.172839
0.0747387 0.139605 0.153201
0.10724 0.158053 0.171038
0.125475 0.181506 0.195468
0.146181 0.208408 0.222019
0.203113 0.235508 0.241718
0.329809 0.231708 0.24802
0.446418 0.234607 0.246708
0.574014 0.240208 0.243046
0.705272 0.250034 0.237613
0.0613413 0.232517 0.20856
0.168261 0.247944 0.256306
0.208042 0.279225 0.290211
0.239948 0.311864 0.319051
0.281651 0.341695 0.340764
0.391379 0.376715 0.332784
0.538338 0.38204 0.329793
0.686381 0.374212 0.330831
0.801328 0.378042 0.32607
0.0402533 0.349828 0.25655
0.196536 0.365118 0.307759
0.2963 0.388281 0.359533
0.358251 0.421988 0.400488
0.409369 0.453407 0.413718
0.491386 0.496757 0.406195
0.603128 0.5355 0.3991
0.725261 0.556313 0.396262
0.82855 0.559625 0.395285
0.0680858 0.4813 0.30074
0.244236 0.494789 0.34374
0.36466 0.512825 0.389899
0.454887 0.536187 0.435615
0.522667 0.569345 0.465675
0.591485 0.609049 0.474891
0.673548 0.647639 0.474296
0.755337 0.678141 0.471397
0.844038 0.701457 0.474037
0.169268 0.619196 0.334493
0.330861 0.628 0.376394
0.451499 0.638666 0.424903
0.543999 0.652262 0.477729
0.613077 0.672923 0.521737
0.671717 0.705287 0.542901
0.730999 0.738201 0.552758
0.796338 0.770916 0.554192
0.865431 0.798688 0.549767
0.33959 0.73814 0.381094
0.458503 0.743038 0.427741
0.555047 0.749981 0.48246
0.629221 0.759976 0.538262
0.687373 0.77406 0.58735
0.736477 0.801297 0.609583
0.788602 0.828077 0.621027
0.843412 0.850416 0.624933
0.896056 0.869108 0.621653
0.506447 0.852186 0.467933
0.581918 0.856382 0.518578
0.650507 0.861219 0.570626
0.714824 0.867124 0.617838
0.774502 0.874083 0.659068
0.822553 0.887526 0.683803
0.862272 0.906294 0.695323
0.897337 0.92134 0.694438
0.933761 0.930312 0.679622
0.0259251 0.059205 0.095552
0.0415351 0.0670939 0.0983139
0.0582895 0.0738384 0.110185
0.0849622 0.07953 0.128283
0.13228 0.0824598 0.147341
0.207446 0.0786603 0.159777
0.31017 0.0605478 0.16434
0.429419 0.0200961 0.160403
0.558587 0.00148013 0.154513
0.0369726 0.0940871 0.128649
0.0645457 0.10515 0.129656
0.0823682 0.11931 0.136675
0.11043 0.132509 0.163409
0.164599 0.140154 0.190066
0.250172 0.139483 0.206729
0.355383 0.130465 0.212146
0.470695 0.118456 0.212329
0.596292 0.11957 0.215915
0.0344854 0.150576 0.18204
0.107713 0.165988 0.186877
0.132006 0.190463 0.204303
0.153887 0.217762 0.231525
0.191821 0.248341 0.263981
0.298161 0.256886 0.288075
0.401679 0.262882 0.292805
0.520912 0.269932 0.293111
0.650858 0.279164 0.290578
0.00738537 0.243397 0.241169
0.147967 0.265995 0.269627
0.218799 0.290532 0.299825
0.249973 0.322942 0.328664
0.287129 0.355489 0.357061
0.359442 0.389181 0.380148
0.511223 0.396338 0.388647
0.644282 0.395834 0.387701
0.754513 0.406149 0.380972
0 0.362524 0.293767
0.156435 0.384665 0.332967
0.319692 0.404471 0.387091
0.375051 0.437812 0.421134
0.415686 0.473793 0.450507
0.469703 0.505608 0.476982
0.577935 0.546517 0.476448
0.701167 0.565179 0.480781
0.809094 0.566155 0.486458
0 0.49984 0.331685
0.16788 0.517082 0.373266
0.366232 0.534203 0.432395
0.480827 0.557427 0.496117
0.542123 0.589212 0.549844
0.589212 0.612711 0.57113
0.652018 0.648798 0.571572
0.734386 0.684947 0.57171
0.822507 0.707683 0.578347
0 0.63801 0.359243
0.277195 0.645716 0.420417
0.442466 0.653635 0.478248
0.55111 0.665843 0.540276
0.622858 0.683299 0.594614
0.673259 0.70396 0.62945
0.720851 0.737453 0.640238
0.780285 0.772366 0.642451
0.84889 0.803311 0.641703
0.252491 0.751247 0.428748
0.415641 0.754559 0.47895
0.534646 0.760006 0.535485
0.621012 0.7691 0.591196
0.685924 0.782361 0.637537
0.738842 0.799558 0.671977
0.786053 0.826474 0.687938
0.835828 0.850782 0.695079
0.885145 0.871077 0.69604
0.44828 0.861936 0.513191
0.544656 0.864622 0.561364
0.627848 0.868086 0.608713
0.7028 0.87277 0.651667
0.76907 0.878935 0.691783
0.821912 0.8878 0.731792
0.859358 0.906081 0.75494
0.890959 0.922316 0.760357
0.925109 0.931579 0.751247
0.0179446 0.0658274 0.142092
0.0376287 0.0734874 0.144732
0.061799 0.0838178 0.15462
0.0909438 0.0941634 0.174136
0.137804 0.0959793 0.202304
0.203189 0.093904 0.222599
0.304082 0.0819104 0.240726
0.42356 0.0511635 0.246265
0.565835 0.00376898 0.244907
0.0206607 0.103517 0.17789
0.0518349 0.111284 0.180346
0.0849012 0.126711 0.188403
0.117891 0.144091 0.20943
0.168902 0.155383 0.241718
0.243885 0.160632 0.269276
0.347341 0.157015 0.288289
0.471565 0.13959 0.29427
0.616617 0.0941176 0.291981
0.016495 0.158495 0.229297
0.0697032 0.177188 0.234546
0.127001 0.203586 0.239628
0.166308 0.229404 0.253758
0.215854 0.257939 0.294026
0.296025 0.270008 0.327916
0.404532 0.269368 0.345968
0.535027 0.254322 0.348882
0.66807 0.228397 0.337728
0 0.25272 0.297337
0.0803693 0.277531 0.307713
0.21651 0.30544 0.315282
0.263157 0.333898 0.338506
0.297093 0.367269 0.365774
0.351522 0.400626 0.39913
0.483009 0.414359 0.428214
0.594842 0.414664 0.427237
0.701366 0.421912 0.422202
0 0.366598 0.349691
0.0599222 0.392828 0.36939
0.285771 0.422797 0.396399
0.389975 0.449622 0.431159
0.428458 0.486824 0.460624
0.467689 0.522499 0.493309
0.547021 0.552499 0.530831
0.674434 0.576867 0.551537
0.777432 0.576928 0.556893
0 0.502708 0.38851
0.0331731 0.526528 0.416281
0.316396 0.55079 0.458824
0.499001 0.57203 0.530098
0.551293 0.603021 0.573571
0.581338 0.632441 0.605295
0.628183 0.657984 0.632258
0.708431 0.688594 0.640879
0.800839 0.714977 0.650553
0 0.647593 0.420203
0.0714885 0.659632 0.455024
0.367895 0.669642 0.508919
0.543969 0.68069 0.586496
0.633188 0.698085 0.646204
0.673564 0.722499 0.682048
0.71516 0.743114 0.698695
0.76437 0.771344 0.704448
0.831601 0.806836 0.706233
0 0.766827 0.454597
0.242496 0.770596 0.500633
0.471397 0.773938 0.571664
0.602792 0.780499 0.632273
0.682628 0.792554 0.677028
0.740368 0.809033 0.715129
0.785595 0.826734 0.745449
0.827375 0.849653 0.76112
0.872435 0.872709 0.76614
0.215412 0.878889 0.517845
0.455283 0.876768 0.590036
0.586175 0.87744 0.640345
0.679927 0.880247 0.681498
0.758053 0.885023 0.724483
0.8159 0.893553 0.768933
0.857298 0.907134 0.808072
0.886061 0.923156 0.823377
0.916045 0.93286 0.820569
0.00866712 0.0742809 0.209384
0.0185397 0.0820172 0.212924
0.0535592 0.0922408 0.222843
0.0971237 0.105669 0.241337
0.152285 0.120333 0.26836
0.225025 0.117861 0.300557
0.312428 0.10602 0.324697
0.423987 0.0850996 0.341085
0.56495 0.0312047 0.35436
0.00836194 0.114504 0.247501
0.0216983 0.120119 0.250095
0.0764172 0.135576 0.257862
0.129335 0.155795 0.275181
0.189532 0.181231 0.303365
0.263981 0.190478 0.33724
0.353033 0.188052 0.36376
0.469902 0.178744 0.383429
0.609812 0.152361 0.396033
4.57771e-05 0.171511 0.289036
0.0390326 0.189532 0.296956
0.116777 0.210895 0.306508
0.177722 0.237079 0.319554
0.240421 0.27042 0.345312
0.314809 0.294759 0.380301
0.408515 0.300221 0.411353
0.527535 0.294987 0.431617
0.660136 0.276875 0.438804
0 0.258671 0.348699
0.0365606 0.281621 0.356344
0.164584 0.311391 0.365103
0.251377 0.34847 0.372564
0.310948 0.381476 0.386145
0.381216 0.414694 0.430472
0.480583 0.431067 0.471321
0.592767 0.427329 0.491218
0.709621 0.412741 0.491447
0 0.377035 0.411093
0.0184176 0.40058 0.423911
0.218372 0.431052 0.437278
0.381109 0.466636 0.444709
0.441947 0.498802 0.471458
0.481712 0.535149 0.504845
0.533501 0.567437 0.547768
0.650019 0.587945 0.596338
0.728206 0.587152 0.591852
0 0.504936 0.459876
0 0.528878 0.479255
0.221515 0.556115 0.503792
0.459052 0.585199 0.541115
0.560784 0.612634 0.584451
0.591867 0.643076 0.615351
0.619242 0.669917 0.642741
0.686046 0.691432 0.674876
0.77998 0.722484 0.696223
0 0.644999 0.499504
0 0.660502 0.524254
0.267857 0.675212 0.560708
0.496468 0.690059 0.610605
0.637934 0.70692 0.667643
0.675746 0.731472 0.696681
0.696574 0.756985 0.718029
0.735149 0.781933 0.73994
0.809323 0.8065 0.757397
0 0.771878 0.541161
0.00494392 0.778897 0.570092
0.348211 0.785962 0.607431
0.5346 0.792996 0.650416
0.660975 0.80354 0.701686
0.735454 0.819257 0.751888
0.771389 0.838834 0.790402
0.815076 0.856123 0.811856
0.858259 0.87216 0.825101
0 0.892439 0.586191
0.236225 0.892378 0.616205
0.45597 0.892378 0.650294
0.610346 0.892363 0.697139
0.731899 0.893553 0.755093
0.803723 0.90074 0.804013
0.850156 0.915465 0.842466
0.885801 0.929427 0.86714
0.910918 0.933471 0.874739
0 0.084535 0.295003
9.15541e-05 0.0921492 0.299168
0.0227512 0.102403 0.308904
0.0926223 0.11574 0.325399
0.169131 0.133639 0.348898
0.255909 0.156786 0.378134
0.349874 0.149752 0.408453
0.464561 0.124834 0.439536
0.571298 0.0955367 0.450889
0 0.125292 0.329809
0.00120546 0.13167 0.332967
0.0523232 0.147356 0.340566
0.131991 0.167926 0.35465
0.211444 0.195132 0.377081
0.299916 0.229877 0.407172
0.393805 0.236362 0.439887
0.504433 0.224292 0.472953
0.613306 0.208209 0.490669
0 0.19292 0.36669
0.0156863 0.208972 0.373541
0.0925765 0.22005 0.380224
0.180301 0.246509 0.390692
0.263569 0.280079 0.410178
0.352773 0.318517 0.440818
0.446891 0.342153 0.47892
0.551659 0.338094 0.516838
0.656565 0.329046 0.538506
0 0.273213 0.407324
0.00241093 0.29279 0.412024
0.134661 0.318639 0.42092
0.247501 0.350042 0.434028
0.331853 0.381689 0.451789
0.415549 0.41854 0.483207
0.509071 0.460853 0.530526
0.598154 0.467521 0.572137
0.692912 0.464622 0.594278
0 0.383993 0.468742
9.15541e-05 0.403922 0.47689
0.164202 0.429511 0.48719
0.317189 0.464988 0.500572
0.424475 0.50956 0.512108
0.48867 0.548241 0.528679
0.552224 0.577615 0.583993
0.644526 0.603662 0.637201
0.722942 0.600076 0.653193
0 0.517693 0.539361
0 0.536812 0.553216
0.18088 0.560739 0.570275
0.394476 0.591531 0.589456
0.545983 0.623972 0.597406
0.601251 0.65185 0.625147
0.628016 0.679545 0.651041
0.667552 0.704295 0.68188
0.764553 0.728695 0.727245
0 0.645487 0.591348
0 0.660945 0.607919
0.153933 0.676463 0.626368
0.4177 0.693523 0.647837
0.606851 0.715114 0.675593
0.682994 0.73994 0.703944
0.703197 0.765805 0.725277
0.723003 0.791058 0.748012
0.787778 0.81207 0.783612
0 0.771023 0.6309
0 0.779522 0.645029
0.164111 0.787655 0.663722
0.45922 0.797467 0.688075
0.622675 0.810559 0.722438
0.736721 0.824903 0.773693
0.770336 0.844678 0.805203
0.790814 0.864683 0.827832
0.827512 0.883787 0.849042
0 0.898253 0.669902
0.000457771 0.900572 0.685634
0.315373 0.902251 0.706096
0.513649 0.904463 0.7346
0.65864 0.906279 0.774578
0.76907 0.910735 0.823377
0.830808 0.924025 0.865614
0.858137 0.94551 0.898344
0.894438 0.946105 0.909895
0 0.0971084 0.38996
0 0.105013 0.393988
0.00315862 0.11548 0.402853
0.0853895 0.129107 0.417411
0.188571 0.147875 0.438514
0.294575 0.174868 0.466316
0.407492 0.210025 0.500557
0.514626 0.200076 0.535607
0.629084 0.17055 0.571221
0 0.138933 0.421286
0 0.147265 0.424216
0.0235447 0.163363 0.430976
0.13434 0.184573 0.44361
0.235828 0.212116 0.463767
0.340291 0.246769 0.492668
0.451179 0.289174 0.530724
0.552468 0.295796 0.568627
0.657374 0.279667 0.604669
0 0.221897 0.456779
0 0.226871 0.460166
0.0547951 0.234897 0.466407
0.18117 0.262013 0.476585
0.286564 0.294667 0.494865
0.390188 0.332509 0.524498
0.496025 0.37792 0.56466
0.590402 0.402792 0.605051
0.683833 0.395636 0.639643
0 0.300694 0.487999
0 0.318364 0.495293
0.119905 0.341161 0.50634
0.237385 0.359716 0.519036
0.337194 0.385916 0.535332
0.44152 0.426368 0.561852
0.539528 0.473701 0.600641
0.627894 0.518791 0.642664
0.705776 0.520363 0.673472
0 0.402792 0.544976
0 0.416861 0.548272
0.0805829 0.435737 0.553246
0.268269 0.462379 0.562707
0.401343 0.497597 0.577844
0.505379 0.539132 0.603204
0.583078 0.575753 0.638086
0.662684 0.618723 0.677485
0.729671 0.636439 0.70901
0 0.526879 0.614511
0 0.540673 0.620371
0.0763104 0.558358 0.627604
0.331609 0.582971 0.636728
0.487465 0.617151 0.648569
0.585107 0.656672 0.659205
0.632242 0.686763 0.669047
0.68072 0.709789 0.707317
0.759899 0.735821 0.753536
0 0.6598 0.671901
0 0.6701 0.679042
0.104875 0.681773 0.687465
0.393927 0.696849 0.697688
0.556085 0.718151 0.708095
0.669978 0.747585 0.713176
0.709987 0.774426 0.732921
0.729671 0.799268 0.756283
0.762615 0.821607 0.787549
0 0.770962 0.706767
0 0.779767 0.716274
0.0912795 0.788968 0.727214
0.388052 0.799832 0.740322
0.560372 0.814038 0.757214
0.707958 0.832105 0.783322
0.77705 0.851835 0.812451
0.798199 0.871077 0.836042
0.817609 0.891539 0.857084
0 0.903685 0.75671
0 0.907103 0.769039
0.0104982 0.909407 0.783703
0.393118 0.911208 0.80174
0.590692 0.914366 0.824521
0.738582 0.9196 0.851301
0.832456 0.931151 0.885298
0.862043 0.947082 0.916701
0.889845 0.948257 0.939544
0 0.115618 0.501503
0 0.123735 0.505455
0 0.134783 0.514412
0.0842756 0.149554 0.529366
0.217853 0.170184 0.551217
0.341009 0.199023 0.579416
0.463539 0.238544 0.612222
0.578637 0.289815 0.646113
0.67451 0.285893 0.674586
0 0.160082 0.535225
0 0.170764 0.537606
0.000869764 0.187518 0.544533
0.138766 0.209354 0.557198
0.265629 0.237079 0.576867
0.384909 0.271839 0.603555
0.501625 0.31577 0.635248
0.608911 0.37174 0.667338
0.696086 0.383551 0.693965
0 0.25156 0.572747
0 0.251789 0.574701
0.0111391 0.259815 0.580133
0.180987 0.285969 0.589532
0.310979 0.317418 0.605524
0.428382 0.355016 0.628779
0.537987 0.401053 0.657313
0.636515 0.458289 0.686671
0.714488 0.487266 0.712795
0 0.345052 0.607126
0 0.357702 0.61091
0.0910201 0.368643 0.61706
0.216938 0.37406 0.62504
0.348714 0.402487 0.636591
0.46836 0.443107 0.654063
0.572152 0.491173 0.677806
0.661295 0.545083 0.705318
0.731899 0.587976 0.733425
0 0.436179 0.640909
0 0.445563 0.641382
0.0254215 0.460517 0.646159
0.26479 0.483299 0.654658
0.416312 0.513695 0.665965
0.510811 0.539254 0.679423
0.604761 0.581704 0.698054
0.683833 0.626703 0.724956
0.753017 0.673213 0.759396
0 0.554543 0.694118
0 0.561791 0.693446
0 0.571725 0.692821
0.271778 0.586435 0.692699
0.43682 0.608515 0.694697
0.553567 0.63801 0.701686
0.636393 0.671351 0.717464
0.70193 0.702998 0.745846
0.770474 0.740597 0.787396
0 0.679835 0.741833
0 0.685008 0.743404
0.00798047 0.690944 0.744762
0.330465 0.699535 0.746487
0.502312 0.714504 0.750011
0.620844 0.740566 0.757198
0.692073 0.775647 0.763775
0.730282 0.804654 0.77435
0.773404 0.824567 0.814527
0 0.798764 0.793774
0 0.80322 0.79852
0.0251926 0.807721 0.803235
0.356085 0.813626 0.808255
0.532799 0.822919 0.814191
0.661662 0.837751 0.820615
0.766857 0.857755 0.823941
0.8047 0.877958 0.842893
0.824628 0.899123 0.864744
0 0.905241 0.837079
0 0.908446 0.84509
0.0576333 0.912261 0.854109
0.378408 0.91664 0.864286
0.556542 0.922179 0.875425
0.702358 0.931258 0.88896
0.815991 0.944671 0.904814
0.870436 0.947494 0.924971
0.901747 0.949401 0.946868
