src/colors/dark_&_moody/spy_night.cube
TITLE "Generated by Resolve"
LUT_3D_SIZE 33
0.0296483 0.0479133 0.0512551
0.0306859 0.0498665 0.0532082
0.0320592 0.0517433 0.0552682
0.0332647 0.053666 0.0574044
0.0344854 0.0558785 0.0594034
0.0362249 0.057847 0.0616007
0.0376287 0.0599222 0.0638132
0.0442054 0.0608988 0.0646372
0.0533608 0.0606851 0.0653239
0.0633402 0.0600137 0.0658579
0.0733959 0.0602884 0.0662394
0.084123 0.0603952 0.0665446
0.0951095 0.0609751 0.066743
0.106798 0.0619059 0.066804
0.119692 0.0626841 0.0667887
0.133577 0.0634623 0.0667887
0.149004 0.0639353 0.0667582
0.165988 0.0641947 0.0666819
0.18436 0.0643626 0.0666209
0.204807 0.06392 0.0665293
0.226963 0.0629435 0.0664378
0.250935 0.0614939 0.0661631
0.276448 0.0593118 0.0659495
0.303227 0.0563668 0.0656901
0.33138 0.0525978 0.065156
0.360616 0.0479286 0.0646525
0.391012 0.0421607 0.0638895
0.422309 0.035111 0.063035
0.454597 0.0268406 0.0620584
0.488304 0.0196536 0.0607767
0.523186 0.0177462 0.0594034
0.559243 0.0149691 0.057557
0.596155 0.00814832 0.0553292
0.0337072 0.0544289 0.0581369
0.0350958 0.0566262 0.0601968
0.0367742 0.0585489 0.0624094
0.0380865 0.0607919 0.0645914
0.0397498 0.0631723 0.0668498
0.0415961 0.0652781 0.069276
0.043183 0.0678264 0.0716716
0.0473793 0.0696269 0.073228
0.0562905 0.0701457 0.0731823
0.0666972 0.070161 0.0732128
0.0777295 0.0697948 0.0733349
0.0902266 0.0685435 0.073518
0.102846 0.0682994 0.073518
0.115389 0.0689708 0.0733959
0.129351 0.0693217 0.0733196
0.144381 0.0698863 0.0732128
0.160815 0.0702678 0.0729992
0.178698 0.0704814 0.0728008
0.198581 0.0702373 0.0726177
0.220035 0.0695506 0.0724498
0.243229 0.0684825 0.0721141
0.268177 0.0666972 0.0718395
0.294408 0.0643778 0.071397
0.321965 0.0612802 0.0708782
0.350637 0.0575418 0.0702983
0.380346 0.0528572 0.0695659
0.411231 0.0471351 0.0687572
0.442725 0.0405127 0.0678111
0.475196 0.0325017 0.0666972
0.509209 0.0231022 0.0653239
0.544335 0.0187381 0.0635691
0.580346 0.01738 0.0616159
0.61709 0.0133364 0.059266
0.0385901 0.0617227 0.0653697
0.0404822 0.06392 0.0677348
0.0421912 0.0661326 0.070161
0.0439002 0.0687114 0.0726024
0.0458839 0.0710765 0.0751812
0.0476844 0.0736706 0.0778668
0.0497292 0.0764477 0.0806134
0.052079 0.079057 0.0833295
0.0603037 0.0805066 0.0824292
0.0708019 0.0812085 0.0819104
0.0823529 0.0811475 0.0814984
0.095201 0.0804608 0.0813153
0.109133 0.0795911 0.0810559
0.124086 0.0788281 0.0809644
0.14049 0.0773785 0.0808576
0.157046 0.0772717 0.0805066
0.174548 0.0775158 0.0801099
0.19411 0.0773785 0.0798505
0.215198 0.0770428 0.0794995
0.237858 0.0761883 0.0791485
0.262104 0.0748608 0.0786908
0.287816 0.0730144 0.0782483
0.314672 0.0706188 0.0776379
0.342824 0.0674449 0.0769513
0.372015 0.0636454 0.0762341
0.402304 0.0590677 0.075349
0.433204 0.0537118 0.074403
0.465095 0.0475471 0.0731823
0.498009 0.0402991 0.0719615
0.532143 0.032105 0.0703746
0.567361 0.0235752 0.0683909
0.603235 0.0179446 0.0661021
0.639887 0.0175937 0.0635538
0.0446021 0.0696422 0.073518
0.0465705 0.0719768 0.076173
0.0483711 0.0747082 0.0788434
0.0504616 0.0775006 0.0816205
0.0524605 0.0801556 0.0846418
0.0544594 0.0831464 0.0877089
0.056611 0.0861372 0.0908522
0.0587778 0.0890974 0.0942245
0.0661021 0.09131 0.0932479
0.0759747 0.092668 0.0919814
0.0878309 0.0937514 0.0909133
0.101061 0.0936599 0.0901503
0.115908 0.0930953 0.0895399
0.132189 0.0919661 0.0891737
0.15024 0.0902113 0.0889296
0.169375 0.0889143 0.0885023
0.190188 0.0870222 0.088365
0.211841 0.0856336 0.088014
0.234348 0.0848554 0.0874189
0.258091 0.0838788 0.0867781
0.283192 0.0823987 0.0861372
0.309667 0.0805676 0.0854353
0.337392 0.078172 0.0847028
0.366049 0.0751965 0.0838636
0.395727 0.0716106 0.0829633
0.4262 0.0673075 0.0818952
0.457435 0.062501 0.0806744
0.489479 0.0569162 0.0793622
0.52253 0.0508583 0.0778668
0.556848 0.043946 0.0759594
0.59202 0.0367742 0.0737621
0.627894 0.0296941 0.0712749
0.663798 0.0249638 0.0684062
0.0512551 0.0784314 0.0827039
0.0531167 0.0812695 0.0857404
0.0552682 0.0842145 0.0888533
0.0574197 0.087129 0.0921035
0.059617 0.0902419 0.095491
0.0620432 0.0934615 0.0990005
0.0641794 0.0966964 0.102754
0.0666209 0.100038 0.106661
0.0734874 0.102831 0.105364
0.0822309 0.105226 0.103365
0.0944228 0.107561 0.101762
0.107942 0.108446 0.100313
0.123323 0.108507 0.0991989
0.140642 0.108049 0.0984054
0.159625 0.106935 0.0977646
0.180835 0.104829 0.097261
0.20412 0.102296 0.0970474
0.22884 0.0991531 0.0967575
0.254017 0.0968338 0.0962539
0.280476 0.093904 0.0957046
0.306966 0.0918288 0.0949264
0.334066 0.0899519 0.0940566
0.362295 0.0876326 0.0930037
0.391333 0.0848096 0.0919356
0.421332 0.0815442 0.0907454
0.452094 0.0778515 0.0894331
0.483467 0.0736095 0.087953
0.515877 0.0691234 0.0863661
0.549401 0.06421 0.0844587
0.583719 0.0592203 0.0822614
0.61854 0.0543984 0.0798657
0.653895 0.0501259 0.0770123
0.688716 0.0471199 0.0738842
0.0582132 0.0881971 0.0933547
0.060502 0.091371 0.0967727
0.0627909 0.0946822 0.100328
0.0649577 0.0979782 0.104173
0.0675975 0.101305 0.10808
0.0700084 0.104936 0.112078
0.0724651 0.108553 0.116335
0.0755474 0.112291 0.120119
0.0822461 0.115663 0.11783
0.0908217 0.118898 0.115572
0.10248 0.122042 0.113527
0.116335 0.124788 0.111543
0.132174 0.125978 0.10988
0.150164 0.126268 0.108721
0.170321 0.126085 0.107576
0.192569 0.125002 0.106706
0.2168 0.122988 0.106081
0.243091 0.119966 0.105547
0.271092 0.115877 0.105135
0.300816 0.110765 0.104814
0.330419 0.106416 0.104219
0.359808 0.102846 0.103395
0.389548 0.0993668 0.102312
0.41915 0.0968338 0.100999
0.449195 0.0940261 0.0995346
0.479881 0.0910353 0.0979629
0.511421 0.0878462 0.0962844
0.544167 0.0843671 0.0943008
0.577691 0.0809339 0.0920729
0.611826 0.07776 0.089662
0.646296 0.0752575 0.0868391
0.680659 0.0734569 0.0837262
0.714 0.0731823 0.0802472
0.065919 0.0991531 0.105592
0.0685588 0.102586 0.109514
0.0708019 0.106233 0.113588
0.0735027 0.10988 0.117845
0.0762798 0.113756 0.122179
0.0786908 0.117891 0.126802
0.0819104 0.121813 0.131533
0.0861219 0.126024 0.132296
0.0925917 0.129915 0.130404
0.101381 0.134051 0.128145
0.112383 0.138186 0.125704
0.126329 0.142428 0.123583
0.142168 0.144823 0.121569
0.161028 0.147036 0.119799
0.182239 0.147921 0.118196
0.205142 0.147738 0.116854
0.230198 0.146777 0.11577
0.25713 0.145083 0.114748
0.285969 0.142123 0.113909
0.316289 0.138033 0.113359
0.348348 0.132662 0.112795
0.381628 0.125917 0.112367
0.416114 0.117571 0.112016
0.447166 0.113939 0.11078
0.478538 0.110338 0.109331
0.509804 0.107454 0.107576
0.541863 0.105104 0.105379
0.574411 0.103014 0.103136
0.607675 0.100969 0.100557
0.641306 0.0996567 0.0978561
0.674739 0.0987869 0.094667
0.707637 0.0992142 0.0912795
0.739391 0.100862 0.0876173
0.0692607 0.111131 0.114153
0.0751049 0.115145 0.120897
0.0795453 0.119249 0.128054
0.0831006 0.123339 0.133196
0.0858473 0.127916 0.138125
0.0890974 0.132204 0.142657
0.0928206 0.136645 0.143893
0.0974594 0.141512 0.143709
0.104433 0.146044 0.142458
0.113298 0.151247 0.14049
0.124224 0.156207 0.138155
0.138277 0.161547 0.135775
0.153643 0.165591 0.13344
0.172671 0.169726 0.131289
0.194629 0.172457 0.12929
0.21857 0.174075 0.127428
0.244144 0.17438 0.125811
0.27155 0.173831 0.124376
0.300893 0.17203 0.123247
0.33193 0.169375 0.122087
0.364126 0.165743 0.121187
0.397894 0.160693 0.120363
0.432609 0.153994 0.119844
0.468071 0.14641 0.11928
0.504601 0.13724 0.118822
0.540169 0.129122 0.1178
0.572793 0.126848 0.115587
0.605753 0.124865 0.113252
0.638758 0.1243 0.110292
0.671519 0.124315 0.107118
0.703365 0.125414 0.103822
0.734508 0.127214 0.100145
0.764691 0.130129 0.0961013
0.0723735 0.12369 0.122103
0.0785534 0.128359 0.128496
0.0845502 0.133135 0.135027
0.0898299 0.138033 0.141451
0.0946059 0.143038 0.146777
0.09897 0.148013 0.15082
0.104112 0.153307 0.15317
0.109789 0.158648 0.154116
0.117357 0.164294 0.153765
0.126589 0.170275 0.152468
0.138003 0.176349 0.150347
0.151995 0.182879 0.147997
0.167498 0.188434 0.145617
0.185718 0.193469 0.14316
0.20676 0.198093 0.14081
0.232639 0.203433 0.138384
0.258534 0.204822 0.136324
0.286336 0.205676 0.13434
0.316091 0.20531 0.132647
0.347265 0.20412 0.131212
0.379934 0.201633 0.129824
0.413657 0.198291 0.128618
0.448447 0.193668 0.127626
0.48423 0.187808 0.126741
0.521355 0.180774 0.125917
0.559335 0.17232 0.125231
0.597482 0.163851 0.124392
0.635584 0.154833 0.123339
0.670161 0.150576 0.121111
0.701442 0.151995 0.117632
0.731777 0.153964 0.114153
0.761074 0.156939 0.110262
0.789242 0.161151 0.106218
0.0758068 0.138064 0.130083
0.082887 0.143069 0.136324
0.0896773 0.148501 0.142641
0.0962081 0.154116 0.148775
0.1028 0.159762 0.15433
0.108537 0.165621 0.158938
0.115343 0.171679 0.162066
0.121889 0.177859 0.16379
0.130678 0.184421 0.164355
0.140398 0.191165 0.16379
0.152331 0.198428 0.162356
0.166735 0.205661 0.160281
0.183093 0.212909 0.157702
0.201358 0.21973 0.154849
0.21973 0.224277 0.152316
0.245151 0.231083 0.149676
0.272328 0.236179 0.147112
0.301778 0.239658 0.144686
0.331762 0.240513 0.142535
0.362997 0.24062 0.140536
0.395651 0.239765 0.138659
0.429419 0.23769 0.137163
0.464225 0.234821 0.135622
0.500359 0.231037 0.134386
0.537514 0.226398 0.132891
0.57557 0.220844 0.131716
0.614267 0.214038 0.130587
0.652766 0.206668 0.129732
0.690227 0.198367 0.128786
0.725475 0.191638 0.127337
0.75877 0.185718 0.125887
0.78674 0.188403 0.122133
0.813077 0.193194 0.117876
0.0794995 0.154726 0.138109
0.0873884 0.160021 0.144274
0.0951858 0.165957 0.150423
0.102907 0.172152 0.156497
0.110536 0.178653 0.162097
0.118425 0.185275 0.166766
0.12639 0.19205 0.170565
0.134768 0.199023 0.173159
0.144137 0.20621 0.174487
0.154452 0.213779 0.174731
0.167437 0.221668 0.173831
0.182101 0.229725 0.172168
0.199237 0.238361 0.169741
0.218524 0.246921 0.166873
0.238453 0.253666 0.163973
0.257984 0.258305 0.161517
0.285786 0.266392 0.158465
0.31548 0.272343 0.155596
0.347662 0.277256 0.152667
0.37911 0.278309 0.150408
0.411719 0.278614 0.148135
0.445396 0.278019 0.146181
0.480491 0.276799 0.144121
0.516808 0.274723 0.142275
0.553933 0.272053 0.14052
0.591653 0.268788 0.138781
0.629847 0.26479 0.13724
0.667155 0.259968 0.135882
0.703502 0.254353 0.134569
0.738964 0.2477 0.133608
0.772763 0.24062 0.132662
0.80441 0.234882 0.131487
0.833692 0.230732 0.129854
0.0826429 0.174655 0.145388
0.0919356 0.179507 0.152316
0.100877 0.185321 0.158709
0.109606 0.19237 0.164431
0.118868 0.19942 0.16994
0.128084 0.206744 0.174868
0.137301 0.21416 0.179049
0.147234 0.22182 0.182025
0.157855 0.229786 0.184024
0.169558 0.237781 0.185016
0.183017 0.246067 0.184833
0.198154 0.254795 0.183734
0.215259 0.263798 0.181933
0.234913 0.272999 0.179324
0.257298 0.28249 0.176318
0.278569 0.28925 0.173434
0.302571 0.29601 0.170275
0.328298 0.3019 0.167361
0.361898 0.310842 0.163958
0.394522 0.315007 0.161028
0.428305 0.317723 0.158206
0.462119 0.318517 0.155718
0.497337 0.318746 0.153262
0.533516 0.318517 0.150866
0.570535 0.317479 0.148638
0.607553 0.316152 0.146471
0.644511 0.31397 0.14435
0.680461 0.311299 0.142367
0.715618 0.307836 0.140963
0.749493 0.303807 0.139544
0.782116 0.299214 0.138354
0.81323 0.29398 0.137407
0.842618 0.288319 0.136629
0.0848707 0.197375 0.152361
0.0958877 0.201831 0.159777
0.106676 0.207446 0.166552
0.117128 0.214267 0.172763
0.127169 0.221866 0.178134
0.137942 0.229664 0.183062
0.148882 0.237751 0.187457
0.160006 0.24593 0.190982
0.171771 0.254261 0.19353
0.184833 0.262806 0.194965
0.198978 0.27158 0.195529
0.214511 0.280583 0.195148
0.232136 0.289799 0.193881
0.251957 0.299321 0.191882
0.274144 0.309056 0.18912
0.29839 0.318669 0.185763
0.322774 0.326848 0.182544
0.347448 0.333135 0.179477
0.374792 0.339391 0.176272
0.40676 0.3467 0.172839
0.4439 0.35494 0.1691
0.479591 0.35877 0.165896
0.514778 0.3608 0.162997
0.550698 0.361959 0.160159
0.586999 0.362737 0.157336
0.622995 0.362982 0.154665
0.658518 0.362188 0.152239
0.693019 0.36083 0.150118
0.726604 0.359136 0.148119
0.75903 0.356847 0.146288
0.790021 0.354208 0.144701
0.819486 0.35108 0.143359
0.847623 0.347723 0.142306
0.0864118 0.222858 0.158801
0.100221 0.226627 0.166751
0.112795 0.231846 0.174258
0.124895 0.238468 0.180606
0.136645 0.24593 0.186374
0.148501 0.254047 0.191546
0.160433 0.262425 0.195956
0.173083 0.271 0.19971
0.186389 0.279728 0.202762
0.200381 0.288624 0.204837
0.215183 0.297627 0.205951
0.231891 0.306889 0.206226
0.250004 0.31635 0.20557
0.269825 0.325902 0.204059
0.291798 0.335683 0.201892
0.316014 0.345739 0.199207
0.342306 0.355764 0.195773
0.370367 0.365713 0.191867
0.395392 0.371832 0.188647
0.42208 0.377111 0.185275
0.45507 0.385 0.18172
0.494194 0.395239 0.177386
0.532616 0.402579 0.173266
0.568032 0.405249 0.170031
0.603189 0.407248 0.166857
0.637659 0.408438 0.163973
0.671565 0.409125 0.161181
0.704616 0.409125 0.158709
0.736675 0.408789 0.156207
0.767315 0.407904 0.154223
0.796765 0.406439 0.152316
0.824872 0.404715 0.1505
0.851484 0.402731 0.14902
0.0881819 0.250126 0.165103
0.103944 0.253895 0.173327
0.11899 0.258091 0.181659
0.133486 0.262882 0.189639
0.14638 0.270909 0.195178
0.15964 0.279286 0.200275
0.173037 0.288014 0.204944
0.186847 0.296788 0.208835
0.201205 0.305715 0.212055
0.216388 0.31487 0.214618
0.232563 0.324117 0.216281
0.249821 0.333486 0.217044
0.268513 0.343023 0.216983
0.288838 0.35288 0.216159
0.311101 0.362966 0.214496
0.335271 0.373175 0.212284
0.361563 0.383734 0.209247
0.390143 0.394491 0.205493
0.419196 0.40441 0.201434
0.44744 0.412604 0.197436
0.47248 0.417044 0.194141
0.506386 0.425986 0.190219
0.544625 0.436805 0.185687
0.583413 0.446235 0.181048
0.618479 0.451011 0.177234
0.651545 0.452995 0.174136
0.683955 0.454414 0.171008
0.715251 0.455512 0.168063
0.745525 0.456107 0.165515
0.774716 0.45626 0.163027
0.802563 0.456214 0.160693
0.829053 0.455589 0.158801
0.854536 0.454536 0.156863
0.0898604 0.278813 0.171542
0.108156 0.282445 0.17995
0.125521 0.286381 0.188418
0.141665 0.291325 0.196551
0.157259 0.2972 0.203769
0.17174 0.30515 0.20943
0.186053 0.314061 0.214069
0.201434 0.323156 0.218112
0.217212 0.332418 0.221637
0.233524 0.34168 0.22446
0.250828 0.351171 0.226551
0.269062 0.360922 0.227832
0.28864 0.370809 0.22829
0.309636 0.380926 0.227939
0.332387 0.391257 0.226734
0.356725 0.401801 0.224872
0.382818 0.412634 0.222385
0.410758 0.423621 0.21915
0.440726 0.434806 0.21529
0.470832 0.445335 0.211063
0.500221 0.454353 0.206622
0.52723 0.460746 0.202609
0.557153 0.467994 0.198734
0.593103 0.478721 0.194186
0.630167 0.489052 0.189288
0.66453 0.496193 0.18497
0.695171 0.498558 0.181704
0.724941 0.50016 0.178607
0.753689 0.501457 0.175937
0.78117 0.502434 0.173159
0.807385 0.502922 0.170703
0.832654 0.503136 0.168612
0.857084 0.503044 0.16643
0.0928817 0.308461 0.177935
0.113497 0.312078 0.186572
0.132784 0.315877 0.195224
0.151324 0.320043 0.20415
0.168811 0.325368 0.212039
0.185245 0.332769 0.218265
0.201404 0.341283 0.223407
0.217548 0.350469 0.227558
0.234607 0.359976 0.231373
0.252186 0.36965 0.23444
0.270665 0.379385 0.236713
0.289982 0.389364 0.238499
0.310552 0.399619 0.239384
0.332204 0.41001 0.239475
0.355154 0.420554 0.238834
0.379416 0.431342 0.237552
0.405615 0.442359 0.235279
0.433143 0.453468 0.232578
0.462119 0.465019 0.229038
0.492454 0.47657 0.224857
0.523842 0.488106 0.220081
0.553124 0.49778 0.215412
0.580072 0.505043 0.211231
0.604944 0.509819 0.207889
0.636957 0.519127 0.203403
0.672328 0.530648 0.198306
0.705135 0.539025 0.193851
0.734005 0.542611 0.190402
0.760983 0.544442 0.187243
0.786908 0.545892 0.184436
0.811826 0.546914 0.181903
0.836042 0.547478 0.179263
0.859434 0.547616 0.176806
0.0976425 0.33959 0.184512
0.120745 0.343114 0.19321
0.142199 0.346944 0.202228
0.162676 0.350973 0.211276
0.182254 0.355123 0.220295
0.200717 0.36112 0.227863
0.218051 0.369726 0.233051
0.235737 0.37908 0.237369
0.25388 0.388785 0.241138
0.272709 0.398672 0.244358
0.292165 0.408713 0.246952
0.312535 0.418997 0.248936
0.333654 0.429374 0.250141
0.355871 0.440009 0.250614
0.3794 0.450858 0.250416
0.404105 0.461845 0.249378
0.429999 0.473075 0.247715
0.457145 0.484459 0.245441
0.485206 0.495827 0.242496
0.514214 0.507347 0.238972
0.543618 0.5187 0.234775
0.573693 0.530098 0.230045
0.602594 0.540352 0.22501
0.628107 0.547372 0.220813
0.650858 0.551644 0.217365
0.676143 0.557321 0.213306
0.70985 0.56965 0.208392
0.740261 0.578592 0.203952
0.767605 0.584009 0.200259
0.792416 0.58613 0.197162
0.816159 0.587457 0.194461
0.839292 0.588418 0.191928
0.862119 0.588708 0.189227
0.105104 0.37203 0.191119
0.130266 0.375662 0.200092
0.153689 0.379416 0.209186
0.176318 0.383322 0.218418
0.197604 0.387503 0.227665
0.21799 0.392401 0.236225
0.237079 0.399466 0.242939
0.255787 0.408835 0.247425
0.275029 0.418814 0.251225
0.294697 0.428885 0.254383
0.315145 0.439078 0.257237
0.336492 0.449622 0.259388
0.358557 0.460243 0.260822
0.381353 0.471046 0.261646
0.405005 0.482017 0.26186
0.429694 0.493156 0.26125
0.455207 0.504326 0.260105
0.481392 0.51545 0.258213
0.50808 0.526558 0.255818
0.535561 0.537606 0.252872
0.563378 0.548592 0.249332
0.591485 0.559548 0.245243
0.619837 0.570306 0.240589
0.647623 0.580499 0.23566
0.671717 0.587472 0.231525
0.692607 0.591501 0.227985
0.714946 0.596185 0.22414
0.742718 0.605493 0.220142
0.771618 0.615656 0.215305
0.797482 0.621653 0.211231
0.82092 0.62414 0.208057
0.84332 0.625086 0.205264
0.865324 0.625681 0.20267
0.11577 0.406119 0.197879
0.142718 0.409583 0.206973
0.167849 0.413306 0.216327
0.191943 0.417182 0.225757
0.214969 0.421195 0.235187
0.237232 0.425498 0.244541
0.258061 0.4318 0.252018
0.278172 0.439902 0.257694
0.298283 0.450004 0.261402
0.319097 0.460258 0.264744
0.340246 0.470603 0.267567
0.36202 0.481209 0.269764
0.384512 0.491966 0.271489
0.407706 0.50277 0.272587
0.431174 0.513603 0.273289
0.455314 0.524407 0.273228
0.480079 0.53518 0.272435
0.505257 0.545968 0.271153
0.530907 0.556603 0.269368
0.55671 0.567208 0.267048
0.583108 0.577707 0.264103
0.609522 0.588052 0.260761
0.636072 0.59823 0.25687
0.662425 0.608225 0.252567
0.688319 0.617899 0.247578
0.71194 0.625559 0.242985
0.730617 0.628931 0.239689
0.750347 0.632807 0.236271
0.773312 0.63917 0.232212
0.799725 0.648524 0.227924
0.825254 0.656168 0.223239
0.847623 0.658488 0.219944
0.869429 0.659373 0.216938
0.130022 0.441596 0.204791
0.15845 0.445045 0.214115
0.185168 0.448768 0.223606
0.210697 0.452506 0.233097
0.235187 0.456413 0.242679
0.258686 0.460639 0.252216
0.281193 0.465446 0.261173
0.302678 0.472847 0.267567
0.323613 0.482338 0.271824
0.345022 0.492622 0.275151
0.366766 0.50309 0.277974
0.388907 0.513497 0.280507
0.411429 0.523949 0.282429
0.434241 0.534356 0.283757
0.457511 0.544823 0.284672
0.480995 0.555154 0.2851
0.504814 0.565499 0.284871
0.528878 0.575738 0.284062
0.553277 0.58587 0.282887
0.577813 0.59585 0.281147
0.60264 0.605692 0.278904
0.627436 0.615366 0.276143
0.652247 0.624796 0.27303
0.67689 0.634058 0.269306
0.701045 0.643137 0.265354
0.724788 0.652033 0.260792
0.748211 0.660822 0.255634
0.764858 0.663554 0.252567
0.781872 0.666117 0.24918
0.80206 0.670832 0.245228
0.825696 0.678386 0.24094
0.85069 0.686503 0.236072
0.873671 0.6907 0.231479
0.148425 0.478325 0.21181
0.17821 0.481804 0.221164
0.206012 0.485405 0.230732
0.232639 0.489204 0.240421
0.258183 0.49305 0.250248
0.282673 0.497063 0.259739
0.306462 0.501274 0.269368
0.329305 0.506233 0.278233
0.350851 0.515328 0.282719
0.372351 0.525383 0.286
0.394247 0.53547 0.289006
0.416266 0.545495 0.291478
0.438514 0.555367 0.293767
0.460899 0.565377 0.295354
0.483482 0.575326 0.29659
0.506249 0.585168 0.297414
0.529183 0.594934 0.297688
0.552346 0.604532 0.297398
0.575448 0.614038 0.296849
0.598764 0.623346 0.295644
0.622156 0.632395 0.293919
0.645518 0.641337 0.291936
0.668635 0.65005 0.289387
0.691157 0.658686 0.286473
0.713542 0.667185 0.28304
0.735714 0.675624 0.279103
0.757504 0.683879 0.274739
0.778363 0.691386 0.270008
0.796078 0.69604 0.265919
0.811215 0.697643 0.26244
0.828717 0.700587 0.25864
0.850706 0.706935 0.253941
0.87483 0.714656 0.248615
0.171496 0.516335 0.218967
0.201846 0.519585 0.228443
0.23032 0.522972 0.238239
0.257755 0.526482 0.248127
0.284001 0.530129 0.257908
0.309087 0.533883 0.267857
0.333516 0.537758 0.277592
0.356909 0.542412 0.286763
0.379294 0.548943 0.293446
0.401007 0.557794 0.297566
0.422507 0.567285 0.300511
0.44416 0.576822 0.303258
0.465934 0.586252 0.305638
0.487724 0.595651 0.307576
0.50959 0.604944 0.309117
0.531563 0.614176 0.310185
0.553552 0.62324 0.310979
0.575692 0.63212 0.311269
0.597787 0.640864 0.311131
0.619699 0.649439 0.310689
0.64152 0.657877 0.309621
0.663233 0.666178 0.308049
0.684581 0.674403 0.306127
0.705547 0.682506 0.303838
0.726177 0.690532 0.301015
0.746578 0.698482 0.297658
0.76704 0.706447 0.293767
0.78735 0.714321 0.289372
0.807126 0.721645 0.284504
0.824933 0.726848 0.279835
0.839918 0.728862 0.275669
0.854902 0.730068 0.271565
0.875303 0.735454 0.266407
0.199756 0.554009 0.226825
0.229572 0.557092 0.236515
0.258335 0.560189 0.246326
0.285832 0.563394 0.256291
0.312352 0.56672 0.266392
0.337697 0.570153 0.276417
0.362371 0.573678 0.286473
0.38613 0.577218 0.296284
0.408728 0.581964 0.304753
0.430289 0.589654 0.309606
0.451362 0.598489 0.312947
0.472358 0.607309 0.315801
0.493477 0.616159 0.31841
0.514641 0.624933 0.320638
0.53579 0.633463 0.322637
0.556893 0.641901 0.324208
0.577951 0.650172 0.325414
0.598932 0.658412 0.326101
0.61976 0.666468 0.326467
0.64033 0.674464 0.326406
0.660517 0.682338 0.325963
0.680446 0.690227 0.325002
0.699977 0.698039 0.323629
0.719387 0.70576 0.321706
0.738613 0.713527 0.319448
0.757656 0.721218 0.316503
0.776608 0.728908 0.313054
0.795789 0.736599 0.309026
0.815091 0.744274 0.304417
0.83476 0.751888 0.298939
0.852506 0.757382 0.293828
0.867353 0.759686 0.288975
0.88101 0.760357 0.284169
0.231998 0.590829 0.235599
0.261418 0.593622 0.245441
0.289784 0.596384 0.255528
0.31696 0.599283 0.265644
0.34313 0.602289 0.275822
0.368521 0.605295 0.285908
0.39295 0.608392 0.296101
0.416312 0.611658 0.306096
0.439048 0.615061 0.315953
0.460334 0.620523 0.323232
0.480827 0.628595 0.326619
0.501213 0.636683 0.329702
0.521691 0.644755 0.332555
0.541985 0.652644 0.335149
0.562249 0.660563 0.337392
0.582284 0.66833 0.339345
0.602197 0.67602 0.340932
0.621866 0.68368 0.342199
0.641047 0.691279 0.342977
0.659876 0.698787 0.343359
0.678523 0.706371 0.34342
0.696864 0.713909 0.342885
0.714946 0.721462 0.341924
0.732876 0.729015 0.340475
0.750759 0.736568 0.33843
0.768582 0.744152 0.335851
0.786496 0.751736 0.332891
0.804669 0.759197 0.329168
0.823102 0.766537 0.324697
0.841825 0.773739 0.319661
0.860609 0.780774 0.314031
0.87805 0.786328 0.308141
0.892882 0.789273 0.302495
0.268452 0.626261 0.245808
0.296986 0.628641 0.255756
0.324224 0.631022 0.265873
0.350774 0.6336 0.276081
0.376349 0.63621 0.286351
0.401038 0.638956 0.296559
0.424826 0.641611 0.306752
0.447898 0.644373 0.317235
0.470024 0.647227 0.32755
0.491173 0.651209 0.336339
0.511238 0.657298 0.341955
0.530755 0.664683 0.34522
0.550179 0.672007 0.348318
0.569406 0.679286 0.351263
0.588388 0.686595 0.353918
0.607172 0.693889 0.356161
0.62562 0.701152 0.358038
0.64361 0.708431 0.359731
0.661357 0.715755 0.360922
0.67863 0.723049 0.361776
0.695705 0.730343 0.362051
0.712551 0.737774 0.361929
0.72932 0.74519 0.361456
0.745983 0.752575 0.360281
0.762676 0.760037 0.35848
0.779507 0.767361 0.356161
0.796658 0.774609 0.353506
0.81413 0.781659 0.350118
0.831815 0.788556 0.346105
0.849638 0.795239 0.341451
0.867384 0.80174 0.335912
0.885115 0.807919 0.329824
0.901793 0.813153 0.32311
0.308492 0.659663 0.25742
0.335653 0.661738 0.267536
0.361624 0.663813 0.277653
0.387045 0.66598 0.287999
0.411734 0.668162 0.298405
0.435386 0.670512 0.308812
0.458305 0.672847 0.319341
0.480461 0.675334 0.330007
0.5019 0.677897 0.340673
0.52253 0.680735 0.351095
0.541909 0.685359 0.35845
0.560433 0.691646 0.362921
0.578607 0.698482 0.366323
0.596429 0.705364 0.369314
0.61387 0.712245 0.372366
0.631037 0.719203 0.375067
0.647791 0.726177 0.377234
0.664256 0.733272 0.379019
0.680369 0.740414 0.380636
0.696208 0.747585 0.381826
0.71191 0.754864 0.382483
0.72755 0.762127 0.382773
0.743069 0.769314 0.382391
0.758846 0.776486 0.381674
