src/colors/dark_&_moody/teal_horror.cube
TITLE "Generated by Resolve"
LUT_3D_SIZE 9
0 0 0
0.0325017 0 0
0.144854 0 0
0.271061 0 0
0.405432 0 0
0.545785 0 0
0.690913 0 0
0.840024 0 0
0.992569 0 0
0 0.0760967 0
0.0340581 0.0692149 0.000106813
0.1355 0.0755169 0
0.253193 0.0827497 0
0.384741 0.0877089 0
0.52398 0.0918746 0
0.66862 0.0957656 0
0.817533 0.0994888 0
0.970047 0.103151 0
0 0.193683 0
0.0344396 0.191287 0
0.147997 0.19115 0.000228885
0.266865 0.195026 0
0.38674 0.203708 0
0.516197 0.211841 0
0.655192 0.218158 0
0.800763 0.223407 0
0.951186 0.228046 0
0 0.320638 0
0.0348211 0.319265 0
0.148394 0.319112 0
0.275792 0.318959 0.000335698
0.405112 0.321614 0
0.532418 0.328771 0
0.662898 0.337789 0
0.800168 0.346242 0
0.944579 0.353368 0
0 0.451835 0
0.0352178 0.450874 0
0.148775 0.450736 0
0.276188 0.450568 7.62951e-05
0.411765 0.450401 0.000442512
0.548394 0.452399 0
0.682567 0.458152 0
0.817166 0.466423 0
0.95523 0.475486 0
0 0.585901 0
0.0356146 0.585168 0
0.149172 0.585016 0
0.276585 0.584848 0
0.412161 0.58468 0.000198367
0.553719 0.584512 0.000549325
0.695964 0.586114 0
0.835889 0.590845 0
0.975158 0.598077 0
0 0.722164 0
0.0360113 0.721553 0
0.149569 0.721416 0
0.276982 0.721248 0
0.412558 0.72108 0
0.554116 0.720928 0.00030518
0.700435 0.720745 0.000671397
0.847303 0.722057 0
0.991989 0.726055 0
0 0.860243 0
0.036408 0.859724 0
0.149981 0.859571 0
0.277378 0.859419 0
0.41297 0.859251 0
0.554513 0.859083 6.10361e-05
0.700847 0.858915 0.000411994
0.851148 0.858747 0.00077821
1 0.859846 0
0 0.999863 0
0.03682 0.999405 0
0.150378 0.999252 0
0.27779 0.999084 0
0.413367 0.998932 0
0.554925 0.998764 0
0.701259 0.998581 0.000167849
0.851575 0.998413 0.000534066
1 0.998245 0.000885023
0 0.00299077 0.12488
0.0155337 0 0.125246
0.160266 0 0.10547
0.295003 0 0.0640269
0.431678 0 0.0260624
0.572946 0 0
0.718578 0 0
0.868055 0 0
1 0 0
0 0.0851301 0.0984207
0 0.0916762 0.124987
0.145754 0.0730602 0.0915236
0.271946 0.0766766 0.0580606
0.407736 0.0796368 0.0269169
0.548562 0.0830243 0
0.694148 0.0864118 0
0.840909 0.0910964 0
0.99675 0.0931716 0
0 0.196002 0.155703
0 0.205951 0.124727
0.147341 0.191363 0.125093
0.262623 0.19765 0.0973373
0.388479 0.204883 0.0530251
0.526009 0.209827 0.0146181
0.670024 0.214008 0
0.818647 0.217884 0
0.971008 0.221607 0
0 0.325093 0.151598
0.0214694 0.325216 0.124483
0.147723 0.319341 0.124849
0.27512 0.319173 0.125216
0.402167 0.323064 0.110658
0.528023 0.331731 0.069688
0.662242 0.339879 0.0233921
0.805234 0.346181 0
0.954253 0.351431 0
0 0.453758 0.14493
0.0280308 0.454246 0.124224
0.148119 0.45095 0.12459
0.275517 0.450797 0.124956
0.411093 0.450629 0.125322
0.546395 0.453285 0.116121
0.678462 0.460426 0.0859998
0.81294 0.469444 0.0420386
0.953643 0.477897 0
0 0.586557 0.140352
0.0307927 0.587472 0.12398
0.148516 0.585229 0.124346
0.275914 0.585077 0.124712
0.41149 0.584909 0.125063
0.553048 0.584741 0.125429
0.694453 0.58674 0.118837
0.832609 0.592493 0.0963149
0.970642 0.600748 0.0593423
0 0.722286 0.137163
0.0323644 0.723323 0.12372
0.148913 0.72163 0.124086
0.27631 0.721462 0.124453
0.411887 0.721309 0.124819
0.553445 0.721141 0.125185
0.699779 0.720974 0.125536
0.846021 0.72256 0.120455
0.98938 0.727275 0.102876
0 0.860121 0.134798
0.033463 0.861158 0.123476
0.14931 0.859785 0.123827
0.276707 0.859632 0.124193
0.412299 0.859464 0.124559
0.553841 0.859297 0.124926
0.700191 0.859129 0.125292
0.850492 0.858961 0.125658
1 0.860258 0.121538
0 0.999619 0.132967
0.0343023 1 0.123217
0.149722 0.999466 0.123583
0.277119 0.999313 0.123949
0.412711 0.999146 0.124315
0.554253 0.998978 0.124681
0.700587 0.99881 0.125048
0.850904 0.998627 0.125399
1 0.998459 0.125765
0 0.0289616 0.24976
0 0 0.250126
0.143038 0 0.250492
0.28336 0 0.242725
0.43624 0 0.210956
0.588113 0 0.168917
0.738811 0 0.128069
0.890837 0 0.0893416
1 0 0.0521706
0 0.135882 0.177768
0 0.119921 0.249882
0.124987 0.0721904 0.250248
0.287358 0.0673228 0.230472
0.430289 0.0691997 0.189029
0.572931 0.0725719 0.151064
0.718975 0.0761425 0.115312
0.868589 0.0797131 0.0805829
1 0.0832837 0.0463874
0 0.207172 0.196841
0.012665 0.214313 0.223407
0.0785534 0.216602 0.249989
0.273335 0.19498 0.217304
0.407248 0.19881 0.183062
0.549004 0.201755 0.151919
0.694606 0.205142 0.119219
0.844175 0.20853 0.0865339
0.994385 0.213214 0.0492256
0.0320745 0.309438 0.279271
0.0294347 0.330907 0.28072
0.107195 0.3364 0.249729
0.274464 0.319402 0.250095
0.397925 0.325673 0.222339
0.529763 0.332906 0.178027
0.672053 0.33785 0.13962
0.820066 0.342016 0.103731
0.972122 0.345892 0.0689555
0.00579843 0.441108 0.311437
0.0131838 0.463539 0.276616
0.131502 0.458289 0.249485
0.274846 0.451011 0.249851
0.410437 0.450843 0.250217
0.54345 0.454719 0.23566
0.674083 0.463386 0.19469
0.812284 0.471534 0.148394
0.958709 0.477852 0.106065
0 0.577829 0.310521
0.0223545 0.593103 0.269932
0.139544 0.589395 0.249226
0.275257 0.58529 0.249592
0.410834 0.585122 0.249958
0.552392 0.584955 0.250324
0.692454 0.58761 0.241123
0.828519 0.594751 0.211002
0.966415 0.603769 0.167041
0 0.714656 0.303243
0.0284733 0.72668 0.26537
0.142916 0.724483 0.248981
0.275654 0.721691 0.249348
0.411231 0.721523 0.249714
0.552789 0.721355 0.250065
0.699107 0.721187 0.250431
0.844495 0.723186 0.243839
0.986099 0.728923 0.221317
0 0.85333 0.295979
0.0319066 0.863279 0.262165
0.144823 0.861967 0.248722
0.276051 0.859861 0.249088
0.411627 0.859693 0.249454
0.553185 0.859525 0.249821
0.699519 0.859342 0.250187
0.849821 0.859174 0.250538
0.999512 0.860761 0.245457
0 0.993469 0.289876
0.0339208 1 0.259815
0.14612 1 0.248478
0.276463 0.999527 0.248844
0.412039 0.999359 0.249195
0.553597 0.999207 0.249561
0.699916 0.999023 0.249928
0.850233 0.998856 0.250294
1 0.998688 0.25066
0 0.0547494 0.374655
0 0.0111086 0.375021
0.103609 0 0.375387
0.272892 0 0.375753
0.415457 0 0.37171
0.573846 0 0.351904
0.737133 0 0.316442
0.899031 0 0.274601
1 0 0.23267
0 0.173342 0.326101
0 0.146334 0.374762
0.0416571 0.0939803 0.375128
0.271229 0.0680552 0.375494
0.418631 0.0672465 0.367727
0.577493 0.0651865 0.335958
0.734127 0.0662242 0.293935
0.888823 0.0689097 0.253086
1 0.0721752 0.214328
0 0.258457 0.236088
0 0.265583 0.302754
0 0.245518 0.374884
0.2551 0.193561 0.37525
0.42266 0.189456 0.355474
0.571557 0.191318 0.314031
0.718975 0.19469 0.276066
0.869001 0.19826 0.240314
1 0.201831 0.205585
0.0159762 0.334829 0.295262
0.0538033 0.341878 0.321843
0.121614 0.34461 0.348409
0.207706 0.344091 0.37499
0.408637 0.323018 0.342306
0.548531 0.326833 0.308064
0.695064 0.329778 0.276921
0.844633 0.333165 0.244221
0.997665 0.336538 0.211536
0.0891585 0.434867 0.383658
0.109438 0.447684 0.404273
0.13785 0.464652 0.405722
0.237034 0.466911 0.374731
0.409766 0.451072 0.375097
0.539208 0.457343 0.347341
0.675807 0.464576 0.303029
0.822095 0.469505 0.264622
0.973541 0.473686 0.228733
0.0907912 0.558083 0.444236
0.082887 0.58201 0.436439
0.122286 0.599649 0.401617
0.260197 0.591989 0.374487
0.410163 0.585351 0.374853
0.55172 0.585184 0.375219
0.689509 0.589059 0.360662
0.824125 0.597726 0.319692
0.965759 0.605859 0.273396
0.0647746 0.695491 0.467155
0.0629892 0.720531 0.435508
0.132265 0.731014 0.394934
0.267414 0.725536 0.374228
0.410559 0.721752 0.374594
0.552117 0.721584 0.37496
0.698451 0.721401 0.375326
0.842496 0.724071 0.366125
0.981994 0.731197 0.336004
0.0424506 0.836637 0.468528
0.0578927 0.858167 0.428229
0.139223 0.866026 0.390372
0.270497 0.862516 0.373983
0.410971 0.859907 0.37435
0.552529 0.859739 0.374716
0.698848 0.859571 0.375067
0.849165 0.859403 0.375433
0.998001 0.861387 0.368841
0.0274662 0.978729 0.462562
0.0557565 0.997345 0.420996
0.143221 1 0.387167
0.272251 1 0.373724
0.411368 0.999588 0.37409
0.552926 0.99942 0.374456
0.69926 0.999252 0.374823
0.849577 0.999069 0.375189
1 0.998901 0.37554
0 0.0804913 0.499535
0 0.0372778 0.499916
0.0299687 0 0.500267
0.258259 0 0.500633
0.408331 0 0.500999
0.554681 0 0.498527
0.715526 0 0.485451
0.88397 0 0.458869
1 0 0.421927
0 0.203433 0.464988
0 0.172335 0.499657
0 0.119875 0.500023
0.238041 0.0723278 0.500389
0.408484 0.0684062 0.500755
0.556695 0.0677653 0.496727
0.71986 0.064622 0.476921
0.887144 0.063035 0.441444
1 0.0636759 0.399619
0 0.309789 0.355535
0 0.303899 0.451087
0 0.272236 0.499763
0.174182 0.214298 0.50013
0.40766 0.190311 0.500496
0.559899 0.18938 0.492729
0.723537 0.187304 0.46096
0.884153 0.188342 0.418936
1 0.191028 0.378088
0 0.384451 0.321172
0 0.393286 0.361089
0 0.396139 0.427756
0.112001 0.373175 0.499886
0.397024 0.32018 0.500252
0.563943 0.317479 0.480476
0.717601 0.319341 0.439033
0.869017 0.322713 0.401068
1 0.326268 0.365316
0.0560769 0.466011 0.393698
0.094377 0.473014 0.420264
0.163333 0.475624 0.446845
0.251896 0.475395 0.473411
0.350118 0.473228 0.499992
0.549462 0.454887 0.466529
0.695521 0.458061 0.434607
0.843687 0.462089 0.399603
0.996231 0.46569 0.366155
0.137438 0.565896 0.483909
0.166796 0.575647 0.508659
0.218067 0.583963 0.529274
0.267231 0.597833 0.530724
0.38027 0.597925 0.499733
0.551064 0.585397 0.500099
0.685267 0.591669 0.472343
0.825864 0.598901 0.428031
0.975586 0.60383 0.389624
0.1617 0.683238 0.558556
0.168597 0.700847 0.569238
0.192355 0.720073 0.56144
0.253483 0.734462 0.526619
0.399344 0.726818 0.499489
0.551461 0.721798 0.499855
0.69778 0.72163 0.500221
0.839551 0.725505 0.485664
0.977615 0.734157 0.444694
0.150027 0.815488 0.604074
0.142428 0.839948 0.592172
0.173037 0.860136 0.56051
0.262226 0.868101 0.519936
0.404669 0.862882 0.499229
0.551858 0.859968 0.499596
0.698192 0.859785 0.499962
0.848493 0.859617 0.500328
0.995987 0.862272 0.491127
0.125887 0.956298 0.622873
0.12079 0.982254 0.593515
0.168261 0.999176 0.553231
0.268177 1 0.515373
0.407019 1 0.498985
0.55227 0.999634 0.499352
0.698589 0.999466 0.499718
0.848905 0.999298 0.500069
1 0.999115 0.500435
0 0.106188 0.62443
0 0.0633555 0.624796
0 0.0069276 0.625162
0.216419 0 0.625528
0.403449 0 0.625895
0.549096 0 0.626261
0.699275 0 0.624582
0.861952 0 0.615366
1 0 0.595483
0 0.231403 0.597726
0 0.198199 0.624537
0 0.146044 0.624918
0.170016 0.0877241 0.625269
0.398093 0.0672313 0.625635
0.549477 0.0689708 0.626001
0.70071 0.0681468 0.623529
0.865522 0.0650187 0.610468
1 0.0621805 0.583902
0 0.351064 0.505364
0 0.334768 0.589975
0 0.298405 0.624659
0.0838331 0.24007 0.625025
0.380957 0.192859 0.625391
0.549828 0.19089 0.625757
0.702739 0.189883 0.621729
0.869886 0.18674 0.601923
1 0.185153 0.566445
0 0.439033 0.402182
0 0.44509 0.480522
0 0.434897 0.576089
0.0223239 0.399969 0.624765
0.321996 0.338491 0.625132
0.549767 0.318639 0.625498
0.705943 0.317403 0.617731
0.873579 0.315328 0.585962
1 0.316365 0.543938
0 0.514168 0.41384
0 0.52256 0.446174
0.035523 0.527047 0.486091
0.104601 0.527077 0.552758
0.254551 0.502281 0.624887
0.545037 0.450736 0.625254
0.709987 0.449134 0.605478
0.867643 0.451011 0.564034
1 0.454368 0.52607
0.0961166 0.599802 0.492119
0.134661 0.606775 0.5187
0.204074 0.609323 0.545266
0.293751 0.608972 0.571847
0.394842 0.606973 0.598413
0.50219 0.603616 0.624994
0.695521 0.589227 0.591531
0.844617 0.592828 0.558068
0.997177 0.596414 0.524605
0.182177 0.70016 0.583001
0.215305 0.70869 0.608911
0.275639 0.713939 0.633661
0.347494 0.719219 0.654276
0.409339 0.731106 0.655726
0.532647 0.729824 0.624735
0.697124 0.721843 0.625101
0.835309 0.728115 0.597345
0.979355 0.735348 0.553033
0.222217 0.813977 0.664775
0.239857 0.827588 0.683543
0.278218 0.840543 0.69424
0.323522 0.856504 0.686442
0.397253 0.8692 0.651621
0.544961 0.863142 0.624491
0.69752 0.860014 0.624857
0.847837 0.859846 0.625223
0.993042 0.863706 0.610666
0.22739 0.941054 0.725521
0.228214 0.961288 0.729061
0.252842 0.980911 0.717174
0.304707 0.998047 0.685512
0.403479 1 0.644938
0.548211 1 0.624231
0.697932 0.999695 0.624598
0.848234 0.999512 0.624964
1 0.999344 0.62533
0 0.131868 0.74931
0 0.0891737 0.749691
0 0.0320897 0.750057
0.151781 0 0.750408
0.382696 0 0.750774
0.547997 0 0.751141
0.694469 0 0.751507
0.848203 0 0.750301
1 0 0.743435
0 0.258488 0.727535
0 0.223972 0.749432
0 0.172152 0.749798
0.085893 0.109636 0.750164
0.363455 0.0717784 0.75053
0.546761 0.0668345 0.750896
0.694865 0.0694133 0.751263
0.849287 0.0684367 0.749584
1 0.0655528 0.740368
0 0.38555 0.652201
0 0.363363 0.722713
0 0.324361 0.749538
0 0.266239 0.74992
0.318822 0.206119 0.750271
0.542962 0.189166 0.750637
0.695293 0.191424 0.751003
0.850736 0.190265 0.748531
1 0.187137 0.73547
0 0.489357 0.533318
0 0.486961 0.630381
0 0.466178 0.714977
0 0.426169 0.74966
0.232059 0.363806 0.750027
0.530388 0.319417 0.750393
0.69572 0.319295 0.750759
0.852781 0.317906 0.746731
1 0.314763 0.726925
0 0.568658 0.47219
0 0.577386 0.527184
0 0.57911 0.605524
0 0.566079 0.701091
0.165133 0.528969 0.749767
0.481071 0.464958 0.750134
0.696086 0.450752 0.7505
0.855985 0.449058 0.742733
1 0.446983 0.710964
0 0.646738 0.509224
0.0307622 0.654734 0.538842
0.0915847 0.658747 0.571176
0.167163 0.660365 0.611093
0.248035 0.658763 0.67776
0.407309 0.632395 0.749889
0.695201 0.584863 0.750256
0.860029 0.583459 0.73048
1 0.585336 0.689036
0.13611 0.735683 0.590555
0.174746 0.742626 0.617121
0.244373 0.745144 0.643702
0.334447 0.744732 0.670268
0.4365 0.742611 0.696849
0.54696 0.739284 0.723415
0.661982 0.734966 0.749996
0.846036 0.725444 0.717311
0.999054 0.728832 0.684611
0.225208 0.836683 0.681651
0.260212 0.844617 0.707988
0.324315 0.848661 0.733913
0.405188 0.850904 0.758663
0.489342 0.854307 0.779278
0.561212 0.86453 0.780728
0.689143 0.863706 0.749737
0.847166 0.860059 0.750103
0.9888 0.866331 0.722347
0.276295 0.94844 0.76733
0.300557 0.959731 0.789776
0.349493 0.968734 0.808545
0.409049 0.978515 0.819242
0.467872 0.992386 0.811444
0.550103 1 0.776623
0.694575 1 0.749493
0.847578 0.999741 0.749859
1 0.999557 0.750225
0 0.157534 0.874205
0 0.115053 0.874571
0 0.0579843 0.874937
0.0729381 0.000167849 0.875303
0.34229 0 0.875669
0.538338 0 0.876036
0.694743 0 0.876402
0.8439 0 0.876768
1 0 0.875868
0 0.28513 0.855787
0 0.249729 0.874311
0 0.198016 0.874693
0 0.134203 0.875059
0.30573 0.0834669 0.875425
0.531106 0.0665904 0.875792
0.694713 0.0674754 0.876158
0.844251 0.069688 0.876509
1 0.0686503 0.875303
0 0.416709 0.793271
0 0.390921 0.852537
0 0.350225 0.874434
0 0.292378 0.8748
0.237476 0.22678 0.875166
0.514565 0.19202 0.875532
0.694133 0.189349 0.875898
0.844648 0.191745 0.876265
1 0.190555 0.874586
0 0.532387 0.682445
0 0.522072 0.777203
0 0.495109 0.847715
0 0.45214 0.87454
0.142153 0.389944 0.874922
0.475853 0.330098 0.875273
0.691936 0.317296 0.875639
0.84506 0.319707 0.876005
1 0.318288 0.873533
0 0.622705 0.575311
0 0.628077 0.658289
0 0.621302 0.755383
0 0.597543 0.839979
0.077348 0.555108 0.874662
0.392401 0.489342 0.875029
0.68397 0.450019 0.875395
0.845487 0.451286 0.875761
1 0.449561 0.871733
0 0.700267 0.554147
0 0.709316 0.597192
0 0.71371 0.652186
0.00254826 0.712596 0.730526
0.113603 0.697902 0.826093
0.318517 0.658869 0.874769
0.647593 0.593698 0.875135
0.84593 0.585504 0.875502
1 0.583383 0.867735
0.0435798 0.781628 0.605814
0.0783551 0.789334 0.634211
0.14229 0.792905 0.663844
0.223636 0.794003 0.696178
0.311376 0.793927 0.736095
0.400946 0.791165 0.802762
0.568475 0.763226 0.874891
0.846311 0.721767 0.875257
1 0.719905 0.855482
0.176043 0.873274 0.688975
0.214725 0.880232 0.715557
0.284428 0.882734 0.742123
0.37464 0.882307 0.768704
0.476967 0.88014 0.79527
0.588098 0.876722 0.821851
0.706127 0.872297 0.848417
0.828214 0.86714 0.874998
0.999054 0.863874 0.841535
0.267338 0.974975 0.780133
0.30341 0.982574 0.806653
0.36939 0.986023 0.83299
0.454002 0.987076 0.858915
0.547066 0.987472 0.883665
0.640497 0.98941 0.90428
0.721416 0.998062 0.90573
0.845365 1 0.874739
1 0.999786 0.875105
0 0.183215 0.999084
0 0.140887 0.999466
0 0.0841077 0.999832
0 0.0227665 1
0.284428 0 1
0.515206 0 1
0.690715 0 1
0.844465 0 1
0.996887 0 1
0 0.311513 0.983108
0 0.275456 0.999207
0 0.223896 0.999588
0 0.159823 0.999939
0.231586 0.101122 1
0.497414 0.0708476 1
0.688182 0.0655985 1
0.84477 0.0682689 1
0.997238 0.0698253 1
0 0.446113 0.929961
0 0.41796 0.980774
0 0.376013 0.999313
0 0.318318 0.999695
0.149722 0.250599 1
0.46276 0.20174 1
0.682582 0.188281 1
0.844999 0.190143 1
0.99762 0.191897 1
0 0.569848 0.832273
0 0.553811 0.918257
0 0.522942 0.977539
0 0.478004 0.999435
0.0531777 0.416114 0.999802
0.398474 0.349065 1
0.669917 0.318517 1
0.844938 0.317891 1
0.998001 0.319875 1
0 0.672389 0.711101
0 0.671565 0.807446
0 0.656748 0.902205
0 0.626612 0.972717
0 0.581033 0.999542
0.302159 0.515343 0.999924
0.638407 0.457832 1
0.844022 0.449317 1
0.998398 0.451484 1
0 0.755459 0.63563
0 0.763622 0.700313
0 0.76463 0.783291
0 0.754986 0.880385
0.00546273 0.729473 0.964981
0.231098 0.684901 0.999664
0.562585 0.616144 1
0.839857 0.583886 1
0.998795 0.585763 1
0 0.834012 0.642344
0 0.842832 0.679149
0 0.847517 0.722194
0.0664836 0.849042 0.777188
0.146807 0.846296 0.855528
0.266346 0.830396 0.951095
0.480583 0.78941 0.999771
0.817334 0.725322 1
0.999191 0.722164 1
0.0881971 0.918395 0.703029
0.124117 0.925917 0.7308
0.189914 0.929198 0.759213
0.274464 0.929839 0.788846
0.368124 0.929183 0.82118
0.464881 0.927871 0.861097
0.561425 0.924193 0.927764
0.737209 0.894469 0.999893
0.999588 0.860319 1
0.215915 1 0.787411
0.254627 1 0.813977
0.324346 1 0.840558
0.414588 1 0.867124
0.51696 1 0.893706
0.628183 1 0.920272
0.746487 1 0.946853
0.870695 1 0.973419
1 1 1
