src/colors/dark_&_moody/teal_horror.cube
TITLE "Generated by Resolve"
LUT_3D_SIZE 5
0 0 0
0.144854 0 0
0.405432 0 0
0.690913 0 0
0.992569 0 0
0 0.193683 0
0.147997 0.19115 0.000228885
0.38674 0.203708 0
0.655192 0.218158 0
0.951186 0.228046 0
0 0.451835 0
0.148775 0.450736 0
0.411765 0.450401 0.000442512
0.682567 0.458152 0
0.95523 0.475486 0
0 0.722164 0
0.149569 0.721416 0
0.412558 0.72108 0
0.700435 0.720745 0.000671397
0.991989 0.726055 0
0 0.999863 0
0.150378 0.999252 0
0.413367 0.998932 0
0.701259 0.998581 0.000167849
1 0.998245 0.000885023
0 0.0289616 0.24976
0.143038 0 0.250492
0.43624 0 0.210956
0.738811 0 0.128069
1 0 0.0521706
0 0.207172 0.196841
0.0785534 0.216602 0.249989
0.407248 0.19881 0.183062
0.694606 0.205142 0.119219
0.994385 0.213214 0.0492256
0.00579843 0.441108 0.311437
0.131502 0.458289 0.249485
0.410437 0.450843 0.250217
0.674083 0.463386 0.19469
0.958709 0.477852 0.106065
0 0.714656 0.303243
0.142916 0.724483 0.248981
0.411231 0.721523 0.249714
0.699107 0.721187 0.250431
0.986099 0.728923 0.221317
0 0.993469 0.289876
0.14612 1 0.248478
0.412039 0.999359 0.249195
0.699916 0.999023 0.249928
1 0.998688 0.25066
0 0.0804913 0.499535
0.0299687 0 0.500267
0.408331 0 0.500999
0.715526 0 0.485451
1 0 0.421927
0 0.309789 0.355535
0 0.272236 0.499763
0.40766 0.190311 0.500496
0.723537 0.187304 0.46096
1 0.191028 0.378088
0.0560769 0.466011 0.393698
0.163333 0.475624 0.446845
0.350118 0.473228 0.499992
0.695521 0.458061 0.434607
0.996231 0.46569 0.366155
0.1617 0.683238 0.558556
0.192355 0.720073 0.56144
0.399344 0.726818 0.499489
0.69778 0.72163 0.500221
0.977615 0.734157 0.444694
0.125887 0.956298 0.622873
0.168261 0.999176 0.553231
0.407019 1 0.498985
0.698589 0.999466 0.499718
1 0.999115 0.500435
0 0.131868 0.74931
0 0.0320897 0.750057
0.382696 0 0.750774
0.694469 0 0.751507
1 0 0.743435
0 0.38555 0.652201
0 0.324361 0.749538
0.318822 0.206119 0.750271
0.695293 0.191424 0.751003
1 0.187137 0.73547
0 0.568658 0.47219
0 0.57911 0.605524
0.165133 0.528969 0.749767
0.696086 0.450752 0.7505
1 0.446983 0.710964
0.13611 0.735683 0.590555
0.244373 0.745144 0.643702
0.4365 0.742611 0.696849
0.661982 0.734966 0.749996
0.999054 0.728832 0.684611
0.276295 0.94844 0.76733
0.349493 0.968734 0.808545
0.467872 0.992386 0.811444
0.694575 1 0.749493
1 0.999557 0.750225
0 0.183215 0.999084
0 0.0841077 0.999832
0.284428 0 1
0.690715 0 1
0.996887 0 1
0 0.446113 0.929961
0 0.376013 0.999313
0.149722 0.250599 1
0.682582 0.188281 1
0.99762 0.191897 1
0 0.672389 0.711101
0 0.656748 0.902205
0 0.581033 0.999542
0.638407 0.457832 1
0.998398 0.451484 1
0 0.834012 0.642344
0 0.847517 0.722194
0.146807 0.846296 0.855528
0.480583 0.78941 0.999771
0.999191 0.722164 1
0.215915 1 0.787411
0.324346 1 0.840558
0.51696 1 0.893706
0.746487 1 0.946853
1 1 1
