src/colors/dark_&_moody/teal_horror.cube
TITLE "Generated by Resolve"
LUT_3D_SIZE 33
0 0 0
0 0 0
0 0 0
0.00900282 0 0
0.0325017 0 0
0.0585641 0 0
0.0862287 0 0
0.115068 0 0
0.144854 0 0
0.175448 0 0
0.206729 0 0
0.238621 0 0
0.271061 0 0
0.30399 0 0
0.337392 0 0
0.371221 0 0
0.405432 0 0
0.440024 0 0
0.474952 0 0
0.510216 0 0
0.545785 0 0
0.581659 0 0
0.617807 0 0
0.654231 0 0
0.690913 0 0
0.72784 0 0
0.764996 0 0
0.802396 0 0
0.840024 0 0
0.877852 0 0
0.915892 0 0
0.954131 0 0
0.992569 0 0
0 0.00181582 0
0 0 3.0518e-05
0 0 0
0.00453193 0 0
0.0273289 0 0
0.0531167 0 0
0.0806592 0 0
0.109453 0 0
0.139223 0 0
0.169833 0 0
0.201129 0 0
0.233051 0 0
0.265522 0.000808728 0
0.298512 0.00169375 0
0.331945 0.00257877 0
0.36582 0.0034638 0
0.400076 0.00434882 0
0.434714 0.00523384 0
0.469718 0.00610361 0
0.505028 0.00698863 0
0.540658 0.0078584 0
0.576577 0.00874342 0
0.612772 0.00961318 0
0.649256 0.0104829 0
0.686 0.011368 0
0.722988 0.0122377 0
0.760189 0.0131228 0
0.79765 0.0139925 0
0.835325 0.0148623 0
0.873213 0.0157473 0
0.911315 0.0166171 0
0.949615 0.0174868 0
0.988113 0.0183566 0
0 0.0248722 0
0 0.0191653 0
0 0.0138552 6.10361e-05
0.00793469 0.0139925 0
0.0278172 0.0161746 0
0.0511635 0.018204 0
0.0772869 0.019791 0
0.105257 0.0211032 0
0.134508 0.0222782 0
0.164752 0.0233463 0
0.195819 0.0243687 0
0.227573 0.0253452 0
0.259907 0.0263066 0
0.29279 0.0272526 0
0.326146 0.0281834 0
0.35996 0.029099 0
0.394171 0.0300145 0
0.428763 0.03093 0
0.463706 0.0318151 0
0.499001 0.0327153 0
0.534585 0.0336156 0
0.570489 0.0345006 0
0.606668 0.0354009 0
0.643137 0.036286 0
0.67985 0.037171 0
0.716823 0.038056 0
0.754025 0.038941 0
0.79147 0.039826 0
0.829129 0.0407111 0
0.867002 0.0415961 0
0.905104 0.0424659 0
0.943389 0.0433509 0
0.981872 0.0442206 0
0 0.0500191 0
0 0.0440375 0
0 0.0406653 0
0.0101625 0.0404059 7.62951e-05
0.0324102 0.0410773 0
0.0552071 0.0428626 0
0.0792096 0.0451209 0
0.105089 0.0472419 0
0.132845 0.0490272 0
0.162036 0.0505531 0
0.192355 0.0519112 0
0.223575 0.0531319 0
0.255528 0.0542763 0
0.288106 0.0553597 0
0.321233 0.0563973 0
0.354864 0.0574197 0
0.388922 0.0583963 0
0.423392 0.0593729 0
0.458244 0.0603189 0
0.493431 0.061265 0
0.528954 0.0621958 0
0.564797 0.0631266 0
0.600931 0.0640421 0
0.637339 0.0649577 0
0.674006 0.0658732 0
0.710948 0.0667735 0
0.748119 0.0676738 0
0.785534 0.068574 0
0.823163 0.0694743 0
0.861036 0.0703593 0
0.899107 0.0712596 0
0.937377 0.0721447 0
0.97583 0.0730449 0
0 0.0760967 0
0 0.0713664 0
0 0.0694133 0
0.0102541 0.0692607 1.5259e-05
0.0340581 0.0692149 0.000106813
0.059205 0.0697337 0
0.084123 0.0711681 0
0.109331 0.0732433 0
0.1355 0.0755169 0
0.163012 0.0776837 0
0.191913 0.0795911 0
0.222065 0.0812543 0
0.253193 0.0827497 0
0.28513 0.084123 0
0.317754 0.0853742 0
0.350988 0.0865644 0
0.384741 0.0877089 0
0.418952 0.0887922 0
0.453574 0.0898451 0
0.488609 0.0908675 0
0.52398 0.0918746 0
0.559701 0.0928664 0
0.595712 0.093843 0
0.632029 0.0948043 0
0.66862 0.0957656 0
0.705486 0.0966964 0
0.742596 0.0976425 0
0.77995 0.0985733 0
0.817533 0.0994888 0
0.85536 0.100404 0
0.89337 0.10132 0
0.931609 0.102235 0
0.970047 0.103151 0
0 0.103838 0
0 0.100374 0
0 0.0990768 0
0.0103456 0.09897 0
0.0341497 0.0989242 4.57771e-05
0.0605173 0.0988937 0.000137331
0.0874647 0.0992905 0
0.114 0.100481 0
0.140475 0.102296 0
0.16733 0.104479 0
0.195041 0.106752 0
0.223774 0.108934 0
0.253635 0.110918 0
0.28455 0.112703 0
0.31635 0.114321 0
0.348882 0.115801 0
0.382071 0.117174 0
0.415824 0.118471 0
0.450095 0.119692 0
0.48481 0.120851 0
0.519921 0.121981 0
0.555413 0.123079 0
0.591241 0.124132 0
0.627405 0.12517 0
0.663844 0.126192 0
0.700572 0.127199 0
0.737575 0.128191 0
0.774838 0.129168 0
0.812345 0.130129 0
0.85008 0.13109 0
0.888045 0.132036 0
0.926223 0.132982 0
0.964584 0.133928 0
0 0.132937 0
0 0.130343 0
0 0.129381 0
0.0104524 0.12929 0
0.0342565 0.129259 0
0.0606241 0.129213 7.62951e-05
0.0885786 0.129183 0.000167849
0.116854 0.129519 0
0.144671 0.130526 0
0.17229 0.132097 0
0.200015 0.134096 0
0.228138 0.136339 0
0.257038 0.138613 0
0.286763 0.14081 0
0.317449 0.142855 0
0.349004 0.144717 0
0.381415 0.14641 0
0.414481 0.147997 0
0.448157 0.149462 0
0.482383 0.150835 0
0.517082 0.152148 0
0.552224 0.153399 0
0.587747 0.154589 0
0.623652 0.155749 0
0.659876 0.156878 0
0.696422 0.157961 0
0.733257 0.15903 0
0.770352 0.160082 0
0.807721 0.16112 0
0.845335 0.162127 0
0.883192 0.163134 0
0.921263 0.164126 0
0.959548 0.165103 0
0 0.162982 0
0 0.160937 0
0 0.160189 0
0.010544 0.160113 0
0.0343481 0.160067 0
0.0607156 0.160037 1.5259e-05
0.0886702 0.159991 0.000106813
0.117815 0.15996 0.000198367
0.147143 0.160235 0
0.176043 0.161105 0
0.204654 0.162493 0
0.233204 0.164324 0
0.261982 0.16643 0
0.291157 0.168704 0
0.321035 0.170947 0
0.351614 0.173175 0
0.383017 0.175235 0
0.415183 0.177172 0
0.448066 0.178958 0
0.481651 0.180591 0
0.51577 0.182147 0
0.550408 0.183612 0
0.585489 0.185 0
0.621012 0.186328 0
0.656916 0.187579 0
0.693172 0.1888 0
0.729747 0.18999 0
0.766644 0.191135 0
0.803815 0.192264 0
0.84126 0.193347 0
0.87895 0.19443 0
0.916884 0.195483 0
0.955047 0.196521 0
0 0.193683 0
0 0.19202 0
0 0.191394 0
0.0106355 0.191333 0
0.0344396 0.191287 0
0.0608072 0.191257 0
0.088777 0.191226 4.57771e-05
0.117906 0.19118 0.000137331
0.147997 0.19115 0.000228885
0.17821 0.191394 0
0.207996 0.192142 0
0.237507 0.193378 0
0.266865 0.195026 0
0.296315 0.196979 0
0.325948 0.199176 0
0.356023 0.20145 0
0.38674 0.203708 0
0.418051 0.205936 0
0.450095 0.208026 0
0.482826 0.209995 0
0.516197 0.211841 0
0.55021 0.21355 0
0.584726 0.215183 0
0.61973 0.216709 0
0.655192 0.218158 0
0.691051 0.219547 0
0.727291 0.22089 0
0.763882 0.222171 0
0.800763 0.223407 0
0.83798 0.224613 0
0.875441 0.225788 0
0.913207 0.226917 0
0.951186 0.228046 0
0 0.224872 0
0 0.223484 0
0 0.222965 0
0.0107271 0.222904 0
0.0345312 0.222858 0
0.060914 0.222827 0
0.0888685 0.222797 0
0.118013 0.222751 7.62951e-05
0.148104 0.222705 0.000167849
0.178988 0.222675 0.000244144
0.209964 0.222889 0
0.240528 0.22356 0
0.270802 0.224674 0
0.300908 0.226169 0
0.330953 0.227985 0
0.361166 0.230045 0
0.391608 0.232273 0
0.422477 0.234546 0
0.453925 0.236805 0
0.485893 0.239033 0
0.518517 0.241154 0
0.551766 0.243153 0
0.585565 0.24506 0
0.619944 0.246845 0
0.654902 0.248493 0
0.690257 0.250095 0
0.72604 0.251621 0
0.762219 0.253056 0
0.798764 0.254459 0
0.83566 0.255787 0
0.872847 0.257099 0
0.910323 0.25835 0
0.948089 0.259571 0
0 0.256474 0
0 0.255283 0
0 0.254826 0
0.0108186 0.254765 0
0.034638 0.254734 0
0.0610056 0.254704 0
0.0889601 0.254658 0
0.118105 0.254627 0
0.148196 0.254582 9.15541e-05
0.17908 0.254551 0.000183108
0.210666 0.254505 0.000274662
0.242298 0.254704 0
0.273564 0.255299 0
0.304524 0.256306 0
0.335302 0.257679 0
0.365988 0.259358 0
0.396704 0.261295 0
0.427604 0.263416 0
0.458747 0.265675 0
0.490318 0.267964 0
0.522438 0.270207 0
0.554971 0.272435 0
0.588144 0.274571 0
0.621851 0.2766 0
0.656107 0.278538 0
0.690852 0.280369 0
0.726131 0.282094 0
0.761837 0.283726 0
0.79794 0.285313 0
0.834409 0.286824 0
0.871244 0.288273 0
0.908415 0.289662 0
0.945876 0.291005 0
0 0.288411 0
0 0.287373 0
0 0.286976 0
0.0109255 0.286915 0
0.0347295 0.286885 0
0.0610971 0.286839 0
0.0890669 0.286809 0
0.118196 0.286763 0
0.148287 0.286732 3.0518e-05
0.179187 0.286687 0.000122072
0.210758 0.286656 0.000213626
0.242954 0.28661 0.00030518
0.275181 0.286778 0
0.307057 0.287343 0
0.338659 0.288258 0
0.370047 0.289509 0
0.401312 0.291066 0
0.432563 0.292882 0
0.463935 0.294896 0
0.49543 0.297078 0
0.527214 0.299351 0
0.559411 0.30164 0
0.592126 0.303868 0
0.625208 0.306111 0
0.658854 0.308263 0
0.693004 0.310307 0
0.727657 0.312276 0
0.762768 0.314153 0
0.798337 0.315938 0
0.834409 0.317617 0
0.870817 0.319234 0
0.907576 0.32079 0
0.944671 0.322301 0
0 0.320638 0
0 0.319707 0
0 0.319356 0
0.011017 0.31931 0
0.0348211 0.319265 0
0.0612039 0.319234 0
0.0891585 0.319188 0
0.118303 0.319158 0
0.148394 0.319112 0
0.179278 0.319081 6.10361e-05
0.210849 0.319036 0.00015259
0.243046 0.319005 0.000244144
0.275792 0.318959 0.000335698
0.308568 0.319112 0
0.340993 0.319615 0
0.373159 0.320455 0
0.405112 0.321614 0
0.436912 0.323079 0
0.468681 0.324773 0
0.500465 0.326696 0
0.532418 0.328771 0
0.564492 0.330983 0
0.596872 0.333257 0
0.629648 0.335546 0
0.662898 0.337789 0
0.696468 0.340032 0
0.730571 0.342184 0
0.765148 0.344259 0
0.800168 0.346242 0
0.83563 0.348165 0
0.871519 0.349996 0
0.907835 0.35172 0
0.944579 0.353368 0
0 0.353109 0
0 0.352285 0
0 0.351965 0
0.0111238 0.351919 0
0.0349279 0.351873 0
0.0612955 0.351843 0
0.08925 0.351812 0
0.118395 0.351766 0
0.148486 0.35172 0
0.17937 0.35169 0
0.210956 0.351644 9.15541e-05
0.243137 0.351614 0.000183108
0.275883 0.351568 0.000274662
0.309117 0.351537 0.000366217
0.342397 0.351659 0
0.375326 0.352132 0
0.408011 0.352911 0
0.440482 0.353994 0
0.472816 0.355352 0
0.505058 0.356954 0
0.537301 0.35877 0
0.569665 0.360739 0
0.60206 0.36289 0
0.634699 0.365118 0
0.667628 0.367407 0
0.700908 0.369696 0
0.734646 0.371923 0
0.768688 0.374166 0
0.80322 0.376333 0
0.838163 0.378424 0
0.873564 0.380423 0
0.909361 0.382376 0
0.945556 0.384237 0
0 0.385824 0
0 0.385061 0
0 0.384771 0
0.0112154 0.384726 0
0.0350195 0.384695 0
0.061387 0.384665 0
0.0893568 0.384619 0
0.118486 0.384588 0
0.148577 0.384543 0
0.179477 0.384512 0
0.211063 0.384466 3.0518e-05
0.243244 0.384421 0.000122072
0.27599 0.38439 0.000213626
0.309224 0.384344 0.00030518
0.342916 0.384314 0.000381476
0.376638 0.384436 1.5259e-05
0.410056 0.384863 0
0.443214 0.385595 0
0.476158 0.386587 0
0.50898 0.387854 0
0.54168 0.389364 0
0.574365 0.391089 0
0.607034 0.392996 0
0.639887 0.395026 0
0.672801 0.397208 0
0.705943 0.399466 0
0.739361 0.401755 0
0.773129 0.404028 0
0.80734 0.406256 0
0.841794 0.408515 0
0.876722 0.410681 0
0.912047 0.412787 0
0.947784 0.414816 0
0 0.418738 0
0 0.418051 0
0 0.417777 0
0.0113222 0.417731 0
0.0351263 0.4177 0
0.0614939 0.41767 0
0.0894484 0.417624 0
0.118593 0.417594 0
0.148669 0.417548 0
0.179568 0.417502 0
0.211154 0.417472 0
0.243336 0.417426 6.10361e-05
0.276081 0.417395 0.00015259
0.309331 0.41735 0.000244144
0.343023 0.417304 0.000320439
0.377142 0.417273 0.000411994
0.411292 0.41738 7.62951e-05
0.445121 0.417792 0
0.478737 0.418463 0
0.512139 0.419409 0
0.545388 0.4206 0
0.578546 0.422019 0
0.611627 0.423651 0
0.644709 0.425467 0
0.677821 0.427451 0
0.711131 0.429526 0
0.744518 0.431724 0
0.778119 0.433997 0
0.812024 0.436286 0
0.84625 0.43856 0
0.880888 0.440787 0
0.915724 0.443046 0
0.951034 0.445228 0
0 0.451835 0
0 0.451209 0
0 0.450965 0
0.0114137 0.450919 0
0.0352178 0.450874 0
0.0615854 0.450843 0
0.0895399 0.450813 0
0.118685 0.450767 0
0.148775 0.450736 0
0.179675 0.45069 0
0.211246 0.450645 0
0.243442 0.450614 0
0.276188 0.450568 7.62951e-05
0.309422 0.450538 0.000167849
0.34313 0.450492 0.000259403
0.377249 0.450446 0.000350958
0.411765 0.450401 0.000442512
0.446281 0.450523 0.000122072
0.480552 0.450889 0
0.514565 0.45153 0
0.548394 0.452399 0
0.582055 0.453529 0
0.61561 0.454871 0
0.649104 0.456428 0
0.682567 0.458152 0
0.71606 0.46006 0
0.749691 0.462043 0
0.783322 0.46421 0
0.817166 0.466423 0
0.851209 0.468711 0
0.885542 0.470985 0
0.92018 0.473274 0
0.95523 0.475486 0
0 0.485115 0
0 0.484535 0
0 0.484306 0
0.0115206 0.48426 0
0.0353246 0.48423 0
0.061677 0.484184 0
0.0896468 0.484154 0
0.118791 0.484108 0
0.148882 0.484077 0
0.179767 0.484031 0
0.211353 0.484001 0
0.243534 0.483955 0
0.27628 0.483925 1.5259e-05
0.309529 0.483879 0.000106813
0.343221 0.483833 0.000198367
0.37734 0.483787 0.000289921
0.411856 0.483757 0.000381476
0.446754 0.483711 0.00047303
0.481636 0.483818 0.000183108
0.516274 0.484169 0
0.550683 0.484764 0
0.584909 0.485588 0
0.618982 0.486656 0
0.652934 0.487922 0
0.686793 0.489403 0
0.720623 0.491051 0
0.754452 0.492882 0
0.788327 0.494835 0
0.822339 0.49688 0
0.856413 0.499046 0
0.890654 0.501289 0
0.925139 0.503578 0
0.959869 0.505867 0
0 0.518563 0
0 0.518013 0
0 0.5178 0
0.0116121 0.517754 0
0.0354162 0.517723 0
0.0617838 0.517693 0
0.0897536 0.517647 0
0.118883 0.517617 0
0.148974 0.517571 0
0.179858 0.51754 0
0.211444 0.517494 0
0.243641 0.517464 0
0.276387 0.517418 0
0.309621 0.517372 4.57771e-05
0.343313 0.517342 0.000137331
0.377447 0.517296 0.000228885
0.411963 0.51725 0.000320439
0.446845 0.51722 0.000411994
0.482078 0.517174 0.000503548
0.517311 0.517266 0.000228885
0.5523 0.517601 0
0.587091 0.518151 0
0.621683 0.518944 0
0.656138 0.519936 0
0.690455 0.521157 0
0.724681 0.52256 0
0.758862 0.524147 0
0.793027 0.525887 0
0.827207 0.527779 0
0.861509 0.529763 0
0.895872 0.531868 0
0.930312 0.534066 0
0.964965 0.536324 0
0 0.552163 0
0 0.551659 0
0 0.551446 0
0.0117037 0.551415 0
0.035523 0.551369 0
0.0618753 0.551339 0
0.0898451 0.551293 0
0.118975 0.551263 0
0.149081 0.551217 0
0.179965 0.551186 0
0.211551 0.551141 0
0.243732 0.55111 0
0.276478 0.551064 0
0.309712 0.551019 0
0.34342 0.550988 7.62951e-05
0.377539 0.550942 0.000167849
0.412055 0.550896 0.000259403
0.446952 0.550851 0.000350958
0.482185 0.55082 0.000442512
0.517739 0.550774 0.000534066
0.553307 0.550866 0.000274662
0.588647 0.551171 0
0.623758 0.551705 0
0.658701 0.552453 0
0.693507 0.553414 0
0.728176 0.554559 0
0.762768 0.555901 0
0.797284 0.557412 0
0.831785 0.559075 0
0.86627 0.560906 0
0.900801 0.562844 0
0.9355 0.564858 0
0.970169 0.56701 0
0 0.585901 0
0 0.585428 0
0 0.585229 0
0.0118105 0.585199 0
0.0356146 0.585168 0
0.0619821 0.585122 0
0.0899367 0.585092 0
0.119081 0.585046 0
0.149172 0.585016 0
0.180056 0.58497 0
0.211643 0.584939 0
0.243839 0.584894 0
0.276585 0.584848 0
0.309819 0.584817 0
0.343526 0.584772 1.5259e-05
0.377646 0.584726 0.000106813
0.412161 0.58468 0.000198367
0.447044 0.584649 0.000289921
0.482277 0.584604 0.000381476
0.517845 0.584558 0.00047303
0.553719 0.584512 0.000549325
0.589593 0.584604 0.000320439
0.625238 0.584894 0
0.6607 0.585397 0
0.695964 0.586114 0
0.731121 0.587015 0
0.766125 0.588113 0
0.801053 0.589395 0
0.835889 0.590845 0
0.870695 0.592447 0
0.905501 0.594202 0
0.940307 0.596078 0
0.975158 0.598077 0
0 0.619776 0
0 0.619333 0
0 0.61915 0
0.011902 0.61912 0
0.0357214 0.619074 0
0.062089 0.619043 0
0.0900435 0.618997 0
0.119188 0.618967 0
0.149279 0.618921 0
0.180163 0.618891 0
0.211749 0.618845 0
0.243931 0.618814 0
0.276677 0.618769 0
0.309926 0.618723 0
0.343618 0.618692 0
0.377737 0.618647 4.57771e-05
0.412253 0.618601 0.000137331
0.44715 0.618555 0.000228885
0.482383 0.618524 0.000320439
0.517937 0.618479 0.000411994
0.553826 0.618433 0.000503548
0.58999 0.618402 0.000579843
0.626154 0.618463 0.000350958
0.662104 0.618753 0
0.697871 0.619226 0
0.733471 0.619898 0
0.768933 0.620768 0
0.804273 0.62182 0
0.839506 0.623041 0
0.874662 0.62443 0
0.909773 0.625971 0
0.944854 0.627665 0
0.979965 0.62948 0
0 0.653773 0
0 0.653361 0
0 0.653193 0
0.0120089 0.653162 0
0.0358129 0.653117 0
0.0621958 0.653086 0
0.090135 0.65304 0
0.11928 0.65301 0
0.149371 0.652964 0
0.18027 0.652934 0
0.211856 0.652888 0
0.244022 0.652857 0
0.276768 0.652811 0
0.310018 0.652766 0
0.343725 0.65272 0
0.377844 0.652689 0
0.41236 0.652644 7.62951e-05
0.447242 0.652613 0.00015259
0.48249 0.652567 0.000244144
0.518044 0.652522 0.000335698
0.553918 0.652476 0.000427253
0.590097 0.65243 0.000518807
0.626535 0.652399 0.000610361
0.662989 0.652461 0.000396735
0.699229 0.652735 0
0.735302 0.653193 0
0.771191 0.653834 0
0.806958 0.654658 0
0.842588 0.655665 0
0.878126 0.65684 0
0.913619 0.658167 0
0.949004 0.659663 0
0.984375 0.66128 0
0 0.687907 0
0 0.687526 0
0 0.687358 0
0.0121157 0.687312 0
0.0359197 0.687282 0
0.0622873 0.687251 0
0.0902419 0.687205 0
0.119387 0.687175 0
0.149462 0.687129 0
0.180362 0.687099 0
0.211933 0.687053 0
0.244129 0.687007 0
0.27689 0.686976 0
0.310124 0.686931 0
0.343816 0.686885 0
0.377935 0.686854 0
0.412467 0.686809 0
0.447349 0.686763 9.15541e-05
0.482582 0.686732 0.000183108
0.518151 0.686687 0.000274662
0.554025 0.686641 0.000366217
0.590188 0.686595 0.000457771
0.626642 0.686549 0.000549325
0.663355 0.686519 0.000640879
0.700084 0.68658 0.000442512
0.736599 0.686824 0
0.772946 0.687266 0
0.80914 0.687877 0
0.845182 0.68867 0
0.881132 0.689632 0
0.91696 0.690761 0
0.952697 0.692042 0
0.988403 0.693477 0
0 0.722164 0
0 0.721782 0
0 0.72163 0
0.0122072 0.721599 0
0.0360113 0.721553 0
0.0623941 0.721523 0
0.0903334 0.721492 0
0.119493 0.721447 0
0.149569 0.721416 0
0.180468 0.72137 0
0.212039 0.721325 0
0.244236 0.721294 0
0.276982 0.721248 0
0.310216 0.721202 0
0.343923 0.721172 0
0.378027 0.721126 0
0.412558 0.72108 0
0.44744 0.72105 3.0518e-05
0.482673 0.721004 0.000122072
0.518242 0.720958 0.000213626
0.554116 0.720928 0.00030518
0.59028 0.720882 0.000396735
0.626734 0.720836 0.000488289
0.663462 0.72079 0.000579843
0.700435 0.720745 0.000671397
0.737423 0.720806 0.00047303
0.774212 0.72105 0
0.810834 0.721462 0
0.847303 0.722057 0
0.883635 0.72282 0
0.919844 0.723735 0
0.955947 0.724819 0
0.991989 0.726055 0
0 0.756527 0
0 0.756176 0
0 0.756024 0
0.012314 0.755978 0
0.0361181 0.755947 0
0.0624704 0.755917 0
0.0904402 0.755871 0
0.119585 0.75584 0
0.149676 0.755795 0
0.18056 0.755749 0
0.212146 0.755718 0
0.244343 0.755673 0
0.277089 0.755642 0
0.310323 0.755596 0
0.34403 0.75555 0
0.378149 0.75552 0
0.41265 0.755474 0
0.447562 0.755428 0
0.482795 0.755383 6.10361e-05
0.518334 0.755352 0.00015259
0.554223 0.755306 0.000244144
0.590387 0.755261 0.000335698
0.626841 0.755215 0.000427253
0.663569 0.755184 0.000518807
0.700557 0.755138 0.000610361
0.737774 0.755093 0.000701915
0.77499 0.755154 0.000518807
0.812055 0.755367 0
0.84892 0.755779 0
0.885649 0.756344 0
0.92224 0.757076 0
0.95874 0.757961 0
0.995132 0.758999 0
0 0.790997 0
0 0.790661 0
0 0.790509 0
0.0124056 0.790478 0
0.0362249 0.790433 0
0.0625772 0.790402 0
0.090547 0.790372 0
0.119677 0.790326 0
0.149783 0.79028 0
0.180667 0.790249 0
0.212253 0.790204 0
0.244434 0.790173 0
0.27718 0.790127 0
0.31043 0.790082 0
0.344106 0.790051 0
0.378256 0.790005 0
0.412757 0.78996 0
0.447654 0.789914 0
0.482872 0.789883 0
0.518456 0.789837 9.15541e-05
0.55433 0.789792 0.000183108
0.590494 0.789746 0.000274662
0.626947 0.789715 0.000366217
0.663661 0.78967 0.000457771
0.700648 0.789624 0.000549325
0.737881 0.789578 0.000640879
0.775341 0.789532 0.000717174
0.812787 0.789593 0.000549325
0.850095 0.789807 0
0.887205 0.790204 0
0.924208 0.790738 0
0.961059 0.79144 0
0.997818 0.792294 0
0 0.825574 0
0 0.825238 0
0 0.825101 0
0.0125124 0.825071 0
0.0363165 0.825025 0
0.0626993 0.824994 0
0.0906539 0.824964 0
0.119783 0.824918 0
0.149874 0.824887 0
