src/colors/dark_&_moody/woodland_drama.cube
TITLE "Generated by Resolve"
LUT_3D_SIZE 33
0.0179446 0.0202335 0.024506
0.0180056 0.0242771 0.0294957
0.0179904 0.0279698 0.0341344
0.0180056 0.0305638 0.0385595
0.0179904 0.032105 0.0406195
0.0179904 0.0334936 0.0424048
0.0180972 0.0349584 0.0440833
0.0193179 0.0359808 0.0449378
0.0238193 0.036408 0.0454719
0.0294804 0.037171 0.0459907
0.0356298 0.0383459 0.0464332
0.0427253 0.0394751 0.0467079
0.0509957 0.0404364 0.0470436
0.059968 0.0414893 0.0472114
0.0701305 0.0425422 0.047303
0.0812085 0.0436103 0.0473335
0.0934005 0.0445716 0.047303
0.106554 0.0455787 0.0472419
0.121324 0.0462959 0.0469673
0.137545 0.0469062 0.0467689
0.155703 0.0471351 0.046479
0.176028 0.047013 0.0462501
0.198779 0.0462043 0.0460822
0.224277 0.0444953 0.045655
0.252155 0.0417639 0.0451972
0.282414 0.0377203 0.0445411
0.314794 0.0318914 0.0438849
0.348821 0.0242466 0.0429694
0.384695 0.0179751 0.0419318
0.421912 0.0177157 0.0405432
0.460304 0.0132296 0.0390478
0.500786 0.00402838 0.0370336
0.542992 0 0.0348821
0.0179904 0.0311437 0.0396124
0.0179904 0.0326238 0.0412299
0.0180362 0.0339818 0.0430457
0.0180819 0.0355535 0.0446632
0.0180514 0.0372015 0.046479
0.0185702 0.0387121 0.0482643
0.0189059 0.0404364 0.0499428
0.0204166 0.0417639 0.0511635
0.0259098 0.0423133 0.0511482
0.0321813 0.0429389 0.0513619
0.0395514 0.0433967 0.0514839
0.0475929 0.0439002 0.051606
0.0564279 0.0448615 0.0517281
0.0661173 0.0458076 0.0516518
0.0767834 0.0467842 0.0515908
0.0884565 0.0477607 0.0514687
0.101244 0.0486763 0.0512245
0.115358 0.0495155 0.0509804
0.130785 0.0502327 0.0506294
0.14815 0.0505379 0.0502937
0.167452 0.0505531 0.0499886
0.189105 0.0502022 0.049546
0.21326 0.0490425 0.0493019
0.240055 0.0468299 0.0488441
0.269032 0.0435798 0.0482948
0.300435 0.038819 0.0475166
0.333532 0.0326238 0.0466773
0.368338 0.0242313 0.0456245
0.404639 0.0183413 0.0443427
0.4421 0.0174868 0.0429389
0.481239 0.0122988 0.0411536
0.522316 0.00311284 0.0390631
0.564843 0 0.0364233
0.0180667 0.0361639 0.045304
0.0180819 0.0377661 0.0471962
0.0187533 0.0393225 0.0488441
0.0189059 0.0410773 0.0506294
0.0195926 0.04271 0.052491
0.0205997 0.0445869 0.0541848
0.0214847 0.0464332 0.0561837
0.0231785 0.0482795 0.0578317
0.0287327 0.0493935 0.0573587
0.035874 0.0497749 0.0571298
0.0439155 0.0497597 0.0569467
0.0530709 0.0500801 0.0568093
0.0628367 0.0504158 0.0566415
0.0735027 0.0509041 0.0564279
0.0848096 0.0517281 0.0561379
0.0971389 0.0526894 0.0558328
0.110704 0.0533608 0.0554818
0.125719 0.054078 0.0549783
0.142428 0.0545052 0.0546273
0.161059 0.0546883 0.0541543
0.181674 0.054551 0.0536965
0.204913 0.0537118 0.0532235
0.230518 0.052079 0.052842
0.25864 0.0493782 0.0521859
0.288792 0.0455634 0.0515145
0.32105 0.0403601 0.0506142
0.354788 0.0335088 0.0496071
0.390295 0.0246586 0.0484169
0.427085 0.0180209 0.0470283
0.464973 0.0174411 0.0454108
0.504692 0.0116884 0.0433967
0.546136 0.00233463 0.0409705
0.588952 0 0.0379339
0.0188754 0.0417029 0.0513771
0.0200046 0.0433814 0.0531014
0.0208896 0.045304 0.0548714
0.0221103 0.0470588 0.0568399
0.0234226 0.0490883 0.0586099
0.0246281 0.0511635 0.0606088
0.0264744 0.0530098 0.0626078
0.0278172 0.0553597 0.0645304
0.0329137 0.0569619 0.0640726
0.039765 0.0579538 0.0632334
0.0483406 0.0585946 0.062623
0.0584115 0.0584726 0.0621958
0.06981 0.0577859 0.0618601
0.0815137 0.0576791 0.0616159
0.0940108 0.0579385 0.0612039
0.107744 0.0581674 0.0606546
0.12224 0.058793 0.0601053
0.13814 0.0594186 0.0595102
0.156283 0.0595254 0.0589151
0.176165 0.0593881 0.0584878
0.198642 0.0589456 0.057908
0.223484 0.0576791 0.057435
0.250797 0.055436 0.0566262
0.280079 0.0523537 0.0559091
0.311513 0.0479591 0.054963
0.344411 0.0422827 0.0540017
0.378851 0.035111 0.0528878
0.414801 0.0256046 0.0514229
0.452003 0.0185245 0.049836
0.490257 0.0174258 0.0479896
0.530449 0.0117647 0.0458076
0.572213 0.00297551 0.0430457
0.614969 0 0.039704
0.0226444 0.047776 0.057496
0.0238193 0.0498817 0.0592813
0.0253605 0.0517739 0.0614023
0.026978 0.0538643 0.0632944
0.028336 0.0561837 0.0653239
0.0303197 0.0581369 0.0675212
0.0317388 0.0605936 0.0695811
0.0336309 0.0629892 0.0718853
0.0385595 0.0652171 0.0710002
0.0450141 0.0669566 0.0696269
0.0540017 0.0680095 0.0687266
0.06421 0.0686809 0.0679026
0.0758373 0.068574 0.067277
0.0886091 0.0681468 0.0667735
0.103304 0.0669718 0.0662699
0.118837 0.0661326 0.0658579
0.135317 0.0658427 0.0652323
0.153475 0.0654307 0.064622
0.173037 0.0652171 0.0639048
0.194873 0.0648051 0.0633097
0.218784 0.063859 0.0625772
0.245411 0.0620432 0.0617838
0.274098 0.0594186 0.0610056
0.304494 0.0559396 0.06009
0.336843 0.0510567 0.0590066
0.370642 0.044892 0.0577707
0.405905 0.0373083 0.0563363
0.442115 0.0278172 0.0548257
0.479545 0.018555 0.0529488
0.518349 0.0175326 0.0508736
0.558801 0.013138 0.0482338
0.600397 0.00410468 0.0451362
0.643122 6.10361e-05 0.0413367
0.027451 0.0547189 0.0639963
0.0290532 0.0568704 0.0661784
0.0309606 0.0589303 0.0682994
0.0321813 0.0615854 0.0703746
0.0345159 0.0638132 0.0727092
0.0366064 0.0663462 0.074876
0.0384375 0.0690929 0.0773022
0.0410163 0.0716716 0.07953
0.0457008 0.074342 0.0780652
0.0523842 0.0765393 0.0765545
0.0605936 0.0783551 0.0751965
0.0711833 0.0800793 0.0741131
0.0830243 0.0806744 0.0731518
0.0964981 0.0807355 0.0723125
0.111772 0.0801556 0.0714733
0.129061 0.0788434 0.0709544
0.148486 0.0767376 0.0703593
0.169863 0.0742657 0.0699474
0.192279 0.0726635 0.0693523
0.216983 0.0708476 0.0686961
0.242847 0.069337 0.0678264
0.270802 0.0671397 0.0668803
0.300618 0.0641489 0.0658274
0.332097 0.0601816 0.064683
0.365042 0.0551003 0.063386
0.399619 0.0487373 0.0619211
0.435416 0.041001 0.0602274
0.47187 0.0316777 0.0584573
0.509789 0.0216373 0.0562753
0.549004 0.0178378 0.053727
0.589609 0.0153811 0.0508583
0.631006 0.00848402 0.0473182
0.672816 0.00177005 0.0430304
0.0329442 0.0624247 0.0712902
0.0353399 0.064683 0.073518
0.0371252 0.0674296 0.0756695
0.039353 0.0699779 0.0782025
0.0416419 0.0727092 0.0806592
0.0437324 0.0756542 0.0831769
0.0462806 0.0784924 0.0859388
0.0491493 0.0817578 0.0862898
0.0542916 0.0844892 0.0850996
0.0606088 0.0873121 0.0835889
0.0688182 0.0899519 0.082063
0.0792401 0.0924086 0.0806287
0.0914015 0.0940108 0.0793317
0.105776 0.094789 0.0782177
0.121935 0.0947433 0.0770733
0.140246 0.0941329 0.0762188
0.161105 0.092546 0.0755016
0.184543 0.0900587 0.0750134
0.21091 0.0861677 0.0744793
0.24007 0.0807965 0.0741741
0.268971 0.0774701 0.0733501
0.299443 0.0734569 0.0723735
0.330571 0.0698863 0.071107
0.363027 0.0657206 0.0696574
0.396811 0.0604257 0.0681621
0.431601 0.0543069 0.066453
0.467231 0.046891 0.064622
0.504097 0.0381018 0.0624704
0.54226 0.0280766 0.0599985
0.581872 0.0200961 0.0569924
0.622156 0.0175631 0.0535897
0.662943 0.0153506 0.0495766
0.703243 0.0119173 0.044831
0.0366674 0.071046 0.0762341
0.0409247 0.0738231 0.0800641
0.0444953 0.0766308 0.0839094
0.0471046 0.0796521 0.0869001
0.0492866 0.0828717 0.0895552
0.0521248 0.0858778 0.0921798
0.0547494 0.0892653 0.0929427
0.0585184 0.0924697 0.0927749
0.0636301 0.0961166 0.0918135
0.0701152 0.0992294 0.0906996
0.0785687 0.102831 0.089189
0.0885939 0.106188 0.0874952
0.101198 0.108751 0.0860151
0.116121 0.110674 0.0845808
0.133623 0.111696 0.0831464
0.15349 0.11165 0.0819867
0.175708 0.110933 0.0810864
0.200748 0.109087 0.0802625
0.228702 0.105989 0.0795453
0.259327 0.101366 0.0788891
0.292287 0.0950027 0.0783246
0.327306 0.0867628 0.0778821
0.361868 0.0798352 0.0768749
0.39649 0.0737621 0.0754253
0.431113 0.0682231 0.0737011
0.466194 0.0623026 0.0717174
0.502068 0.0555123 0.0694591
0.539117 0.0480354 0.0669108
0.577371 0.0399329 0.0640574
0.616449 0.0315251 0.0606546
0.65626 0.0238041 0.0567483
0.695827 0.0212253 0.0520638
0.733989 0.019852 0.0468452
0.0401617 0.0805829 0.0809949
0.0446326 0.0836194 0.0846265
0.0489357 0.0869001 0.0882277
0.0530098 0.0903182 0.0917372
0.0563668 0.0937819 0.0948196
0.0601205 0.0973678 0.0971695
0.0637827 0.100969 0.0986038
0.0683757 0.104845 0.0991073
0.0737774 0.108858 0.0988479
0.0807507 0.113161 0.0979171
0.0894484 0.117357 0.0964828
0.100175 0.121553 0.0947738
0.112245 0.124926 0.0929274
0.128161 0.128649 0.0911727
0.146944 0.13138 0.0895094
0.168078 0.132647 0.0880751
0.192157 0.132586 0.0867933
0.218784 0.131472 0.0856641
0.247791 0.129503 0.0844892
0.279484 0.126085 0.0835584
0.313466 0.121019 0.0826429
0.349722 0.113863 0.0819104
0.387915 0.104326 0.0811933
0.427649 0.0923934 0.0806134
0.465843 0.0824598 0.0793164
0.502708 0.0745708 0.0773785
0.539269 0.0683299 0.074876
0.576379 0.0627604 0.0719005
0.614527 0.0571603 0.0684825
0.653056 0.0520943 0.0644846
0.691279 0.0486305 0.0600748
0.728573 0.0469825 0.0551614
0.764401 0.0479896 0.0494087
0.0436408 0.0913558 0.0859236
0.0485847 0.0946212 0.0895247
0.0536049 0.0981613 0.0930953
0.0585031 0.101946 0.0965286
0.0631113 0.105959 0.0997024
0.0678721 0.110124 0.102251
0.0726482 0.114427 0.104097
0.0781872 0.11899 0.105211
0.0846113 0.12369 0.105333
0.0922408 0.128695 0.104814
0.101564 0.133944 0.10367
0.113222 0.139559 0.102007
0.125948 0.143954 0.100221
0.140841 0.14786 0.0983291
0.161517 0.153704 0.0959793
0.18436 0.156512 0.0941939
0.209873 0.158328 0.0923629
0.237751 0.15845 0.0906996
0.268055 0.157534 0.0891737
0.300679 0.155245 0.0879835
0.335332 0.151766 0.0866102
0.372137 0.146609 0.0854047
0.410773 0.139452 0.0843519
0.450721 0.130373 0.0833906
0.492012 0.118395 0.0825971
0.534524 0.103593 0.0818036
0.575586 0.0914778 0.0800793
0.614923 0.0832227 0.0772564
0.652735 0.0795453 0.0734264
0.690028 0.0777142 0.0689708
0.726085 0.0776074 0.0639506
0.760952 0.079469 0.0584726
0.794415 0.0832532 0.0523232
0.0471962 0.103685 0.0910353
0.0527962 0.106996 0.0949111
0.0584268 0.110964 0.0984207
0.0637369 0.115312 0.101808
0.0694743 0.11989 0.104936
0.0754406 0.124712 0.107637
0.0814221 0.129686 0.109819
0.0879683 0.135012 0.111284
0.0956741 0.140581 0.111879
0.104448 0.146456 0.111711
0.114763 0.152911 0.110857
0.127398 0.159518 0.109377
0.142641 0.16669 0.107317
0.156878 0.170886 0.105241
0.176394 0.176776 0.102831
0.200183 0.182712 0.100221
0.228382 0.187778 0.0978408
0.257603 0.189792 0.0956283
0.288655 0.190311 0.0937514
0.322072 0.189563 0.0918593
0.357443 0.187335 0.0901808
0.39469 0.183963 0.0884413
0.433448 0.178958 0.0868849
0.473426 0.172229 0.085481
0.515007 0.163668 0.0841993
0.557855 0.152956 0.0830396
0.602075 0.140414 0.0816358
0.646693 0.125109 0.0802319
0.688258 0.113359 0.077821
0.725536 0.108553 0.0742046
0.759854 0.109621 0.068986
0.792218 0.113573 0.0631876
0.823209 0.119554 0.0566262
0.050309 0.118013 0.0963302
0.0567636 0.121324 0.100511
0.062974 0.125734 0.104021
0.0693065 0.130648 0.107485
0.0760357 0.135912 0.110491
0.0829023 0.141482 0.113359
0.0901503 0.147402 0.115679
0.0981003 0.153536 0.117372
0.106981 0.160052 0.118303
0.117067 0.166979 0.118517
0.128588 0.174182 0.117983
0.142367 0.182147 0.116655
0.15877 0.190509 0.114595
0.177325 0.198718 0.112001
0.194797 0.203708 0.109682
0.217655 0.210376 0.106844
0.244862 0.216938 0.10367
0.278126 0.224781 0.0999619
0.30985 0.2262 0.097612
0.343786 0.2271 0.0952316
0.379843 0.226383 0.0930648
0.41738 0.224308 0.090959
0.456352 0.22118 0.0890364
0.496376 0.21677 0.0869764
0.538155 0.211002 0.085069
0.581125 0.203784 0.0830396
0.624826 0.195605 0.0810712
0.668635 0.185657 0.078996
0.71133 0.174212 0.0773327
0.75227 0.160449 0.075761
0.789471 0.150851 0.0732738
0.821622 0.150759 0.068452
0.850446 0.156222 0.0620584
0.0526436 0.135149 0.101503
0.0605325 0.137926 0.106447
0.0675822 0.142458 0.11043
0.0746624 0.148241 0.113573
0.0822003 0.15436 0.116564
0.0901961 0.160693 0.119463
0.0988632 0.167514 0.121798
0.108339 0.174746 0.123537
0.1187 0.182177 0.124697
0.13019 0.190112 0.125139
0.143114 0.198459 0.124819
0.158129 0.207172 0.123659
0.175555 0.21648 0.121767
0.195697 0.226108 0.11902
0.21735 0.235111 0.115908
0.238499 0.241306 0.112779
0.263264 0.247578 0.109621
0.293919 0.255116 0.105852
0.330282 0.263355 0.101549
0.366186 0.266575 0.0983902
0.402457 0.267475 0.0955215
0.440146 0.266743 0.0928511
0.479026 0.265263 0.0903334
0.519783 0.262898 0.0877089
0.561486 0.25948 0.0850538
0.604135 0.255314 0.0824292
0.647028 0.250141 0.0795605
0.689006 0.243977 0.076936
0.729549 0.236545 0.0746319
0.768963 0.227893 0.072694
0.806165 0.218357 0.0707866
0.841535 0.207553 0.0691386
0.872877 0.20174 0.0662547
0.0541238 0.155016 0.106752
0.0633097 0.157733 0.1122
0.0716259 0.162341 0.116533
0.0800336 0.168429 0.119875
0.0885939 0.175418 0.122881
0.0977951 0.182773 0.125566
0.10779 0.190433 0.12784
0.118791 0.198566 0.129747
0.130785 0.207004 0.130953
0.143709 0.215747 0.131472
0.158221 0.224887 0.131411
0.174884 0.234379 0.13048
0.193393 0.244236 0.128756
0.214298 0.254551 0.126116
0.238025 0.265202 0.122744
0.26305 0.2748 0.118959
0.28748 0.281941 0.115358
0.313146 0.287007 0.111864
0.347295 0.295537 0.10724
0.387015 0.304982 0.101884
0.425635 0.309407 0.0978866
0.463355 0.310216 0.0945754
0.5028 0.310338 0.0913405
0.543511 0.309575 0.0879225
0.585077 0.308385 0.0845045
0.62678 0.30663 0.0809796
0.668132 0.303838 0.0774701
0.708003 0.300114 0.0742351
0.746792 0.295384 0.0712139
0.783902 0.290105 0.0685435
0.81912 0.284016 0.0660563
0.85243 0.277317 0.064332
0.883833 0.269932 0.062211
0.0539254 0.178088 0.111864
0.0650492 0.180835 0.117754
0.0755627 0.184894 0.123018
0.0850385 0.191363 0.126558
0.0947738 0.199115 0.129274
0.105486 0.207385 0.131762
0.117128 0.215824 0.13402
0.129747 0.224582 0.135821
0.143404 0.233814 0.137179
0.158099 0.243183 0.137942
0.174426 0.252995 0.137881
0.192538 0.263127 0.136995
0.212131 0.273472 0.1355
0.234043 0.284123 0.133242
0.258396 0.295064 0.130007
0.285527 0.306416 0.12604
0.313466 0.316457 0.121538
0.341039 0.324285 0.117128
0.36759 0.32871 0.113313
0.404822 0.338079 0.107866
0.445975 0.347768 0.101564
0.487892 0.354223 0.0959029
0.52723 0.355886 0.0921035
0.567529 0.356863 0.0879683
0.608255 0.35758 0.0834516
0.648402 0.357183 0.0792401
0.687694 0.356207 0.075349
0.725551 0.354421 0.0713359
0.762341 0.351705 0.0676127
0.797284 0.348501 0.0641794
0.830442 0.344823 0.0611734
0.861692 0.340658 0.0582284
0.891447 0.336004 0.055848
0.0522164 0.204288 0.116793
0.0654765 0.207355 0.122927
0.0784619 0.210971 0.128939
0.0901045 0.217121 0.133074
0.101595 0.225071 0.136004
0.113802 0.233997 0.138308
0.12726 0.243122 0.14049
0.141558 0.252445 0.142199
0.156924 0.26215 0.143618
0.173709 0.272084 0.144274
0.191409 0.282338 0.144457
0.210636 0.292699 0.143847
0.231678 0.303471 0.142565
0.254658 0.314382 0.140551
0.279652 0.325475 0.137591
0.307073 0.336812 0.133745
0.33724 0.348409 0.128969
0.368093 0.358938 0.123751
0.398138 0.367147 0.118532
0.426459 0.372091 0.114214
0.46421 0.381353 0.107958
0.507286 0.392126 0.10042
0.551949 0.402014 0.0923323
0.59144 0.404318 0.0874342
0.630411 0.406027 0.082475
0.668544 0.406958 0.0777905
0.705669 0.407263 0.0732128
0.741726 0.407004 0.0684215
0.776135 0.405951 0.0643626
0.808957 0.404395 0.0603952
0.839872 0.402335 0.0561532
0.86949 0.399786 0.0526589
0.897734 0.396765 0.0491798
0.0489509 0.23328 0.121614
0.0654459 0.236362 0.127962
0.081651 0.239673 0.134524
0.0963302 0.244831 0.139879
0.109651 0.25301 0.142809
0.12372 0.262226 0.145159
0.138674 0.271748 0.147219
0.154681 0.281529 0.148898
0.171756 0.291615 0.150179
0.189837 0.301839 0.151064
0.209262 0.312306 0.1514
0.229969 0.322957 0.151019
0.252216 0.333822 0.14992
0.276326 0.344991 0.148119
0.302525 0.356466 0.145464
0.330678 0.368078 0.141848
0.360983 0.37998 0.137209
0.39382 0.392081 0.131701
0.427039 0.403281 0.125597
0.459144 0.412268 0.119432
0.487953 0.417182 0.114382
0.525368 0.426459 0.107332
0.569787 0.439384 0.0978561
0.613703 0.450599 0.0881056
0.651072 0.453758 0.0824903
0.687266 0.45568 0.0770428
0.722347 0.456825 0.0716259
0.756054 0.457603 0.0665141
0.788327 0.457694 0.061265
0.818936 0.457527 0.0564126
0.848127 0.456611 0.0520485
0.876112 0.455329 0.047364
0.903151 0.453254 0.0435645
0.0460517 0.264347 0.126192
0.0662852 0.26743 0.132692
0.08542 0.270619 0.139666
0.103319 0.274968 0.146059
0.119387 0.282261 0.150027
0.134874 0.291524 0.15227
0.151232 0.301366 0.154223
0.168841 0.311421 0.155901
0.187808 0.321752 0.157397
0.207538 0.332341 0.15816
0.228641 0.343145 0.158648
0.250843 0.354131 0.158511
0.274754 0.365377 0.15761
0.300053 0.376837 0.155917
0.32726 0.388586 0.153368
0.356268 0.400549 0.150042
0.387076 0.412726 0.145739
0.41976 0.425238 0.140429
0.454551 0.437919 0.133928
0.489616 0.449943 0.126726
0.522423 0.459663 0.119448
0.550103 0.46421 0.11397
0.58555 0.47306 0.106035
0.628046 0.486702 0.0951858
0.668528 0.497398 0.0851606
0.704402 0.502831 0.0774701
0.737514 0.504631 0.07187
0.768841 0.50602 0.0665599
0.798978 0.507012 0.0608682
0.827634 0.507515 0.0552529
0.855299 0.50753 0.0497292
0.882002 0.506828 0.0446479
0.908019 0.505577 0.0401923
0.0444495 0.296941 0.13077
0.0685588 0.299947 0.137682
0.0910048 0.303136 0.14493
0.11223 0.306615 0.152285
0.13109 0.312734 0.157549
0.14847 0.322255 0.160006
0.166644 0.332311 0.161959
0.185946 0.342733 0.163622
0.206378 0.353384 0.165118
0.227893 0.364172 0.166079
0.250324 0.375265 0.166491
0.274113 0.386542 0.166339
0.299413 0.398184 0.16553
0.32607 0.41001 0.164279
0.354238 0.422034 0.161944
0.38378 0.434165 0.158709
0.415244 0.446723 0.154604
0.447761 0.459419 0.149584
0.48188 0.47245 0.143282
0.517357 0.485573 0.135851
0.5523 0.498161 0.127749
0.584146 0.507881 0.119646
0.609873 0.51191 0.113695
0.642145 0.519814 0.105638
0.680247 0.532067 0.094667
0.717861 0.543648 0.0827955
0.750973 0.550057 0.07393
0.780362 0.551934 0.0679026
0.80853 0.55317 0.0622721
0.835721 0.554009 0.0564584
0.861997 0.554391 0.0509957
0.887633 0.554131 0.0454871
0.912856 0.553399 0.0404669
0.0454719 0.331334 0.135332
0.0737621 0.334432 0.142626
0.0993668 0.337682 0.150134
0.123507 0.341054 0.157916
0.145113 0.346212 0.164599
0.164965 0.354696 0.168215
0.184771 0.364904 0.170108
0.205753 0.37554 0.171862
0.227832 0.386419 0.173281
0.250874 0.397604 0.17438
0.275029 0.408942 0.174807
0.300221 0.420554 0.174762
0.326772 0.43241 0.174136
0.354421 0.444404 0.172808
0.383398 0.456703 0.170764
0.413321 0.469108 0.167742
0.444694 0.481819 0.164111
0.477058 0.494591 0.159304
0.510033 0.507362 0.153506
0.543496 0.520134 0.146822
0.577325 0.53286 0.138872
0.610941 0.54519 0.130114
0.640879 0.554376 0.121523
0.664561 0.558053 0.115175
0.692775 0.564324 0.107454
0.726375 0.575296 0.0965591
0.760571 0.586984 0.0842756
0.790829 0.593851 0.0741436
0.817609 0.595697 0.0677348
0.843503 0.596613 0.0618753
0.868757 0.596963 0.0558022
0.893706 0.596902 0.0492256
0.918441 0.596216 0.0427558
0.0519265 0.367498 0.140093
0.0835126 0.370748 0.147738
0.11165 0.374014 0.155673
0.137957 0.377417 0.163836
0.162997 0.381155 0.172335
0.185122 0.388663 0.177218
0.206516 0.39913 0.179141
0.228931 0.409995 0.180819
0.252262 0.421027 0.182116
0.27686 0.432349 0.183139
0.302281 0.444038 0.183856
0.328832 0.455833 0.183841
0.356207 0.467857 0.183139
0.384634 0.480049 0.181994
0.414054 0.492454 0.18027
0.444221 0.504845 0.1776
0.474754 0.51725 0.17409
0.505928 0.529564 0.170001
0.53756 0.541863 0.165072
0.569162 0.554025 0.158968
0.600809 0.566079 0.152255
0.632792 0.578027 0.14406
0.664271 0.589715 0.134722
0.691432 0.597925 0.126406
0.713207 0.601465 0.119646
0.736934 0.605737 0.112215
0.766827 0.615335 0.101457
0.797955 0.626139 0.0891737
0.826764 0.633936 0.077348
0.851621 0.635081 0.0717021
0.876112 0.635508 0.065568
0.900557 0.635279 0.0585031
0.924651 0.634745 0.0519265
0.0639353 0.405768 0.145022
0.0979782 0.408927 0.153063
0.12874 0.412146 0.161334
0.157183 0.415671 0.170108
0.183703 0.419379 0.179141
0.20853 0.425254 0.186007
0.2318 0.434928 0.188922
0.255482 0.445808 0.190539
0.280171 0.457069 0.191821
0.305837 0.468589 0.192859
0.332296 0.480354 0.193362
0.359701 0.492302 0.193469
0.387625 0.504295 0.193042
0.416052 0.516258 0.192264
0.445258 0.528206 0.190753
0.474937 0.5402 0.188495
0.504555 0.552071 0.185611
0.53431 0.56379 0.181964
0.564233 0.575341 0.177783
0.594293 0.58677 0.1729
0.624048 0.598001 0.16672
0.653819 0.609094 0.159731
0.683131 0.619821 0.151766
0.711727 0.630396 0.142885
0.736171 0.63772 0.134646
0.756039 0.641047 0.127489
0.775769 0.643275 0.120165
0.80322 0.652018 0.109636
0.832197 0.66186 0.09691
0.8598 0.669459 0.083711
0.884108 0.670619 0.0764477
0.907927 0.670619 0.0699168
0.931197 0.67013 0.0630808
0.0833753 0.445579 0.150286
0.118685 0.448844 0.158694
0.150881 0.452216 0.167559
0.180713 0.455665 0.176745
0.209033 0.459312 0.186191
0.235996 0.463371 0.195407
0.261021 0.472221 0.199451
0.285863 0.483284 0.200992
0.31136 0.49453 0.202213
0.337514 0.506004 0.203403
0.364736 0.517586 0.203906
0.392248 0.529061 0.204242
0.420142 0.54052 0.204074
0.44828 0.551934 0.203372
0.476646 0.563287 0.202335
0.505043 0.574578 0.200793
0.533471 0.585748 0.198734
0.56202 0.596719 0.195666
0.590402 0.607492 0.192172
0.618616 0.61799 0.187915
0.646723 0.62829 0.183032
0.674296 0.638361 0.177325
0.701259 0.648264 0.17055
0.727718 0.657984 0.16286
0.753445 0.667475 0.154269
0.775921 0.67422 0.145541
0.794278 0.677165 0.138445
0.811978 0.678645 0.130739
0.837003 0.685908 0.120195
0.864393 0.694667 0.106905
0.89102 0.701564 0.0929885
0.915084 0.704036 0.0822309
0.937499 0.703792 0.0746014
0.109911 0.487175 0.156039
0.146105 0.490425 0.164767
0.178622 0.493843 0.174166
0.209537 0.497322 0.183886
0.238727 0.500893 0.193683
0.267109 0.504662 0.203891
0.293614 0.511406 0.210315
0.319249 0.521614 0.212696
0.345052 0.532418 0.213993
0.371511 0.543359 0.21503
0.398352 0.554269 0.215976
0.425528 0.565179 0.21648
0.452888 0.575982 0.2168
0.480201 0.586725 0.216464
0.507408 0.597299 0.215854
0.534646 0.607752 0.21474
0.562097 0.618051 0.213184
0.58912 0.628061 0.2112
0.615976 0.637903 0.208408
0.642527 0.647456 0.205005
0.66865 0.65687 0.201022
0.694148 0.666117 0.196201
0.718868 0.675288 0.19057
0.743297 0.684352 0.183825
0.767224 0.693324 0.176181
0.79089 0.702205 0.167483
0.81181 0.708537 0.158618
0.829297 0.71133 0.150851
0.845731 0.712139 0.142809
0.869017 0.718059 0.131548
0.894942 0.72607 0.117403
0.920195 0.733272 0.100847
0.942962 0.736614 0.0864271
0.143771 0.529992 0.162417
0.179263 0.532998 0.171923
0.212085 0.536202 0.181781
0.243366 0.539483 0.191913
0.273274 0.542733 0.202274
0.3019 0.546212 0.21294
0.329305 0.550591 0.222461
0.355062 0.559457 0.225864
0.380789 0.569726 0.227466
0.406821 0.579919 0.228641
0.433112 0.590051 0.229725
0.459312 0.600214 0.230411
0.485679 0.610132 0.231159
0.512062 0.620005 0.231357
0.538247 0.629725 0.231296
0.56434 0.639216 0.230518
0.590249 0.648478 0.229664
0.615976 0.657633 0.228168
0.641032 0.666575 0.226108
0.665537 0.675425 0.223667
0.689586 0.684199 0.220096
0.712932 0.692866 0.216068
0.735805 0.701457 0.211353
0.758297 0.710079 0.205753
0.780575 0.718669 0.198932
0.802792 0.727214 0.191043
0.825132 0.735744 0.181537
0.84538 0.741985 0.172107
0.86244 0.744656 0.163272
0.878248 0.74519 0.153994
0.89897 0.749569 0.141527
0.922744 0.756985 0.125795
0.94583 0.764096 0.106569
0.184344 0.57203 0.170611
0.218173 0.574838 0.180636
0.25037 0.577691 0.190997
0.281209 0.580667 0.201678
0.310765 0.583627 0.212558
0.339422 0.586725 0.223606
0.366857 0.590219 0.234379
0.392828 0.596719 0.240558
0.417884 0.605783 0.24271
0.443153 0.615183 0.244266
0.468452 0.624475 0.245487
0.493629 0.633661 0.24683
0.518944 0.642618 0.247669
0.544106 0.651438 0.248188
0.569055 0.660182 0.248493
0.59382 0.668849 0.248341
0.61799 0.677317 0.247944
0.641733 0.685756 0.246921
0.664866 0.694163 0.24538
0.687373 0.70248 0.243275
0.709209 0.710765 0.240497
0.730739 0.719112 0.237201
0.751904 0.727398 0.232944
0.772869 0.73579 0.227756
0.793606 0.744121 0.221866
0.814725 0.752438 0.21442
0.836118 0.760662 0.205768
0.857649 0.768734 0.195956
0.877272 0.774655 0.185367
0.893462 0.777066 0.175235
0.908064 0.777142 0.16463
0.92607 0.780026 0.15079
0.947356 0.78648 0.132937
0.229786 0.612512 0.181155
0.261845 0.615045 0.191516
0.292714 0.617502 0.202411
0.322744 0.620081 0.213504
0.351507 0.62266 0.22472
0.379522 0.625437 0.236301
