src/colors/dark_&_moody/woodland_drama.cube
TITLE "Generated by Resolve"
LUT_3D_SIZE 5
0.0179446 0.0202335 0.024506
0.0238193 0.036408 0.0454719
0.0934005 0.0445716 0.047303
0.252155 0.0417639 0.0451972
0.542992 0 0.0348821
0.0401617 0.0805829 0.0809949
0.0737774 0.108858 0.0988479
0.192157 0.132586 0.0867933
0.465843 0.0824598 0.0793164
0.764401 0.0479896 0.0494087
0.0489509 0.23328 0.121614
0.171756 0.291615 0.150179
0.360983 0.37998 0.137209
0.651072 0.453758 0.0824903
0.903151 0.453254 0.0435645
0.143771 0.529992 0.162417
0.380789 0.569726 0.227466
0.590249 0.648478 0.229664
0.780575 0.718669 0.198932
0.94583 0.764096 0.106569
0.531304 0.818189 0.310124
0.668833 0.832502 0.42063
0.784161 0.867216 0.45713
0.899672 0.900893 0.446189
1 0.936538 0.325811
0.0179446 0.0305791 0.0450141
0.0239719 0.0420081 0.057496
0.0892348 0.0457465 0.0715496
0.230213 0.0504921 0.0779126
0.485512 0.0314336 0.0837415
0.0429999 0.0914626 0.0987106
0.0801251 0.120745 0.124483
0.147219 0.160525 0.153582
0.400397 0.14757 0.156588
0.701762 0.149065 0.142901
0.03888 0.264332 0.178866
0.233997 0.313054 0.255131
0.364843 0.392187 0.298726
0.612299 0.472206 0.277897
0.873793 0.476829 0.26627
0.146838 0.55465 0.2533
0.427604 0.577554 0.344381
0.617716 0.653483 0.3879
0.773556 0.724849 0.400977
0.927016 0.776242 0.378759
0.51931 0.827817 0.388006
0.67042 0.838544 0.505409
0.790249 0.866789 0.576196
0.895155 0.903395 0.591089
0.996841 0.938857 0.53756
0.017731 0.0400854 0.0946822
0.0327459 0.0517739 0.100252
0.0894331 0.0592203 0.128725
0.246647 0.0422522 0.143526
0.524254 0 0.12491
0.0175937 0.106493 0.150851
0.0873884 0.134691 0.156481
0.162844 0.17673 0.191226
0.348165 0.197589 0.229129
0.624674 0.214939 0.23595
0 0.300191 0.238117
0.258335 0.335897 0.301137
0.393271 0.4168 0.345556
0.544823 0.499413 0.390295
0.838895 0.501534 0.414176
0.00476081 0.593576 0.327382
0.455741 0.604944 0.423529
0.667369 0.666865 0.527398
0.759426 0.732464 0.591272
0.891478 0.79173 0.59057
0.466087 0.845396 0.470649
0.661616 0.850172 0.58352
0.803189 0.867048 0.667689
0.89749 0.906111 0.701701
0.986725 0.942321 0.691096
0 0.0535744 0.200732
0.0178225 0.0656443 0.208606
0.105516 0.0888075 0.239048
0.265583 0.0694896 0.286015
0.54403 0 0.298909
0 0.129641 0.259068
0.0538949 0.151217 0.273548
0.199954 0.205493 0.303487
0.380133 0.213779 0.343313
0.670863 0.166751 0.35256
0 0.317006 0.361898
0.134035 0.374151 0.38088
0.422889 0.441917 0.391272
0.57377 0.52549 0.440436
0.794217 0.535912 0.506783
0 0.614527 0.425895
0.358022 0.649195 0.482826
0.682643 0.68452 0.581811
0.771832 0.750225 0.637644
0.85182 0.809232 0.682872
0.0865797 0.876936 0.51397
0.620462 0.870527 0.641138
0.816358 0.872389 0.735058
0.91397 0.911498 0.791455
0.971237 0.946349 0.824338
0 0.0736858 0.366476
0 0.0860914 0.37583
0.113176 0.108507 0.403708
0.351202 0.147402 0.452552
0.592905 0.0486763 0.495186
0 0.167437 0.417777
0.000244144 0.177356 0.426993
0.241825 0.235111 0.451926
0.467155 0.301534 0.503532
0.689525 0.266316 0.545754
0 0.343099 0.482521
0.027039 0.381079 0.494133
0.409537 0.452522 0.539101
0.616678 0.520195 0.579599
0.789761 0.521248 0.586389
0 0.625849 0.604349
0.0355993 0.658595 0.618128
0.616449 0.707454 0.652125
0.785107 0.767742 0.67686
0.862089 0.824369 0.720928
0 0.898253 0.668421
0.378637 0.90338 0.686992
0.795468 0.896284 0.780453
0.925338 0.928054 0.828275
0.9682 0.947799 0.854063
