src/colors/dark_&_moody/woodland_drama.cube
TITLE "Generated by Resolve"
LUT_3D_SIZE 9
0.0179446 0.0202335 0.024506
0.0179904 0.032105 0.0406195
0.0238193 0.036408 0.0454719
0.0509957 0.0404364 0.0470436
0.0934005 0.0445716 0.047303
0.155703 0.0471351 0.046479
0.252155 0.0417639 0.0451972
0.384695 0.0179751 0.0419318
0.542992 0 0.0348821
0.0226444 0.047776 0.057496
0.028336 0.0561837 0.0653239
0.0385595 0.0652171 0.0710002
0.0758373 0.068574 0.067277
0.135317 0.0658427 0.0652323
0.218784 0.063859 0.0625772
0.336843 0.0510567 0.0590066
0.479545 0.018555 0.0529488
0.643122 6.10361e-05 0.0413367
0.0401617 0.0805829 0.0809949
0.0563668 0.0937819 0.0948196
0.0737774 0.108858 0.0988479
0.112245 0.124926 0.0929274
0.192157 0.132586 0.0867933
0.313466 0.121019 0.0826429
0.465843 0.0824598 0.0793164
0.614527 0.0571603 0.0684825
0.764401 0.0479896 0.0494087
0.0526436 0.135149 0.101503
0.0822003 0.15436 0.116564
0.1187 0.182177 0.124697
0.175555 0.21648 0.121767
0.263264 0.247578 0.109621
0.402457 0.267475 0.0955215
0.561486 0.25948 0.0850538
0.729549 0.236545 0.0746319
0.872877 0.20174 0.0662547
0.0489509 0.23328 0.121614
0.109651 0.25301 0.142809
0.171756 0.291615 0.150179
0.252216 0.333822 0.14992
0.360983 0.37998 0.137209
0.487953 0.417182 0.114382
0.651072 0.453758 0.0824903
0.788327 0.457694 0.061265
0.903151 0.453254 0.0435645
0.0519265 0.367498 0.140093
0.162997 0.381155 0.172335
0.252262 0.421027 0.182116
0.356207 0.467857 0.183139
0.474754 0.51725 0.17409
0.600809 0.566079 0.152255
0.713207 0.601465 0.119646
0.826764 0.633936 0.077348
0.924651 0.634745 0.0519265
0.143771 0.529992 0.162417
0.273274 0.542733 0.202274
0.380789 0.569726 0.227466
0.485679 0.610132 0.231159
0.590249 0.648478 0.229664
0.689586 0.684199 0.220096
0.780575 0.718669 0.198932
0.86244 0.744656 0.163272
0.94583 0.764096 0.106569
0.332158 0.686076 0.2112
0.439521 0.693599 0.257221
0.535103 0.703838 0.302342
0.616876 0.73164 0.310185
0.691707 0.761288 0.313237
0.762203 0.79144 0.30927
0.835065 0.819013 0.294759
0.908431 0.841856 0.264378
0.970138 0.856611 0.209934
0.531304 0.818189 0.310124
0.602686 0.824964 0.36022
0.668833 0.832502 0.42063
0.725643 0.84892 0.449561
0.784161 0.867216 0.45713
0.844205 0.883848 0.457908
0.899672 0.900893 0.446189
0.952468 0.920043 0.412406
1 0.936538 0.325811
0.0180056 0.0256657 0.0312047
0.0180362 0.0339818 0.0430457
0.020737 0.0398718 0.0505989
0.0463417 0.0434272 0.0563973
0.0851911 0.0498207 0.0600748
0.142885 0.0555581 0.0620737
0.233143 0.0543984 0.0626535
0.360632 0.036759 0.0614633
0.515984 0.0137942 0.0570535
0.0242466 0.0506447 0.0600137
0.0309453 0.0589303 0.0682841
0.0384375 0.0690776 0.0772717
0.0625925 0.0770123 0.0834211
0.120027 0.0765087 0.0842603
0.198718 0.0780804 0.0836652
0.311299 0.0719463 0.0823682
0.450111 0.0521553 0.0789349
0.613016 0.0179446 0.0710307
0.0467842 0.0850233 0.0909133
0.0621958 0.0989548 0.104463
0.0753948 0.114794 0.119005
0.0964065 0.133181 0.129793
0.172061 0.144564 0.122774
0.292927 0.134295 0.120058
0.435035 0.114458 0.116899
0.580911 0.104982 0.108232
0.735882 0.1028 0.0940566
0.0569619 0.143984 0.122103
0.0984817 0.162737 0.148287
0.136675 0.19173 0.173342
0.175387 0.223682 0.17995
0.250751 0.257328 0.170062
0.380575 0.279179 0.158801
0.538766 0.273777 0.150759
0.710414 0.252476 0.144732
0.851621 0.235767 0.136553
0.0518196 0.246632 0.150332
0.131121 0.261616 0.184237
0.198199 0.300237 0.205844
0.27097 0.340948 0.219974
0.362707 0.385046 0.218219
0.479255 0.424384 0.204654
0.634745 0.461509 0.187564
0.772747 0.467887 0.174914
0.889921 0.464942 0.165942
0.0610056 0.380697 0.177935
0.18529 0.393744 0.217075
0.281346 0.426764 0.24419
0.381125 0.473335 0.258228
0.487953 0.521935 0.262333
0.6009 0.569833 0.254398
0.70692 0.606729 0.238575
0.815793 0.638727 0.221698
0.913619 0.642145 0.208698
0.153262 0.540612 0.208469
0.291356 0.552316 0.251301
0.403983 0.571832 0.290257
0.505058 0.612314 0.302998
0.602518 0.650675 0.311528
0.693233 0.686625 0.312749
0.777783 0.721584 0.304219
0.856474 0.748821 0.285893
0.938018 0.770199 0.258991
0.335317 0.691814 0.257557
0.448493 0.698375 0.303136
0.547173 0.70631 0.35288
0.627314 0.731777 0.37377
0.698299 0.762173 0.385336
0.765164 0.792966 0.390845
0.834592 0.820981 0.386709
0.904189 0.844068 0.368872
0.96379 0.859373 0.332509
0.528634 0.822156 0.348516
0.603128 0.828138 0.400595
0.670726 0.834943 0.463004
0.729442 0.848478 0.505486
0.786954 0.867094 0.517769
0.844831 0.884291 0.524529
0.897261 0.902144 0.521035
0.947951 0.922347 0.500084
1 0.937591 0.432609
0.0179446 0.0305791 0.0450141
0.0180667 0.0362097 0.0480354
0.0239719 0.0420081 0.057496
0.0464485 0.045594 0.0672923
0.0892348 0.0457465 0.0715496
0.148196 0.0460517 0.0727703
0.230213 0.0504921 0.0779126
0.342245 0.0500038 0.0827039
0.485512 0.0314336 0.0837415
0.0238804 0.0539406 0.0650492
0.0328985 0.0624094 0.0712596
0.0416114 0.072694 0.0806439
0.0570077 0.0841077 0.0923018
0.108629 0.0872969 0.102159
0.181155 0.0923781 0.106569
0.286427 0.0924392 0.1093
0.418723 0.0841688 0.109804
0.578119 0.0663615 0.10631
0.0429999 0.0914626 0.0987106
0.0666819 0.103899 0.109209
0.0801251 0.120745 0.124483
0.0965896 0.140749 0.141665
0.147219 0.160525 0.153582
0.272023 0.150011 0.157992
0.400397 0.14757 0.156588
0.543694 0.146166 0.151843
0.701762 0.149065 0.142901
0.0503395 0.15671 0.139391
0.11429 0.172564 0.166583
0.15108 0.202426 0.189548
0.181308 0.234195 0.213031
0.226352 0.269001 0.229541
0.35021 0.296162 0.220554
0.511742 0.290944 0.216617
0.687663 0.270268 0.216129
0.821363 0.276387 0.205402
0.03888 0.264332 0.178866
0.149508 0.275395 0.219364
0.233997 0.313054 0.255131
0.303792 0.352346 0.289815
0.364843 0.392187 0.298726
0.466621 0.434943 0.288655
0.612299 0.472206 0.277897
0.753094 0.479438 0.269917
0.873793 0.476829 0.26627
0.0503853 0.398062 0.216587
0.203906 0.409445 0.2598
0.313878 0.435096 0.300587
0.414328 0.481743 0.326772
0.506371 0.52813 0.34313
0.600397 0.574426 0.344167
0.698528 0.613733 0.335561
0.802106 0.645274 0.328298
0.89987 0.650385 0.319921
0.146838 0.55465 0.2533
0.304814 0.564614 0.297337
0.427604 0.577554 0.344381
0.527291 0.615412 0.368536
0.617716 0.653483 0.3879
0.697597 0.689448 0.399924
0.773556 0.724849 0.400977
0.848524 0.753933 0.392004
0.927016 0.776242 0.378759
0.329091 0.699825 0.301457
0.452705 0.705028 0.347127
0.556878 0.711711 0.399725
0.637629 0.731868 0.438651
0.704982 0.762966 0.460929
0.767742 0.7944 0.477668
0.832425 0.82295 0.484474
0.897032 0.846464 0.478172
0.953857 0.86247 0.455299
0.51931 0.827817 0.388006
0.599283 0.832685 0.442588
0.67042 0.838544 0.505409
0.73315 0.847929 0.560235
0.790249 0.866789 0.576196
0.845899 0.884565 0.587549
0.895155 0.903395 0.591089
0.943389 0.924849 0.581659
0.996841 0.938857 0.53756
0.0178683 0.0351873 0.0657664
0.0187686 0.040116 0.0666972
0.028687 0.0463874 0.0728161
0.0487068 0.0501717 0.0846571
0.0871748 0.0518654 0.0951095
0.150866 0.0480354 0.0990616
0.246098 0.0301518 0.0957046
0.361303 0.0176242 0.0961166
0.4963 0.00883497 0.1028
0.0182345 0.0595712 0.0839399
0.0327764 0.0666972 0.0840772
0.0465553 0.0764019 0.0886549
0.067277 0.0863661 0.104356
0.11104 0.0913405 0.118486
0.183078 0.0921492 0.127428
0.28191 0.093019 0.134493
0.400244 0.0964675 0.140658
0.544015 0.101671 0.143404
0.0194247 0.0999008 0.116091
0.0666209 0.109545 0.11928
0.08542 0.127245 0.130053
0.103014 0.148028 0.147814
0.136263 0.172442 0.169299
0.253971 0.169406 0.189487
0.369329 0.175982 0.194415
0.505852 0.181216 0.195331
0.663523 0.187564 0.191623
0.0188754 0.172122 0.156283
0.109438 0.180682 0.183017
0.160861 0.212757 0.197345
0.192584 0.245609 0.221439
0.228275 0.280354 0.246876
0.314168 0.315557 0.26511
0.484291 0.311131 0.273198
0.655375 0.297642 0.276616
0.787411 0.311894 0.267674
0.0039826 0.28632 0.202579
0.152255 0.294423 0.24596
0.264912 0.32697 0.280781
0.327489 0.365545 0.310155
0.376104 0.40354 0.336629
0.440406 0.444739 0.354162
0.580591 0.484794 0.347372
0.729931 0.49366 0.345251
0.856321 0.489158 0.347372
0.0105592 0.42005 0.254307
0.209689 0.429053 0.296376
0.343648 0.445548 0.343816
0.458885 0.494697 0.378164
0.539986 0.53846 0.414084
0.600076 0.580102 0.425544
0.684977 0.621454 0.419776
0.783459 0.653513 0.418189
0.882872 0.660258 0.413855
0.106645 0.572244 0.294591
0.306676 0.579889 0.337133
0.446723 0.589288 0.387228
0.552331 0.620478 0.426856
0.638773 0.658152 0.463218
0.704265 0.693233 0.491157
0.766751 0.728405 0.501625
0.836835 0.760723 0.499321
0.911116 0.783841 0.495476
0.305333 0.710323 0.341848
0.448173 0.713924 0.388403
0.563424 0.718868 0.446082
0.647929 0.73257 0.503182
0.713161 0.764553 0.534783
0.772442 0.796323 0.561074
0.830793 0.825101 0.575982
0.888624 0.849088 0.577829
0.941634 0.866331 0.567071
0.500603 0.835477 0.428733
0.589837 0.839033 0.484916
0.667796 0.843442 0.546502
0.73727 0.84921 0.604837
0.795682 0.866651 0.626291
0.849241 0.884947 0.640803
0.895216 0.904692 0.649454
0.94081 0.927535 0.648157
0.992081 0.940444 0.621637
0.017731 0.0400854 0.0946822
0.018265 0.0450141 0.0953384
0.0327459 0.0517739 0.100252
0.0542153 0.0591897 0.111681
0.0894331 0.0592203 0.128725
0.149844 0.0569619 0.140505
0.246647 0.0422522 0.143526
0.378058 0.0145266 0.138872
0.524254 0 0.12491
0.0178225 0.067155 0.115526
0.0277104 0.0719921 0.116228
0.0500954 0.0820478 0.120546
0.0736248 0.0917067 0.134279
0.115175 0.0974594 0.151995
0.189364 0.0976883 0.166293
0.298894 0.0840772 0.171405
0.426642 0.052903 0.16759
0.569818 0.0259861 0.170092
0.0175937 0.106493 0.150851
0.0427405 0.118776 0.154284
0.0873884 0.134691 0.156481
0.113664 0.156222 0.162478
0.162844 0.17673 0.191226
0.246235 0.187121 0.21677
0.348165 0.197589 0.229129
0.475746 0.204532 0.235065
0.624674 0.214939 0.23595
0.000228885 0.180163 0.196963
0.0600137 0.203189 0.205188
0.162478 0.223011 0.21326
0.204303 0.257313 0.229938
0.241276 0.292226 0.255848
0.301976 0.329534 0.285115
0.468009 0.329259 0.315328
0.620264 0.326802 0.322164
0.751995 0.340154 0.317739
0 0.300191 0.238117
0.105241 0.321675 0.268513
0.258335 0.335897 0.301137
0.343679 0.378225 0.319265
0.393271 0.4168 0.345556
0.44509 0.456657 0.37116
0.544823 0.499413 0.390295
0.706172 0.51075 0.402502
0.838895 0.501534 0.414176
0 0.441505 0.279149
0.182177 0.454398 0.328237
0.357519 0.461753 0.372641
0.495628 0.509896 0.40412
0.563775 0.552102 0.436088
0.607645 0.58999 0.468254
0.658427 0.627375 0.494057
0.755276 0.661585 0.496666
0.860822 0.672587 0.501625
0.00476081 0.593576 0.327382
0.283238 0.599115 0.372229
0.455741 0.604944 0.423529
0.575082 0.627756 0.476875
0.667369 0.666865 0.527398
0.720287 0.700023 0.574899
0.759426 0.732464 0.591272
0.820249 0.766766 0.590158
0.891478 0.79173 0.59057
0.246723 0.723674 0.381369
0.43064 0.725536 0.42948
0.563806 0.728588 0.490867
0.657023 0.736355 0.557214
0.724758 0.767971 0.594965
0.784131 0.799695 0.62678
0.834501 0.827848 0.646891
0.882429 0.852018 0.652995
0.931426 0.87129 0.648325
0.466087 0.845396 0.470649
0.572 0.84741 0.525551
0.661616 0.850172 0.58352
0.740322 0.854063 0.636622
0.803189 0.867048 0.667689
0.854963 0.885618 0.686183
0.89749 0.906111 0.701701
0.939986 0.930388 0.70837
0.986725 0.942321 0.691096
0.0124666 0.0459449 0.13875
0.0177615 0.0509651 0.139803
0.0289006 0.0578622 0.145083
0.0583505 0.067689 0.156024
0.096376 0.0736553 0.175158
0.155978 0.06804 0.195865
0.25034 0.0545968 0.207721
0.378912 0.0189517 0.209094
0.53608 0 0.201938
0.0144503 0.0756237 0.163317
0.0179294 0.078294 0.163943
0.0463569 0.088777 0.1682
0.0812543 0.103029 0.180117
0.125887 0.110674 0.202243
0.193866 0.110353 0.221744
0.301228 0.101427 0.236347
0.433799 0.0724346 0.237903
0.596033 0.00793469 0.230976
0.00527962 0.116167 0.196094
0.0229953 0.127535 0.200565
0.0754864 0.142885 0.208698
0.125872 0.165454 0.220768
0.181613 0.180362 0.2365
0.263249 0.189761 0.256168
0.372168 0.188678 0.270985
0.50454 0.175326 0.274907
0.650187 0.161761 0.273198
0 0.189746 0.251164
0.0169375 0.211536 0.259251
0.12015 0.241459 0.264988
0.211261 0.268864 0.267475
0.262318 0.304997 0.276127
0.340002 0.338354 0.31371
0.47248 0.338628 0.348943
0.59173 0.348516 0.355718
0.717922 0.359274 0.35465
0 0.305364 0.297093
0.00321965 0.333974 0.307683
0.230686 0.359884 0.332845
0.348562 0.389563 0.336751
0.410758 0.430167 0.354314
0.462989 0.470466 0.379965
0.536355 0.513924 0.409598
0.690883 0.527337 0.44712
0.817914 0.518944 0.468238
0 0.450202 0.332052
0.016556 0.477714 0.352346
0.338323 0.490547 0.396185
0.487816 0.518975 0.424216
0.579126 0.565209 0.44651
0.621729 0.602289 0.480003
0.659907 0.63679 0.515633
0.727779 0.671763 0.546304
0.838209 0.686641 0.569345
0 0.610849 0.358862
0.150332 0.622034 0.395895
0.443366 0.625116 0.457435
0.584421 0.635142 0.516915
0.690898 0.678065 0.56022
0.734371 0.710277 0.598474
0.762463 0.740139 0.628443
0.79826 0.771344 0.648417
0.869444 0.798978 0.650538
0.0190433 0.74165 0.396948
0.383398 0.740536 0.47155
0.551202 0.741558 0.531136
0.660685 0.746334 0.594858
0.737453 0.773693 0.635645
0.805524 0.806226 0.670512
0.847883 0.832425 0.701823
0.877867 0.855253 0.713573
0.920226 0.876097 0.711498
0.398672 0.857847 0.511604
0.538476 0.858152 0.562737
0.648417 0.859159 0.614725
0.740993 0.860777 0.663615
0.81117 0.868574 0.703426
0.862425 0.887373 0.726696
0.902815 0.908064 0.751507
0.941115 0.933471 0.768688
0.978729 0.944183 0.761212
0 0.0535744 0.200732
0.00572213 0.0585184 0.202487
0.0178225 0.0656443 0.208606
0.0523079 0.0756085 0.220356
0.105516 0.0888075 0.239048
0.17435 0.0877394 0.265126
0.265583 0.0694896 0.286015
0.386694 0.0352483 0.295201
0.54403 0 0.298909
0 0.0833143 0.227192
0.00700389 0.086717 0.22884
0.0270085 0.0972457 0.234073
0.0816358 0.111711 0.245899
0.143389 0.131075 0.26598
0.218936 0.131884 0.293324
0.308934 0.122255 0.309026
0.442603 0.099794 0.323735
0.600275 0.0399939 0.325307
0 0.129641 0.259068
0.0129244 0.141436 0.265904
0.0538949 0.151217 0.273548
0.129366 0.175158 0.284321
0.199954 0.205493 0.303487
0.275807 0.211856 0.326055
0.380133 0.213779 0.343313
0.514305 0.202579 0.352773
0.670863 0.166751 0.35256
0 0.199451 0.305104
0.0011902 0.218891 0.311513
0.0912947 0.245396 0.321187
0.204257 0.280537 0.336553
0.293614 0.311192 0.348989
0.374731 0.331762 0.360876
0.470741 0.343633 0.375799
0.591165 0.34345 0.38555
0.717678 0.341085 0.387884
0 0.317006 0.361898
0 0.342245 0.371557
0.134035 0.374151 0.38088
0.32694 0.405798 0.392065
0.422889 0.441917 0.391272
0.489662 0.484916 0.400015
0.57377 0.52549 0.440436
0.698558 0.532815 0.49012
0.794217 0.535912 0.506783
0 0.452735 0.397879
0 0.481346 0.407507
0.218692 0.516335 0.423392
0.466468 0.530312 0.463416
0.582498 0.575906 0.46659
0.635248 0.614328 0.491997
0.67158 0.647898 0.527916
0.71899 0.681559 0.568399
0.823926 0.699504 0.614023
0 0.614527 0.425895
0 0.635706 0.442267
0.358022 0.649195 0.482826
0.574853 0.651637 0.548684
0.682643 0.68452 0.581811
0.743969 0.720378 0.609064
0.771832 0.750225 0.637644
0.79939 0.779477 0.662898
0.85182 0.809232 0.682872
0 0.755367 0.45597
0.177081 0.759106 0.48838
0.510811 0.758495 0.567468
0.652216 0.761303 0.622538
0.742275 0.779461 0.663767
0.824399 0.815137 0.691844
0.858808 0.839826 0.718746
0.879698 0.860609 0.744167
0.904341 0.880751 0.763867
0.0865797 0.876936 0.51397
0.458381 0.872572 0.588891
0.620462 0.870527 0.641138
0.734478 0.870054 0.686915
0.816358 0.872389 0.735058
0.869642 0.890944 0.76051
0.91397 0.911498 0.791455
0.94934 0.936797 0.820951
0.971237 0.946349 0.824338
0 0.0626078 0.27895
0 0.0676585 0.281514
0.000747692 0.0749371 0.288258
0.0278935 0.0847028 0.300328
0.108965 0.0975509 0.318456
0.200702 0.114549 0.342199
0.30045 0.0988937 0.368566
0.413001 0.0613107 0.385382
0.559228 0.0103609 0.39707
0 0.0919203 0.304601
0 0.0966964 0.306981
0.00869764 0.107439 0.312917
0.0702678 0.122118 0.324392
0.158419 0.142428 0.342306
0.251194 0.168612 0.366339
0.351965 0.156466 0.392432
0.45951 0.134508 0.405035
0.615824 0.0918746 0.422583
0 0.14789 0.335195
0 0.155322 0.340185
0.0191196 0.162036 0.346868
0.125322 0.186908 0.357015
0.221424 0.219821 0.373327
0.314275 0.252384 0.396292
0.414313 0.246525 0.420722
0.530983 0.237461 0.435355
0.677943 0.214435 0.447028
0 0.215396 0.363958
0 0.233463 0.369848
0.0716869 0.259815 0.383169
0.195682 0.286122 0.39881
0.306569 0.325399 0.413672
0.399512 0.354696 0.434409
0.496239 0.357595 0.448844
0.61648 0.35436 0.459968
0.742214 0.340246 0.462821
0 0.324758 0.416785
0 0.346441 0.424155
0.0955825 0.373831 0.434379
0.273655 0.409766 0.44921
0.420951 0.45597 0.46952
0.531655 0.490974 0.481743
0.621729 0.514931 0.505043
0.697093 0.530877 0.526009
0.769238 0.541375 0.531609
0 0.466484 0.472847
0 0.489586 0.482994
0.101717 0.519188 0.494438
0.364446 0.556512 0.504723
0.558526 0.57908 0.537301
0.640787 0.623438 0.537377
0.68838 0.659068 0.553811
0.740764 0.690669 0.601816
0.828443 0.704509 0.648539
0 0.613779 0.50927
0 0.635493 0.518288
0.184894 0.658595 0.534524
0.508629 0.677256 0.573526
0.661936 0.68513 0.621714
0.744945 0.728634 0.626093
0.781323 0.760281 0.64654
0.808545 0.789044 0.670954
0.845655 0.817075 0.697368
0 0.758022 0.544091
0 0.76875 0.558877
0.36585 0.777127 0.586542
0.618738 0.780163 0.646571
0.735821 0.78584 0.688533
0.818601 0.821195 0.706477
0.866209 0.84712 0.72726
0.886213 0.867308 0.753017
0.905135 0.886931 0.779049
0 0.891524 0.585855
0.243275 0.890486 0.608682
0.523018 0.887297 0.648173
0.710994 0.882429 0.708476
0.813672 0.882139 0.758526
0.871962 0.896345 0.78909
0.926589 0.918135 0.811612
0.960784 0.944869 0.834989
0.968673 0.94754 0.849134
0 0.0736858 0.366476
0 0.0788128 0.369238
0 0.0860914 0.37583
0.00927749 0.0957198 0.387167
0.113176 0.108507 0.403708
0.231296 0.127153 0.425879
0.351202 0.147402 0.452552
0.472892 0.112612 0.480018
0.592905 0.0486763 0.495186
0 0.102556 0.38996
0 0.108995 0.392126
0 0.120073 0.397971
0.0527657 0.135241 0.40856
0.174334 0.156466 0.42472
0.289845 0.187671 0.447257
0.404761 0.212314 0.474891
0.523583 0.186664 0.503548
0.635218 0.151629 0.515862
0 0.167437 0.417777
0 0.169574 0.420798
0.000244144 0.177356 0.426993
0.120226 0.202411 0.436591
0.241825 0.235111 0.451926
0.35845 0.276509 0.474922
0.467155 0.301534 0.503532
0.57882 0.284062 0.532479
0.689525 0.266316 0.545754
0 0.242206 0.440452
0 0.25977 0.448051
0.0569009 0.283146 0.4607
0.181979 0.295537 0.473136
0.3187 0.334447 0.488457
0.439857 0.38146 0.512581
0.537606 0.402853 0.540261
0.631998 0.395895 0.558877
0.743221 0.389242 0.572335
0 0.343099 0.482521
0 0.360067 0.487098
0.027039 0.381079 0.494133
0.241199 0.41091 0.509041
0.409537 0.452522 0.539101
0.536126 0.505714 0.565316
0.616678 0.520195 0.579599
0.701839 0.52314 0.582422
0.789761 0.521248 0.586389
0 0.477394 0.546014
0 0.495674 0.553796
0.025803 0.51931 0.565194
0.314168 0.551583 0.581811
0.504891 0.593347 0.604089
0.637537 0.630106 0.624414
0.710582 0.666239 0.636133
0.774365 0.68925 0.658701
0.844663 0.698009 0.683803
0 0.625849 0.604349
0 0.640772 0.610712
0.0355993 0.658595 0.618128
0.371054 0.681788 0.626932
0.616449 0.707454 0.652125
0.723476 0.728038 0.675517
0.785107 0.767742 0.67686
0.821729 0.798505 0.687755
0.862089 0.824369 0.720928
0 0.75819 0.634333
0 0.770413 0.638911
0.150179 0.782483 0.647227
0.504936 0.797147 0.663737
0.707317 0.8056 0.707973
0.801053 0.822629 0.736782
0.867094 0.853269 0.741802
0.892744 0.87396 0.761929
0.911711 0.89395 0.787823
0 0.898253 0.668421
0 0.901503 0.675563
0.378637 0.90338 0.686992
0.617182 0.901137 0.714534
0.795468 0.896284 0.780453
0.869169 0.902617 0.820218
0.925338 0.928054 0.828275
0.967208 0.946532 0.83949
0.9682 0.947799 0.854063
